P3
400 200
255
0 255 0
0 255 0
1 255 0
1 255 0
2 255 0
3 255 0
3 255 0
4 255 0
5 255 0
5 255 0
6 255 0
7 255 0
7 255 0
8 255 0
8 255 0
9 255 0
10 255 0
10 255 0
11 255 0
12 255 0
12 255 0
13 255 0
14 255 0
14 255 0
15 255 0
15 255 0
16 255 0
17 255 0
17 255 0
18 254 0
19 255 0
19 255 0
20 255 0
21 255 0
21 255 0
22 255 0
23 255 0
23 255 0
24 255 0
24 255 0
25 255 0
26 254 0
26 255 0
27 255 0
28 255 0
28 255 0
29 255 0
30 255 0
30 255 0
31 255 0
31 255 0
32 255 0
33 255 0
33 255 0
34 255 0
35 255 0
35 255 0
36 255 0
37 255 0
37 255 0
38 255 0
38 255 0
39 255 0
40 255 0
40 255 0
41 255 0
42 255 0
42 255 0
43 255 0
44 255 0
44 255 0
45 255 0
46 255 0
46 255 0
47 255 0
47 255 0
48 255 0
49 255 0
49 255 0
50 255 0
51 255 0
51 255 0
52 255 0
53 255 0
53 255 0
54 255 0
54 255 0
55 255 0
56 255 0
56 255 0
57 255 0
58 255 0
58 255 0
59 255 0
60 255 0
60 255 0
61 255 0
61 254 0
62 255 0
63 255 0
63 255 0
64 255 0
65 255 0
65 255 0
66 255 0
67 255 0
67 255 0
68 255 0
69 255 0
69 254 0
70 255 0
70 255 0
71 255 0
72 255 0
72 255 0
73 255 0
74 255 0
74 255 0
75 255 0
76 255 0
76 255 0
77 254 0
77 255 0
78 255 0
79 255 0
79 255 0
80 255 0
81 255 0
81 255 0
82 255 0
83 255 0
83 255 0
84 255 0
85 254 0
85 255 0
86 255 0
86 255 0
87 255 0
88 255 0
88 255 0
89 255 0
90 255 0
90 255 0
91 255 0
92 255 0
92 254 0
93 255 0
93 255 0
94 255 0
95 255 0
95 255 0
96 255 0
97 255 0
97 255 0
98 255 0
99 255 0
99 255 0
100 255 0
100 255 0
101 255 0
102 255 0
102 255 0
103 255 0
104 255 0
104 255 0
105 255 0
106 255 0
106 255 0
107 255 0
108 255 0
108 255 0
109 255 0
109 255 0
110 254 0
111 255 0
111 255 0
112 255 0
113 255 0
113 255 0
114 255 0
115 255 0
115 255 0
116 255 0
116 255 0
117 255 0
118 254 0
118 255 0
119 255 0
120 255 0
120 255 0
121 255 0
122 255 0
122 255 0
123 255 0
123 255 0
124 255 0
125 255 0
125 254 0
126 255 0
127 255 0
127 255 0
128 255 0
129 255 0
129 255 0
130 255 0
131 255 0
131 255 0
132 255 0
132 255 0
133 255 0
134 255 0
134 255 0
135 255 0
136 255 0
136 255 0
137 255 0
138 255 0
138 255 0
139 255 0
139 255 0
140 255 0
141 255 0
141 255 0
142 255 0
143 255 0
143 255 0
144 255 0
145 255 0
145 255 0
146 255 0
146 255 0
147 255 0
148 255 0
148 255 0
149 255 0
150 255 0
150 255 0
151 255 0
152 255 0
152 255 0
153 255 0
154 255 0
154 255 0
155 255 0
155 255 0
156 255 0
157 255 0
157 255 0
158 255 0
159 255 0
159 255 0
160 255 0
161 255 0
161 255 0
162 255 0
162 255 0
163 255 0
164 255 0
164 255 0
165 255 0
166 255 0
166 255 0
167 255 0
168 255 0
168 255 0
169 255 0
170 255 0
170 255 0
171 255 0
171 255 0
172 255 0
173 255 0
173 255 0
174 255 0
175 255 0
175 255 0
176 255 0
177 255 0
177 255 0
178 255 0
178 255 0
179 255 0
180 255 0
180 255 0
181 255 0
182 255 0
182 255 0
183 255 0
184 255 0
184 255 0
185 255 0
185 255 0
186 255 0
187 255 0
187 255 0
188 255 0
189 255 0
189 255 0
190 255 0
191 255 0
191 255 0
192 255 0
193 255 0
193 255 0
194 255 0
194 255 0
195 255 0
196 255 0
196 255 0
197 255 0
198 255 0
198 255 0
199 255 0
200 255 0
200 255 0
201 255 0
201 255 0
202 255 0
203 255 0
203 255 0
204 255 0
205 255 0
205 255 0
206 255 0
207 255 0
207 255 0
208 255 0
208 255 0
209 255 0
210 255 0
210 255 0
211 255 0
212 255 0
212 255 0
213 255 0
214 255 0
214 255 0
215 255 0
216 255 0
216 255 0
217 255 0
217 255 0
218 255 0
219 255 0
219 255 0
220 255 0
221 255 0
221 255 0
222 255 0
223 255 0
223 255 0
224 255 0
224 255 0
225 255 0
226 255 0
226 255 0
227 255 0
228 255 0
228 255 0
229 255 0
230 255 0
230 255 0
231 255 0
231 255 0
232 255 0
233 255 0
233 255 0
234 255 0
235 255 0
235 255 0
236 255 0
237 255 0
237 255 0
238 255 0
239 255 0
239 255 0
240 255 0
240 255 0
241 255 0
242 255 0
242 255 0
243 255 0
244 255 0
244 255 0
245 255 0
246 255 0
246 255 0
247 255 0
247 255 0
248 255 0
249 255 0
249 255 0
250 255 0
251 255 0
251 255 0
252 255 0
253 255 0
253 255 0
254 255 0
255 255 0
1 253 0
1 253 0
2 253 0
3 253 0
3 253 0
4 253 0
5 253 0
5 253 0
6 253 0
6 253 0
7 253 0
8 253 0
8 253 0
9 253 0
10 253 0
10 253 0
11 253 0
12 253 0
12 253 0
13 253 0
13 253 0
14 253 0
15 253 0
15 253 0
16 253 0
17 253 0
17 253 0
18 253 0
18 253 0
19 253 0
20 253 0
20 253 0
21 253 0
22 253 0
22 253 0
23 253 0
24 253 0
24 253 0
25 253 0
25 253 0
26 253 0
27 253 0
27 253 0
28 253 0
29 253 0
29 253 0
30 253 0
31 253 0
31 253 0
32 253 0
32 253 0
33 253 0
34 253 0
34 253 0
35 253 0
36 253 0
36 253 0
37 253 0
37 253 0
38 253 0
39 253 0
39 253 0
40 253 0
41 253 0
41 253 0
42 253 0
43 253 0
43 253 0
44 253 0
44 253 0
45 253 0
46 253 0
46 253 0
47 253 0
48 253 0
48 253 0
49 253 0
49 253 0
50 253 0
51 253 0
51 253 0
52 253 0
53 253 0
53 253 0
54 253 0
55 253 0
55 253 0
56 253 0
56 253 0
57 253 0
58 253 0
58 253 0
59 253 0
60 253 0
60 253 0
61 253 0
62 253 0
62 253 0
63 253 0
63 253 0
64 253 0
65 253 0
65 253 0
66 253 0
67 253 0
67 253 0
68 253 0
68 253 0
69 253 0
70 253 0
70 253 0
71 253 0
72 253 0
72 253 0
73 253 0
74 253 0
74 253 0
75 253 0
75 253 0
76 253 0
77 253 0
77 253 0
78 253 0
79 253 0
79 253 0
80 253 0
80 253 0
81 253 0
82 253 0
82 253 0
83 253 0
84 253 0
84 253 0
85 253 0
86 253 0
86 253 0
87 253 0
87 253 0
88 253 0
89 253 0
89 253 0
90 253 0
91 253 0
91 253 0
92 253 0
93 253 0
93 253 0
94 253 0
94 253 0
95 253 0
96 253 0
96 253 0
97 253 0
98 253 0
98 253 0
99 253 0
99 253 0
100 253 0
101 253 0
101 253 0
102 253 0
103 253 0
103 253 0
104 253 0
105 253 0
105 253 0
106 253 0
106 253 0
107 253 0
108 253 0
108 253 0
109 253 0
110 253 0
110 253 0
111 253 0
111 253 0
112 253 0
113 253 0
113 253 0
114 253 0
115 253 0
115 253 0
116 253 0
117 253 0
117 253 0
118 253 0
118 253 0
119 253 0
120 253 0
120 253 0
121 253 0
122 253 0
122 253 0
123 253 0
124 253 0
124 253 0
125 253 0
125 253 0
126 253 0
127 253 0
127 253 0
128 253 0
129 253 0
129 253 0
130 253 0
130 253 0
131 253 0
132 253 0
132 253 0
133 253 0
134 253 0
134 253 0
135 253 0
136 253 0
136 253 0
137 253 0
137 253 0
138 253 0
139 253 0
139 253 0
140 253 0
141 253 0
141 253 0
142 253 0
143 253 0
143 253 0
144 253 0
144 253 0
145 253 0
146 253 0
146 253 0
147 253 0
148 253 0
148 253 0
149 253 0
149 253 0
150 253 0
151 253 0
151 253 0
152 253 0
153 253 0
153 253 0
154 253 0
155 253 0
155 253 0
156 253 0
156 253 0
157 253 0
158 253 0
158 253 0
159 253 0
160 253 0
160 253 0
161 253 0
161 253 0
162 253 0
163 253 0
163 253 0
164 253 0
165 253 0
165 253 0
166 253 0
167 253 0
167 253 0
168 253 0
168 253 0
169 253 0
170 253 0
170 253 0
171 253 0
172 253 0
172 253 0
173 253 0
174 253 0
174 253 0
175 253 0
175 253 0
176 253 0
177 253 0
177 253 0
178 253 0
179 253 0
179 253 0
180 253 0
180 253 0
181 253 0
182 253 0
182 253 0
183 253 0
184 253 0
184 253 0
185 253 0
186 253 0
186 253 0
187 253 0
187 253 0
188 253 0
189 253 0
189 253 0
190 253 0
191 253 0
191 253 0
192 253 0
192 253 0
193 253 0
194 253 0
194 253 0
195 253 0
196 253 0
196 253 0
197 253 0
198 253 0
198 253 1
199 253 1
199 253 1
200 253 1
201 253 1
201 253 1
202 253 1
203 253 1
203 253 1
204 253 1
205 253 1
205 253 1
206 253 1
206 253 1
207 253 1
208 253 1
208 253 1
209 253 1
210 253 1
210 253 1
211 253 1
211 253 1
212 253 1
213 253 1
213 253 1
214 253 1
215 253 1
215 253 1
216 253 1
217 253 1
217 253 1
218 253 1
218 253 1
219 253 1
220 253 1
220 253 1
221 253 1
222 253 1
222 253 1
223 253 1
223 253 1
224 253 1
225 253 1
225 253 1
226 253 1
227 253 1
227 253 1
228 253 1
229 253 1
229 253 1
230 253 1
230 253 1
231 253 1
232 253 1
232 253 1
233 253 1
234 253 1
234 253 1
235 253 1
236 253 1
236 253 1
237 253 1
237 253 1
238 253 1
239 253 1
239 253 1
240 253 1
241 253 1
241 253 1
242 253 1
242 253 1
243 253 1
244 253 1
244 253 1
245 253 1
246 253 1
246 253 1
247 253 1
248 253 1
248 253 1
249 253 1
249 253 1
250 253 1
251 253 1
251 253 1
252 253 1
253 253 1
253 253 1
2 252 0
3 252 0
3 252 0
4 252 0
5 252 0
5 252 0
6 252 0
6 252 0
7 252 0
8 252 0
8 252 0
9 252 0
10 252 0
10 252 0
11 252 0
11 252 0
12 252 0
13 252 0
13 252 0
14 252 0
15 252 0
15 252 0
16 252 0
16 252 0
17 252 0
18 252 0
18 252 0
19 252 0
20 252 0
20 252 0
21 252 0
21 252 0
22 252 0
23 252 0
23 252 0
24 252 0
25 252 0
25 252 0
26 252 0
26 252 0
27 252 0
28 252 0
28 252 0
29 252 0
30 252 0
30 252 0
31 252 0
31 252 0
32 252 0
33 252 0
33 252 0
34 252 0
35 252 0
35 252 0
36 252 0
37 252 0
37 252 0
38 252 0
38 252 0
39 252 0
40 252 0
40 252 0
41 252 0
42 252 0
42 252 0
43 252 0
43 252 0
44 252 0
45 252 0
45 252 0
46 252 0
47 252 0
47 252 0
48 252 0
48 252 0
49 252 0
50 252 0
50 252 0
51 252 0
52 252 0
52 252 0
53 252 0
53 252 0
54 252 0
55 252 0
55 252 0
56 252 0
57 252 0
57 252 0
58 252 0
58 252 0
59 252 0
60 252 0
60 252 0
61 252 0
62 252 0
62 252 0
63 252 0
63 252 0
64 252 0
65 252 0
65 252 0
66 252 0
67 252 0
67 252 0
68 252 0
68 252 0
69 252 0
70 252 0
70 252 0
71 252 0
72 252 0
72 252 0
73 252 0
73 252 0
74 252 0
75 252 0
75 252 0
76 252 0
77 252 0
77 252 0
78 252 0
78 252 0
79 252 0
80 252 0
80 252 0
81 252 0
82 252 0
82 252 0
83 252 0
83 252 0
84 252 0
85 252 0
85 252 0
86 252 0
87 252 0
87 252 0
88 252 0
88 252 0
89 252 0
90 252 0
90 252 0
91 252 0
92 252 0
92 252 0
93 252 0
93 252 0
94 252 0
95 252 0
95 252 0
96 252 0
97 252 0
97 252 0
98 252 0
99 252 0
99 252 0
100 252 1
100 252 1
101 252 1
102 252 1
102 252 1
103 252 1
104 252 1
104 252 1
105 252 1
105 252 1
106 252 1
107 252 1
107 252 1
108 252 1
109 252 1
109 252 1
110 252 1
110 252 1
111 252 1
112 252 1
112 252 1
113 252 1
114 252 1
114 252 1
115 252 1
115 252 1
116 252 1
117 252 1
117 252 1
118 252 1
119 252 1
119 252 1
120 252 1
120 252 1
121 252 1
122 252 1
122 252 1
123 252 1
124 252 1
124 252 1
125 252 1
125 252 1
126 252 1
127 252 1
127 252 1
128 252 1
129 252 1
129 252 1
130 252 1
130 252 1
131 252 1
132 252 1
132 252 1
133 252 1
134 252 1
134 252 1
135 252 1
135 252 1
136 252 1
137 252 1
137 252 1
138 252 1
139 252 1
139 252 1
140 252 1
140 252 1
141 252 1
142 252 1
142 252 1
143 252 1
144 252 1
144 252 1
145 252 1
145 252 1
146 252 1
147 252 1
147 252 1
148 252 1
149 252 1
149 252 1
150 252 1
150 252 1
151 252 1
152 252 1
152 252 1
153 252 1
154 252 1
154 252 1
155 252 1
155 252 1
156 252 1
157 252 1
157 252 1
158 252 1
159 252 1
159 252 1
160 252 1
161 252 1
161 252 1
162 252 1
162 252 1
163 252 1
164 252 1
164 252 1
165 252 1
166 252 1
166 252 1
167 252 1
167 252 1
168 252 1
169 252 1
169 252 1
170 252 1
171 252 1
171 252 1
172 252 1
172 252 1
173 252 1
174 252 1
174 252 1
175 252 1
176 252 1
176 252 1
177 252 1
177 252 1
178 252 1
179 252 1
179 252 1
180 252 1
181 252 1
181 252 1
182 252 1
182 252 1
183 252 1
184 252 1
184 252 1
185 252 1
186 252 1
186 252 1
187 252 1
187 252 1
188 252 1
189 252 1
189 252 1
190 252 1
191 252 1
191 252 1
192 252 1
192 252 1
193 252 1
194 252 1
194 252 1
195 252 1
196 252 1
196 252 1
197 252 1
197 252 2
198 252 2
199 252 2
199 252 2
200 252 2
201 252 2
201 252 2
202 252 2
202 252 2
203 252 2
204 252 2
204 252 2
205 252 2
206 252 2
206 252 2
207 252 2
207 252 2
208 252 2
209 252 2
209 252 2
210 252 2
211 252 2
211 252 2
212 252 2
212 252 2
213 252 2
214 252 2
214 252 2
215 252 2
216 252 2
216 252 2
217 252 2
217 252 2
218 252 2
219 252 2
219 252 2
220 252 2
221 252 2
221 252 2
222 252 2
223 252 2
223 252 2
224 252 2
224 252 2
225 252 2
226 252 2
226 252 2
227 252 2
228 252 2
228 252 2
229 252 2
229 252 2
230 252 2
231 252 2
231 252 2
232 252 2
233 252 2
233 252 2
234 252 2
234 252 2
235 252 2
236 252 2
236 252 2
237 252 2
238 252 2
238 252 2
239 252 2
239 252 2
240 252 2
241 252 2
241 252 2
242 252 2
243 252 2
243 252 2
244 252 2
244 252 2
245 252 2
246 252 2
246 252 2
247 252 2
248 252 2
248 252 2
249 252 2
249 252 2
250 252 2
251 252 2
251 252 2
252 252 2
3 251 0
4 251 0
5 251 0
5 251 0
6 251 0
6 251 0
7 251 0
8 251 0
8 251 0
9 251 0
10 251 0
10 251 0
11 251 0
11 251 0
12 251 0
13 251 0
13 251 0
14 251 0
15 251 0
15 251 0
16 251 0
16 251 0
17 251 0
18 251 0
18 251 0
19 251 0
19 251 0
20 251 0
21 251 0
21 251 0
22 251 0
23 251 0
23 251 0
24 251 0
24 251 0
25 251 0
26 251 0
26 251 0
27 251 0
28 251 0
28 251 0
29 251 0
29 251 0
30 251 0
31 251 0
31 251 0
32 251 0
32 251 0
33 251 0
34 251 0
34 251 0
35 251 0
36 251 0
36 251 0
37 251 0
37 251 0
38 251 0
39 251 0
39 251 0
40 251 0
41 251 0
41 251 0
42 251 0
42 251 0
43 251 0
44 251 0
44 251 0
45 251 0
45 251 0
46 251 0
47 251 0
47 251 0
48 251 0
49 251 0
49 251 0
50 251 0
50 251 0
51 251 0
52 251 0
52 251 0
53 251 0
54 251 0
54 251 0
55 251 0
55 251 0
56 251 0
57 251 0
57 251 0
58 251 0
59 251 0
59 251 0
60 251 0
60 251 0
61 251 0
62 251 0
62 251 0
63 251 0
63 251 0
64 251 0
65 251 0
65 251 0
66 251 0
67 251 0
67 251 0
68 251 1
68 251 1
69 251 1
70 251 1
70 251 1
71 251 1
72 251 1
72 251 1
73 251 1
73 251 1
74 251 1
75 251 1
75 251 1
76 251 1
76 251 1
77 251 1
78 251 1
78 251 1
79 251 1
80 251 1
80 251 1
81 251 1
81 251 1
82 251 1
83 251 1
83 251 1
84 251 1
85 251 1
85 251 1
86 251 1
86 251 1
87 251 1
88 251 1
88 251 1
89 251 1
90 251 1
90 251 1
91 251 1
91 251 1
92 251 1
93 251 1
93 251 1
94 251 1
94 251 1
95 251 1
96 251 1
96 251 1
97 251 1
98 251 1
98 251 1
99 251 1
99 251 1
100 251 1
101 251 1
101 251 1
102 251 1
103 251 1
103 251 1
104 251 1
104 251 1
105 251 1
106 251 1
106 251 1
107 251 1
107 251 1
108 251 1
109 251 1
109 251 1
110 251 1
111 251 1
111 251 1
112 251 1
112 251 1
113 251 1
114 251 1
114 251 1
115 251 1
116 251 1
116 251 1
117 251 1
117 251 1
118 251 1
119 251 1
119 251 1
120 251 1
120 251 1
121 251 1
122 251 1
122 251 1
123 251 1
124 251 1
124 251 1
125 251 1
125 251 1
126 251 1
127 251 1
127 251 1
128 251 1
129 251 1
129 251 1
130 251 1
130 251 1
131 251 1
132 251 1
132 251 2
133 251 2
134 251 2
134 251 2
135 251 2
135 251 2
136 251 2
137 251 2
137 251 2
138 251 2
138 251 2
139 251 2
140 251 2
140 251 2
141 251 2
142 251 2
142 251 2
143 251 2
143 251 2
144 251 2
145 251 2
145 251 2
146 251 2
147 251 2
147 251 2
148 251 2
148 251 2
149 251 2
150 251 2
150 251 2
151 251 2
151 251 2
152 251 2
153 251 2
153 251 2
154 251 2
155 251 2
155 251 2
156 251 2
156 251 2
157 251 2
158 251 2
158 251 2
159 251 2
160 251 2
160 251 2
161 251 2
161 251 2
162 251 2
163 251 2
163 251 2
164 251 2
164 251 2
165 251 2
166 251 2
166 251 2
167 251 2
168 251 2
168 251 2
169 251 2
169 251 2
170 251 2
171 251 2
171 251 2
172 251 2
173 251 2
173 251 2
174 251 2
174 251 2
175 251 2
176 251 2
176 251 2
177 251 2
178 251 2
178 251 2
179 251 2
179 251 2
180 251 2
181 251 2
181 251 2
182 251 2
182 251 2
183 251 2
184 251 2
184 251 2
185 251 2
186 251 2
186 251 2
187 251 2
187 251 2
188 251 2
189 251 2
189 251 2
190 251 2
191 251 2
191 251 2
192 251 2
192 251 2
193 251 2
194 251 2
194 251 2
195 251 2
195 251 2
196 251 2
197 251 3
197 251 3
198 251 3
199 251 3
199 251 3
200 251 3
200 251 3
201 251 3
202 251 3
202 251 3
203 251 3
204 251 3
204 251 3
205 251 3
205 251 3
206 251 3
207 251 3
207 251 3
208 251 3
209 251 3
209 251 3
210 251 3
210 251 3
211 251 3
212 251 3
212 251 3
213 251 3
213 251 3
214 251 3
215 251 3
215 251 3
216 251 3
217 251 3
217 251 3
218 251 3
218 251 3
219 251 3
220 251 3
220 251 3
221 251 3
222 251 3
222 251 3
223 251 3
223 251 3
224 251 3
225 251 3
225 251 3
226 251 3
226 251 3
227 251 3
228 251 3
228 251 3
229 251 3
230 251 3
230 251 3
231 251 3
231 251 3
232 251 3
233 251 3
233 251 3
234 251 3
235 251 3
235 251 3
236 251 3
236 251 3
237 251 3
238 251 3
238 251 3
239 251 3
239 251 3
240 251 3
241 251 3
241 251 3
242 251 3
243 251 3
243 251 3
244 251 3
244 251 3
245 251 3
246 251 3
246 251 3
247 251 3
248 251 3
248 251 3
249 251 3
249 251 3
250 251 3
251 251 3
5 249 0
5 249 0
6 249 0
6 249 0
7 249 0
8 249 0
8 249 0
9 249 0
10 249 0
10 249 0
11 249 0
11 249 0
12 249 0
13 249 0
13 249 0
14 249 0
14 249 0
15 249 0
16 249 0
16 249 0
17 249 0
18 249 0
18 249 0
19 249 0
19 249 0
20 249 0
21 249 0
21 249 0
22 249 0
22 249 0
23 249 0
24 249 0
24 249 0
25 249 0
25 249 0
26 249 0
27 249 0
27 249 0
28 249 0
29 249 0
29 249 0
30 249 0
30 249 0
31 249 0
32 249 0
32 249 0
33 249 0
33 249 0
34 249 0
35 249 0
35 249 0
36 249 0
37 249 0
37 249 0
38 249 0
38 249 0
39 249 0
40 249 0
40 249 0
41 249 0
41 249 0
42 249 0
43 249 0
43 249 0
44 249 0
44 249 0
45 249 0
46 249 0
46 249 0
47 249 0
48 249 0
48 249 0
49 249 0
49 249 0
50 249 0
51 249 0
51 249 0
52 249 0
52 249 1
53 249 1
54 249 1
54 249 1
55 249 1
56 249 1
56 249 1
57 249 1
57 249 1
58 249 1
59 249 1
59 249 1
60 249 1
60 249 1
61 249 1
62 249 1
62 249 1
63 249 1
64 249 1
64 249 1
65 249 1
65 249 1
66 249 1
67 249 1
67 249 1
68 249 1
68 249 1
69 249 1
70 249 1
70 249 1
71 249 1
71 249 1
72 249 1
73 249 1
73 249 1
74 249 1
75 249 1
75 249 1
76 249 1
76 249 1
77 249 1
78 249 1
78 249 1
79 249 1
79 249 1
80 249 1
81 249 1
81 249 1
82 249 1
83 249 1
83 249 1
84 249 1
84 249 1
85 249 1
86 249 1
86 249 1
87 249 1
87 249 1
88 249 1
89 249 1
89 249 1
90 249 1
91 249 1
91 249 1
92 249 1
92 249 1
93 249 1
94 249 1
94 249 1
95 249 1
95 249 1
96 249 1
97 249 1
97 249 1
98 249 1
98 249 1
99 249 1
100 249 1
100 249 2
101 249 2
102 249 2
102 249 2
103 249 2
103 249 2
104 249 2
105 249 2
105 249 2
106 249 2
106 249 2
107 249 2
108 249 2
108 249 2
109 249 2
110 249 2
110 249 2
111 249 2
111 249 2
112 249 2
113 249 2
113 249 2
114 249 2
114 249 2
115 249 2
116 249 2
116 249 2
117 249 2
117 249 2
118 249 2
119 249 2
119 249 2
120 249 2
121 249 2
121 249 2
122 249 2
122 249 2
123 249 2
124 249 2
124 249 2
125 249 2
125 249 2
126 249 2
127 249 2
127 249 2
128 249 2
129 249 2
129 249 2
130 249 2
130 249 2
131 249 2
132 249 2
132 249 2
133 249 2
133 249 2
134 249 2
135 249 2
135 249 2
136 249 2
137 249 2
137 249 2
138 249 2
138 249 2
139 249 2
140 249 2
140 249 2
141 249 2
141 249 2
142 249 2
143 249 2
143 249 2
144 249 2
144 249 2
145 249 2
146 249 2
146 249 2
147 249 2
148 249 2
148 249 3
149 249 3
149 249 3
150 249 3
151 249 3
151 249 3
152 249 3
152 249 3
153 249 3
154 249 3
154 249 3
155 249 3
156 249 3
156 249 3
157 249 3
157 249 3
158 249 3
159 249 3
159 249 3
160 249 3
160 249 3
161 249 3
162 249 3
162 249 3
163 249 3
163 249 3
164 249 3
165 249 3
165 249 3
166 249 3
167 249 3
167 249 3
168 249 3
168 249 3
169 249 3
170 249 3
170 249 3
171 249 3
171 249 3
172 249 3
173 249 3
173 249 3
174 249 3
175 249 3
175 249 3
176 249 3
176 249 3
177 249 3
178 249 3
178 249 3
179 249 3
179 249 3
180 249 3
181 249 3
181 249 3
182 249 3
183 249 3
183 249 3
184 249 3
184 249 3
185 249 3
186 249 3
186 249 3
187 249 3
187 249 3
188 249 3
189 249 3
189 249 3
190 249 3
190 249 3
191 249 3
192 249 3
192 249 3
193 249 3
194 249 3
194 249 3
195 249 3
195 249 3
196 249 4
197 249 4
197 249 4
198 249 4
198 249 4
199 249 4
200 249 4
200 249 4
201 249 4
202 249 4
202 249 4
203 249 4
203 249 4
204 249 4
205 249 4
205 249 4
206 249 4
206 249 4
207 249 4
208 249 4
208 249 4
209 249 4
210 249 4
210 249 4
211 249 4
211 249 4
212 249 4
213 249 4
213 249 4
214 249 4
214 249 4
215 249 4
216 249 4
216 249 4
217 249 4
217 249 4
218 249 4
219 249 4
219 249 4
220 249 4
221 249 4
221 249 4
222 249 4
222 249 4
223 249 4
224 249 4
224 249 4
225 249 4
225 249 4
226 249 4
227 249 4
227 249 4
228 249 4
229 249 4
229 249 4
230 249 4
230 249 4
231 249 4
232 249 4
232 249 4
233 249 4
233 249 4
234 249 4
235 249 4
235 249 4
236 249 4
236 249 4
237 249 4
238 249 4
238 249 4
239 249 4
240 249 4
240 249 4
241 249 4
241 249 4
242 249 4
243 249 4
243 249 4
244 249 5
244 249 5
245 249 5
246 249 5
246 249 5
247 249 5
248 249 5
248 249 5
249 249 5
249 249 5
6 248 0
7 248 0
7 248 0
8 248 0
8 248 0
9 248 0
10 248 0
10 248 0
11 248 0
11 248 0
12 248 0
13 248 0
13 248 0
14 248 0
14 248 0
15 248 0
16 248 0
16 248 0
17 248 0
17 248 0
18 248 0
19 248 0
19 248 0
20 248 0
20 248 0
21 248 0
22 248 0
22 248 0
23 248 0
24 248 0
24 248 0
25 248 0
25 248 0
26 248 0
27 248 0
27 248 0
28 248 0
28 248 0
29 248 0
30 248 0
30 248 0
31 248 0
31 248 0
32 248 0
33 248 0
33 248 0
34 248 0
34 248 0
35 248 0
36 248 0
36 248 0
37 248 0
37 248 0
38 248 0
39 248 0
39 248 0
40 248 0
41 248 0
41 248 0
42 248 0
42 248 0
43 248 0
44 248 0
44 248 1
45 248 1
45 248 1
46 248 1
47 248 1
47 248 1
48 248 1
48 248 1
49 248 1
50 248 1
50 248 1
51 248 1
51 248 1
52 248 1
53 248 1
53 248 1
54 248 1
54 248 1
55 248 1
56 248 1
56 248 1
57 248 1
58 248 1
58 248 1
59 248 1
59 248 1
60 248 1
61 248 1
61 248 1
62 248 1
62 248 1
63 248 1
64 248 1
64 248 1
65 248 1
65 248 1
66 248 1
67 248 1
67 248 1
68 248 1
68 248 1
69 248 1
70 248 1
70 248 1
71 248 1
71 248 1
72 248 1
73 248 1
73 248 1
74 248 1
74 248 1
75 248 1
76 248 1
76 248 1
77 248 1
78 248 1
78 248 1
79 248 1
79 248 1
80 248 1
81 248 1
81 248 1
82 248 2
82 248 2
83 248 2
84 248 2
84 248 2
85 248 2
85 248 2
86 248 2
87 248 2
87 248 2
88 248 2
88 248 2
89 248 2
90 248 2
90 248 2
91 248 2
91 248 2
92 248 2
93 248 2
93 248 2
94 248 2
95 248 2
95 248 2
96 248 2
96 248 2
97 248 2
98 248 2
98 248 2
99 248 2
99 248 2
100 248 2
101 248 2
101 248 2
102 248 2
102 248 2
103 248 2
104 248 2
104 248 2
105 248 2
105 248 2
106 248 2
107 248 2
107 248 2
108 248 2
108 248 2
109 248 2
110 248 2
110 248 2
111 248 2
112 248 2
112 248 2
113 248 2
113 248 2
114 248 2
115 248 2
115 248 2
116 248 2
116 248 2
117 248 2
118 248 2
118 248 2
119 248 2
119 248 3
120 248 3
121 248 3
121 248 3
122 248 3
122 248 3
123 248 3
124 248 3
124 248 3
125 248 3
125 248 3
126 248 3
127 248 3
127 248 3
128 248 3
129 248 3
129 248 3
130 248 3
130 248 3
131 248 3
132 248 3
132 248 3
133 248 3
133 248 3
134 248 3
135 248 3
135 248 3
136 248 3
136 248 3
137 248 3
138 248 3
138 248 3
139 248 3
139 248 3
140 248 3
141 248 3
141 248 3
142 248 3
142 248 3
143 248 3
144 248 3
144 248 3
145 248 3
146 248 3
146 248 3
147 248 3
147 248 3
148 248 3
149 248 3
149 248 3
150 248 3
150 248 3
151 248 3
152 248 3
152 248 3
153 248 3
153 248 3
154 248 3
155 248 3
155 248 3
156 248 3
156 248 3
157 248 3
158 248 4
158 248 4
159 248 4
159 248 4
160 248 4
161 248 4
161 248 4
162 248 4
163 248 4
163 248 4
164 248 4
164 248 4
165 248 4
166 248 4
166 248 4
167 248 4
167 248 4
168 248 4
169 248 4
169 248 4
170 248 4
170 248 4
171 248 4
172 248 4
172 248 4
173 248 4
173 248 4
174 248 4
175 248 4
175 248 4
176 248 4
176 248 4
177 248 4
178 248 4
178 248 4
179 248 4
180 248 4
180 248 4
181 248 4
181 248 4
182 248 4
183 248 4
183 248 4
184 248 4
184 248 4
185 248 4
186 248 4
186 248 4
187 248 4
187 248 4
188 248 4
189 248 4
189 248 4
190 248 4
190 248 4
191 248 4
192 248 4
192 248 4
193 248 4
193 248 4
194 248 4
195 248 4
195 248 5
196 248 5
196 248 5
197 248 5
198 248 5
198 248 5
199 248 5
200 248 5
200 248 5
201 248 5
201 248 5
202 248 5
203 248 5
203 248 5
204 248 5
204 248 5
205 248 5
206 248 5
206 248 5
207 248 5
207 248 5
208 248 5
209 248 5
209 248 5
210 248 5
210 248 5
211 248 5
212 248 5
212 248 5
213 248 5
213 248 5
214 248 5
215 248 5
215 248 5
216 248 5
217 248 5
217 248 5
218 248 5
218 248 5
219 248 5
220 248 5
220 248 5
221 248 5
221 248 5
222 248 5
223 248 5
223 248 5
224 248 5
224 248 5
225 248 5
226 248 5
226 248 5
227 248 5
227 248 5
228 248 5
229 248 5
229 248 5
230 248 5
230 248 5
231 248 5
232 248 5
232 248 5
233 248 6
234 248 6
234 248 6
235 248 6
235 248 6
236 248 6
237 248 6
237 248 6
238 248 6
238 248 6
239 248 6
240 248 6
240 248 6
241 248 6
241 248 6
242 248 6
243 248 6
243 248 6
244 248 6
244 248 6
245 248 6
246 248 6
246 248 6
247 248 6
247 248 6
248 248 6
7 247 0
8 247 0
8 247 0
9 247 0
10 247 0
10 247 0
11 247 0
11 247 0
12 247 0
13 247 0
13 247 0
14 247 0
14 247 0
15 247 0
16 247 0
16 247 0
17 247 0
17 247 0
18 247 0
19 247 0
19 247 0
20 247 0
20 247 0
21 247 0
22 247 0
22 247 0
23 247 0
23 247 0
24 247 0
25 247 0
25 247 0
26 247 0
26 247 0
27 247 0
28 247 0
28 247 0
29 247 0
29 247 0
30 247 0
31 247 0
31 247 0
32 247 0
32 247 0
33 247 0
34 247 0
34 247 0
35 247 0
35 247 0
36 247 0
37 247 0
37 247 0
38 247 0
38 247 1
39 247 1
40 247 1
40 247 1
41 247 1
41 247 1
42 247 1
43 247 1
43 247 1
44 247 1
44 247 1
45 247 1
46 247 1
46 247 1
47 247 1
47 247 1
48 247 1
49 247 1
49 247 1
50 247 1
50 247 1
51 247 1
52 247 1
52 247 1
53 247 1
53 247 1
54 247 1
55 247 1
55 247 1
56 247 1
56 247 1
57 247 1
58 247 1
58 247 1
59 247 1
59 247 1
60 247 1
61 247 1
61 247 1
62 247 1
62 247 1
63 247 1
64 247 1
64 247 1
65 247 1
65 247 1
66 247 1
67 247 1
67 247 1
68 247 1
68 247 1
69 247 1
70 247 2
70 247 2
71 247 2
71 247 2
72 247 2
73 247 2
73 247 2
74 247 2
74 247 2
75 247 2
76 247 2
76 247 2
77 247 2
77 247 2
78 247 2
79 247 2
79 247 2
80 247 2
80 247 2
81 247 2
82 247 2
82 247 2
83 247 2
83 247 2
84 247 2
85 247 2
85 247 2
86 247 2
86 247 2
87 247 2
88 247 2
88 247 2
89 247 2
89 247 2
90 247 2
91 247 2
91 247 2
92 247 2
92 247 2
93 247 2
94 247 2
94 247 2
95 247 2
95 247 2
96 247 2
97 247 2
97 247 2
98 247 2
98 247 2
99 247 2
100 247 2
100 247 2
101 247 3
101 247 3
102 247 3
103 247 3
103 247 3
104 247 3
104 247 3
105 247 3
106 247 3
106 247 3
107 247 3
107 247 3
108 247 3
109 247 3
109 247 3
110 247 3
110 247 3
111 247 3
112 247 3
112 247 3
113 247 3
113 247 3
114 247 3
115 247 3
115 247 3
116 247 3
116 247 3
117 247 3
118 247 3
118 247 3
119 247 3
119 247 3
120 247 3
121 247 3
121 247 3
122 247 3
122 247 3
123 247 3
124 247 3
124 247 3
125 247 3
125 247 3
126 247 3
127 247 3
127 247 3
128 247 3
129 247 3
129 247 3
130 247 3
130 247 3
131 247 3
132 247 3
132 247 4
133 247 4
133 247 4
134 247 4
135 247 4
135 247 4
136 247 4
136 247 4
137 247 4
138 247 4
138 247 4
139 247 4
139 247 4
140 247 4
141 247 4
141 247 4
142 247 4
142 247 4
143 247 4
144 247 4
144 247 4
145 247 4
145 247 4
146 247 4
147 247 4
147 247 4
148 247 4
148 247 4
149 247 4
150 247 4
150 247 4
151 247 4
151 247 4
152 247 4
153 247 4
153 247 4
154 247 4
154 247 4
155 247 4
156 247 4
156 247 4
157 247 4
157 247 4
158 247 4
159 247 4
159 247 4
160 247 4
160 247 4
161 247 4
162 247 4
162 247 4
163 247 4
163 247 5
164 247 5
165 247 5
165 247 5
166 247 5
166 247 5
167 247 5
168 247 5
168 247 5
169 247 5
169 247 5
170 247 5
171 247 5
171 247 5
172 247 5
172 247 5
173 247 5
174 247 5
174 247 5
175 247 5
175 247 5
176 247 5
177 247 5
177 247 5
178 247 5
178 247 5
179 247 5
180 247 5
180 247 5
181 247 5
181 247 5
182 247 5
183 247 5
183 247 5
184 247 5
184 247 5
185 247 5
186 247 5
186 247 5
187 247 5
187 247 5
188 247 5
189 247 5
189 247 5
190 247 5
190 247 5
191 247 5
192 247 5
192 247 5
193 247 5
193 247 5
194 247 5
195 247 6
195 247 6
196 247 6
196 247 6
197 247 6
198 247 6
198 247 6
199 247 6
199 247 6
200 247 6
201 247 6
201 247 6
202 247 6
202 247 6
203 247 6
204 247 6
204 247 6
205 247 6
205 247 6
206 247 6
207 247 6
207 247 6
208 247 6
208 247 6
209 247 6
210 247 6
210 247 6
211 247 6
211 247 6
212 247 6
213 247 6
213 247 6
214 247 6
214 247 6
215 247 6
216 247 6
216 247 6
217 247 6
217 247 6
218 247 6
219 247 6
219 247 6
220 247 6
220 247 6
221 247 6
222 247 6
222 247 6
223 247 6
223 247 6
224 247 6
225 247 6
225 247 6
226 247 7
226 247 7
227 247 7
228 247 7
228 247 7
229 247 7
229 247 7
230 247 7
231 247 7
231 247 7
232 247 7
232 247 7
233 247 7
234 247 7
234 247 7
235 247 7
235 247 7
236 247 7
237 247 7
237 247 7
238 247 7
238 247 7
239 247 7
240 247 7
240 247 7
241 247 7
241 247 7
242 247 7
243 247 7
243 247 7
244 247 7
244 247 7
245 247 7
246 247 7
246 247 7
247 247 7
8 246 0
9 246 0
10 246 0
10 246 0
11 246 0
11 246 0
12 246 0
13 246 0
13 246 0
14 246 0
14 246 0
15 246 0
16 246 0
16 246 0
17 246 0
17 246 0
18 246 0
19 246 0
19 246 0
20 246 0
20 246 0
21 246 0
22 246 0
22 246 0
23 246 0
23 246 0
24 246 0
25 246 0
25 246 0
26 246 0
26 246 0
27 246 0
27 246 0
28 246 0
29 246 0
29 246 0
30 246 0
30 246 0
31 246 0
32 246 0
32 246 0
33 246 0
33 246 0
34 246 0
35 246 0
35 246 1
36 246 1
36 246 1
37 246 1
38 246 1
38 246 1
39 246 1
39 246 1
40 246 1
41 246 1
41 246 1
42 246 1
42 246 1
43 246 1
44 246 1
44 246 1
45 246 1
45 246 1
46 246 1
46 246 1
47 246 1
48 246 1
48 246 1
49 246 1
49 246 1
50 246 1
51 246 1
51 246 1
52 246 1
52 246 1
53 246 1
54 246 1
54 246 1
55 246 1
55 246 1
56 246 1
57 246 1
57 246 1
58 246 1
58 246 1
59 246 1
60 246 1
60 246 1
61 246 1
61 246 2
62 246 2
63 246 2
63 246 2
64 246 2
64 246 2
65 246 2
66 246 2
66 246 2
67 246 2
67 246 2
68 246 2
68 246 2
69 246 2
70 246 2
70 246 2
71 246 2
71 246 2
72 246 2
73 246 2
73 246 2
74 246 2
74 246 2
75 246 2
76 246 2
76 246 2
77 246 2
77 246 2
78 246 2
79 246 2
79 246 2
80 246 2
80 246 2
81 246 2
82 246 2
82 246 2
83 246 2
83 246 2
84 246 2
85 246 2
85 246 2
86 246 2
86 246 2
87 246 2
87 246 2
88 246 3
89 246 3
89 246 3
90 246 3
90 246 3
91 246 3
92 246 3
92 246 3
93 246 3
93 246 3
94 246 3
95 246 3
95 246 3
96 246 3
96 246 3
97 246 3
98 246 3
98 246 3
99 246 3
99 246 3
100 246 3
101 246 3
101 246 3
102 246 3
102 246 3
103 246 3
104 246 3
104 246 3
105 246 3
105 246 3
106 246 3
107 246 3
107 246 3
108 246 3
108 246 3
109 246 3
109 246 3
110 246 3
111 246 3
111 246 3
112 246 3
112 246 3
113 246 3
114 246 3
114 246 4
115 246 4
115 246 4
116 246 4
117 246 4
117 246 4
118 246 4
118 246 4
119 246 4
120 246 4
120 246 4
121 246 4
121 246 4
122 246 4
123 246 4
123 246 4
124 246 4
124 246 4
125 246 4
126 246 4
126 246 4
127 246 4
127 246 4
128 246 4
128 246 4
129 246 4
130 246 4
130 246 4
131 246 4
131 246 4
132 246 4
133 246 4
133 246 4
134 246 4
134 246 4
135 246 4
136 246 4
136 246 4
137 246 4
137 246 4
138 246 4
139 246 4
139 246 4
140 246 4
140 246 4
141 246 5
142 246 5
142 246 5
143 246 5
143 246 5
144 246 5
145 246 5
145 246 5
146 246 5
146 246 5
147 246 5
147 246 5
148 246 5
149 246 5
149 246 5
150 246 5
150 246 5
151 246 5
152 246 5
152 246 5
153 246 5
153 246 5
154 246 5
155 246 5
155 246 5
156 246 5
156 246 5
157 246 5
158 246 5
158 246 5
159 246 5
159 246 5
160 246 5
161 246 5
161 246 5
162 246 5
162 246 5
163 246 5
164 246 5
164 246 5
165 246 5
165 246 5
166 246 5
167 246 5
167 246 6
168 246 6
168 246 6
169 246 6
169 246 6
170 246 6
171 246 6
171 246 6
172 246 6
172 246 6
173 246 6
174 246 6
174 246 6
175 246 6
175 246 6
176 246 6
177 246 6
177 246 6
178 246 6
178 246 6
179 246 6
180 246 6
180 246 6
181 246 6
181 246 6
182 246 6
183 246 6
183 246 6
184 246 6
184 246 6
185 246 6
186 246 6
186 246 6
187 246 6
187 246 6
188 246 6
188 246 6
189 246 6
190 246 6
190 246 6
191 246 6
191 246 6
192 246 6
193 246 6
193 246 6
194 246 7
194 246 7
195 246 7
196 246 7
196 246 7
197 246 7
197 246 7
198 246 7
199 246 7
199 246 7
200 246 7
200 246 7
201 246 7
202 246 7
202 246 7
203 246 7
203 246 7
204 246 7
205 246 7
205 246 7
206 246 7
206 246 7
207 246 7
208 246 7
208 246 7
209 246 7
209 246 7
210 246 7
210 246 7
211 246 7
212 246 7
212 246 7
213 246 7
213 246 7
214 246 7
215 246 7
215 246 7
216 246 7
216 246 7
217 246 7
218 246 7
218 246 7
219 246 7
219 246 7
220 246 8
221 246 8
221 246 8
222 246 8
222 246 8
223 246 8
224 246 8
224 246 8
225 246 8
225 246 8
226 246 8
227 246 8
227 246 8
228 246 8
228 246 8
229 246 8
229 246 8
230 246 8
231 246 8
231 246 8
232 246 8
232 246 8
233 246 8
234 246 8
234 246 8
235 246 8
235 246 8
236 246 8
237 246 8
237 246 8
238 246 8
238 246 8
239 246 8
240 246 8
240 246 8
241 246 8
241 246 8
242 246 8
243 246 8
243 246 8
244 246 8
244 246 8
245 246 8
246 246 8
10 244 0
10 244 0
11 244 0
12 244 0
12 244 0
13 244 0
13 244 0
14 244 0
14 244 0
15 244 0
16 244 0
16 244 0
17 244 0
17 244 0
18 244 0
19 244 0
19 244 0
20 244 0
20 244 0
21 244 0
22 244 0
22 244 0
23 244 0
23 244 0
24 244 0
24 244 0
25 244 0
26 244 0
26 244 0
27 244 0
27 244 0
28 244 0
29 244 0
29 244 0
30 244 0
30 244 0
31 244 0
31 244 0
32 244 0
33 244 1
33 244 1
34 244 1
34 244 1
35 244 1
36 244 1
36 244 1
37 244 1
37 244 1
38 244 1
39 244 1
39 244 1
40 244 1
40 244 1
41 244 1
41 244 1
42 244 1
43 244 1
43 244 1
44 244 1
44 244 1
45 244 1
46 244 1
46 244 1
47 244 1
47 244 1
48 244 1
49 244 1
49 244 1
50 244 1
50 244 1
51 244 1
51 244 1
52 244 1
53 244 1
53 244 1
54 244 1
54 244 1
55 244 1
56 244 2
56 244 2
57 244 2
57 244 2
58 244 2
59 244 2
59 244 2
60 244 2
60 244 2
61 244 2
61 244 2
62 244 2
63 244 2
63 244 2
64 244 2
64 244 2
65 244 2
66 244 2
66 244 2
67 244 2
67 244 2
68 244 2
69 244 2
69 244 2
70 244 2
70 244 2
71 244 2
71 244 2
72 244 2
73 244 2
73 244 2
74 244 2
74 244 2
75 244 2
76 244 2
76 244 2
77 244 2
77 244 2
78 244 2
79 244 3
79 244 3
80 244 3
80 244 3
81 244 3
81 244 3
82 244 3
83 244 3
83 244 3
84 244 3
84 244 3
85 244 3
86 244 3
86 244 3
87 244 3
87 244 3
88 244 3
89 244 3
89 244 3
90 244 3
90 244 3
91 244 3
91 244 3
92 244 3
93 244 3
93 244 3
94 244 3
94 244 3
95 244 3
96 244 3
96 244 3
97 244 3
97 244 3
98 244 3
98 244 3
99 244 3
100 244 3
100 244 3
101 244 3
101 244 4
102 244 4
103 244 4
103 244 4
104 244 4
104 244 4
105 244 4
106 244 4
106 244 4
107 244 4
107 244 4
108 244 4
108 244 4
109 244 4
110 244 4
110 244 4
111 244 4
111 244 4
112 244 4
113 244 4
113 244 4
114 244 4
114 244 4
115 244 4
116 244 4
116 244 4
117 244 4
117 244 4
118 244 4
118 244 4
119 244 4
120 244 4
120 244 4
121 244 4
121 244 4
122 244 4
123 244 4
123 244 4
124 244 4
124 244 5
125 244 5
126 244 5
126 244 5
127 244 5
127 244 5
128 244 5
128 244 5
129 244 5
130 244 5
130 244 5
131 244 5
131 244 5
132 244 5
133 244 5
133 244 5
134 244 5
134 244 5
135 244 5
136 244 5
136 244 5
137 244 5
137 244 5
138 244 5
138 244 5
139 244 5
140 244 5
140 244 5
141 244 5
141 244 5
142 244 5
143 244 5
143 244 5
144 244 5
144 244 5
145 244 5
146 244 5
146 244 5
147 244 5
147 244 6
148 244 6
148 244 6
149 244 6
150 244 6
150 244 6
151 244 6
151 244 6
152 244 6
153 244 6
153 244 6
154 244 6
154 244 6
155 244 6
156 244 6
156 244 6
157 244 6
157 244 6
158 244 6
158 244 6
159 244 6
160 244 6
160 244 6
161 244 6
161 244 6
162 244 6
163 244 6
163 244 6
164 244 6
164 244 6
165 244 6
165 244 6
166 244 6
167 244 6
167 244 6
168 244 6
168 244 6
169 244 6
170 244 6
170 244 7
171 244 7
171 244 7
172 244 7
173 244 7
173 244 7
174 244 7
174 244 7
175 244 7
175 244 7
176 244 7
177 244 7
177 244 7
178 244 7
178 244 7
179 244 7
180 244 7
180 244 7
181 244 7
181 244 7
182 244 7
183 244 7
183 244 7
184 244 7
184 244 7
185 244 7
185 244 7
186 244 7
187 244 7
187 244 7
188 244 7
188 244 7
189 244 7
190 244 7
190 244 7
191 244 7
191 244 7
192 244 7
193 244 7
193 244 8
194 244 8
194 244 8
195 244 8
195 244 8
196 244 8
197 244 8
197 244 8
198 244 8
198 244 8
199 244 8
200 244 8
200 244 8
201 244 8
201 244 8
202 244 8
203 244 8
203 244 8
204 244 8
204 244 8
205 244 8
205 244 8
206 244 8
207 244 8
207 244 8
208 244 8
208 244 8
209 244 8
210 244 8
210 244 8
211 244 8
211 244 8
212 244 8
213 244 8
213 244 8
214 244 8
214 244 8
215 244 8
215 244 8
216 244 9
217 244 9
217 244 9
218 244 9
218 244 9
219 244 9
220 244 9
220 244 9
221 244 9
221 244 9
222 244 9
223 244 9
223 244 9
224 244 9
224 244 9
225 244 9
225 244 9
226 244 9
227 244 9
227 244 9
228 244 9
228 244 9
229 244 9
230 244 9
230 244 9
231 244 9
231 244 9
232 244 9
232 244 9
233 244 9
234 244 9
234 244 9
235 244 9
235 244 9
236 244 9
237 244 9
237 244 9
238 244 9
238 244 9
239 244 10
240 244 10
240 244 10
241 244 10
241 244 10
242 244 10
242 244 10
243 244 10
244 244 10
244 244 10
11 243 0
12 243 0
12 243 0
13 243 0
13 243 0
14 243 0
15 243 0
15 243 0
16 243 0
16 243 0
17 243 0
17 243 0
18 243 0
19 243 0
19 243 0
20 243 0
20 243 0
21 243 0
21 243 0
22 243 0
23 243 0
23 243 0
24 243 0
24 243 0
25 243 0
26 243 0
26 243 0
27 243 0
27 243 0
28 243 0
28 243 0
29 243 0
30 243 0
30 243 0
31 243 0
31 243 1
32 243 1
33 243 1
33 243 1
34 243 1
34 243 1
35 243 1
35 243 1
36 243 1
37 243 1
37 243 1
38 243 1
38 243 1
39 243 1
40 243 1
40 243 1
41 243 1
41 243 1
42 243 1
42 243 1
43 243 1
44 243 1
44 243 1
45 243 1
45 243 1
46 243 1
46 243 1
47 243 1
48 243 1
48 243 1
49 243 1
49 243 1
50 243 1
51 243 1
51 243 1
52 243 2
52 243 2
53 243 2
53 243 2
54 243 2
55 243 2
55 243 2
56 243 2
56 243 2
57 243 2
58 243 2
58 243 2
59 243 2
59 243 2
60 243 2
60 243 2
61 243 2
62 243 2
62 243 2
63 243 2
63 243 2
64 243 2
65 243 2
65 243 2
66 243 2
66 243 2
67 243 2
67 243 2
68 243 2
69 243 2
69 243 2
70 243 2
70 243 2
71 243 2
71 243 3
72 243 3
73 243 3
73 243 3
74 243 3
74 243 3
75 243 3
76 243 3
76 243 3
77 243 3
77 243 3
78 243 3
78 243 3
79 243 3
80 243 3
80 243 3
81 243 3
81 243 3
82 243 3
83 243 3
83 243 3
84 243 3
84 243 3
85 243 3
85 243 3
86 243 3
87 243 3
87 243 3
88 243 3
88 243 3
89 243 3
90 243 3
90 243 3
91 243 3
91 243 3
92 243 4
92 243 4
93 243 4
94 243 4
94 243 4
95 243 4
95 243 4
96 243 4
96 243 4
97 243 4
98 243 4
98 243 4
99 243 4
99 243 4
100 243 4
101 243 4
101 243 4
102 243 4
102 243 4
103 243 4
103 243 4
104 243 4
105 243 4
105 243 4
106 243 4
106 243 4
107 243 4
108 243 4
108 243 4
109 243 4
109 243 4
110 243 4
110 243 4
111 243 4
112 243 5
112 243 5
113 243 5
113 243 5
114 243 5
115 243 5
115 243 5
116 243 5
116 243 5
117 243 5
117 243 5
118 243 5
119 243 5
119 243 5
120 243 5
120 243 5
121 243 5
121 243 5
122 243 5
123 243 5
123 243 5
124 243 5
124 243 5
125 243 5
126 243 5
126 243 5
127 243 5
127 243 5
128 243 5
128 243 5
129 243 5
130 243 5
130 243 5
131 243 5
131 243 5
132 243 6
133 243 6
133 243 6
134 243 6
134 243 6
135 243 6
135 243 6
136 243 6
137 243 6
137 243 6
138 243 6
138 243 6
139 243 6
139 243 6
140 243 6
141 243 6
141 243 6
142 243 6
142 243 6
143 243 6
144 243 6
144 243 6
145 243 6
145 243 6
146 243 6
146 243 6
147 243 6
148 243 6
148 243 6
149 243 6
149 243 6
150 243 6
151 243 6
151 243 6
152 243 6
152 243 7
153 243 7
153 243 7
154 243 7
155 243 7
155 243 7
156 243 7
156 243 7
157 243 7
158 243 7
158 243 7
159 243 7
159 243 7
160 243 7
160 243 7
161 243 7
162 243 7
162 243 7
163 243 7
163 243 7
164 243 7
164 243 7
165 243 7
166 243 7
166 243 7
167 243 7
167 243 7
168 243 7
169 243 7
169 243 7
170 243 7
170 243 7
171 243 7
171 243 7
172 243 8
173 243 8
173 243 8
174 243 8
174 243 8
175 243 8
176 243 8
176 243 8
177 243 8
177 243 8
178 243 8
178 243 8
179 243 8
180 243 8
180 243 8
181 243 8
181 243 8
182 243 8
183 243 8
183 243 8
184 243 8
184 243 8
185 243 8
185 243 8
186 243 8
187 243 8
187 243 8
188 243 8
188 243 8
189 243 8
189 243 8
190 243 8
191 243 8
191 243 8
192 243 8
192 243 9
193 243 9
194 243 9
194 243 9
195 243 9
195 243 9
196 243 9
196 243 9
197 243 9
198 243 9
198 243 9
199 243 9
199 243 9
200 243 9
201 243 9
201 243 9
202 243 9
202 243 9
203 243 9
203 243 9
204 243 9
205 243 9
205 243 9
206 243 9
206 243 9
207 243 9
208 243 9
208 243 9
209 243 9
209 243 9
210 243 9
210 243 9
211 243 9
212 243 9
212 243 10
213 243 10
213 243 10
214 243 10
214 243 10
215 243 10
216 243 10
216 243 10
217 243 10
217 243 10
218 243 10
219 243 10
219 243 10
220 243 10
220 243 10
221 243 10
221 243 10
222 243 10
223 243 10
223 243 10
224 243 10
224 243 10
225 243 10
226 243 10
226 243 10
227 243 10
227 243 10
228 243 10
228 243 10
229 243 10
230 243 10
230 243 10
231 243 10
231 243 10
232 243 10
233 243 11
233 243 11
234 243 11
234 243 11
235 243 11
235 243 11
236 243 11
237 243 11
237 243 11
238 243 11
238 243 11
239 243 11
239 243 11
240 243 11
241 243 11
241 243 11
242 243 11
242 243 11
243 243 11
12 242 0
13 242 0
13 242 0
14 242 0
15 242 0
15 242 0
16 242 0
16 242 0
17 242 0
17 242 0
18 242 0
19 242 0
19 242 0
20 242 0
20 242 0
21 242 0
22 242 0
22 242 0
23 242 0
23 242 0
24 242 0
24 242 0
25 242 0
26 242 0
26 242 0
27 242 0
27 242 0
28 242 0
28 242 0
29 242 0
30 242 0
30 242 0
31 242 1
31 242 1
32 242 1
32 242 1
33 242 1
34 242 1
34 242 1
35 242 1
35 242 1
36 242 1
36 242 1
37 242 1
38 242 1
38 242 1
39 242 1
39 242 1
40 242 1
40 242 1
41 242 1
42 242 1
42 242 1
43 242 1
43 242 1
44 242 1
45 242 1
45 242 1
46 242 1
46 242 1
47 242 1
47 242 1
48 242 1
49 242 2
49 242 2
50 242 2
50 242 2
51 242 2
51 242 2
52 242 2
53 242 2
53 242 2
54 242 2
54 242 2
55 242 2
55 242 2
56 242 2
57 242 2
57 242 2
58 242 2
58 242 2
59 242 2
59 242 2
60 242 2
61 242 2
61 242 2
62 242 2
62 242 2
63 242 2
63 242 2
64 242 2
65 242 2
65 242 2
66 242 2
66 242 3
67 242 3
68 242 3
68 242 3
69 242 3
69 242 3
70 242 3
70 242 3
71 242 3
72 242 3
72 242 3
73 242 3
73 242 3
74 242 3
74 242 3
75 242 3
76 242 3
76 242 3
77 242 3
77 242 3
78 242 3
78 242 3
79 242 3
80 242 3
80 242 3
81 242 3
81 242 3
82 242 3
82 242 3
83 242 3
84 242 3
84 242 4
85 242 4
85 242 4
86 242 4
86 242 4
87 242 4
88 242 4
88 242 4
89 242 4
89 242 4
90 242 4
90 242 4
91 242 4
92 242 4
92 242 4
93 242 4
93 242 4
94 242 4
95 242 4
95 242 4
96 242 4
96 242 4
97 242 4
97 242 4
98 242 4
99 242 4
99 242 4
100 242 4
100 242 4
101 242 4
101 242 4
102 242 5
103 242 5
103 242 5
104 242 5
104 242 5
105 242 5
105 242 5
106 242 5
107 242 5
107 242 5
108 242 5
108 242 5
109 242 5
109 242 5
110 242 5
111 242 5
111 242 5
112 242 5
112 242 5
113 242 5
113 242 5
114 242 5
115 242 5
115 242 5
116 242 5
116 242 5
117 242 5
118 242 5
118 242 5
119 242 5
119 242 5
120 242 6
120 242 6
121 242 6
122 242 6
122 242 6
123 242 6
123 242 6
124 242 6
124 242 6
125 242 6
126 242 6
126 242 6
127 242 6
127 242 6
128 242 6
128 242 6
129 242 6
130 242 6
130 242 6
131 242 6
131 242 6
132 242 6
132 242 6
133 242 6
134 242 6
134 242 6
135 242 6
135 242 6
136 242 6
136 242 6
137 242 6
138 242 7
138 242 7
139 242 7
139 242 7
140 242 7
141 242 7
141 242 7
142 242 7
142 242 7
143 242 7
143 242 7
144 242 7
145 242 7
145 242 7
146 242 7
146 242 7
147 242 7
147 242 7
148 242 7
149 242 7
149 242 7
150 242 7
150 242 7
151 242 7
151 242 7
152 242 7
153 242 7
153 242 7
154 242 7
154 242 7
155 242 7
155 242 7
156 242 8
157 242 8
157 242 8
158 242 8
158 242 8
159 242 8
159 242 8
160 242 8
161 242 8
161 242 8
162 242 8
162 242 8
163 242 8
164 242 8
164 242 8
165 242 8
165 242 8
166 242 8
166 242 8
167 242 8
168 242 8
168 242 8
169 242 8
169 242 8
170 242 8
170 242 8
171 242 8
172 242 8
172 242 8
173 242 8
173 242 8
174 242 9
174 242 9
175 242 9
176 242 9
176 242 9
177 242 9
177 242 9
178 242 9
178 242 9
179 242 9
180 242 9
180 242 9
181 242 9
181 242 9
182 242 9
182 242 9
183 242 9
184 242 9
184 242 9
185 242 9
185 242 9
186 242 9
186 242 9
187 242 9
188 242 9
188 242 9
189 242 9
189 242 9
190 242 9
191 242 9
191 242 9
192 242 10
192 242 10
193 242 10
193 242 10
194 242 10
195 242 10
195 242 10
196 242 10
196 242 10
197 242 10
197 242 10
198 242 10
199 242 10
199 242 10
200 242 10
200 242 10
201 242 10
201 242 10
202 242 10
203 242 10
203 242 10
204 242 10
204 242 10
205 242 10
205 242 10
206 242 10
207 242 10
207 242 10
208 242 10
208 242 10
209 242 10
209 242 11
210 242 11
211 242 11
211 242 11
212 242 11
212 242 11
213 242 11
214 242 11
214 242 11
215 242 11
215 242 11
216 242 11
216 242 11
217 242 11
218 242 11
218 242 11
219 242 11
219 242 11
220 242 11
220 242 11
221 242 11
222 242 11
222 242 11
223 242 11
223 242 11
224 242 11
224 242 11
225 242 11
226 242 11
226 242 11
227 242 11
227 242 12
228 242 12
228 242 12
229 242 12
230 242 12
230 242 12
231 242 12
231 242 12
232 242 12
232 242 12
233 242 12
234 242 12
234 242 12
235 242 12
235 242 12
236 242 12
237 242 12
237 242 12
238 242 12
238 242 12
239 242 12
239 242 12
240 242 12
241 242 12
241 242 12
242 242 12
14 240 0
14 240 0
15 240 0
15 240 0
16 240 0
16 240 0
17 240 0
18 240 0
18 240 0
19 240 0
19 240 0
20 240 0
20 240 0
21 240 0
22 240 0
22 240 0
23 240 0
23 240 0
24 240 0
24 240 0
25 240 0
26 240 0
26 240 0
27 240 0
27 240 0
28 240 0
28 240 0
29 240 0
30 240 0
30 240 1
31 240 1
31 240 1
32 240 1
32 240 1
33 240 1
33 240 1
34 240 1
35 240 1
35 240 1
36 240 1
36 240 1
37 240 1
37 240 1
38 240 1
39 240 1
39 240 1
40 240 1
40 240 1
41 240 1
41 240 1
42 240 1
43 240 1
43 240 1
44 240 1
44 240 1
45 240 1
45 240 1
46 240 2
47 240 2
47 240 2
48 240 2
48 240 2
49 240 2
49 240 2
50 240 2
51 240 2
51 240 2
52 240 2
52 240 2
53 240 2
53 240 2
54 240 2
55 240 2
55 240 2
56 240 2
56 240 2
57 240 2
57 240 2
58 240 2
59 240 2
59 240 2
60 240 2
60 240 2
61 240 2
61 240 2
62 240 3
62 240 3
63 240 3
64 240 3
64 240 3
65 240 3
65 240 3
66 240 3
66 240 3
67 240 3
68 240 3
68 240 3
69 240 3
69 240 3
70 240 3
70 240 3
71 240 3
72 240 3
72 240 3
73 240 3
73 240 3
74 240 3
74 240 3
75 240 3
76 240 3
76 240 3
77 240 3
77 240 3
78 240 3
78 240 4
79 240 4
80 240 4
80 240 4
81 240 4
81 240 4
82 240 4
82 240 4
83 240 4
84 240 4
84 240 4
85 240 4
85 240 4
86 240 4
86 240 4
87 240 4
87 240 4
88 240 4
89 240 4
89 240 4
90 240 4
90 240 4
91 240 4
91 240 4
92 240 4
93 240 4
93 240 4
94 240 4
94 240 5
95 240 5
95 240 5
96 240 5
97 240 5
97 240 5
98 240 5
98 240 5
99 240 5
99 240 5
100 240 5
101 240 5
101 240 5
102 240 5
102 240 5
103 240 5
103 240 5
104 240 5
105 240 5
105 240 5
106 240 5
106 240 5
107 240 5
107 240 5
108 240 5
109 240 5
109 240 5
110 240 5
110 240 6
111 240 6
111 240 6
112 240 6
113 240 6
113 240 6
114 240 6
114 240 6
115 240 6
115 240 6
116 240 6
116 240 6
117 240 6
118 240 6
118 240 6
119 240 6
119 240 6
120 240 6
120 240 6
121 240 6
122 240 6
122 240 6
123 240 6
123 240 6
124 240 6
124 240 6
125 240 6
126 240 6
126 240 6
127 240 7
127 240 7
128 240 7
128 240 7
129 240 7
130 240 7
130 240 7
131 240 7
131 240 7
132 240 7
132 240 7
133 240 7
134 240 7
134 240 7
135 240 7
135 240 7
136 240 7
136 240 7
137 240 7
138 240 7
138 240 7
139 240 7
139 240 7
140 240 7
140 240 7
141 240 7
141 240 7
142 240 7
143 240 8
143 240 8
144 240 8
144 240 8
145 240 8
145 240 8
146 240 8
147 240 8
147 240 8
148 240 8
148 240 8
149 240 8
149 240 8
150 240 8
151 240 8
151 240 8
152 240 8
152 240 8
153 240 8
153 240 8
154 240 8
155 240 8
155 240 8
156 240 8
156 240 8
157 240 8
157 240 8
158 240 8
159 240 9
159 240 9
160 240 9
160 240 9
161 240 9
161 240 9
162 240 9
163 240 9
163 240 9
164 240 9
164 240 9
165 240 9
165 240 9
166 240 9
167 240 9
167 240 9
168 240 9
168 240 9
169 240 9
169 240 9
170 240 9
170 240 9
171 240 9
172 240 9
172 240 9
173 240 9
173 240 9
174 240 9
174 240 9
175 240 10
176 240 10
176 240 10
177 240 10
177 240 10
178 240 10
178 240 10
179 240 10
180 240 10
180 240 10
181 240 10
181 240 10
182 240 10
182 240 10
183 240 10
184 240 10
184 240 10
185 240 10
185 240 10
186 240 10
186 240 10
187 240 10
188 240 10
188 240 10
189 240 10
189 240 10
190 240 10
190 240 10
191 240 11
192 240 11
192 240 11
193 240 11
193 240 11
194 240 11
194 240 11
195 240 11
195 240 11
196 240 11
197 240 11
197 240 11
198 240 11
198 240 11
199 240 11
199 240 11
200 240 11
201 240 11
201 240 11
202 240 11
202 240 11
203 240 11
203 240 11
204 240 11
205 240 11
205 240 11
206 240 11
206 240 11
207 240 12
207 240 12
208 240 12
209 240 12
209 240 12
210 240 12
210 240 12
211 240 12
211 240 12
212 240 12
213 240 12
213 240 12
214 240 12
214 240 12
215 240 12
215 240 12
216 240 12
217 240 12
217 240 12
218 240 12
218 240 12
219 240 12
219 240 12
220 240 12
221 240 12
221 240 12
222 240 12
222 240 12
223 240 13
223 240 13
224 240 13
224 240 13
225 240 13
226 240 13
226 240 13
227 240 13
227 240 13
228 240 13
228 240 13
229 240 13
230 240 13
230 240 13
231 240 13
231 240 13
232 240 13
232 240 13
233 240 13
234 240 13
234 240 13
235 240 13
235 240 13
236 240 13
236 240 13
237 240 13
238 240 13
238 240 13
239 240 13
239 240 14
240 240 14
240 240 14
15 239 0
15 239 0
16 239 0
17 239 0
17 239 0
18 239 0
18 239 0
19 239 0
19 239 0
20 239 0
20 239 0
21 239 0
22 239 0
22 239 0
23 239 0
23 239 0
24 239 0
24 239 0
25 239 0
26 239 0
26 239 0
27 239 0
27 239 0
28 239 0
28 239 0
29 239 0
29 239 1
30 239 1
31 239 1
31 239 1
32 239 1
32 239 1
33 239 1
33 239 1
34 239 1
35 239 1
35 239 1
36 239 1
36 239 1
37 239 1
37 239 1
38 239 1
38 239 1
39 239 1
40 239 1
40 239 1
41 239 1
41 239 1
42 239 1
42 239 1
43 239 1
44 239 1
44 239 2
45 239 2
45 239 2
46 239 2
46 239 2
47 239 2
47 239 2
48 239 2
49 239 2
49 239 2
50 239 2
50 239 2
51 239 2
51 239 2
52 239 2
53 239 2
53 239 2
54 239 2
54 239 2
55 239 2
55 239 2
56 239 2
56 239 2
57 239 2
58 239 2
58 239 2
59 239 3
59 239 3
60 239 3
60 239 3
61 239 3
62 239 3
62 239 3
63 239 3
63 239 3
64 239 3
64 239 3
65 239 3
65 239 3
66 239 3
67 239 3
67 239 3
68 239 3
68 239 3
69 239 3
69 239 3
70 239 3
71 239 3
71 239 3
72 239 3
72 239 3
73 239 3
73 239 4
74 239 4
74 239 4
75 239 4
76 239 4
76 239 4
77 239 4
77 239 4
78 239 4
78 239 4
79 239 4
80 239 4
80 239 4
81 239 4
81 239 4
82 239 4
82 239 4
83 239 4
83 239 4
84 239 4
85 239 4
85 239 4
86 239 4
86 239 4
87 239 4
87 239 4
88 239 5
89 239 5
89 239 5
90 239 5
90 239 5
91 239 5
91 239 5
92 239 5
92 239 5
93 239 5
94 239 5
94 239 5
95 239 5
95 239 5
96 239 5
96 239 5
97 239 5
97 239 5
98 239 5
99 239 5
99 239 5
100 239 5
100 239 5
101 239 5
101 239 5
102 239 5
103 239 6
103 239 6
104 239 6
104 239 6
105 239 6
105 239 6
106 239 6
106 239 6
107 239 6
108 239 6
108 239 6
109 239 6
109 239 6
110 239 6
110 239 6
111 239 6
112 239 6
112 239 6
113 239 6
113 239 6
114 239 6
114 239 6
115 239 6
115 239 6
116 239 6
117 239 6
117 239 7
118 239 7
118 239 7
119 239 7
119 239 7
120 239 7
121 239 7
121 239 7
122 239 7
122 239 7
123 239 7
123 239 7
124 239 7
124 239 7
125 239 7
126 239 7
126 239 7
127 239 7
127 239 7
128 239 7
128 239 7
129 239 7
130 239 7
130 239 7
131 239 7
131 239 7
132 239 8
132 239 8
133 239 8
133 239 8
134 239 8
135 239 8
135 239 8
136 239 8
136 239 8
137 239 8
137 239 8
138 239 8
139 239 8
139 239 8
140 239 8
140 239 8
141 239 8
141 239 8
142 239 8
142 239 8
143 239 8
144 239 8
144 239 8
145 239 8
145 239 8
146 239 8
146 239 9
147 239 9
148 239 9
148 239 9
149 239 9
149 239 9
150 239 9
150 239 9
151 239 9
151 239 9
152 239 9
153 239 9
153 239 9
154 239 9
154 239 9
155 239 9
155 239 9
156 239 9
157 239 9
157 239 9
158 239 9
158 239 9
159 239 9
159 239 9
160 239 9
160 239 9
161 239 10
162 239 10
162 239 10
163 239 10
163 239 10
164 239 10
164 239 10
165 239 10
165 239 10
166 239 10
167 239 10
167 239 10
168 239 10
168 239 10
169 239 10
169 239 10
170 239 10
171 239 10
171 239 10
172 239 10
172 239 10
173 239 10
173 239 10
174 239 10
174 239 10
175 239 10
176 239 11
176 239 11
177 239 11
177 239 11
178 239 11
178 239 11
179 239 11
180 239 11
180 239 11
181 239 11
181 239 11
182 239 11
182 239 11
183 239 11
183 239 11
184 239 11
185 239 11
185 239 11
186 239 11
186 239 11
187 239 11
187 239 11
188 239 11
189 239 11
189 239 11
190 239 11
190 239 12
191 239 12
191 239 12
192 239 12
192 239 12
193 239 12
194 239 12
194 239 12
195 239 12
195 239 12
196 239 12
196 239 12
197 239 12
198 239 12
198 239 12
199 239 12
199 239 12
200 239 12
200 239 12
201 239 12
201 239 12
202 239 12
203 239 12
203 239 12
204 239 12
204 239 12
205 239 13
205 239 13
206 239 13
207 239 13
207 239 13
208 239 13
208 239 13
209 239 13
209 239 13
210 239 13
210 239 13
211 239 13
212 239 13
212 239 13
213 239 13
213 239 13
214 239 13
214 239 13
215 239 13
216 239 13
216 239 13
217 239 13
217 239 13
218 239 13
218 239 13
219 239 13
219 239 14
220 239 14
221 239 14
221 239 14
222 239 14
222 239 14
223 239 14
223 239 14
224 239 14
225 239 14
225 239 14
226 239 14
226 239 14
227 239 14
227 239 14
228 239 14
228 239 14
229 239 14
230 239 14
230 239 14
231 239 14
231 239 14
232 239 14
232 239 14
233 239 14
234 239 14
234 239 15
235 239 15
235 239 15
236 239 15
236 239 15
237 239 15
237 239 15
238 239 15
239 239 15
239 239 15
16 238 0
17 238 0
17 238 0
18 238 0
18 238 0
19 238 0
19 238 0
20 238 0
21 238 0
21 238 0
22 238 0
22 238 0
23 238 0
23 238 0
24 238 0
24 238 0
25 238 0
26 238 0
26 238 0
27 238 0
27 238 0
28 238 0
28 238 0
29 238 0
29 238 1
30 238 1
31 238 1
31 238 1
32 238 1
32 238 1
33 238 1
33 238 1
34 238 1
34 238 1
35 238 1
36 238 1
36 238 1
37 238 1
37 238 1
38 238 1
38 238 1
39 238 1
39 238 1
40 238 1
41 238 1
41 238 1
42 238 1
42 238 1
43 238 2
43 238 2
44 238 2
44 238 2
45 238 2
46 238 2
46 238 2
47 238 2
47 238 2
48 238 2
48 238 2
49 238 2
49 238 2
50 238 2
51 238 2
51 238 2
52 238 2
52 238 2
53 238 2
53 238 2
54 238 2
54 238 2
55 238 2
56 238 2
56 238 3
57 238 3
57 238 3
58 238 3
58 238 3
59 238 3
59 238 3
60 238 3
61 238 3
61 238 3
62 238 3
62 238 3
63 238 3
63 238 3
64 238 3
64 238 3
65 238 3
66 238 3
66 238 3
67 238 3
67 238 3
68 238 3
68 238 3
69 238 3
69 238 4
70 238 4
71 238 4
71 238 4
72 238 4
72 238 4
73 238 4
73 238 4
74 238 4
74 238 4
75 238 4
76 238 4
76 238 4
77 238 4
77 238 4
78 238 4
78 238 4
79 238 4
79 238 4
80 238 4
81 238 4
81 238 4
82 238 4
82 238 4
83 238 5
83 238 5
84 238 5
84 238 5
85 238 5
86 238 5
86 238 5
87 238 5
87 238 5
88 238 5
88 238 5
89 238 5
89 238 5
90 238 5
91 238 5
91 238 5
92 238 5
92 238 5
93 238 5
93 238 5
94 238 5
94 238 5
95 238 5
96 238 5
96 238 6
97 238 6
97 238 6
98 238 6
98 238 6
99 238 6
99 238 6
100 238 6
101 238 6
101 238 6
102 238 6
102 238 6
103 238 6
103 238 6
104 238 6
104 238 6
105 238 6
106 238 6
106 238 6
107 238 6
107 238 6
108 238 6
108 238 6
109 238 6
109 238 7
110 238 7
111 238 7
111 238 7
112 238 7
112 238 7
113 238 7
113 238 7
114 238 7
114 238 7
115 238 7
116 238 7
116 238 7
117 238 7
117 238 7
118 238 7
118 238 7
119 238 7
119 238 7
120 238 7
121 238 7
121 238 7
122 238 7
122 238 7
123 238 8
123 238 8
124 238 8
124 238 8
125 238 8
126 238 8
126 238 8
127 238 8
127 238 8
128 238 8
128 238 8
129 238 8
130 238 8
130 238 8
131 238 8
131 238 8
132 238 8
132 238 8
133 238 8
133 238 8
134 238 8
135 238 8
135 238 8
136 238 8
136 238 9
137 238 9
137 238 9
138 238 9
138 238 9
139 238 9
140 238 9
140 238 9
141 238 9
141 238 9
142 238 9
142 238 9
143 238 9
143 238 9
144 238 9
145 238 9
145 238 9
146 238 9
146 238 9
147 238 9
147 238 9
148 238 9
148 238 9
149 238 9
150 238 10
150 238 10
151 238 10
151 238 10
152 238 10
152 238 10
153 238 10
153 238 10
154 238 10
155 238 10
155 238 10
156 238 10
156 238 10
157 238 10
157 238 10
158 238 10
158 238 10
159 238 10
160 238 10
160 238 10
161 238 10
161 238 10
162 238 10
162 238 10
163 238 11
163 238 11
164 238 11
165 238 11
165 238 11
166 238 11
166 238 11
167 238 11
167 238 11
168 238 11
168 238 11
169 238 11
170 238 11
170 238 11
171 238 11
171 238 11
172 238 11
172 238 11
173 238 11
173 238 11
174 238 11
175 238 11
175 238 11
176 238 11
176 238 12
177 238 12
177 238 12
178 238 12
178 238 12
179 238 12
180 238 12
180 238 12
181 238 12
181 238 12
182 238 12
182 238 12
183 238 12
183 238 12
184 238 12
185 238 12
185 238 12
186 238 12
186 238 12
187 238 12
187 238 12
188 238 12
188 238 12
189 238 12
190 238 13
190 238 13
191 238 13
191 238 13
192 238 13
192 238 13
193 238 13
193 238 13
194 238 13
195 238 13
195 238 13
196 238 13
196 238 13
197 238 13
197 238 13
198 238 13
198 238 13
199 238 13
200 238 13
200 238 13
201 238 13
201 238 13
202 238 13
202 238 13
203 238 14
203 238 14
204 238 14
205 238 14
205 238 14
206 238 14
206 238 14
207 238 14
207 238 14
208 238 14
208 238 14
209 238 14
210 238 14
210 238 14
211 238 14
211 238 14
212 238 14
212 238 14
213 238 14
213 238 14
214 238 14
215 238 14
215 238 14
216 238 14
216 238 15
217 238 15
217 238 15
218 238 15
218 238 15
219 238 15
220 238 15
220 238 15
221 238 15
221 238 15
222 238 15
222 238 15
223 238 15
223 238 15
224 238 15
225 238 15
225 238 15
226 238 15
226 238 15
227 238 15
227 238 15
228 238 15
228 238 15
229 238 15
230 238 16
230 238 16
231 238 16
231 238 16
232 238 16
232 238 16
233 238 16
233 238 16
234 238 16
235 238 16
235 238 16
236 238 16
236 238 16
237 238 16
237 238 16
238 238 16
17 237 0
18 237 0
19 237 0
19 237 0
20 237 0
20 237 0
21 237 0
21 237 0
22 237 0
22 237 0
23 237 0
23 237 0
24 237 0
25 237 0
25 237 0
26 237 0
26 237 0
27 237 0
27 237 0
28 237 0
28 237 0
29 237 0
30 237 0
30 237 1
31 237 1
31 237 1
32 237 1
32 237 1
33 237 1
33 237 1
34 237 1
34 237 1
35 237 1
36 237 1
36 237 1
37 237 1
37 237 1
38 237 1
38 237 1
39 237 1
39 237 1
40 237 1
41 237 1
41 237 1
42 237 1
42 237 2
43 237 2
43 237 2
44 237 2
44 237 2
45 237 2
45 237 2
46 237 2
47 237 2
47 237 2
48 237 2
48 237 2
49 237 2
49 237 2
50 237 2
50 237 2
51 237 2
51 237 2
52 237 2
53 237 2
53 237 2
54 237 2
54 237 3
55 237 3
55 237 3
56 237 3
56 237 3
57 237 3
58 237 3
58 237 3
59 237 3
59 237 3
60 237 3
60 237 3
61 237 3
61 237 3
62 237 3
62 237 3
63 237 3
64 237 3
64 237 3
65 237 3
65 237 3
66 237 3
66 237 4
67 237 4
67 237 4
68 237 4
69 237 4
69 237 4
70 237 4
70 237 4
71 237 4
71 237 4
72 237 4
72 237 4
73 237 4
73 237 4
74 237 4
75 237 4
75 237 4
76 237 4
76 237 4
77 237 4
77 237 4
78 237 4
78 237 4
79 237 5
79 237 5
80 237 5
81 237 5
81 237 5
82 237 5
82 237 5
83 237 5
83 237 5
84 237 5
84 237 5
85 237 5
86 237 5
86 237 5
87 237 5
87 237 5
88 237 5
88 237 5
89 237 5
89 237 5
90 237 5
90 237 5
91 237 6
92 237 6
92 237 6
93 237 6
93 237 6
94 237 6
94 237 6
95 237 6
95 237 6
96 237 6
97 237 6
97 237 6
98 237 6
98 237 6
99 237 6
99 237 6
100 237 6
100 237 6
101 237 6
101 237 6
102 237 6
103 237 6
103 237 7
104 237 7
104 237 7
105 237 7
105 237 7
106 237 7
106 237 7
107 237 7
108 237 7
108 237 7
109 237 7
109 237 7
110 237 7
110 237 7
111 237 7
111 237 7
112 237 7
112 237 7
113 237 7
114 237 7
114 237 7
115 237 7
115 237 8
116 237 8
116 237 8
117 237 8
117 237 8
118 237 8
118 237 8
119 237 8
120 237 8
120 237 8
121 237 8
121 237 8
122 237 8
122 237 8
123 237 8
123 237 8
124 237 8
125 237 8
125 237 8
126 237 8
126 237 8
127 237 8
127 237 8
128 237 9
128 237 9
129 237 9
129 237 9
130 237 9
131 237 9
131 237 9
132 237 9
132 237 9
133 237 9
133 237 9
134 237 9
134 237 9
135 237 9
136 237 9
136 237 9
137 237 9
137 237 9
138 237 9
138 237 9
139 237 9
139 237 9
140 237 10
140 237 10
141 237 10
142 237 10
142 237 10
143 237 10
143 237 10
144 237 10
144 237 10
145 237 10
145 237 10
146 237 10
146 237 10
147 237 10
148 237 10
148 237 10
149 237 10
149 237 10
150 237 10
150 237 10
151 237 10
151 237 10
152 237 11
153 237 11
153 237 11
154 237 11
154 237 11
155 237 11
155 237 11
156 237 11
156 237 11
157 237 11
157 237 11
158 237 11
159 237 11
159 237 11
160 237 11
160 237 11
161 237 11
161 237 11
162 237 11
162 237 11
163 237 11
164 237 11
164 237 12
165 237 12
165 237 12
166 237 12
166 237 12
167 237 12
167 237 12
168 237 12
168 237 12
169 237 12
170 237 12
170 237 12
171 237 12
171 237 12
172 237 12
172 237 12
173 237 12
173 237 12
174 237 12
175 237 12
175 237 12
176 237 12
176 237 12
177 237 13
177 237 13
178 237 13
178 237 13
179 237 13
179 237 13
180 237 13
181 237 13
181 237 13
182 237 13
182 237 13
183 237 13
183 237 13
184 237 13
184 237 13
185 237 13
185 237 13
186 237 13
187 237 13
187 237 13
188 237 13
188 237 13
189 237 14
189 237 14
190 237 14
190 237 14
191 237 14
192 237 14
192 237 14
193 237 14
193 237 14
194 237 14
194 237 14
195 237 14
195 237 14
196 237 14
196 237 14
197 237 14
198 237 14
198 237 14
199 237 14
199 237 14
200 237 14
200 237 14
201 237 15
201 237 15
202 237 15
203 237 15
203 237 15
204 237 15
204 237 15
205 237 15
205 237 15
206 237 15
206 237 15
207 237 15
207 237 15
208 237 15
209 237 15
209 237 15
210 237 15
210 237 15
211 237 15
211 237 15
212 237 15
212 237 15
213 237 16
213 237 16
214 237 16
215 237 16
215 237 16
216 237 16
216 237 16
217 237 16
217 237 16
218 237 16
218 237 16
219 237 16
220 237 16
220 237 16
221 237 16
221 237 16
222 237 16
222 237 16
223 237 16
223 237 16
224 237 16
224 237 16
225 237 16
226 237 17
226 237 17
227 237 17
227 237 17
228 237 17
228 237 17
229 237 17
229 237 17
230 237 17
231 237 17
231 237 17
232 237 17
232 237 17
233 237 17
233 237 17
234 237 17
234 237 17
235 237 17
235 237 17
236 237 17
237 237 17
19 235 0
19 235 0
20 235 0
20 235 0
21 235 0
21 235 0
22 235 0
23 235 0
23 235 0
24 235 0
24 235 0
25 235 0
25 235 0
26 235 0
26 235 0
27 235 0
27 235 0
28 235 0
28 235 0
29 235 0
30 235 0
30 235 1
31 235 1
31 235 1
32 235 1
32 235 1
33 235 1
33 235 1
34 235 1
34 235 1
35 235 1
36 235 1
36 235 1
37 235 1
37 235 1
38 235 1
38 235 1
39 235 1
39 235 1
40 235 1
40 235 1
41 235 1
42 235 2
42 235 2
43 235 2
43 235 2
44 235 2
44 235 2
45 235 2
45 235 2
46 235 2
46 235 2
47 235 2
47 235 2
48 235 2
49 235 2
49 235 2
50 235 2
50 235 2
51 235 2
51 235 2
52 235 2
52 235 2
53 235 3
53 235 3
54 235 3
55 235 3
55 235 3
56 235 3
56 235 3
57 235 3
57 235 3
58 235 3
58 235 3
59 235 3
59 235 3
60 235 3
61 235 3
61 235 3
62 235 3
62 235 3
63 235 3
63 235 3
64 235 3
64 235 4
65 235 4
65 235 4
66 235 4
66 235 4
67 235 4
68 235 4
68 235 4
69 235 4
69 235 4
70 235 4
70 235 4
71 235 4
71 235 4
72 235 4
72 235 4
73 235 4
74 235 4
74 235 4
75 235 4
75 235 5
76 235 5
76 235 5
77 235 5
77 235 5
78 235 5
78 235 5
79 235 5
80 235 5
80 235 5
81 235 5
81 235 5
82 235 5
82 235 5
83 235 5
83 235 5
84 235 5
84 235 5
85 235 5
85 235 5
86 235 5
87 235 6
87 235 6
88 235 6
88 235 6
89 235 6
89 235 6
90 235 6
90 235 6
91 235 6
91 235 6
92 235 6
93 235 6
93 235 6
94 235 6
94 235 6
95 235 6
95 235 6
96 235 6
96 235 6
97 235 6
97 235 6
98 235 7
99 235 7
99 235 7
100 235 7
100 235 7
101 235 7
101 235 7
102 235 7
102 235 7
103 235 7
103 235 7
104 235 7
104 235 7
105 235 7
106 235 7
106 235 7
107 235 7
107 235 7
108 235 7
108 235 7
109 235 7
109 235 8
110 235 8
110 235 8
111 235 8
112 235 8
112 235 8
113 235 8
113 235 8
114 235 8
114 235 8
115 235 8
115 235 8
116 235 8
116 235 8
117 235 8
118 235 8
118 235 8
119 235 8
119 235 8
120 235 8
120 235 9
121 235 9
121 235 9
122 235 9
122 235 9
123 235 9
123 235 9
124 235 9
125 235 9
125 235 9
126 235 9
126 235 9
127 235 9
127 235 9
128 235 9
128 235 9
129 235 9
129 235 9
130 235 9
131 235 9
131 235 9
132 235 10
132 235 10
133 235 10
133 235 10
134 235 10
134 235 10
135 235 10
135 235 10
136 235 10
136 235 10
137 235 10
138 235 10
138 235 10
139 235 10
139 235 10
140 235 10
140 235 10
141 235 10
141 235 10
142 235 10
142 235 10
143 235 11
144 235 11
144 235 11
145 235 11
145 235 11
146 235 11
146 235 11
147 235 11
147 235 11
148 235 11
148 235 11
149 235 11
150 235 11
150 235 11
151 235 11
151 235 11
152 235 11
152 235 11
153 235 11
153 235 11
154 235 11
154 235 12
155 235 12
155 235 12
156 235 12
157 235 12
157 235 12
158 235 12
158 235 12
159 235 12
159 235 12
160 235 12
160 235 12
161 235 12
161 235 12
162 235 12
163 235 12
163 235 12
164 235 12
164 235 12
165 235 12
165 235 13
166 235 13
166 235 13
167 235 13
167 235 13
168 235 13
169 235 13
169 235 13
170 235 13
170 235 13
171 235 13
171 235 13
172 235 13
172 235 13
173 235 13
173 235 13
174 235 13
174 235 13
175 235 13
176 235 13
176 235 13
177 235 14
177 235 14
178 235 14
178 235 14
179 235 14
179 235 14
180 235 14
180 235 14
181 235 14
182 235 14
182 235 14
183 235 14
183 235 14
184 235 14
184 235 14
185 235 14
185 235 14
186 235 14
186 235 14
187 235 14
188 235 14
188 235 15
189 235 15
189 235 15
190 235 15
190 235 15
191 235 15
191 235 15
192 235 15
192 235 15
193 235 15
193 235 15
194 235 15
195 235 15
195 235 15
196 235 15
196 235 15
197 235 15
197 235 15
198 235 15
198 235 15
199 235 15
199 235 16
200 235 16
201 235 16
201 235 16
202 235 16
202 235 16
203 235 16
203 235 16
204 235 16
204 235 16
205 235 16
205 235 16
206 235 16
207 235 16
207 235 16
208 235 16
208 235 16
209 235 16
209 235 16
210 235 16
210 235 17
211 235 17
211 235 17
212 235 17
212 235 17
213 235 17
214 235 17
214 235 17
215 235 17
215 235 17
216 235 17
216 235 17
217 235 17
217 235 17
218 235 17
218 235 17
219 235 17
220 235 17
220 235 17
221 235 17
221 235 17
222 235 18
222 235 18
223 235 18
223 235 18
224 235 18
224 235 18
225 235 18
226 235 18
226 235 18
227 235 18
227 235 18
228 235 18
228 235 18
229 235 18
229 235 18
230 235 18
230 235 18
231 235 18
231 235 18
232 235 18
233 235 18
233 235 19
234 235 19
234 235 19
235 235 19
235 235 19
20 234 0
21 234 0
21 234 0
22 234 0
22 234 0
23 234 0
23 234 0
24 234 0
24 234 0
25 234 0
25 234 0
26 234 0
26 234 0
27 234 0
28 234 0
28 234 0
29 234 0
29 234 0
30 234 0
30 234 0
31 234 1
31 234 1
32 234 1
32 234 1
33 234 1
33 234 1
34 234 1
34 234 1
35 234 1
36 234 1
36 234 1
37 234 1
37 234 1
38 234 1
38 234 1
39 234 1
39 234 1
40 234 1
40 234 1
41 234 2
41 234 2
42 234 2
43 234 2
43 234 2
44 234 2
44 234 2
45 234 2
45 234 2
46 234 2
46 234 2
47 234 2
47 234 2
48 234 2
48 234 2
49 234 2
50 234 2
50 234 2
51 234 2
51 234 2
52 234 3
52 234 3
53 234 3
53 234 3
54 234 3
54 234 3
55 234 3
55 234 3
56 234 3
56 234 3
57 234 3
58 234 3
58 234 3
59 234 3
59 234 3
60 234 3
60 234 3
61 234 3
61 234 3
62 234 4
62 234 4
63 234 4
63 234 4
64 234 4
65 234 4
65 234 4
66 234 4
66 234 4
67 234 4
67 234 4
68 234 4
68 234 4
69 234 4
69 234 4
70 234 4
70 234 4
71 234 4
71 234 4
72 234 4
73 234 5
73 234 5
74 234 5
74 234 5
75 234 5
75 234 5
76 234 5
76 234 5
77 234 5
77 234 5
78 234 5
78 234 5
79 234 5
80 234 5
80 234 5
81 234 5
81 234 5
82 234 5
82 234 5
83 234 6
83 234 6
84 234 6
84 234 6
85 234 6
85 234 6
86 234 6
87 234 6
87 234 6
88 234 6
88 234 6
89 234 6
89 234 6
90 234 6
90 234 6
91 234 6
91 234 6
92 234 6
92 234 6
93 234 6
93 234 7
94 234 7
95 234 7
95 234 7
96 234 7
96 234 7
97 234 7
97 234 7
98 234 7
98 234 7
99 234 7
99 234 7
100 234 7
100 234 7
101 234 7
102 234 7
102 234 7
103 234 7
103 234 7
104 234 8
104 234 8
105 234 8
105 234 8
106 234 8
106 234 8
107 234 8
107 234 8
108 234 8
108 234 8
109 234 8
110 234 8
110 234 8
111 234 8
111 234 8
112 234 8
112 234 8
113 234 8
113 234 8
114 234 8
114 234 9
115 234 9
115 234 9
116 234 9
117 234 9
117 234 9
118 234 9
118 234 9
119 234 9
119 234 9
120 234 9
120 234 9
121 234 9
121 234 9
122 234 9
122 234 9
123 234 9
124 234 9
124 234 9
125 234 10
125 234 10
126 234 10
126 234 10
127 234 10
127 234 10
128 234 10
128 234 10
129 234 10
129 234 10
130 234 10
130 234 10
131 234 10
132 234 10
132 234 10
133 234 10
133 234 10
134 234 10
134 234 10
135 234 10
135 234 11
136 234 11
136 234 11
137 234 11
137 234 11
138 234 11
139 234 11
139 234 11
140 234 11
140 234 11
141 234 11
141 234 11
142 234 11
142 234 11
143 234 11
143 234 11
144 234 11
144 234 11
145 234 11
146 234 12
146 234 12
147 234 12
147 234 12
148 234 12
148 234 12
149 234 12
149 234 12
150 234 12
150 234 12
151 234 12
151 234 12
152 234 12
152 234 12
153 234 12
154 234 12
154 234 12
155 234 12
155 234 12
156 234 13
156 234 13
157 234 13
157 234 13
158 234 13
158 234 13
159 234 13
159 234 13
160 234 13
161 234 13
161 234 13
162 234 13
162 234 13
163 234 13
163 234 13
164 234 13
164 234 13
165 234 13
165 234 13
166 234 13
166 234 14
167 234 14
167 234 14
168 234 14
169 234 14
169 234 14
170 234 14
170 234 14
171 234 14
171 234 14
172 234 14
172 234 14
173 234 14
173 234 14
174 234 14
174 234 14
175 234 14
176 234 14
176 234 14
177 234 15
177 234 15
178 234 15
178 234 15
179 234 15
179 234 15
180 234 15
180 234 15
181 234 15
181 234 15
182 234 15
183 234 15
183 234 15
184 234 15
184 234 15
185 234 15
185 234 15
186 234 15
186 234 15
187 234 15
187 234 16
188 234 16
188 234 16
189 234 16
189 234 16
190 234 16
191 234 16
191 234 16
192 234 16
192 234 16
193 234 16
193 234 16
194 234 16
194 234 16
195 234 16
195 234 16
196 234 16
196 234 16
197 234 16
198 234 17
198 234 17
199 234 17
199 234 17
200 234 17
200 234 17
201 234 17
201 234 17
202 234 17
202 234 17
203 234 17
203 234 17
204 234 17
204 234 17
205 234 17
206 234 17
206 234 17
207 234 17
207 234 17
208 234 17
208 234 18
209 234 18
209 234 18
210 234 18
210 234 18
211 234 18
211 234 18
212 234 18
213 234 18
213 234 18
214 234 18
214 234 18
215 234 18
215 234 18
216 234 18
216 234 18
217 234 18
217 234 18
218 234 18
218 234 19
219 234 19
220 234 19
220 234 19
221 234 19
221 234 19
222 234 19
222 234 19
223 234 19
223 234 19
224 234 19
224 234 19
225 234 19
225 234 19
226 234 19
226 234 19
227 234 19
228 234 19
228 234 19
229 234 19
229 234 20
230 234 20
230 234 20
231 234 20
231 234 20
232 234 20
232 234 20
233 234 20
233 234 20
234 234 20
21 233 0
22 233 0
22 233 0
23 233 0
23 233 0
24 233 0
24 233 0
25 233 0
26 233 0
26 233 0
27 233 0
27 233 0
28 233 0
28 233 0
29 233 0
29 233 0
30 233 0
30 233 0
31 233 0
31 233 1
32 233 1
32 233 1
33 233 1
33 233 1
34 233 1
35 233 1
35 233 1
36 233 1
36 233 1
37 233 1
37 233 1
38 233 1
38 233 1
39 233 1
39 233 1
40 233 1
40 233 1
41 233 2
41 233 2
42 233 2
42 233 2
43 233 2
44 233 2
44 233 2
45 233 2
45 233 2
46 233 2
46 233 2
47 233 2
47 233 2
48 233 2
48 233 2
49 233 2
49 233 2
50 233 2
50 233 3
51 233 3
51 233 3
52 233 3
53 233 3
53 233 3
54 233 3
54 233 3
55 233 3
55 233 3
56 233 3
56 233 3
57 233 3
57 233 3
58 233 3
58 233 3
59 233 3
59 233 3
60 233 3
60 233 4
61 233 4
62 233 4
62 233 4
63 233 4
63 233 4
64 233 4
64 233 4
65 233 4
65 233 4
66 233 4
66 233 4
67 233 4
67 233 4
68 233 4
68 233 4
69 233 4
70 233 4
70 233 5
71 233 5
71 233 5
72 233 5
72 233 5
73 233 5
73 233 5
74 233 5
74 233 5
75 233 5
75 233 5
76 233 5
76 233 5
77 233 5
77 233 5
78 233 5
79 233 5
79 233 5
80 233 6
80 233 6
81 233 6
81 233 6
82 233 6
82 233 6
83 233 6
83 233 6
84 233 6
84 233 6
85 233 6
85 233 6
86 233 6
86 233 6
87 233 6
88 233 6
88 233 6
89 233 6
89 233 6
90 233 7
90 233 7
91 233 7
91 233 7
92 233 7
92 233 7
93 233 7
93 233 7
94 233 7
94 233 7
95 233 7
95 233 7
96 233 7
97 233 7
97 233 7
98 233 7
98 233 7
99 233 7
99 233 8
100 233 8
100 233 8
101 233 8
101 233 8
102 233 8
102 233 8
103 233 8
103 233 8
104 233 8
104 233 8
105 233 8
106 233 8
106 233 8
107 233 8
107 233 8
108 233 8
108 233 8
109 233 9
109 233 9
110 233 9
110 233 9
111 233 9
111 233 9
112 233 9
112 233 9
113 233 9
113 233 9
114 233 9
115 233 9
115 233 9
116 233 9
116 233 9
117 233 9
117 233 9
118 233 9
118 233 9
119 233 10
119 233 10
120 233 10
120 233 10
121 233 10
121 233 10
122 233 10
122 233 10
123 233 10
124 233 10
124 233 10
125 233 10
125 233 10
126 233 10
126 233 10
127 233 10
127 233 10
128 233 10
128 233 11
129 233 11
129 233 11
130 233 11
130 233 11
131 233 11
132 233 11
132 233 11
133 233 11
133 233 11
134 233 11
134 233 11
135 233 11
135 233 11
136 233 11
136 233 11
137 233 11
137 233 11
138 233 12
138 233 12
139 233 12
139 233 12
140 233 12
141 233 12
141 233 12
142 233 12
142 233 12
143 233 12
143 233 12
144 233 12
144 233 12
145 233 12
145 233 12
146 233 12
146 233 12
147 233 12
147 233 12
148 233 13
148 233 13
149 233 13
150 233 13
150 233 13
151 233 13
151 233 13
152 233 13
152 233 13
153 233 13
153 233 13
154 233 13
154 233 13
155 233 13
155 233 13
156 233 13
156 233 13
157 233 13
157 233 14
158 233 14
159 233 14
159 233 14
160 233 14
160 233 14
161 233 14
161 233 14
162 233 14
162 233 14
163 233 14
163 233 14
164 233 14
164 233 14
165 233 14
165 233 14
166 233 14
166 233 14
167 233 15
168 233 15
168 233 15
169 233 15
169 233 15
170 233 15
170 233 15
171 233 15
171 233 15
172 233 15
172 233 15
173 233 15
173 233 15
174 233 15
174 233 15
175 233 15
175 233 15
176 233 15
177 233 15
177 233 16
178 233 16
178 233 16
179 233 16
179 233 16
180 233 16
180 233 16
181 233 16
181 233 16
182 233 16
182 233 16
183 233 16
183 233 16
184 233 16
184 233 16
185 233 16
186 233 16
186 233 16
187 233 17
187 233 17
188 233 17
188 233 17
189 233 17
189 233 17
190 233 17
190 233 17
191 233 17
191 233 17
192 233 17
192 233 17
193 233 17
194 233 17
194 233 17
195 233 17
195 233 17
196 233 17
196 233 18
197 233 18
197 233 18
198 233 18
198 233 18
199 233 18
199 233 18
200 233 18
200 233 18
201 233 18
201 233 18
202 233 18
203 233 18
203 233 18
204 233 18
204 233 18
205 233 18
205 233 18
206 233 18
206 233 19
207 233 19
207 233 19
208 233 19
208 233 19
209 233 19
209 233 19
210 233 19
210 233 19
211 233 19
212 233 19
212 233 19
213 233 19
213 233 19
214 233 19
214 233 19
215 233 19
215 233 19
216 233 20
216 233 20
217 233 20
217 233 20
218 233 20
218 233 20
219 233 20
219 233 20
220 233 20
221 233 20
221 233 20
222 233 20
222 233 20
223 233 20
223 233 20
224 233 20
224 233 20
225 233 20
225 233 21
226 233 21
226 233 21
227 233 21
227 233 21
228 233 21
228 233 21
229 233 21
230 233 21
230 233 21
231 233 21
231 233 21
232 233 21
232 233 21
233 233 21
23 231 0
23 231 0
24 231 0
24 231 0
25 231 0
25 231 0
26 231 0
26 231 0
27 231 0
27 231 0
28 231 0
28 231 0
29 231 0
29 231 0
30 231 0
30 231 0
31 231 0
31 231 0
32 231 1
33 231 1
33 231 1
34 231 1
34 231 1
35 231 1
35 231 1
36 231 1
36 231 1
37 231 1
37 231 1
38 231 1
38 231 1
39 231 1
39 231 1
40 231 1
40 231 1
41 231 2
41 231 2
42 231 2
42 231 2
43 231 2
44 231 2
44 231 2
45 231 2
45 231 2
46 231 2
46 231 2
47 231 2
47 231 2
48 231 2
48 231 2
49 231 2
49 231 2
50 231 3
50 231 3
51 231 3
51 231 3
52 231 3
52 231 3
53 231 3
53 231 3
54 231 3
54 231 3
55 231 3
56 231 3
56 231 3
57 231 3
57 231 3
58 231 3
58 231 3
59 231 3
59 231 4
60 231 4
60 231 4
61 231 4
61 231 4
62 231 4
62 231 4
63 231 4
63 231 4
64 231 4
64 231 4
65 231 4
65 231 4
66 231 4
67 231 4
67 231 4
68 231 4
68 231 5
69 231 5
69 231 5
70 231 5
70 231 5
71 231 5
71 231 5
72 231 5
72 231 5
73 231 5
73 231 5
74 231 5
74 231 5
75 231 5
75 231 5
76 231 5
76 231 5
77 231 6
78 231 6
78 231 6
79 231 6
79 231 6
80 231 6
80 231 6
81 231 6
81 231 6
82 231 6
82 231 6
83 231 6
83 231 6
84 231 6
84 231 6
85 231 6
85 231 6
86 231 6
86 231 7
87 231 7
87 231 7
88 231 7
89 231 7
89 231 7
90 231 7
90 231 7
91 231 7
91 231 7
92 231 7
92 231 7
93 231 7
93 231 7
94 231 7
94 231 7
95 231 7
95 231 8
96 231 8
96 231 8
97 231 8
97 231 8
98 231 8
98 231 8
99 231 8
100 231 8
100 231 8
101 231 8
101 231 8
102 231 8
102 231 8
103 231 8
103 231 8
104 231 8
104 231 9
105 231 9
105 231 9
106 231 9
106 231 9
107 231 9
107 231 9
108 231 9
108 231 9
109 231 9
109 231 9
110 231 9
111 231 9
111 231 9
112 231 9
112 231 9
113 231 9
113 231 10
114 231 10
114 231 10
115 231 10
115 231 10
116 231 10
116 231 10
117 231 10
117 231 10
118 231 10
118 231 10
119 231 10
119 231 10
120 231 10
120 231 10
121 231 10
122 231 10
122 231 10
123 231 11
123 231 11
124 231 11
124 231 11
125 231 11
125 231 11
126 231 11
126 231 11
127 231 11
127 231 11
128 231 11
128 231 11
129 231 11
129 231 11
130 231 11
130 231 11
131 231 11
131 231 12
132 231 12
132 231 12
133 231 12
134 231 12
134 231 12
135 231 12
135 231 12
136 231 12
136 231 12
137 231 12
137 231 12
138 231 12
138 231 12
139 231 12
139 231 12
140 231 12
140 231 13
141 231 13
141 231 13
142 231 13
142 231 13
143 231 13
143 231 13
144 231 13
145 231 13
145 231 13
146 231 13
146 231 13
147 231 13
147 231 13
148 231 13
148 231 13
149 231 13
149 231 13
150 231 14
150 231 14
151 231 14
151 231 14
152 231 14
152 231 14
153 231 14
153 231 14
154 231 14
154 231 14
155 231 14
156 231 14
156 231 14
157 231 14
157 231 14
158 231 14
158 231 14
159 231 15
159 231 15
160 231 15
160 231 15
161 231 15
161 231 15
162 231 15
162 231 15
163 231 15
163 231 15
164 231 15
164 231 15
165 231 15
165 231 15
166 231 15
167 231 15
167 231 15
168 231 16
168 231 16
169 231 16
169 231 16
170 231 16
170 231 16
171 231 16
171 231 16
172 231 16
172 231 16
173 231 16
173 231 16
174 231 16
174 231 16
175 231 16
175 231 16
176 231 16
176 231 16
177 231 17
178 231 17
178 231 17
179 231 17
179 231 17
180 231 17
180 231 17
181 231 17
181 231 17
182 231 17
182 231 17
183 231 17
183 231 17
184 231 17
184 231 17
185 231 17
185 231 17
186 231 18
186 231 18
187 231 18
187 231 18
188 231 18
189 231 18
189 231 18
190 231 18
190 231 18
191 231 18
191 231 18
192 231 18
192 231 18
193 231 18
193 231 18
194 231 18
194 231 18
195 231 19
195 231 19
196 231 19
196 231 19
197 231 19
197 231 19
198 231 19
198 231 19
199 231 19
200 231 19
200 231 19
201 231 19
201 231 19
202 231 19
202 231 19
203 231 19
203 231 19
204 231 20
204 231 20
205 231 20
205 231 20
206 231 20
206 231 20
207 231 20
207 231 20
208 231 20
208 231 20
209 231 20
209 231 20
210 231 20
210 231 20
211 231 20
212 231 20
212 231 20
213 231 20
213 231 21
214 231 21
214 231 21
215 231 21
215 231 21
216 231 21
216 231 21
217 231 21
217 231 21
218 231 21
218 231 21
219 231 21
219 231 21
220 231 21
220 231 21
221 231 21
221 231 21
222 231 22
223 231 22
223 231 22
224 231 22
224 231 22
225 231 22
225 231 22
226 231 22
226 231 22
227 231 22
227 231 22
228 231 22
228 231 22
229 231 22
229 231 22
230 231 22
230 231 22
231 231 23
231 231 23
24 230 0
24 230 0
25 230 0
25 230 0
26 230 0
26 230 0
27 230 0
27 230 0
28 230 0
29 230 0
29 230 0
30 230 0
30 230 0
31 230 0
31 230 0
32 230 0
32 230 0
33 230 1
33 230 1
34 230 1
34 230 1
35 230 1
35 230 1
36 230 1
36 230 1
37 230 1
37 230 1
38 230 1
38 230 1
39 230 1
39 230 1
40 230 1
40 230 1
41 230 2
41 230 2
42 230 2
42 230 2
43 230 2
43 230 2
44 230 2
45 230 2
45 230 2
46 230 2
46 230 2
47 230 2
47 230 2
48 230 2
48 230 2
49 230 2
49 230 2
50 230 3
50 230 3
51 230 3
51 230 3
52 230 3
52 230 3
53 230 3
53 230 3
54 230 3
54 230 3
55 230 3
55 230 3
56 230 3
56 230 3
57 230 3
57 230 3
58 230 4
58 230 4
59 230 4
60 230 4
60 230 4
61 230 4
61 230 4
62 230 4
62 230 4
63 230 4
63 230 4
64 230 4
64 230 4
65 230 4
65 230 4
66 230 4
66 230 5
67 230 5
67 230 5
68 230 5
68 230 5
69 230 5
69 230 5
70 230 5
70 230 5
71 230 5
71 230 5
72 230 5
72 230 5
73 230 5
73 230 5
74 230 5
75 230 5
75 230 6
76 230 6
76 230 6
77 230 6
77 230 6
78 230 6
78 230 6
79 230 6
79 230 6
80 230 6
80 230 6
81 230 6
81 230 6
82 230 6
82 230 6
83 230 6
83 230 7
84 230 7
84 230 7
85 230 7
85 230 7
86 230 7
86 230 7
87 230 7
87 230 7
88 230 7
88 230 7
89 230 7
90 230 7
90 230 7
91 230 7
91 230 7
92 230 7
92 230 8
93 230 8
93 230 8
94 230 8
94 230 8
95 230 8
95 230 8
96 230 8
96 230 8
97 230 8
97 230 8
98 230 8
98 230 8
99 230 8
99 230 8
100 230 8
100 230 9
101 230 9
101 230 9
102 230 9
102 230 9
103 230 9
103 230 9
104 230 9
105 230 9
105 230 9
106 230 9
106 230 9
107 230 9
107 230 9
108 230 9
108 230 9
109 230 10
109 230 10
110 230 10
110 230 10
111 230 10
111 230 10
112 230 10
112 230 10
113 230 10
113 230 10
114 230 10
114 230 10
115 230 10
115 230 10
116 230 10
116 230 10
117 230 10
117 230 11
118 230 11
118 230 11
119 230 11
120 230 11
120 230 11
121 230 11
121 230 11
122 230 11
122 230 11
123 230 11
123 230 11
124 230 11
124 230 11
125 230 11
125 230 11
126 230 12
126 230 12
127 230 12
127 230 12
128 230 12
128 230 12
129 230 12
129 230 12
130 230 12
130 230 12
131 230 12
131 230 12
132 230 12
132 230 12
133 230 12
133 230 12
134 230 12
134 230 13
135 230 13
136 230 13
136 230 13
137 230 13
137 230 13
138 230 13
138 230 13
139 230 13
139 230 13
140 230 13
140 230 13
141 230 13
141 230 13
142 230 13
142 230 13
143 230 14
143 230 14
144 230 14
144 230 14
145 230 14
145 230 14
146 230 14
146 230 14
147 230 14
147 230 14
148 230 14
148 230 14
149 230 14
149 230 14
150 230 14
151 230 14
151 230 15
152 230 15
152 230 15
153 230 15
153 230 15
154 230 15
154 230 15
155 230 15
155 230 15
156 230 15
156 230 15
157 230 15
157 230 15
158 230 15
158 230 15
159 230 15
159 230 15
160 230 16
160 230 16
161 230 16
161 230 16
162 230 16
162 230 16
163 230 16
163 230 16
164 230 16
164 230 16
165 230 16
166 230 16
166 230 16
167 230 16
167 230 16
168 230 16
168 230 17
169 230 17
169 230 17
170 230 17
170 230 17
171 230 17
171 230 17
172 230 17
172 230 17
173 230 17
173 230 17
174 230 17
174 230 17
175 230 17
175 230 17
176 230 17
176 230 18
177 230 18
177 230 18
178 230 18
178 230 18
179 230 18
179 230 18
180 230 18
181 230 18
181 230 18
182 230 18
182 230 18
183 230 18
183 230 18
184 230 18
184 230 18
185 230 18
185 230 19
186 230 19
186 230 19
187 230 19
187 230 19
188 230 19
188 230 19
189 230 19
189 230 19
190 230 19
190 230 19
191 230 19
191 230 19
192 230 19
192 230 19
193 230 19
193 230 20
194 230 20
194 230 20
195 230 20
196 230 20
196 230 20
197 230 20
197 230 20
198 230 20
198 230 20
199 230 20
199 230 20
200 230 20
200 230 20
201 230 20
201 230 20
202 230 20
202 230 21
203 230 21
203 230 21
204 230 21
204 230 21
205 230 21
205 230 21
206 230 21
206 230 21
207 230 21
207 230 21
208 230 21
208 230 21
209 230 21
209 230 21
210 230 21
211 230 22
211 230 22
212 230 22
212 230 22
213 230 22
213 230 22
214 230 22
214 230 22
215 230 22
215 230 22
216 230 22
216 230 22
217 230 22
217 230 22
218 230 22
218 230 22
219 230 23
219 230 23
220 230 23
220 230 23
221 230 23
221 230 23
222 230 23
222 230 23
223 230 23
223 230 23
224 230 23
224 230 23
225 230 23
225 230 23
226 230 23
227 230 23
227 230 23
228 230 24
228 230 24
229 230 24
229 230 24
230 230 24
230 230 24
25 229 0
26 229 0
26 229 0
27 229 0
27 229 0
28 229 0
28 229 0
29 229 0
29 229 0
30 229 0
30 229 0
31 229 0
31 229 0
32 229 0
32 229 0
33 229 0
33 229 1
34 229 1
34 229 1
35 229 1
35 229 1
36 229 1
36 229 1
37 229 1
37 229 1
38 229 1
38 229 1
39 229 1
39 229 1
40 229 1
40 229 1
41 229 1
41 229 2
42 229 2
42 229 2
43 229 2
44 229 2
44 229 2
45 229 2
45 229 2
46 229 2
46 229 2
47 229 2
47 229 2
48 229 2
48 229 2
49 229 2
49 229 3
50 229 3
50 229 3
51 229 3
51 229 3
52 229 3
52 229 3
53 229 3
53 229 3
54 229 3
54 229 3
55 229 3
55 229 3
56 229 3
56 229 3
57 229 3
57 229 4
58 229 4
58 229 4
59 229 4
59 229 4
60 229 4
60 229 4
61 229 4
61 229 4
62 229 4
62 229 4
63 229 4
63 229 4
64 229 4
64 229 4
65 229 5
65 229 5
66 229 5
66 229 5
67 229 5
68 229 5
68 229 5
69 229 5
69 229 5
70 229 5
70 229 5
71 229 5
71 229 5
72 229 5
72 229 5
73 229 5
73 229 6
74 229 6
74 229 6
75 229 6
75 229 6
76 229 6
76 229 6
77 229 6
77 229 6
78 229 6
78 229 6
79 229 6
79 229 6
80 229 6
80 229 6
81 229 7
81 229 7
82 229 7
82 229 7
83 229 7
83 229 7
84 229 7
84 229 7
85 229 7
85 229 7
86 229 7
86 229 7
87 229 7
87 229 7
88 229 7
88 229 7
89 229 8
89 229 8
90 229 8
90 229 8
91 229 8
92 229 8
92 229 8
93 229 8
93 229 8
94 229 8
94 229 8
95 229 8
95 229 8
96 229 8
96 229 8
97 229 8
97 229 9
98 229 9
98 229 9
99 229 9
99 229 9
100 229 9
100 229 9
101 229 9
101 229 9
102 229 9
102 229 9
103 229 9
103 229 9
104 229 9
104 229 9
105 229 10
105 229 10
106 229 10
106 229 10
107 229 10
107 229 10
108 229 10
108 229 10
109 229 10
109 229 10
110 229 10
110 229 10
111 229 10
111 229 10
112 229 10
112 229 10
113 229 11
113 229 11
114 229 11
114 229 11
115 229 11
116 229 11
116 229 11
117 229 11
117 229 11
118 229 11
118 229 11
119 229 11
119 229 11
120 229 11
120 229 11
121 229 12
121 229 12
122 229 12
122 229 12
123 229 12
123 229 12
124 229 12
124 229 12
125 229 12
125 229 12
126 229 12
126 229 12
127 229 12
127 229 12
128 229 12
128 229 12
129 229 13
129 229 13
130 229 13
130 229 13
131 229 13
131 229 13
132 229 13
132 229 13
133 229 13
133 229 13
134 229 13
134 229 13
135 229 13
135 229 13
136 229 13
136 229 14
137 229 14
137 229 14
138 229 14
138 229 14
139 229 14
140 229 14
140 229 14
141 229 14
141 229 14
142 229 14
142 229 14
143 229 14
143 229 14
144 229 14
144 229 14
145 229 15
145 229 15
146 229 15
146 229 15
147 229 15
147 229 15
148 229 15
148 229 15
149 229 15
149 229 15
150 229 15
150 229 15
151 229 15
151 229 15
152 229 15
152 229 15
153 229 16
153 229 16
154 229 16
154 229 16
155 229 16
155 229 16
156 229 16
156 229 16
157 229 16
157 229 16
158 229 16
158 229 16
159 229 16
159 229 16
160 229 16
160 229 17
161 229 17
161 229 17
162 229 17
162 229 17
163 229 17
164 229 17
164 229 17
165 229 17
165 229 17
166 229 17
166 229 17
167 229 17
167 229 17
168 229 17
168 229 17
169 229 18
169 229 18
170 229 18
170 229 18
171 229 18
171 229 18
172 229 18
172 229 18
173 229 18
173 229 18
174 229 18
174 229 18
175 229 18
175 229 18
176 229 18
176 229 19
177 229 19
177 229 19
178 229 19
178 229 19
179 229 19
179 229 19
180 229 19
180 229 19
181 229 19
181 229 19
182 229 19
182 229 19
183 229 19
183 229 19
184 229 19
184 229 20
185 229 20
185 229 20
186 229 20
186 229 20
187 229 20
188 229 20
188 229 20
189 229 20
189 229 20
190 229 20
190 229 20
191 229 20
191 229 20
192 229 20
192 229 21
193 229 21
193 229 21
194 229 21
194 229 21
195 229 21
195 229 21
196 229 21
196 229 21
197 229 21
197 229 21
198 229 21
198 229 21
199 229 21
199 229 21
200 229 21
200 229 22
201 229 22
201 229 22
202 229 22
202 229 22
203 229 22
203 229 22
204 229 22
204 229 22
205 229 22
205 229 22
206 229 22
206 229 22
207 229 22
207 229 22
208 229 22
208 229 23
209 229 23
209 229 23
210 229 23
210 229 23
211 229 23
212 229 23
212 229 23
213 229 23
213 229 23
214 229 23
214 229 23
215 229 23
215 229 23
216 229 23
216 229 24
217 229 24
217 229 24
218 229 24
218 229 24
219 229 24
219 229 24
220 229 24
220 229 24
221 229 24
221 229 24
222 229 24
222 229 24
223 229 24
223 229 24
224 229 24
224 229 25
225 229 25
225 229 25
226 229 25
226 229 25
227 229 25
227 229 25
228 229 25
228 229 25
229 229 25
26 228 0
27 228 0
27 228 0
28 228 0
28 228 0
29 228 0
29 228 0
30 228 0
30 228 0
31 228 0
31 228 0
32 228 0
32 228 0
33 228 0
33 228 0
34 228 1
34 228 1
35 228 1
35 228 1
36 228 1
36 228 1
37 228 1
38 228 1
38 228 1
39 228 1
39 228 1
40 228 1
40 228 1
41 228 1
41 228 1
42 228 2
42 228 2
43 228 2
43 228 2
44 228 2
44 228 2
45 228 2
45 228 2
46 228 2
46 228 2
47 228 2
47 228 2
48 228 2
48 228 2
49 228 2
49 228 3
50 228 3
50 228 3
51 228 3
51 228 3
52 228 3
52 228 3
53 228 3
53 228 3
54 228 3
54 228 3
55 228 3
55 228 3
56 228 3
56 228 3
57 228 4
57 228 4
58 228 4
58 228 4
59 228 4
59 228 4
60 228 4
60 228 4
61 228 4
61 228 4
62 228 4
62 228 4
63 228 4
63 228 4
64 228 4
64 228 5
65 228 5
65 228 5
66 228 5
66 228 5
67 228 5
67 228 5
68 228 5
68 228 5
69 228 5
69 228 5
70 228 5
70 228 5
71 228 5
71 228 6
72 228 6
72 228 6
73 228 6
73 228 6
74 228 6
74 228 6
75 228 6
75 228 6
76 228 6
76 228 6
77 228 6
77 228 6
78 228 6
78 228 6
79 228 7
79 228 7
80 228 7
80 228 7
81 228 7
81 228 7
82 228 7
82 228 7
83 228 7
83 228 7
84 228 7
84 228 7
85 228 7
85 228 7
86 228 7
86 228 8
87 228 8
87 228 8
88 228 8
88 228 8
89 228 8
89 228 8
90 228 8
90 228 8
91 228 8
91 228 8
92 228 8
92 228 8
93 228 8
93 228 8
94 228 9
94 228 9
95 228 9
95 228 9
96 228 9
96 228 9
97 228 9
98 228 9
98 228 9
99 228 9
99 228 9
100 228 9
100 228 9
101 228 9
101 228 9
102 228 10
102 228 10
103 228 10
103 228 10
104 228 10
104 228 10
105 228 10
105 228 10
106 228 10
106 228 10
107 228 10
107 228 10
108 228 10
108 228 10
109 228 10
109 228 11
110 228 11
110 228 11
111 228 11
111 228 11
112 228 11
112 228 11
113 228 11
113 228 11
114 228 11
114 228 11
115 228 11
115 228 11
116 228 11
116 228 12
117 228 12
117 228 12
118 228 12
118 228 12
119 228 12
119 228 12
120 228 12
120 228 12
121 228 12
121 228 12
122 228 12
122 228 12
123 228 12
123 228 12
124 228 13
124 228 13
125 228 13
125 228 13
126 228 13
126 228 13
127 228 13
127 228 13
128 228 13
128 228 13
129 228 13
129 228 13
130 228 13
130 228 13
131 228 13
131 228 14
132 228 14
132 228 14
133 228 14
133 228 14
134 228 14
134 228 14
135 228 14
135 228 14
136 228 14
136 228 14
137 228 14
137 228 14
138 228 14
138 228 14
139 228 15
139 228 15
140 228 15
140 228 15
141 228 15
141 228 15
142 228 15
142 228 15
143 228 15
143 228 15
144 228 15
144 228 15
145 228 15
145 228 15
146 228 15
146 228 16
147 228 16
147 228 16
148 228 16
148 228 16
149 228 16
149 228 16
150 228 16
150 228 16
151 228 16
151 228 16
152 228 16
152 228 16
153 228 16
153 228 16
154 228 17
154 228 17
155 228 17
155 228 17
156 228 17
156 228 17
157 228 17
158 228 17
158 228 17
159 228 17
159 228 17
160 228 17
160 228 17
161 228 17
161 228 18
162 228 18
162 228 18
163 228 18
163 228 18
164 228 18
164 228 18
165 228 18
165 228 18
166 228 18
166 228 18
167 228 18
167 228 18
168 228 18
168 228 18
169 228 19
169 228 19
170 228 19
170 228 19
171 228 19
171 228 19
172 228 19
172 228 19
173 228 19
173 228 19
174 228 19
174 228 19
175 228 19
175 228 19
176 228 19
176 228 20
177 228 20
177 228 20
178 228 20
178 228 20
179 228 20
179 228 20
180 228 20
180 228 20
181 228 20
181 228 20
182 228 20
182 228 20
183 228 20
183 228 20
184 228 21
184 228 21
185 228 21
185 228 21
186 228 21
186 228 21
187 228 21
187 228 21
188 228 21
188 228 21
189 228 21
189 228 21
190 228 21
190 228 21
191 228 21
191 228 22
192 228 22
192 228 22
193 228 22
193 228 22
194 228 22
194 228 22
195 228 22
195 228 22
196 228 22
196 228 22
197 228 22
197 228 22
198 228 22
198 228 22
199 228 23
199 228 23
200 228 23
200 228 23
201 228 23
201 228 23
202 228 23
202 228 23
203 228 23
203 228 23
204 228 23
204 228 23
205 228 23
205 228 23
206 228 24
206 228 24
207 228 24
207 228 24
208 228 24
208 228 24
209 228 24
209 228 24
210 228 24
210 228 24
211 228 24
211 228 24
212 228 24
212 228 24
213 228 24
213 228 25
214 228 25
214 228 25
215 228 25
215 228 25
216 228 25
216 228 25
217 228 25
218 228 25
218 228 25
219 228 25
219 228 25
220 228 25
220 228 25
221 228 25
221 228 26
222 228 26
222 228 26
223 228 26
223 228 26
224 228 26
224 228 26
225 228 26
225 228 26
226 228 26
226 228 26
227 228 26
227 228 26
228 228 26
28 226 0
28 226 0
29 226 0
29 226 0
30 226 0
30 226 0
31 226 0
31 226 0
32 226 0
32 226 0
33 226 0
33 226 0
34 226 0
34 226 0
35 226 0
35 226 1
36 226 1
36 226 1
37 226 1
37 226 1
38 226 1
38 226 1
39 226 1
39 226 1
40 226 1
40 226 1
41 226 1
41 226 1
42 226 1
42 226 2
43 226 2
43 226 2
44 226 2
44 226 2
45 226 2
45 226 2
46 226 2
46 226 2
47 226 2
47 226 2
48 226 2
48 226 2
49 226 2
49 226 3
50 226 3
50 226 3
51 226 3
51 226 3
52 226 3
52 226 3
53 226 3
53 226 3
54 226 3
54 226 3
55 226 3
55 226 3
56 226 3
56 226 4
57 226 4
57 226 4
58 226 4
58 226 4
59 226 4
59 226 4
60 226 4
60 226 4
61 226 4
61 226 4
62 226 4
62 226 4
63 226 4
63 226 5
64 226 5
64 226 5
65 226 5
65 226 5
66 226 5
66 226 5
67 226 5
67 226 5
68 226 5
68 226 5
69 226 5
69 226 5
70 226 5
70 226 6
71 226 6
71 226 6
71 226 6
72 226 6
72 226 6
73 226 6
73 226 6
74 226 6
74 226 6
75 226 6
75 226 6
76 226 6
76 226 6
77 226 6
77 226 7
78 226 7
78 226 7
79 226 7
79 226 7
80 226 7
80 226 7
81 226 7
81 226 7
82 226 7
82 226 7
83 226 7
83 226 7
84 226 7
84 226 8
85 226 8
85 226 8
86 226 8
86 226 8
87 226 8
87 226 8
88 226 8
88 226 8
89 226 8
89 226 8
90 226 8
90 226 8
91 226 8
91 226 9
92 226 9
92 226 9
93 226 9
93 226 9
94 226 9
94 226 9
95 226 9
95 226 9
96 226 9
96 226 9
97 226 9
97 226 9
98 226 9
98 226 10
99 226 10
99 226 10
100 226 10
100 226 10
101 226 10
101 226 10
102 226 10
102 226 10
103 226 10
103 226 10
104 226 10
104 226 10
105 226 10
105 226 11
106 226 11
106 226 11
107 226 11
107 226 11
108 226 11
108 226 11
109 226 11
109 226 11
110 226 11
110 226 11
111 226 11
111 226 11
112 226 11
112 226 12
113 226 12
113 226 12
114 226 12
114 226 12
115 226 12
115 226 12
116 226 12
116 226 12
117 226 12
117 226 12
118 226 12
118 226 12
119 226 12
119 226 13
120 226 13
120 226 13
121 226 13
121 226 13
122 226 13
122 226 13
123 226 13
123 226 13
124 226 13
124 226 13
125 226 13
125 226 13
126 226 13
126 226 13
127 226 14
127 226 14
128 226 14
128 226 14
129 226 14
129 226 14
130 226 14
130 226 14
131 226 14
131 226 14
132 226 14
132 226 14
133 226 14
133 226 14
134 226 15
134 226 15
135 226 15
135 226 15
136 226 15
136 226 15
137 226 15
137 226 15
138 226 15
138 226 15
139 226 15
139 226 15
140 226 15
140 226 15
141 226 16
141 226 16
142 226 16
142 226 16
143 226 16
143 226 16
144 226 16
144 226 16
145 226 16
145 226 16
146 226 16
146 226 16
147 226 16
147 226 16
148 226 17
148 226 17
149 226 17
149 226 17
150 226 17
150 226 17
151 226 17
151 226 17
152 226 17
152 226 17
153 226 17
153 226 17
154 226 17
154 226 17
155 226 18
155 226 18
156 226 18
156 226 18
157 226 18
157 226 18
158 226 18
158 226 18
159 226 18
159 226 18
160 226 18
160 226 18
161 226 18
161 226 18
162 226 19
162 226 19
163 226 19
163 226 19
164 226 19
164 226 19
165 226 19
165 226 19
166 226 19
166 226 19
167 226 19
167 226 19
168 226 19
168 226 19
169 226 19
169 226 20
170 226 20
170 226 20
171 226 20
171 226 20
172 226 20
172 226 20
173 226 20
173 226 20
174 226 20
174 226 20
175 226 20
175 226 20
176 226 20
176 226 21
177 226 21
177 226 21
178 226 21
178 226 21
179 226 21
179 226 21
180 226 21
180 226 21
181 226 21
181 226 21
182 226 21
182 226 21
183 226 21
183 226 22
183 226 22
184 226 22
184 226 22
185 226 22
185 226 22
186 226 22
186 226 22
187 226 22
187 226 22
188 226 22
188 226 22
189 226 22
189 226 22
190 226 23
190 226 23
191 226 23
191 226 23
192 226 23
192 226 23
193 226 23
193 226 23
194 226 23
194 226 23
195 226 23
195 226 23
196 226 23
196 226 23
197 226 24
197 226 24
198 226 24
198 226 24
199 226 24
199 226 24
200 226 24
200 226 24
201 226 24
201 226 24
202 226 24
202 226 24
203 226 24
203 226 24
204 226 25
204 226 25
205 226 25
205 226 25
206 226 25
206 226 25
207 226 25
207 226 25
208 226 25
208 226 25
209 226 25
209 226 25
210 226 25
210 226 25
211 226 26
211 226 26
212 226 26
212 226 26
213 226 26
213 226 26
214 226 26
214 226 26
215 226 26
215 226 26
216 226 26
216 226 26
217 226 26
217 226 26
218 226 26
218 226 27
219 226 27
219 226 27
220 226 27
220 226 27
221 226 27
221 226 27
222 226 27
222 226 27
223 226 27
223 226 27
224 226 27
224 226 27
225 226 27
225 226 28
226 226 28
226 226 28
29 225 0
29 225 0
30 225 0
30 225 0
31 225 0
31 225 0
32 225 0
32 225 0
33 225 0
33 225 0
34 225 0
34 225 0
35 225 0
35 225 0
36 225 1
36 225 1
37 225 1
37 225 1
38 225 1
38 225 1
39 225 1
39 225 1
40 225 1
40 225 1
41 225 1
41 225 1
42 225 1
42 225 1
43 225 2
43 225 2
44 225 2
44 225 2
45 225 2
45 225 2
46 225 2
46 225 2
47 225 2
47 225 2
48 225 2
48 225 2
49 225 2
49 225 3
50 225 3
50 225 3
51 225 3
51 225 3
52 225 3
52 225 3
53 225 3
53 225 3
54 225 3
54 225 3
55 225 3
55 225 3
56 225 3
56 225 4
56 225 4
57 225 4
57 225 4
58 225 4
58 225 4
59 225 4
59 225 4
60 225 4
60 225 4
61 225 4
61 225 4
62 225 4
62 225 5
63 225 5
63 225 5
64 225 5
64 225 5
65 225 5
65 225 5
66 225 5
66 225 5
67 225 5
67 225 5
68 225 5
68 225 5
69 225 5
69 225 6
70 225 6
70 225 6
71 225 6
71 225 6
72 225 6
72 225 6
73 225 6
73 225 6
74 225 6
74 225 6
75 225 6
75 225 6
76 225 7
76 225 7
77 225 7
77 225 7
78 225 7
78 225 7
79 225 7
79 225 7
80 225 7
80 225 7
81 225 7
81 225 7
82 225 7
82 225 7
83 225 8
83 225 8
84 225 8
84 225 8
84 225 8
85 225 8
85 225 8
86 225 8
86 225 8
87 225 8
87 225 8
88 225 8
88 225 8
89 225 9
89 225 9
90 225 9
90 225 9
91 225 9
91 225 9
92 225 9
92 225 9
93 225 9
93 225 9
94 225 9
94 225 9
95 225 9
95 225 9
96 225 10
96 225 10
97 225 10
97 225 10
98 225 10
98 225 10
99 225 10
99 225 10
100 225 10
100 225 10
101 225 10
101 225 10
102 225 10
102 225 11
103 225 11
103 225 11
104 225 11
104 225 11
105 225 11
105 225 11
106 225 11
106 225 11
107 225 11
107 225 11
108 225 11
108 225 11
109 225 11
109 225 12
110 225 12
110 225 12
111 225 12
111 225 12
112 225 12
112 225 12
113 225 12
113 225 12
113 225 12
114 225 12
114 225 12
115 225 12
115 225 13
116 225 13
116 225 13
117 225 13
117 225 13
118 225 13
118 225 13
119 225 13
119 225 13
120 225 13
120 225 13
121 225 13
121 225 13
122 225 13
122 225 14
123 225 14
123 225 14
124 225 14
124 225 14
125 225 14
125 225 14
126 225 14
126 225 14
127 225 14
127 225 14
128 225 14
128 225 14
129 225 14
129 225 15
130 225 15
130 225 15
131 225 15
131 225 15
132 225 15
132 225 15
133 225 15
133 225 15
134 225 15
134 225 15
135 225 15
135 225 15
136 225 16
136 225 16
137 225 16
137 225 16
138 225 16
138 225 16
139 225 16
139 225 16
140 225 16
140 225 16
141 225 16
141 225 16
141 225 16
142 225 16
142 225 17
143 225 17
143 225 17
144 225 17
144 225 17
145 225 17
145 225 17
146 225 17
146 225 17
147 225 17
147 225 17
148 225 17
148 225 17
149 225 18
149 225 18
150 225 18
150 225 18
151 225 18
151 225 18
152 225 18
152 225 18
153 225 18
153 225 18
154 225 18
154 225 18
155 225 18
155 225 18
156 225 19
156 225 19
157 225 19
157 225 19
158 225 19
158 225 19
159 225 19
159 225 19
160 225 19
160 225 19
161 225 19
161 225 19
162 225 19
162 225 20
163 225 20
163 225 20
164 225 20
164 225 20
165 225 20
165 225 20
166 225 20
166 225 20
167 225 20
167 225 20
168 225 20
168 225 20
169 225 20
169 225 21
170 225 21
170 225 21
170 225 21
171 225 21
171 225 21
172 225 21
172 225 21
173 225 21
173 225 21
174 225 21
174 225 21
175 225 21
175 225 22
176 225 22
176 225 22
177 225 22
177 225 22
178 225 22
178 225 22
179 225 22
179 225 22
180 225 22
180 225 22
181 225 22
181 225 22
182 225 22
182 225 23
183 225 23
183 225 23
184 225 23
184 225 23
185 225 23
185 225 23
186 225 23
186 225 23
187 225 23
187 225 23
188 225 23
188 225 23
189 225 24
189 225 24
190 225 24
190 225 24
191 225 24
191 225 24
192 225 24
192 225 24
193 225 24
193 225 24
194 225 24
194 225 24
195 225 24
195 225 24
196 225 25
196 225 25
197 225 25
197 225 25
198 225 25
198 225 25
198 225 25
199 225 25
199 225 25
200 225 25
200 225 25
201 225 25
201 225 25
202 225 26
202 225 26
203 225 26
203 225 26
204 225 26
204 225 26
205 225 26
205 225 26
206 225 26
206 225 26
207 225 26
207 225 26
208 225 26
208 225 26
209 225 27
209 225 27
210 225 27
210 225 27
211 225 27
211 225 27
212 225 27
212 225 27
213 225 27
213 225 27
214 225 27
214 225 27
215 225 27
215 225 27
216 225 28
216 225 28
217 225 28
217 225 28
218 225 28
218 225 28
219 225 28
219 225 28
220 225 28
220 225 28
221 225 28
221 225 28
222 225 28
222 225 29
223 225 29
223 225 29
224 225 29
224 225 29
225 225 29
225 225 29
30 224 0
31 224 0
31 224 0
32 224 0
32 224 0
33 224 0
33 224 0
34 224 0
34 224 0
35 224 0
35 224 0
36 224 0
36 224 0
37 224 1
37 224 1
38 224 1
38 224 1
38 224 1
39 224 1
39 224 1
40 224 1
40 224 1
41 224 1
41 224 1
42 224 1
42 224 1
43 224 2
43 224 2
44 224 2
44 224 2
45 224 2
45 224 2
46 224 2
46 224 2
47 224 2
47 224 2
48 224 2
48 224 2
49 224 2
49 224 3
50 224 3
50 224 3
51 224 3
51 224 3
52 224 3
52 224 3
53 224 3
53 224 3
54 224 3
54 224 3
55 224 3
55 224 3
55 224 4
56 224 4
56 224 4
57 224 4
57 224 4
58 224 4
58 224 4
59 224 4
59 224 4
60 224 4
60 224 4
61 224 4
61 224 4
62 224 5
62 224 5
63 224 5
63 224 5
64 224 5
64 224 5
65 224 5
65 224 5
66 224 5
66 224 5
67 224 5
67 224 5
68 224 5
68 224 6
69 224 6
69 224 6
70 224 6
70 224 6
71 224 6
71 224 6
71 224 6
72 224 6
72 224 6
73 224 6
73 224 6
74 224 6
74 224 7
75 224 7
75 224 7
76 224 7
76 224 7
77 224 7
77 224 7
78 224 7
78 224 7
79 224 7
79 224 7
80 224 7
80 224 7
81 224 8
81 224 8
82 224 8
82 224 8
83 224 8
83 224 8
84 224 8
84 224 8
85 224 8
85 224 8
86 224 8
86 224 8
87 224 8
87 224 9
87 224 9
88 224 9
88 224 9
89 224 9
89 224 9
90 224 9
90 224 9
91 224 9
91 224 9
92 224 9
92 224 9
93 224 9
93 224 10
94 224 10
94 224 10
95 224 10
95 224 10
96 224 10
96 224 10
97 224 10
97 224 10
98 224 10
98 224 10
99 224 10
99 224 10
100 224 11
100 224 11
101 224 11
101 224 11
102 224 11
102 224 11
103 224 11
103 224 11
103 224 11
104 224 11
104 224 11
105 224 11
105 224 11
106 224 12
106 224 12
107 224 12
107 224 12
108 224 12
108 224 12
109 224 12
109 224 12
110 224 12
110 224 12
111 224 12
111 224 12
112 224 12
112 224 13
113 224 13
113 224 13
114 224 13
114 224 13
115 224 13
115 224 13
116 224 13
116 224 13
117 224 13
117 224 13
118 224 13
118 224 13
119 224 14
119 224 14
119 224 14
120 224 14
120 224 14
121 224 14
121 224 14
122 224 14
122 224 14
123 224 14
123 224 14
124 224 14
124 224 14
125 224 15
125 224 15
126 224 15
126 224 15
127 224 15
127 224 15
128 224 15
128 224 15
129 224 15
129 224 15
130 224 15
130 224 15
131 224 15
131 224 16
132 224 16
132 224 16
133 224 16
133 224 16
134 224 16
134 224 16
135 224 16
135 224 16
135 224 16
136 224 16
136 224 16
137 224 16
137 224 17
138 224 17
138 224 17
139 224 17
139 224 17
140 224 17
140 224 17
141 224 17
141 224 17
142 224 17
142 224 17
143 224 17
143 224 17
144 224 18
144 224 18
145 224 18
145 224 18
146 224 18
146 224 18
147 224 18
147 224 18
148 224 18
148 224 18
149 224 18
149 224 18
150 224 18
150 224 19
151 224 19
151 224 19
151 224 19
152 224 19
152 224 19
153 224 19
153 224 19
154 224 19
154 224 19
155 224 19
155 224 19
156 224 19
156 224 20
157 224 20
157 224 20
158 224 20
158 224 20
159 224 20
159 224 20
160 224 20
160 224 20
161 224 20
161 224 20
162 224 20
162 224 20
163 224 21
163 224 21
164 224 21
164 224 21
165 224 21
165 224 21
166 224 21
166 224 21
167 224 21
167 224 21
167 224 21
168 224 21
168 224 21
169 224 22
169 224 22
170 224 22
170 224 22
171 224 22
171 224 22
172 224 22
172 224 22
173 224 22
173 224 22
174 224 22
174 224 22
175 224 22
175 224 23
176 224 23
176 224 23
177 224 23
177 224 23
178 224 23
178 224 23
179 224 23
179 224 23
180 224 23
180 224 23
181 224 23
181 224 23
182 224 24
182 224 24
183 224 24
183 224 24
183 224 24
184 224 24
184 224 24
185 224 24
185 224 24
186 224 24
186 224 24
187 224 24
187 224 24
188 224 25
188 224 25
189 224 25
189 224 25
190 224 25
190 224 25
191 224 25
191 224 25
192 224 25
192 224 25
193 224 25
193 224 25
194 224 25
194 224 26
195 224 26
195 224 26
196 224 26
196 224 26
197 224 26
197 224 26
198 224 26
198 224 26
199 224 26
199 224 26
199 224 26
200 224 26
200 224 27
201 224 27
201 224 27
202 224 27
202 224 27
203 224 27
203 224 27
204 224 27
204 224 27
205 224 27
205 224 27
206 224 27
206 224 27
207 224 28
207 224 28
208 224 28
208 224 28
209 224 28
209 224 28
210 224 28
210 224 28
211 224 28
211 224 28
212 224 28
212 224 28
213 224 28
213 224 29
214 224 29
214 224 29
215 224 29
215 224 29
216 224 29
216 224 29
216 224 29
217 224 29
217 224 29
218 224 29
218 224 29
219 224 29
219 224 30
220 224 30
220 224 30
221 224 30
221 224 30
222 224 30
222 224 30
223 224 30
223 224 30
224 224 30
32 222 0
32 222 0
32 222 0
33 222 0
33 222 0
34 222 0
34 222 0
35 222 0
35 222 0
36 222 0
36 222 0
37 222 0
37 222 0
38 222 1
38 222 1
39 222 1
39 222 1
40 222 1
40 222 1
41 222 1
41 222 1
42 222 1
42 222 1
43 222 1
43 222 1
43 222 2
44 222 2
44 222 2
45 222 2
45 222 2
46 222 2
46 222 2
47 222 2
47 222 2
48 222 2
48 222 2
49 222 2
49 222 2
50 222 3
50 222 3
51 222 3
51 222 3
52 222 3
52 222 3
53 222 3
53 222 3
54 222 3
54 222 3
55 222 3
55 222 3
55 222 4
56 222 4
56 222 4
57 222 4
57 222 4
58 222 4
58 222 4
59 222 4
59 222 4
60 222 4
60 222 4
61 222 4
61 222 4
62 222 5
62 222 5
63 222 5
63 222 5
64 222 5
64 222 5
65 222 5
65 222 5
66 222 5
66 222 5
66 222 5
67 222 5
67 222 6
68 222 6
68 222 6
69 222 6
69 222 6
70 222 6
70 222 6
71 222 6
71 222 6
72 222 6
72 222 6
73 222 6
73 222 6
74 222 7
74 222 7
75 222 7
75 222 7
76 222 7
76 222 7
77 222 7
77 222 7
77 222 7
78 222 7
78 222 7
79 222 7
79 222 8
80 222 8
80 222 8
81 222 8
81 222 8
82 222 8
82 222 8
83 222 8
83 222 8
84 222 8
84 222 8
85 222 8
85 222 8
86 222 9
86 222 9
87 222 9
87 222 9
88 222 9
88 222 9
88 222 9
89 222 9
89 222 9
90 222 9
90 222 9
91 222 9
91 222 10
92 222 10
92 222 10
93 222 10
93 222 10
94 222 10
94 222 10
95 222 10
95 222 10
96 222 10
96 222 10
97 222 10
97 222 10
98 222 11
98 222 11
99 222 11
99 222 11
99 222 11
100 222 11
100 222 11
101 222 11
101 222 11
102 222 11
102 222 11
103 222 11
103 222 12
104 222 12
104 222 12
105 222 12
105 222 12
106 222 12
106 222 12
107 222 12
107 222 12
108 222 12
108 222 12
109 222 12
109 222 13
110 222 13
110 222 13
110 222 13
111 222 13
111 222 13
112 222 13
112 222 13
113 222 13
113 222 13
114 222 13
114 222 13
115 222 13
115 222 14
116 222 14
116 222 14
117 222 14
117 222 14
118 222 14
118 222 14
119 222 14
119 222 14
120 222 14
120 222 14
121 222 14
121 222 15
121 222 15
122 222 15
122 222 15
123 222 15
123 222 15
124 222 15
124 222 15
125 222 15
125 222 15
126 222 15
126 222 15
127 222 15
127 222 16
128 222 16
128 222 16
129 222 16
129 222 16
130 222 16
130 222 16
131 222 16
131 222 16
132 222 16
132 222 16
133 222 16
133 222 17
133 222 17
134 222 17
134 222 17
135 222 17
135 222 17
136 222 17
136 222 17
137 222 17
137 222 17
138 222 17
138 222 17
139 222 17
139 222 18
140 222 18
140 222 18
141 222 18
141 222 18
142 222 18
142 222 18
143 222 18
143 222 18
144 222 18
144 222 18
144 222 18
145 222 19
145 222 19
146 222 19
146 222 19
147 222 19
147 222 19
148 222 19
148 222 19
149 222 19
149 222 19
150 222 19
150 222 19
151 222 19
151 222 20
152 222 20
152 222 20
153 222 20
153 222 20
154 222 20
154 222 20
155 222 20
155 222 20
155 222 20
156 222 20
156 222 20
157 222 21
157 222 21
158 222 21
158 222 21
159 222 21
159 222 21
160 222 21
160 222 21
161 222 21
161 222 21
162 222 21
162 222 21
163 222 21
163 222 22
164 222 22
164 222 22
165 222 22
165 222 22
166 222 22
166 222 22
166 222 22
167 222 22
167 222 22
168 222 22
168 222 22
169 222 23
169 222 23
170 222 23
170 222 23
171 222 23
171 222 23
172 222 23
172 222 23
173 222 23
173 222 23
174 222 23
174 222 23
175 222 24
175 222 24
176 222 24
176 222 24
177 222 24
177 222 24
177 222 24
178 222 24
178 222 24
179 222 24
179 222 24
180 222 24
180 222 24
181 222 25
181 222 25
182 222 25
182 222 25
183 222 25
183 222 25
184 222 25
184 222 25
185 222 25
185 222 25
186 222 25
186 222 25
187 222 26
187 222 26
188 222 26
188 222 26
188 222 26
189 222 26
189 222 26
190 222 26
190 222 26
191 222 26
191 222 26
192 222 26
192 222 26
193 222 27
193 222 27
194 222 27
194 222 27
195 222 27
195 222 27
196 222 27
196 222 27
197 222 27
197 222 27
198 222 27
198 222 27
199 222 28
199 222 28
199 222 28
200 222 28
200 222 28
201 222 28
201 222 28
202 222 28
202 222 28
203 222 28
203 222 28
204 222 28
204 222 28
205 222 29
205 222 29
206 222 29
206 222 29
207 222 29
207 222 29
208 222 29
208 222 29
209 222 29
209 222 29
210 222 29
210 222 29
211 222 30
211 222 30
211 222 30
212 222 30
212 222 30
213 222 30
213 222 30
214 222 30
214 222 30
215 222 30
215 222 30
216 222 30
216 222 30
217 222 31
217 222 31
218 222 31
218 222 31
219 222 31
219 222 31
220 222 31
220 222 31
221 222 31
221 222 31
222 222 31
222 222 31
222 222 32
33 221 0
33 221 0
34 221 0
34 221 0
35 221 0
35 221 0
36 221 0
36 221 0
37 221 0
37 221 0
38 221 0
38 221 0
38 221 1
39 221 1
39 221 1
40 221 1
40 221 1
41 221 1
41 221 1
42 221 1
42 221 1
43 221 1
43 221 1
44 221 1
44 221 2
45 221 2
45 221 2
46 221 2
46 221 2
47 221 2
47 221 2
47 221 2
48 221 2
48 221 2
49 221 2
49 221 2
50 221 3
50 221 3
51 221 3
51 221 3
52 221 3
52 221 3
53 221 3
53 221 3
54 221 3
54 221 3
55 221 3
55 221 3
55 221 4
56 221 4
56 221 4
57 221 4
57 221 4
58 221 4
58 221 4
59 221 4
59 221 4
60 221 4
60 221 4
61 221 4
61 221 5
62 221 5
62 221 5
63 221 5
63 221 5
64 221 5
64 221 5
64 221 5
65 221 5
65 221 5
66 221 5
66 221 5
67 221 6
67 221 6
68 221 6
68 221 6
69 221 6
69 221 6
70 221 6
70 221 6
71 221 6
71 221 6
72 221 6
72 221 6
72 221 7
73 221 7
73 221 7
74 221 7
74 221 7
75 221 7
75 221 7
76 221 7
76 221 7
77 221 7
77 221 7
78 221 7
78 221 8
79 221 8
79 221 8
80 221 8
80 221 8
80 221 8
81 221 8
81 221 8
82 221 8
82 221 8
83 221 8
83 221 8
84 221 9
84 221 9
85 221 9
85 221 9
86 221 9
86 221 9
87 221 9
87 221 9
88 221 9
88 221 9
89 221 9
89 221 9
89 221 10
90 221 10
90 221 10
91 221 10
91 221 10
92 221 10
92 221 10
93 221 10
93 221 10
94 221 10
94 221 10
95 221 10
95 221 11
96 221 11
96 221 11
97 221 11
97 221 11
97 221 11
98 221 11
98 221 11
99 221 11
99 221 11
100 221 11
100 221 11
101 221 12
101 221 12
102 221 12
102 221 12
103 221 12
103 221 12
104 221 12
104 221 12
105 221 12
105 221 12
106 221 12
106 221 12
106 221 13
107 221 13
107 221 13
108 221 13
108 221 13
109 221 13
109 221 13
110 221 13
110 221 13
111 221 13
111 221 13
112 221 13
112 221 14
113 221 14
113 221 14
114 221 14
114 221 14
114 221 14
115 221 14
115 221 14
116 221 14
116 221 14
117 221 14
117 221 14
118 221 15
118 221 15
119 221 15
119 221 15
120 221 15
120 221 15
121 221 15
121 221 15
122 221 15
122 221 15
123 221 15
123 221 15
123 221 16
124 221 16
124 221 16
125 221 16
125 221 16
126 221 16
126 221 16
127 221 16
127 221 16
128 221 16
128 221 16
129 221 16
129 221 17
130 221 17
130 221 17
131 221 17
131 221 17
131 221 17
132 221 17
132 221 17
133 221 17
133 221 17
134 221 17
134 221 17
135 221 18
135 221 18
136 221 18
136 221 18
137 221 18
137 221 18
138 221 18
138 221 18
139 221 18
139 221 18
140 221 18
140 221 18
140 221 19
141 221 19
141 221 19
142 221 19
142 221 19
143 221 19
143 221 19
144 221 19
144 221 19
145 221 19
145 221 19
146 221 19
146 221 20
147 221 20
147 221 20
148 221 20
148 221 20
148 221 20
149 221 20
149 221 20
150 221 20
150 221 20
151 221 20
151 221 20
152 221 21
152 221 21
153 221 21
153 221 21
154 221 21
154 221 21
155 221 21
155 221 21
156 221 21
156 221 21
157 221 21
157 221 21
157 221 22
158 221 22
158 221 22
159 221 22
159 221 22
160 221 22
160 221 22
161 221 22
161 221 22
162 221 22
162 221 22
163 221 22
163 221 23
164 221 23
164 221 23
165 221 23
165 221 23
165 221 23
166 221 23
166 221 23
167 221 23
167 221 23
168 221 23
168 221 23
169 221 24
169 221 24
170 221 24
170 221 24
171 221 24
171 221 24
172 221 24
172 221 24
173 221 24
173 221 24
174 221 24
174 221 24
174 221 25
175 221 25
175 221 25
176 221 25
176 221 25
177 221 25
177 221 25
178 221 25
178 221 25
179 221 25
179 221 25
180 221 25
180 221 26
181 221 26
181 221 26
182 221 26
182 221 26
182 221 26
183 221 26
183 221 26
184 221 26
184 221 26
185 221 26
185 221 26
186 221 27
186 221 27
187 221 27
187 221 27
188 221 27
188 221 27
189 221 27
189 221 27
190 221 27
190 221 27
190 221 27
191 221 27
191 221 28
192 221 28
192 221 28
193 221 28
193 221 28
194 221 28
194 221 28
195 221 28
195 221 28
196 221 28
196 221 28
197 221 28
197 221 29
198 221 29
198 221 29
199 221 29
199 221 29
199 221 29
200 221 29
200 221 29
201 221 29
201 221 29
202 221 29
202 221 29
203 221 30
203 221 30
204 221 30
204 221 30
205 221 30
205 221 30
206 221 30
206 221 30
207 221 30
207 221 30
207 221 30
208 221 30
208 221 31
209 221 31
209 221 31
210 221 31
210 221 31
211 221 31
211 221 31
212 221 31
212 221 31
213 221 31
213 221 31
214 221 31
214 221 32
215 221 32
215 221 32
216 221 32
216 221 32
216 221 32
217 221 32
217 221 32
218 221 32
218 221 32
219 221 32
219 221 32
220 221 33
220 221 33
221 221 33
221 221 33
34 220 0
35 220 0
35 220 0
35 220 0
36 220 0
36 220 0
37 220 0
37 220 0
38 220 0
38 220 0
39 220 0
39 220 0
40 220 1
40 220 1
41 220 1
41 220 1
42 220 1
42 220 1
42 220 1
43 220 1
43 220 1
44 220 1
44 220 1
45 220 1
45 220 2
46 220 2
46 220 2
47 220 2
47 220 2
48 220 2
48 220 2
49 220 2
49 220 2
49 220 2
50 220 2
50 220 3
51 220 3
51 220 3
52 220 3
52 220 3
53 220 3
53 220 3
54 220 3
54 220 3
55 220 3
55 220 3
56 220 3
56 220 4
56 220 4
57 220 4
57 220 4
58 220 4
58 220 4
59 220 4
59 220 4
60 220 4
60 220 4
61 220 4
61 220 5
62 220 5
62 220 5
63 220 5
63 220 5
63 220 5
64 220 5
64 220 5
65 220 5
65 220 5
66 220 5
66 220 5
67 220 6
67 220 6
68 220 6
68 220 6
69 220 6
69 220 6
69 220 6
70 220 6
70 220 6
71 220 6
71 220 6
72 220 7
72 220 7
73 220 7
73 220 7
74 220 7
74 220 7
75 220 7
75 220 7
76 220 7
76 220 7
76 220 7
77 220 7
77 220 8
78 220 8
78 220 8
79 220 8
79 220 8
80 220 8
80 220 8
81 220 8
81 220 8
82 220 8
82 220 8
83 220 9
83 220 9
83 220 9
84 220 9
84 220 9
85 220 9
85 220 9
86 220 9
86 220 9
87 220 9
87 220 9
88 220 9
88 220 10
89 220 10
89 220 10
90 220 10
90 220 10
90 220 10
91 220 10
91 220 10
92 220 10
92 220 10
93 220 10
93 220 11
94 220 11
94 220 11
95 220 11
95 220 11
96 220 11
96 220 11
96 220 11
97 220 11
97 220 11
98 220 11
98 220 11
99 220 12
99 220 12
100 220 12
100 220 12
101 220 12
101 220 12
102 220 12
102 220 12
103 220 12
103 220 12
103 220 12
104 220 13
104 220 13
105 220 13
105 220 13
106 220 13
106 220 13
107 220 13
107 220 13
108 220 13
108 220 13
109 220 13
109 220 13
110 220 14
110 220 14
110 220 14
111 220 14
111 220 14
112 220 14
112 220 14
113 220 14
113 220 14
114 220 14
114 220 14
115 220 15
115 220 15
116 220 15
116 220 15
117 220 15
117 220 15
117 220 15
118 220 15
118 220 15
119 220 15
119 220 15
120 220 15
120 220 16
121 220 16
121 220 16
122 220 16
122 220 16
123 220 16
123 220 16
124 220 16
124 220 16
124 220 16
125 220 16
125 220 16
126 220 17
126 220 17
127 220 17
127 220 17
128 220 17
128 220 17
129 220 17
129 220 17
130 220 17
130 220 17
130 220 17
131 220 18
131 220 18
132 220 18
132 220 18
133 220 18
133 220 18
134 220 18
134 220 18
135 220 18
135 220 18
136 220 18
136 220 18
137 220 19
137 220 19
137 220 19
138 220 19
138 220 19
139 220 19
139 220 19
140 220 19
140 220 19
141 220 19
141 220 19
142 220 20
142 220 20
143 220 20
143 220 20
144 220 20
144 220 20
144 220 20
145 220 20
145 220 20
146 220 20
146 220 20
147 220 20
147 220 21
148 220 21
148 220 21
149 220 21
149 220 21
150 220 21
150 220 21
151 220 21
151 220 21
151 220 21
152 220 21
152 220 22
153 220 22
153 220 22
154 220 22
154 220 22
155 220 22
155 220 22
156 220 22
156 220 22
157 220 22
157 220 22
158 220 22
158 220 23
158 220 23
159 220 23
159 220 23
160 220 23
160 220 23
161 220 23
161 220 23
162 220 23
162 220 23
163 220 23
163 220 24
164 220 24
164 220 24
164 220 24
165 220 24
165 220 24
166 220 24
166 220 24
167 220 24
167 220 24
168 220 24
168 220 24
169 220 25
169 220 25
170 220 25
170 220 25
171 220 25
171 220 25
171 220 25
172 220 25
172 220 25
173 220 25
173 220 25
174 220 26
174 220 26
175 220 26
175 220 26
176 220 26
176 220 26
177 220 26
177 220 26
178 220 26
178 220 26
178 220 26
179 220 26
179 220 27
180 220 27
180 220 27
181 220 27
181 220 27
182 220 27
182 220 27
183 220 27
183 220 27
184 220 27
184 220 27
185 220 28
185 220 28
185 220 28
186 220 28
186 220 28
187 220 28
187 220 28
188 220 28
188 220 28
189 220 28
189 220 28
190 220 28
190 220 29
191 220 29
191 220 29
191 220 29
192 220 29
192 220 29
193 220 29
193 220 29
194 220 29
194 220 29
195 220 29
195 220 30
196 220 30
196 220 30
197 220 30
197 220 30
198 220 30
198 220 30
198 220 30
199 220 30
199 220 30
200 220 30
200 220 30
201 220 31
201 220 31
202 220 31
202 220 31
203 220 31
203 220 31
204 220 31
204 220 31
205 220 31
205 220 31
205 220 31
206 220 31
206 220 32
207 220 32
207 220 32
208 220 32
208 220 32
209 220 32
209 220 32
210 220 32
210 220 32
211 220 32
211 220 32
212 220 33
212 220 33
212 220 33
213 220 33
213 220 33
214 220 33
214 220 33
215 220 33
215 220 33
216 220 33
216 220 33
217 220 33
217 220 34
218 220 34
218 220 34
219 220 34
219 220 34
219 220 34
220 220 34
35 219 0
36 219 0
36 219 0
37 219 0
37 219 0
38 219 0
38 219 0
39 219 0
39 219 0
40 219 0
40 219 0
40 219 0
41 219 1
41 219 1
42 219 1
42 219 1
43 219 1
43 219 1
44 219 1
44 219 1
45 219 1
45 219 1
45 219 1
46 219 2
46 219 2
47 219 2
47 219 2
48 219 2
48 219 2
49 219 2
49 219 2
50 219 2
50 219 2
51 219 2
51 219 3
51 219 3
52 219 3
52 219 3
53 219 3
53 219 3
54 219 3
54 219 3
55 219 3
55 219 3
56 219 3
56 219 4
57 219 4
57 219 4
57 219 4
58 219 4
58 219 4
59 219 4
59 219 4
60 219 4
60 219 4
61 219 4
61 219 5
62 219 5
62 219 5
62 219 5
63 219 5
63 219 5
64 219 5
64 219 5
65 219 5
65 219 5
66 219 5
66 219 6
67 219 6
67 219 6
68 219 6
68 219 6
68 219 6
69 219 6
69 219 6
70 219 6
70 219 6
71 219 6
71 219 7
72 219 7
72 219 7
73 219 7
73 219 7
73 219 7
74 219 7
74 219 7
75 219 7
75 219 7
76 219 7
76 219 8
77 219 8
77 219 8
78 219 8
78 219 8
79 219 8
79 219 8
79 219 8
80 219 8
80 219 8
81 219 8
81 219 8
82 219 9
82 219 9
83 219 9
83 219 9
84 219 9
84 219 9
85 219 9
85 219 9
85 219 9
86 219 9
86 219 9
87 219 10
87 219 10
88 219 10
88 219 10
89 219 10
89 219 10
90 219 10
90 219 10
90 219 10
91 219 10
91 219 10
92 219 11
92 219 11
93 219 11
93 219 11
94 219 11
94 219 11
95 219 11
95 219 11
96 219 11
96 219 11
96 219 11
97 219 12
97 219 12
98 219 12
98 219 12
99 219 12
99 219 12
100 219 12
100 219 12
101 219 12
101 219 12
102 219 12
102 219 13
102 219 13
103 219 13
103 219 13
104 219 13
104 219 13
105 219 13
105 219 13
106 219 13
106 219 13
107 219 13
107 219 14
107 219 14
108 219 14
108 219 14
109 219 14
109 219 14
110 219 14
110 219 14
111 219 14
111 219 14
112 219 14
112 219 15
113 219 15
113 219 15
113 219 15
114 219 15
114 219 15
115 219 15
115 219 15
116 219 15
116 219 15
117 219 15
117 219 16
118 219 16
118 219 16
119 219 16
119 219 16
119 219 16
120 219 16
120 219 16
121 219 16
121 219 16
122 219 16
122 219 16
123 219 17
123 219 17
124 219 17
124 219 17
124 219 17
125 219 17
125 219 17
126 219 17
126 219 17
127 219 17
127 219 17
128 219 18
128 219 18
129 219 18
129 219 18
130 219 18
130 219 18
130 219 18
131 219 18
131 219 18
132 219 18
132 219 18
133 219 19
133 219 19
134 219 19
134 219 19
135 219 19
135 219 19
135 219 19
136 219 19
136 219 19
137 219 19
137 219 19
138 219 20
138 219 20
139 219 20
139 219 20
140 219 20
140 219 20
141 219 20
141 219 20
141 219 20
142 219 20
142 219 20
143 219 21
143 219 21
144 219 21
144 219 21
145 219 21
145 219 21
146 219 21
146 219 21
147 219 21
147 219 21
147 219 21
148 219 22
148 219 22
149 219 22
149 219 22
150 219 22
150 219 22
151 219 22
151 219 22
152 219 22
152 219 22
152 219 22
153 219 23
153 219 23
154 219 23
154 219 23
155 219 23
155 219 23
156 219 23
156 219 23
157 219 23
157 219 23
158 219 23
158 219 24
158 219 24
159 219 24
159 219 24
160 219 24
160 219 24
161 219 24
161 219 24
162 219 24
162 219 24
163 219 24
163 219 24
164 219 25
164 219 25
164 219 25
165 219 25
165 219 25
166 219 25
166 219 25
167 219 25
167 219 25
168 219 25
168 219 25
169 219 26
169 219 26
169 219 26
170 219 26
170 219 26
171 219 26
171 219 26
172 219 26
172 219 26
173 219 26
173 219 26
174 219 27
174 219 27
175 219 27
175 219 27
175 219 27
176 219 27
176 219 27
177 219 27
177 219 27
178 219 27
178 219 27
179 219 28
179 219 28
180 219 28
180 219 28
181 219 28
181 219 28
181 219 28
182 219 28
182 219 28
183 219 28
183 219 28
184 219 29
184 219 29
185 219 29
185 219 29
186 219 29
186 219 29
186 219 29
187 219 29
187 219 29
188 219 29
188 219 29
189 219 30
189 219 30
190 219 30
190 219 30
191 219 30
191 219 30
192 219 30
192 219 30
192 219 30
193 219 30
193 219 30
194 219 31
194 219 31
195 219 31
195 219 31
196 219 31
196 219 31
197 219 31
197 219 31
197 219 31
198 219 31
198 219 31
199 219 32
199 219 32
200 219 32
200 219 32
201 219 32
201 219 32
202 219 32
202 219 32
203 219 32
203 219 32
203 219 32
204 219 33
204 219 33
205 219 33
205 219 33
206 219 33
206 219 33
207 219 33
207 219 33
208 219 33
208 219 33
209 219 33
209 219 33
209 219 34
210 219 34
210 219 34
211 219 34
211 219 34
212 219 34
212 219 34
213 219 34
213 219 34
214 219 34
214 219 34
214 219 35
215 219 35
215 219 35
216 219 35
216 219 35
217 219 35
217 219 35
218 219 35
218 219 35
219 219 35
37 217 0
37 217 0
38 217 0
38 217 0
38 217 0
39 217 0
39 217 0
40 217 0
40 217 0
41 217 0
41 217 0
42 217 1
42 217 1
43 217 1
43 217 1
43 217 1
44 217 1
44 217 1
45 217 1
45 217 1
46 217 1
46 217 1
47 217 2
47 217 2
48 217 2
48 217 2
48 217 2
49 217 2
49 217 2
50 217 2
50 217 2
51 217 2
51 217 2
52 217 3
52 217 3
53 217 3
53 217 3
53 217 3
54 217 3
54 217 3
55 217 3
55 217 3
56 217 3
56 217 4
57 217 4
57 217 4
57 217 4
58 217 4
58 217 4
59 217 4
59 217 4
60 217 4
60 217 4
61 217 4
61 217 5
62 217 5
62 217 5
62 217 5
63 217 5
63 217 5
64 217 5
64 217 5
65 217 5
65 217 5
66 217 5
66 217 6
67 217 6
67 217 6
67 217 6
68 217 6
68 217 6
69 217 6
69 217 6
70 217 6
70 217 6
71 217 6
71 217 7
72 217 7
72 217 7
72 217 7
73 217 7
73 217 7
74 217 7
74 217 7
75 217 7
75 217 7
76 217 8
76 217 8
77 217 8
77 217 8
77 217 8
78 217 8
78 217 8
79 217 8
79 217 8
80 217 8
80 217 8
81 217 9
81 217 9
81 217 9
82 217 9
82 217 9
83 217 9
83 217 9
84 217 9
84 217 9
85 217 9
85 217 9
86 217 10
86 217 10
86 217 10
87 217 10
87 217 10
88 217 10
88 217 10
89 217 10
89 217 10
90 217 10
90 217 10
91 217 11
91 217 11
91 217 11
92 217 11
92 217 11
93 217 11
93 217 11
94 217 11
94 217 11
95 217 11
95 217 12
96 217 12
96 217 12
96 217 12
97 217 12
97 217 12
98 217 12
98 217 12
99 217 12
99 217 12
100 217 12
100 217 13
101 217 13
101 217 13
101 217 13
102 217 13
102 217 13
103 217 13
103 217 13
104 217 13
104 217 13
105 217 13
105 217 14
105 217 14
106 217 14
106 217 14
107 217 14
107 217 14
108 217 14
108 217 14
109 217 14
109 217 14
110 217 14
110 217 15
110 217 15
111 217 15
111 217 15
112 217 15
112 217 15
113 217 15
113 217 15
114 217 15
114 217 15
115 217 16
115 217 16
115 217 16
116 217 16
116 217 16
117 217 16
117 217 16
118 217 16
118 217 16
119 217 16
119 217 16
120 217 17
120 217 17
120 217 17
121 217 17
121 217 17
122 217 17
122 217 17
123 217 17
123 217 17
124 217 17
124 217 17
125 217 18
125 217 18
125 217 18
126 217 18
126 217 18
127 217 18
127 217 18
128 217 18
128 217 18
129 217 18
129 217 18
129 217 19
130 217 19
130 217 19
131 217 19
131 217 19
132 217 19
132 217 19
133 217 19
133 217 19
134 217 19
134 217 20
134 217 20
135 217 20
135 217 20
136 217 20
136 217 20
137 217 20
137 217 20
138 217 20
138 217 20
139 217 20
139 217 21
139 217 21
140 217 21
140 217 21
141 217 21
141 217 21
142 217 21
142 217 21
143 217 21
143 217 21
144 217 21
144 217 22
144 217 22
145 217 22
145 217 22
146 217 22
146 217 22
147 217 22
147 217 22
148 217 22
148 217 22
149 217 23
149 217 23
149 217 23
150 217 23
150 217 23
151 217 23
151 217 23
152 217 23
152 217 23
153 217 23
153 217 23
153 217 24
154 217 24
154 217 24
155 217 24
155 217 24
156 217 24
156 217 24
157 217 24
157 217 24
158 217 24
158 217 24
158 217 25
159 217 25
159 217 25
160 217 25
160 217 25
161 217 25
161 217 25
162 217 25
162 217 25
163 217 25
163 217 25
163 217 26
164 217 26
164 217 26
165 217 26
165 217 26
166 217 26
166 217 26
167 217 26
167 217 26
168 217 26
168 217 27
168 217 27
169 217 27
169 217 27
170 217 27
170 217 27
171 217 27
171 217 27
172 217 27
172 217 27
173 217 27
173 217 28
173 217 28
174 217 28
174 217 28
175 217 28
175 217 28
176 217 28
176 217 28
177 217 28
177 217 28
177 217 28
178 217 29
178 217 29
179 217 29
179 217 29
180 217 29
180 217 29
181 217 29
181 217 29
182 217 29
182 217 29
182 217 29
183 217 30
183 217 30
184 217 30
184 217 30
185 217 30
185 217 30
186 217 30
186 217 30
187 217 30
187 217 30
187 217 31
188 217 31
188 217 31
189 217 31
189 217 31
190 217 31
190 217 31
191 217 31
191 217 31
192 217 31
192 217 31
192 217 32
193 217 32
193 217 32
194 217 32
194 217 32
195 217 32
195 217 32
196 217 32
196 217 32
197 217 32
197 217 32
197 217 33
198 217 33
198 217 33
199 217 33
199 217 33
200 217 33
200 217 33
201 217 33
201 217 33
201 217 33
202 217 33
202 217 34
203 217 34
203 217 34
204 217 34
204 217 34
205 217 34
205 217 34
206 217 34
206 217 34
206 217 34
207 217 35
207 217 35
208 217 35
208 217 35
209 217 35
209 217 35
210 217 35
210 217 35
211 217 35
211 217 35
211 217 35
212 217 36
212 217 36
213 217 36
213 217 36
214 217 36
214 217 36
215 217 36
215 217 36
216 217 36
216 217 36
216 217 36
217 217 37
217 217 37
38 216 0
38 216 0
39 216 0
39 216 0
40 216 0
40 216 0
41 216 0
41 216 0
42 216 0
42 216 0
42 216 0
43 216 1
43 216 1
44 216 1
44 216 1
45 216 1
45 216 1
46 216 1
46 216 1
46 216 1
47 216 1
47 216 2
48 216 2
48 216 2
49 216 2
49 216 2
50 216 2
50 216 2
50 216 2
51 216 2
51 216 2
52 216 2
52 216 3
53 216 3
53 216 3
54 216 3
54 216 3
54 216 3
55 216 3
55 216 3
56 216 3
56 216 3
57 216 4
57 216 4
58 216 4
58 216 4
58 216 4
59 216 4
59 216 4
60 216 4
60 216 4
61 216 4
61 216 5
62 216 5
62 216 5
62 216 5
63 216 5
63 216 5
64 216 5
64 216 5
65 216 5
65 216 5
66 216 5
66 216 6
67 216 6
67 216 6
67 216 6
68 216 6
68 216 6
69 216 6
69 216 6
70 216 6
70 216 6
71 216 7
71 216 7
71 216 7
72 216 7
72 216 7
73 216 7
73 216 7
74 216 7
74 216 7
75 216 7
75 216 7
75 216 8
76 216 8
76 216 8
77 216 8
77 216 8
78 216 8
78 216 8
79 216 8
79 216 8
79 216 8
80 216 9
80 216 9
81 216 9
81 216 9
82 216 9
82 216 9
83 216 9
83 216 9
83 216 9
84 216 9
84 216 10
85 216 10
85 216 10
86 216 10
86 216 10
87 216 10
87 216 10
87 216 10
88 216 10
88 216 10
89 216 10
89 216 11
90 216 11
90 216 11
91 216 11
91 216 11
92 216 11
92 216 11
92 216 11
93 216 11
93 216 11
94 216 12
94 216 12
95 216 12
95 216 12
96 216 12
96 216 12
96 216 12
97 216 12
97 216 12
98 216 12
98 216 13
99 216 13
99 216 13
100 216 13
100 216 13
100 216 13
101 216 13
101 216 13
102 216 13
102 216 13
103 216 13
103 216 14
104 216 14
104 216 14
104 216 14
105 216 14
105 216 14
106 216 14
106 216 14
107 216 14
107 216 14
108 216 15
108 216 15
108 216 15
109 216 15
109 216 15
110 216 15
110 216 15
111 216 15
111 216 15
112 216 15
112 216 15
112 216 16
113 216 16
113 216 16
114 216 16
114 216 16
115 216 16
115 216 16
116 216 16
116 216 16
117 216 16
117 216 17
117 216 17
118 216 17
118 216 17
119 216 17
119 216 17
120 216 17
120 216 17
121 216 17
121 216 17
121 216 18
122 216 18
122 216 18
123 216 18
123 216 18
124 216 18
124 216 18
125 216 18
125 216 18
125 216 18
126 216 18
126 216 19
127 216 19
127 216 19
128 216 19
128 216 19
129 216 19
129 216 19
129 216 19
130 216 19
130 216 19
131 216 20
131 216 20
132 216 20
132 216 20
133 216 20
133 216 20
133 216 20
134 216 20
134 216 20
135 216 20
135 216 21
136 216 21
136 216 21
137 216 21
137 216 21
137 216 21
138 216 21
138 216 21
139 216 21
139 216 21
140 216 21
140 216 22
141 216 22
141 216 22
142 216 22
142 216 22
142 216 22
143 216 22
143 216 22
144 216 22
144 216 22
145 216 23
145 216 23
146 216 23
146 216 23
146 216 23
147 216 23
147 216 23
148 216 23
148 216 23
149 216 23
149 216 23
150 216 24
150 216 24
150 216 24
151 216 24
151 216 24
152 216 24
152 216 24
153 216 24
153 216 24
154 216 24
154 216 25
154 216 25
155 216 25
155 216 25
156 216 25
156 216 25
157 216 25
157 216 25
158 216 25
158 216 25
158 216 26
159 216 26
159 216 26
160 216 26
160 216 26
161 216 26
161 216 26
162 216 26
162 216 26
162 216 26
163 216 26
163 216 27
164 216 27
164 216 27
165 216 27
165 216 27
166 216 27
166 216 27
167 216 27
167 216 27
167 216 27
168 216 28
168 216 28
169 216 28
169 216 28
170 216 28
170 216 28
171 216 28
171 216 28
171 216 28
172 216 28
172 216 29
173 216 29
173 216 29
174 216 29
174 216 29
175 216 29
175 216 29
175 216 29
176 216 29
176 216 29
177 216 29
177 216 30
178 216 30
178 216 30
179 216 30
179 216 30
179 216 30
180 216 30
180 216 30
181 216 30
181 216 30
182 216 31
182 216 31
183 216 31
183 216 31
183 216 31
184 216 31
184 216 31
185 216 31
185 216 31
186 216 31
186 216 31
187 216 32
187 216 32
187 216 32
188 216 32
188 216 32
189 216 32
189 216 32
190 216 32
190 216 32
191 216 32
191 216 33
192 216 33
192 216 33
192 216 33
193 216 33
193 216 33
194 216 33
194 216 33
195 216 33
195 216 33
196 216 34
196 216 34
196 216 34
197 216 34
197 216 34
198 216 34
198 216 34
199 216 34
199 216 34
200 216 34
200 216 34
200 216 35
201 216 35
201 216 35
202 216 35
202 216 35
203 216 35
203 216 35
204 216 35
204 216 35
204 216 35
205 216 36
205 216 36
206 216 36
206 216 36
207 216 36
207 216 36
208 216 36
208 216 36
208 216 36
209 216 36
209 216 36
210 216 37
210 216 37
211 216 37
211 216 37
212 216 37
212 216 37
212 216 37
213 216 37
213 216 37
214 216 37
214 216 38
215 216 38
215 216 38
216 216 38
216 216 38
39 215 0
40 215 0
40 215 0
41 215 0
41 215 0
41 215 0
42 215 0
42 215 0
43 215 0
43 215 0
44 215 0
44 215 1
45 215 1
45 215 1
45 215 1
46 215 1
46 215 1
47 215 1
47 215 1
48 215 1
48 215 1
48 215 2
49 215 2
49 215 2
50 215 2
50 215 2
51 215 2
51 215 2
52 215 2
52 215 2
52 215 2
53 215 3
53 215 3
54 215 3
54 215 3
55 215 3
55 215 3
56 215 3
56 215 3
56 215 3
57 215 3
57 215 4
58 215 4
58 215 4
59 215 4
59 215 4
59 215 4
60 215 4
60 215 4
61 215 4
61 215 4
62 215 5
62 215 5
63 215 5
63 215 5
63 215 5
64 215 5
64 215 5
65 215 5
65 215 5
66 215 5
66 215 6
67 215 6
67 215 6
67 215 6
68 215 6
68 215 6
69 215 6
69 215 6
70 215 6
70 215 6
70 215 7
71 215 7
71 215 7
72 215 7
72 215 7
73 215 7
73 215 7
74 215 7
74 215 7
74 215 7
75 215 8
75 215 8
76 215 8
76 215 8
77 215 8
77 215 8
78 215 8
78 215 8
78 215 8
79 215 8
79 215 9
80 215 9
80 215 9
81 215 9
81 215 9
81 215 9
82 215 9
82 215 9
83 215 9
83 215 9
84 215 10
84 215 10
85 215 10
85 215 10
85 215 10
86 215 10
86 215 10
87 215 10
87 215 10
88 215 10
88 215 11
89 215 11
89 215 11
89 215 11
90 215 11
90 215 11
91 215 11
91 215 11
92 215 11
92 215 11
92 215 12
93 215 12
93 215 12
94 215 12
94 215 12
95 215 12
95 215 12
96 215 12
96 215 12
96 215 12
97 215 13
97 215 13
98 215 13
98 215 13
99 215 13
99 215 13
100 215 13
100 215 13
100 215 13
101 215 13
101 215 14
102 215 14
102 215 14
103 215 14
103 215 14
103 215 14
104 215 14
104 215 14
105 215 14
105 215 14
106 215 15
106 215 15
107 215 15
107 215 15
107 215 15
108 215 15
108 215 15
109 215 15
109 215 15
110 215 15
110 215 16
111 215 16
111 215 16
111 215 16
112 215 16
112 215 16
113 215 16
113 215 16
114 215 16
114 215 16
114 215 17
115 215 17
115 215 17
116 215 17
116 215 17
117 215 17
117 215 17
118 215 17
118 215 17
118 215 17
119 215 18
119 215 18
120 215 18
120 215 18
121 215 18
121 215 18
122 215 18
122 215 18
122 215 18
123 215 18
123 215 19
124 215 19
124 215 19
125 215 19
125 215 19
125 215 19
126 215 19
126 215 19
127 215 19
127 215 19
128 215 20
128 215 20
129 215 20
129 215 20
129 215 20
130 215 20
130 215 20
131 215 20
131 215 20
132 215 20
132 215 21
132 215 21
133 215 21
133 215 21
134 215 21
134 215 21
135 215 21
135 215 21
136 215 21
136 215 21
136 215 22
137 215 22
137 215 22
138 215 22
138 215 22
139 215 22
139 215 22
140 215 22
140 215 22
140 215 22
141 215 22
141 215 23
142 215 23
142 215 23
143 215 23
143 215 23
143 215 23
144 215 23
144 215 23
145 215 23
145 215 23
146 215 24
146 215 24
147 215 24
147 215 24
147 215 24
148 215 24
148 215 24
149 215 24
149 215 24
150 215 24
150 215 25
151 215 25
151 215 25
151 215 25
152 215 25
152 215 25
153 215 25
153 215 25
154 215 25
154 215 25
154 215 26
155 215 26
155 215 26
156 215 26
156 215 26
157 215 26
157 215 26
158 215 26
158 215 26
158 215 26
159 215 27
159 215 27
160 215 27
160 215 27
161 215 27
161 215 27
162 215 27
162 215 27
162 215 27
163 215 27
163 215 28
164 215 28
164 215 28
165 215 28
165 215 28
165 215 28
166 215 28
166 215 28
167 215 28
167 215 28
168 215 29
168 215 29
169 215 29
169 215 29
169 215 29
170 215 29
170 215 29
171 215 29
171 215 29
172 215 29
172 215 30
173 215 30
173 215 30
173 215 30
174 215 30
174 215 30
175 215 30
175 215 30
176 215 30
176 215 30
176 215 31
177 215 31
177 215 31
178 215 31
178 215 31
179 215 31
179 215 31
180 215 31
180 215 31
180 215 31
181 215 32
181 215 32
182 215 32
182 215 32
183 215 32
183 215 32
184 215 32
184 215 32
184 215 32
185 215 32
185 215 33
186 215 33
186 215 33
187 215 33
187 215 33
187 215 33
188 215 33
188 215 33
189 215 33
189 215 33
190 215 34
190 215 34
191 215 34
191 215 34
191 215 34
192 215 34
192 215 34
193 215 34
193 215 34
194 215 34
194 215 35
195 215 35
195 215 35
195 215 35
196 215 35
196 215 35
197 215 35
197 215 35
198 215 35
198 215 35
198 215 36
199 215 36
199 215 36
200 215 36
200 215 36
201 215 36
201 215 36
202 215 36
202 215 36
202 215 36
203 215 37
203 215 37
204 215 37
204 215 37
205 215 37
205 215 37
206 215 37
206 215 37
206 215 37
207 215 37
207 215 38
208 215 38
208 215 38
209 215 38
209 215 38
209 215 38
210 215 38
210 215 38
211 215 38
211 215 38
212 215 39
212 215 39
213 215 39
213 215 39
213 215 39
214 215 39
214 215 39
215 215 39
41 213 0
41 213 0
41 213 0
42 213 0
42 213 0
43 213 0
43 213 0
44 213 0
44 213 0
44 213 0
45 213 1
45 213 1
46 213 1
46 213 1
47 213 1
47 213 1
47 213 1
48 213 1
48 213 1
49 213 1
49 213 2
50 213 2
50 213 2
50 213 2
51 213 2
51 213 2
52 213 2
52 213 2
53 213 2
53 213 2
54 213 3
54 213 3
54 213 3
55 213 3
55 213 3
56 213 3
56 213 3
57 213 3
57 213 3
57 213 4
58 213 4
58 213 4
59 213 4
59 213 4
60 213 4
60 213 4
60 213 4
61 213 4
61 213 4
62 213 5
62 213 5
63 213 5
63 213 5
63 213 5
64 213 5
64 213 5
65 213 5
65 213 5
66 213 5
66 213 6
67 213 6
67 213 6
67 213 6
68 213 6
68 213 6
69 213 6
69 213 6
70 213 6
70 213 6
70 213 7
71 213 7
71 213 7
72 213 7
72 213 7
73 213 7
73 213 7
73 213 7
74 213 7
74 213 8
75 213 8
75 213 8
76 213 8
76 213 8
76 213 8
77 213 8
77 213 8
78 213 8
78 213 8
79 213 9
79 213 9
80 213 9
80 213 9
80 213 9
81 213 9
81 213 9
82 213 9
82 213 9
83 213 9
83 213 10
83 213 10
84 213 10
84 213 10
85 213 10
85 213 10
86 213 10
86 213 10
86 213 10
87 213 10
87 213 11
88 213 11
88 213 11
89 213 11
89 213 11
89 213 11
90 213 11
90 213 11
91 213 11
91 213 12
92 213 12
92 213 12
93 213 12
93 213 12
93 213 12
94 213 12
94 213 12
95 213 12
95 213 12
96 213 13
96 213 13
96 213 13
97 213 13
97 213 13
98 213 13
98 213 13
99 213 13
99 213 13
99 213 13
100 213 14
100 213 14
101 213 14
101 213 14
102 213 14
102 213 14
103 213 14
103 213 14
103 213 14
104 213 15
104 213 15
105 213 15
105 213 15
106 213 15
106 213 15
106 213 15
107 213 15
107 213 15
108 213 15
108 213 16
109 213 16
109 213 16
109 213 16
110 213 16
110 213 16
111 213 16
111 213 16
112 213 16
112 213 16
112 213 17
113 213 17
113 213 17
114 213 17
114 213 17
115 213 17
115 213 17
116 213 17
116 213 17
116 213 17
117 213 18
117 213 18
118 213 18
118 213 18
119 213 18
119 213 18
119 213 18
120 213 18
120 213 18
121 213 19
121 213 19
122 213 19
122 213 19
122 213 19
123 213 19
123 213 19
124 213 19
124 213 19
125 213 19
125 213 20
125 213 20
126 213 20
126 213 20
127 213 20
127 213 20
128 213 20
128 213 20
129 213 20
129 213 20
129 213 21
130 213 21
130 213 21
131 213 21
131 213 21
132 213 21
132 213 21
132 213 21
133 213 21
133 213 21
134 213 22
134 213 22
135 213 22
135 213 22
135 213 22
136 213 22
136 213 22
137 213 22
137 213 22
138 213 23
138 213 23
138 213 23
139 213 23
139 213 23
140 213 23
140 213 23
141 213 23
141 213 23
142 213 23
142 213 24
142 213 24
143 213 24
143 213 24
144 213 24
144 213 24
145 213 24
145 213 24
145 213 24
146 213 24
146 213 25
147 213 25
147 213 25
148 213 25
148 213 25
148 213 25
149 213 25
149 213 25
150 213 25
150 213 26
151 213 26
151 213 26
151 213 26
152 213 26
152 213 26
153 213 26
153 213 26
154 213 26
154 213 26
155 213 27
155 213 27
155 213 27
156 213 27
156 213 27
157 213 27
157 213 27
158 213 27
158 213 27
158 213 27
159 213 28
159 213 28
160 213 28
160 213 28
161 213 28
161 213 28
161 213 28
162 213 28
162 213 28
163 213 28
163 213 29
164 213 29
164 213 29
165 213 29
165 213 29
165 213 29
166 213 29
166 213 29
167 213 29
167 213 30
168 213 30
168 213 30
168 213 30
169 213 30
169 213 30
170 213 30
170 213 30
171 213 30
171 213 30
171 213 31
172 213 31
172 213 31
173 213 31
173 213 31
174 213 31
174 213 31
174 213 31
175 213 31
175 213 31
176 213 32
176 213 32
177 213 32
177 213 32
178 213 32
178 213 32
178 213 32
179 213 32
179 213 32
180 213 32
180 213 33
181 213 33
181 213 33
181 213 33
182 213 33
182 213 33
183 213 33
183 213 33
184 213 33
184 213 34
184 213 34
185 213 34
185 213 34
186 213 34
186 213 34
187 213 34
187 213 34
187 213 34
188 213 34
188 213 35
189 213 35
189 213 35
190 213 35
190 213 35
191 213 35
191 213 35
191 213 35
192 213 35
192 213 35
193 213 36
193 213 36
194 213 36
194 213 36
194 213 36
195 213 36
195 213 36
196 213 36
196 213 36
197 213 36
197 213 37
197 213 37
198 213 37
198 213 37
199 213 37
199 213 37
200 213 37
200 213 37
200 213 37
201 213 38
201 213 38
202 213 38
202 213 38
203 213 38
203 213 38
204 213 38
204 213 38
204 213 38
205 213 38
205 213 39
206 213 39
206 213 39
207 213 39
207 213 39
207 213 39
208 213 39
208 213 39
209 213 39
209 213 39
210 213 40
210 213 40
210 213 40
211 213 40
211 213 40
212 213 40
212 213 40
213 213 40
213 213 40
213 213 41
42 212 0
42 212 0
43 212 0
43 212 0
43 212 0
44 212 0
44 212 0
45 212 0
45 212 0
46 212 0
46 212 1
46 212 1
47 212 1
47 212 1
48 212 1
48 212 1
49 212 1
49 212 1
49 212 1
50 212 2
50 212 2
51 212 2
51 212 2
52 212 2
52 212 2
52 212 2
53 212 2
53 212 2
54 212 2
54 212 3
55 212 3
55 212 3
55 212 3
56 212 3
56 212 3
57 212 3
57 212 3
58 212 3
58 212 4
58 212 4
59 212 4
59 212 4
60 212 4
60 212 4
61 212 4
61 212 4
61 212 4
62 212 4
62 212 5
63 212 5
63 212 5
64 212 5
64 212 5
64 212 5
65 212 5
65 212 5
66 212 5
66 212 6
67 212 6
67 212 6
67 212 6
68 212 6
68 212 6
69 212 6
69 212 6
70 212 6
70 212 6
70 212 7
71 212 7
71 212 7
72 212 7
72 212 7
73 212 7
73 212 7
73 212 7
74 212 7
74 212 8
75 212 8
75 212 8
76 212 8
76 212 8
76 212 8
77 212 8
77 212 8
78 212 8
78 212 9
79 212 9
79 212 9
79 212 9
80 212 9
80 212 9
81 212 9
81 212 9
82 212 9
82 212 9
82 212 10
83 212 10
83 212 10
84 212 10
84 212 10
85 212 10
85 212 10
85 212 10
86 212 10
86 212 11
87 212 11
87 212 11
87 212 11
88 212 11
88 212 11
89 212 11
89 212 11
90 212 11
90 212 11
90 212 12
91 212 12
91 212 12
92 212 12
92 212 12
93 212 12
93 212 12
93 212 12
94 212 12
94 212 13
95 212 13
95 212 13
96 212 13
96 212 13
96 212 13
97 212 13
97 212 13
98 212 13
98 212 13
99 212 14
99 212 14
99 212 14
100 212 14
100 212 14
101 212 14
101 212 14
102 212 14
102 212 14
102 212 15
103 212 15
103 212 15
104 212 15
104 212 15
105 212 15
105 212 15
105 212 15
106 212 15
106 212 16
107 212 16
107 212 16
108 212 16
108 212 16
108 212 16
109 212 16
109 212 16
110 212 16
110 212 16
111 212 17
111 212 17
111 212 17
112 212 17
112 212 17
113 212 17
113 212 17
114 212 17
114 212 17
114 212 18
115 212 18
115 212 18
116 212 18
116 212 18
117 212 18
117 212 18
117 212 18
118 212 18
118 212 18
119 212 19
119 212 19
120 212 19
120 212 19
120 212 19
121 212 19
121 212 19
122 212 19
122 212 19
123 212 20
123 212 20
123 212 20
124 212 20
124 212 20
125 212 20
125 212 20
126 212 20
126 212 20
126 212 20
127 212 21
127 212 21
128 212 21
128 212 21
128 212 21
129 212 21
129 212 21
130 212 21
130 212 21
131 212 22
131 212 22
131 212 22
132 212 22
132 212 22
133 212 22
133 212 22
134 212 22
134 212 22
134 212 22
135 212 23
135 212 23
136 212 23
136 212 23
137 212 23
137 212 23
137 212 23
138 212 23
138 212 23
139 212 24
139 212 24
140 212 24
140 212 24
140 212 24
141 212 24
141 212 24
142 212 24
142 212 24
143 212 25
143 212 25
143 212 25
144 212 25
144 212 25
145 212 25
145 212 25
146 212 25
146 212 25
146 212 25
147 212 26
147 212 26
148 212 26
148 212 26
149 212 26
149 212 26
149 212 26
150 212 26
150 212 26
151 212 27
151 212 27
152 212 27
152 212 27
152 212 27
153 212 27
153 212 27
154 212 27
154 212 27
155 212 27
155 212 28
155 212 28
156 212 28
156 212 28
157 212 28
157 212 28
158 212 28
158 212 28
158 212 28
159 212 29
159 212 29
160 212 29
160 212 29
161 212 29
161 212 29
161 212 29
162 212 29
162 212 29
163 212 29
163 212 30
164 212 30
164 212 30
164 212 30
165 212 30
165 212 30
166 212 30
166 212 30
167 212 30
167 212 31
167 212 31
168 212 31
168 212 31
169 212 31
169 212 31
169 212 31
170 212 31
170 212 31
171 212 32
171 212 32
172 212 32
172 212 32
172 212 32
173 212 32
173 212 32
174 212 32
174 212 32
175 212 32
175 212 33
175 212 33
176 212 33
176 212 33
177 212 33
177 212 33
178 212 33
178 212 33
178 212 33
179 212 34
179 212 34
180 212 34
180 212 34
181 212 34
181 212 34
181 212 34
182 212 34
182 212 34
183 212 34
183 212 35
184 212 35
184 212 35
184 212 35
185 212 35
185 212 35
186 212 35
186 212 35
187 212 35
187 212 36
187 212 36
188 212 36
188 212 36
189 212 36
189 212 36
190 212 36
190 212 36
190 212 36
191 212 36
191 212 37
192 212 37
192 212 37
193 212 37
193 212 37
193 212 37
194 212 37
194 212 37
195 212 37
195 212 38
196 212 38
196 212 38
196 212 38
197 212 38
197 212 38
198 212 38
198 212 38
199 212 38
199 212 39
199 212 39
200 212 39
200 212 39
201 212 39
201 212 39
202 212 39
202 212 39
202 212 39
203 212 39
203 212 40
204 212 40
204 212 40
205 212 40
205 212 40
205 212 40
206 212 40
206 212 40
207 212 40
207 212 41
208 212 41
208 212 41
208 212 41
209 212 41
209 212 41
210 212 41
210 212 41
211 212 41
211 212 41
211 212 42
212 212 42
212 212 42
43 211 0
43 211 0
44 211 0
44 211 0
45 211 0
45 211 0
46 211 0
46 211 0
46 211 0
47 211 0
47 211 1
48 211 1
48 211 1
49 211 1
49 211 1
49 211 1
50 211 1
50 211 1
51 211 1
51 211 2
51 211 2
52 211 2
52 211 2
53 211 2
53 211 2
54 211 2
54 211 2
54 211 2
55 211 3
55 211 3
56 211 3
56 211 3
57 211 3
57 211 3
57 211 3
58 211 3
58 211 3
59 211 4
59 211 4
59 211 4
60 211 4
60 211 4
61 211 4
61 211 4
62 211 4
62 211 4
62 211 5
63 211 5
63 211 5
64 211 5
64 211 5
65 211 5
65 211 5
65 211 5
66 211 5
66 211 6
67 211 6
67 211 6
67 211 6
68 211 6
68 211 6
69 211 6
69 211 6
70 211 6
70 211 6
70 211 7
71 211 7
71 211 7
72 211 7
72 211 7
73 211 7
73 211 7
73 211 7
74 211 7
74 211 8
75 211 8
75 211 8
75 211 8
76 211 8
76 211 8
77 211 8
77 211 8
78 211 8
78 211 9
78 211 9
79 211 9
79 211 9
80 211 9
80 211 9
81 211 9
81 211 9
81 211 9
82 211 10
82 211 10
83 211 10
83 211 10
83 211 10
84 211 10
84 211 10
85 211 10
85 211 10
86 211 11
86 211 11
86 211 11
87 211 11
87 211 11
88 211 11
88 211 11
89 211 11
89 211 11
89 211 12
90 211 12
90 211 12
91 211 12
91 211 12
91 211 12
92 211 12
92 211 12
93 211 12
93 211 12
94 211 13
94 211 13
94 211 13
95 211 13
95 211 13
96 211 13
96 211 13
96 211 13
97 211 13
97 211 14
98 211 14
98 211 14
99 211 14
99 211 14
99 211 14
100 211 14
100 211 14
101 211 14
101 211 15
102 211 15
102 211 15
102 211 15
103 211 15
103 211 15
104 211 15
104 211 15
104 211 15
105 211 16
105 211 16
106 211 16
106 211 16
107 211 16
107 211 16
107 211 16
108 211 16
108 211 16
109 211 17
109 211 17
110 211 17
110 211 17
110 211 17
111 211 17
111 211 17
112 211 17
112 211 17
112 211 18
113 211 18
113 211 18
114 211 18
114 211 18
115 211 18
115 211 18
115 211 18
116 211 18
116 211 18
117 211 19
117 211 19
118 211 19
118 211 19
118 211 19
119 211 19
119 211 19
120 211 19
120 211 19
120 211 20
121 211 20
121 211 20
122 211 20
122 211 20
123 211 20
123 211 20
123 211 20
124 211 20
124 211 21
125 211 21
125 211 21
126 211 21
126 211 21
126 211 21
127 211 21
127 211 21
128 211 21
128 211 22
128 211 22
129 211 22
129 211 22
130 211 22
130 211 22
131 211 22
131 211 22
131 211 22
132 211 23
132 211 23
133 211 23
133 211 23
134 211 23
134 211 23
134 211 23
135 211 23
135 211 23
136 211 24
136 211 24
136 211 24
137 211 24
137 211 24
138 211 24
138 211 24
139 211 24
139 211 24
139 211 25
140 211 25
140 211 25
141 211 25
141 211 25
142 211 25
142 211 25
142 211 25
143 211 25
143 211 25
144 211 26
144 211 26
144 211 26
145 211 26
145 211 26
146 211 26
146 211 26
147 211 26
147 211 26
147 211 27
148 211 27
148 211 27
149 211 27
149 211 27
150 211 27
150 211 27
150 211 27
151 211 27
151 211 28
152 211 28
152 211 28
152 211 28
153 211 28
153 211 28
154 211 28
154 211 28
155 211 28
155 211 29
155 211 29
156 211 29
156 211 29
157 211 29
157 211 29
158 211 29
158 211 29
158 211 29
159 211 30
159 211 30
160 211 30
160 211 30
160 211 30
161 211 30
161 211 30
162 211 30
162 211 30
163 211 31
163 211 31
163 211 31
164 211 31
164 211 31
165 211 31
165 211 31
165 211 31
166 211 31
166 211 31
167 211 32
167 211 32
168 211 32
168 211 32
168 211 32
169 211 32
169 211 32
170 211 32
170 211 32
171 211 33
171 211 33
171 211 33
172 211 33
172 211 33
173 211 33
173 211 33
173 211 33
174 211 33
174 211 34
175 211 34
175 211 34
176 211 34
176 211 34
176 211 34
177 211 34
177 211 34
178 211 34
178 211 35
179 211 35
179 211 35
179 211 35
180 211 35
180 211 35
181 211 35
181 211 35
181 211 35
182 211 36
182 211 36
183 211 36
183 211 36
184 211 36
184 211 36
184 211 36
185 211 36
185 211 36
186 211 37
186 211 37
187 211 37
187 211 37
187 211 37
188 211 37
188 211 37
189 211 37
189 211 37
189 211 37
190 211 38
190 211 38
191 211 38
191 211 38
192 211 38
192 211 38
192 211 38
193 211 38
193 211 38
194 211 39
194 211 39
195 211 39
195 211 39
195 211 39
196 211 39
196 211 39
197 211 39
197 211 39
197 211 40
198 211 40
198 211 40
199 211 40
199 211 40
200 211 40
200 211 40
200 211 40
201 211 40
201 211 41
202 211 41
202 211 41
203 211 41
203 211 41
203 211 41
204 211 41
204 211 41
205 211 41
205 211 42
205 211 42
206 211 42
206 211 42
207 211 42
207 211 42
208 211 42
208 211 42
208 211 42
209 211 43
209 211 43
210 211 43
210 211 43
211 211 43
211 211 43
44 210 0
45 210 0
45 210 0
46 210 0
46 210 0
46 210 0
47 210 0
47 210 0
48 210 0
48 210 1
48 210 1
49 210 1
49 210 1
50 210 1
50 210 1
51 210 1
51 210 1
51 210 1
52 210 2
52 210 2
53 210 2
53 210 2
53 210 2
54 210 2
54 210 2
55 210 2
55 210 2
56 210 3
56 210 3
56 210 3
57 210 3
57 210 3
58 210 3
58 210 3
58 210 3
59 210 3
59 210 4
60 210 4
60 210 4
61 210 4
61 210 4
61 210 4
62 210 4
62 210 4
63 210 4
63 210 5
63 210 5
64 210 5
64 210 5
65 210 5
65 210 5
65 210 5
66 210 5
66 210 5
67 210 6
67 210 6
68 210 6
68 210 6
68 210 6
69 210 6
69 210 6
70 210 6
70 210 6
70 210 7
71 210 7
71 210 7
72 210 7
72 210 7
73 210 7
73 210 7
73 210 7
74 210 7
74 210 8
75 210 8
75 210 8
75 210 8
76 210 8
76 210 8
77 210 8
77 210 8
77 210 8
78 210 9
78 210 9
79 210 9
79 210 9
80 210 9
80 210 9
80 210 9
81 210 9
81 210 10
82 210 10
82 210 10
82 210 10
83 210 10
83 210 10
84 210 10
84 210 10
85 210 10
85 210 11
85 210 11
86 210 11
86 210 11
87 210 11
87 210 11
87 210 11
88 210 11
88 210 11
89 210 12
89 210 12
90 210 12
90 210 12
90 210 12
91 210 12
91 210 12
92 210 12
92 210 12
92 210 13
93 210 13
93 210 13
94 210 13
94 210 13
94 210 13
95 210 13
95 210 13
96 210 13
96 210 14
97 210 14
97 210 14
97 210 14
98 210 14
98 210 14
99 210 14
99 210 14
99 210 14
100 210 15
100 210 15
101 210 15
101 210 15
102 210 15
102 210 15
102 210 15
103 210 15
103 210 15
104 210 16
104 210 16
104 210 16
105 210 16
105 210 16
106 210 16
106 210 16
106 210 16
107 210 16
107 210 17
108 210 17
108 210 17
109 210 17
109 210 17
109 210 17
110 210 17
110 210 17
111 210 17
111 210 18
111 210 18
112 210 18
112 210 18
113 210 18
113 210 18
114 210 18
114 210 18
114 210 18
115 210 19
115 210 19
116 210 19
116 210 19
116 210 19
117 210 19
117 210 19
118 210 19
118 210 20
119 210 20
119 210 20
119 210 20
120 210 20
120 210 20
121 210 20
121 210 20
121 210 20
122 210 21
122 210 21
123 210 21
123 210 21
123 210 21
124 210 21
124 210 21
125 210 21
125 210 21
126 210 22
126 210 22
126 210 22
127 210 22
127 210 22
128 210 22
128 210 22
128 210 22
129 210 22
129 210 23
130 210 23
130 210 23
131 210 23
131 210 23
131 210 23
132 210 23
132 210 23
133 210 23
133 210 24
133 210 24
134 210 24
134 210 24
135 210 24
135 210 24
135 210 24
136 210 24
136 210 24
137 210 25
137 210 25
138 210 25
138 210 25
138 210 25
139 210 25
139 210 25
140 210 25
140 210 25
140 210 26
141 210 26
141 210 26
142 210 26
142 210 26
143 210 26
143 210 26
143 210 26
144 210 26
144 210 27
145 210 27
145 210 27
145 210 27
146 210 27
146 210 27
147 210 27
147 210 27
148 210 27
148 210 28
148 210 28
149 210 28
149 210 28
150 210 28
150 210 28
150 210 28
151 210 28
151 210 29
152 210 29
152 210 29
152 210 29
153 210 29
153 210 29
154 210 29
154 210 29
155 210 29
155 210 30
155 210 30
156 210 30
156 210 30
157 210 30
157 210 30
157 210 30
158 210 30
158 210 30
159 210 31
159 210 31
160 210 31
160 210 31
160 210 31
161 210 31
161 210 31
162 210 31
162 210 31
162 210 32
163 210 32
163 210 32
164 210 32
164 210 32
164 210 32
165 210 32
165 210 32
166 210 32
166 210 33
167 210 33
167 210 33
167 210 33
168 210 33
168 210 33
169 210 33
169 210 33
169 210 33
170 210 34
170 210 34
171 210 34
171 210 34
172 210 34
172 210 34
172 210 34
173 210 34
173 210 34
174 210 35
174 210 35
174 210 35
175 210 35
175 210 35
176 210 35
176 210 35
177 210 35
177 210 35
177 210 36
178 210 36
178 210 36
179 210 36
179 210 36
179 210 36
180 210 36
180 210 36
181 210 36
181 210 37
181 210 37
182 210 37
182 210 37
183 210 37
183 210 37
184 210 37
184 210 37
184 210 37
185 210 38
185 210 38
186 210 38
186 210 38
186 210 38
187 210 38
187 210 38
188 210 38
188 210 39
189 210 39
189 210 39
189 210 39
190 210 39
190 210 39
191 210 39
191 210 39
191 210 39
192 210 40
192 210 40
193 210 40
193 210 40
193 210 40
194 210 40
194 210 40
195 210 40
195 210 40
196 210 41
196 210 41
196 210 41
197 210 41
197 210 41
198 210 41
198 210 41
198 210 41
199 210 41
199 210 42
200 210 42
200 210 42
201 210 42
201 210 42
201 210 42
202 210 42
202 210 42
203 210 42
203 210 43
203 210 43
204 210 43
204 210 43
205 210 43
205 210 43
206 210 43
206 210 43
206 210 43
207 210 44
207 210 44
208 210 44
208 210 44
208 210 44
209 210 44
209 210 44
210 210 44
46 208 0
46 208 0
46 208 0
47 208 0
47 208 0
48 208 0
48 208 0
48 208 0
49 208 0
49 208 1
50 208 1
50 208 1
51 208 1
51 208 1
51 208 1
52 208 1
52 208 1
53 208 1
53 208 2
53 208 2
54 208 2
54 208 2
55 208 2
55 208 2
55 208 2
56 208 2
56 208 3
57 208 3
57 208 3
57 208 3
58 208 3
58 208 3
59 208 3
59 208 3
59 208 3
60 208 4
60 208 4
61 208 4
61 208 4
62 208 4
62 208 4
62 208 4
63 208 4
63 208 4
64 208 5
64 208 5
64 208 5
65 208 5
65 208 5
66 208 5
66 208 5
66 208 5
67 208 6
67 208 6
68 208 6
68 208 6
68 208 6
69 208 6
69 208 6
70 208 6
70 208 6
71 208 7
71 208 7
71 208 7
72 208 7
72 208 7
73 208 7
73 208 7
73 208 7
74 208 7
74 208 8
75 208 8
75 208 8
75 208 8
76 208 8
76 208 8
77 208 8
77 208 8
77 208 9
78 208 9
78 208 9
79 208 9
79 208 9
79 208 9
80 208 9
80 208 9
81 208 9
81 208 10
82 208 10
82 208 10
82 208 10
83 208 10
83 208 10
84 208 10
84 208 10
84 208 10
85 208 11
85 208 11
86 208 11
86 208 11
86 208 11
87 208 11
87 208 11
88 208 11
88 208 12
88 208 12
89 208 12
89 208 12
90 208 12
90 208 12
90 208 12
91 208 12
91 208 12
92 208 13
92 208 13
93 208 13
93 208 13
93 208 13
94 208 13
94 208 13
95 208 13
95 208 13
95 208 14
96 208 14
96 208 14
97 208 14
97 208 14
97 208 14
98 208 14
98 208 14
99 208 15
99 208 15
99 208 15
100 208 15
100 208 15
101 208 15
101 208 15
102 208 15
102 208 15
102 208 16
103 208 16
103 208 16
104 208 16
104 208 16
104 208 16
105 208 16
105 208 16
106 208 16
106 208 17
106 208 17
107 208 17
107 208 17
108 208 17
108 208 17
108 208 17
109 208 17
109 208 18
110 208 18
110 208 18
110 208 18
111 208 18
111 208 18
112 208 18
112 208 18
113 208 18
113 208 19
113 208 19
114 208 19
114 208 19
115 208 19
115 208 19
115 208 19
116 208 19
116 208 20
117 208 20
117 208 20
117 208 20
118 208 20
118 208 20
119 208 20
119 208 20
119 208 20
120 208 21
120 208 21
121 208 21
121 208 21
121 208 21
122 208 21
122 208 21
123 208 21
123 208 21
124 208 22
124 208 22
124 208 22
125 208 22
125 208 22
126 208 22
126 208 22
126 208 22
127 208 23
127 208 23
128 208 23
128 208 23
128 208 23
129 208 23
129 208 23
130 208 23
130 208 23
130 208 24
131 208 24
131 208 24
132 208 24
132 208 24
133 208 24
133 208 24
133 208 24
134 208 24
134 208 25
135 208 25
135 208 25
135 208 25
136 208 25
136 208 25
137 208 25
137 208 25
137 208 26
138 208 26
138 208 26
139 208 26
139 208 26
139 208 26
140 208 26
140 208 26
141 208 26
141 208 27
141 208 27
142 208 27
142 208 27
143 208 27
143 208 27
144 208 27
144 208 27
144 208 27
145 208 28
145 208 28
146 208 28
146 208 28
146 208 28
147 208 28
147 208 28
148 208 28
148 208 29
148 208 29
149 208 29
149 208 29
150 208 29
150 208 29
150 208 29
151 208 29
151 208 29
152 208 30
152 208 30
152 208 30
153 208 30
153 208 30
154 208 30
154 208 30
155 208 30
155 208 30
155 208 31
156 208 31
156 208 31
157 208 31
157 208 31
157 208 31
158 208 31
158 208 31
159 208 32
159 208 32
159 208 32
160 208 32
160 208 32
161 208 32
161 208 32
161 208 32
162 208 32
162 208 33
163 208 33
163 208 33
164 208 33
164 208 33
164 208 33
165 208 33
165 208 33
166 208 33
166 208 34
166 208 34
167 208 34
167 208 34
168 208 34
168 208 34
168 208 34
169 208 34
169 208 35
170 208 35
170 208 35
170 208 35
171 208 35
171 208 35
172 208 35
172 208 35
172 208 35
173 208 36
173 208 36
174 208 36
174 208 36
175 208 36
175 208 36
175 208 36
176 208 36
176 208 36
177 208 37
177 208 37
177 208 37
178 208 37
178 208 37
179 208 37
179 208 37
179 208 37
180 208 38
180 208 38
181 208 38
181 208 38
181 208 38
182 208 38
182 208 38
183 208 38
183 208 38
183 208 39
184 208 39
184 208 39
185 208 39
185 208 39
186 208 39
186 208 39
186 208 39
187 208 40
187 208 40
188 208 40
188 208 40
188 208 40
189 208 40
189 208 40
190 208 40
190 208 40
190 208 41
191 208 41
191 208 41
192 208 41
192 208 41
192 208 41
193 208 41
193 208 41
194 208 41
194 208 42
195 208 42
195 208 42
195 208 42
196 208 42
196 208 42
197 208 42
197 208 42
197 208 43
198 208 43
198 208 43
199 208 43
199 208 43
199 208 43
200 208 43
200 208 43
201 208 43
201 208 44
201 208 44
202 208 44
202 208 44
203 208 44
203 208 44
203 208 44
204 208 44
204 208 44
205 208 45
205 208 45
206 208 45
206 208 45
206 208 45
207 208 45
207 208 45
208 208 45
208 208 46
208 208 46
47 207 0
47 207 0
48 207 0
48 207 0
49 207 0
49 207 0
49 207 0
50 207 0
50 207 0
51 207 1
51 207 1
51 207 1
52 207 1
52 207 1
53 207 1
53 207 1
53 207 1
54 207 2
54 207 2
55 207 2
55 207 2
55 207 2
56 207 2
56 207 2
57 207 2
57 207 2
57 207 3
58 207 3
58 207 3
59 207 3
59 207 3
59 207 3
60 207 3
60 207 3
61 207 4
61 207 4
61 207 4
62 207 4
62 207 4
63 207 4
63 207 4
63 207 4
64 207 4
64 207 5
65 207 5
65 207 5
65 207 5
66 207 5
66 207 5
67 207 5
67 207 5
67 207 6
68 207 6
68 207 6
69 207 6
69 207 6
69 207 6
70 207 6
70 207 6
71 207 7
71 207 7
71 207 7
72 207 7
72 207 7
73 207 7
73 207 7
73 207 7
74 207 7
74 207 8
75 207 8
75 207 8
75 207 8
76 207 8
76 207 8
77 207 8
77 207 8
77 207 9
78 207 9
78 207 9
79 207 9
79 207 9
79 207 9
80 207 9
80 207 9
81 207 9
81 207 10
81 207 10
82 207 10
82 207 10
83 207 10
83 207 10
83 207 10
84 207 10
84 207 11
85 207 11
85 207 11
85 207 11
86 207 11
86 207 11
87 207 11
87 207 11
87 207 12
88 207 12
88 207 12
89 207 12
89 207 12
89 207 12
90 207 12
90 207 12
91 207 12
91 207 13
91 207 13
92 207 13
92 207 13
93 207 13
93 207 13
93 207 13
94 207 13
94 207 14
95 207 14
95 207 14
95 207 14
96 207 14
96 207 14
97 207 14
97 207 14
97 207 14
98 207 15
98 207 15
99 207 15
99 207 15
100 207 15
100 207 15
100 207 15
101 207 15
101 207 16
102 207 16
102 207 16
102 207 16
103 207 16
103 207 16
104 207 16
104 207 16
104 207 16
105 207 17
105 207 17
106 207 17
106 207 17
106 207 17
107 207 17
107 207 17
108 207 17
108 207 18
108 207 18
109 207 18
109 207 18
110 207 18
110 207 18
110 207 18
111 207 18
111 207 19
112 207 19
112 207 19
112 207 19
113 207 19
113 207 19
114 207 19
114 207 19
114 207 19
115 207 20
115 207 20
116 207 20
116 207 20
116 207 20
117 207 20
117 207 20
118 207 20
118 207 21
118 207 21
119 207 21
119 207 21
120 207 21
120 207 21
120 207 21
121 207 21
121 207 21
122 207 22
122 207 22
122 207 22
123 207 22
123 207 22
124 207 22
124 207 22
124 207 22
125 207 23
125 207 23
126 207 23
126 207 23
126 207 23
127 207 23
127 207 23
128 207 23
128 207 24
128 207 24
129 207 24
129 207 24
130 207 24
130 207 24
130 207 24
131 207 24
131 207 24
132 207 25
132 207 25
132 207 25
133 207 25
133 207 25
134 207 25
134 207 25
134 207 25
135 207 26
135 207 26
136 207 26
136 207 26
136 207 26
137 207 26
137 207 26
138 207 26
138 207 26
138 207 27
139 207 27
139 207 27
140 207 27
140 207 27
140 207 27
141 207 27
141 207 27
142 207 28
142 207 28
142 207 28
143 207 28
143 207 28
144 207 28
144 207 28
144 207 28
145 207 28
145 207 29
146 207 29
146 207 29
146 207 29
147 207 29
147 207 29
148 207 29
148 207 29
148 207 30
149 207 30
149 207 30
150 207 30
150 207 30
150 207 30
151 207 30
151 207 30
152 207 31
152 207 31
152 207 31
153 207 31
153 207 31
154 207 31
154 207 31
154 207 31
155 207 31
155 207 32
156 207 32
156 207 32
157 207 32
157 207 32
157 207 32
158 207 32
158 207 32
159 207 33
159 207 33
159 207 33
160 207 33
160 207 33
161 207 33
161 207 33
161 207 33
162 207 33
162 207 34
163 207 34
163 207 34
163 207 34
164 207 34
164 207 34
165 207 34
165 207 34
165 207 35
166 207 35
166 207 35
167 207 35
167 207 35
167 207 35
168 207 35
168 207 35
169 207 36
169 207 36
169 207 36
170 207 36
170 207 36
171 207 36
171 207 36
171 207 36
172 207 36
172 207 37
173 207 37
173 207 37
173 207 37
174 207 37
174 207 37
175 207 37
175 207 37
175 207 38
176 207 38
176 207 38
177 207 38
177 207 38
177 207 38
178 207 38
178 207 38
179 207 38
179 207 39
179 207 39
180 207 39
180 207 39
181 207 39
181 207 39
181 207 39
182 207 39
182 207 40
183 207 40
183 207 40
183 207 40
184 207 40
184 207 40
185 207 40
185 207 40
185 207 40
186 207 41
186 207 41
187 207 41
187 207 41
187 207 41
188 207 41
188 207 41
189 207 41
189 207 42
189 207 42
190 207 42
190 207 42
191 207 42
191 207 42
191 207 42
192 207 42
192 207 43
193 207 43
193 207 43
193 207 43
194 207 43
194 207 43
195 207 43
195 207 43
195 207 43
196 207 44
196 207 44
197 207 44
197 207 44
197 207 44
198 207 44
198 207 44
199 207 44
199 207 45
199 207 45
200 207 45
200 207 45
201 207 45
201 207 45
201 207 45
202 207 45
202 207 45
203 207 46
203 207 46
203 207 46
204 207 46
204 207 46
205 207 46
205 207 46
205 207 46
206 207 47
206 207 47
207 207 47
207 207 47
48 206 0
49 206 0
49 206 0
49 206 0
50 206 0
50 206 0
51 206 0
51 206 0
51 206 0
52 206 1
52 206 1
53 206 1
53 206 1
53 206 1
54 206 1
54 206 1
55 206 1
55 206 2
55 206 2
56 206 2
56 206 2
56 206 2
57 206 2
57 206 2
58 206 2
58 206 3
58 206 3
59 206 3
59 206 3
60 206 3
60 206 3
60 206 3
61 206 3
61 206 4
62 206 4
62 206 4
62 206 4
63 206 4
63 206 4
64 206 4
64 206 4
64 206 5
65 206 5
65 206 5
66 206 5
66 206 5
66 206 5
67 206 5
67 206 5
68 206 5
68 206 6
68 206 6
69 206 6
69 206 6
70 206 6
70 206 6
70 206 6
71 206 6
71 206 7
71 206 7
72 206 7
72 206 7
73 206 7
73 206 7
73 206 7
74 206 7
74 206 8
75 206 8
75 206 8
75 206 8
76 206 8
76 206 8
77 206 8
77 206 8
77 206 9
78 206 9
78 206 9
79 206 9
79 206 9
79 206 9
80 206 9
80 206 9
81 206 10
81 206 10
81 206 10
82 206 10
82 206 10
83 206 10
83 206 10
83 206 10
84 206 10
84 206 11
85 206 11
85 206 11
85 206 11
86 206 11
86 206 11
87 206 11
87 206 11
87 206 12
88 206 12
88 206 12
88 206 12
89 206 12
89 206 12
90 206 12
90 206 12
90 206 13
91 206 13
91 206 13
92 206 13
92 206 13
92 206 13
93 206 13
93 206 13
94 206 14
94 206 14
94 206 14
95 206 14
95 206 14
96 206 14
96 206 14
96 206 14
97 206 15
97 206 15
98 206 15
98 206 15
98 206 15
99 206 15
99 206 15
100 206 15
100 206 15
100 206 16
101 206 16
101 206 16
102 206 16
102 206 16
102 206 16
103 206 16
103 206 16
103 206 17
104 206 17
104 206 17
105 206 17
105 206 17
105 206 17
106 206 17
106 206 17
107 206 18
107 206 18
107 206 18
108 206 18
108 206 18
109 206 18
109 206 18
109 206 18
110 206 19
110 206 19
111 206 19
111 206 19
111 206 19
112 206 19
112 206 19
113 206 19
113 206 20
113 206 20
114 206 20
114 206 20
115 206 20
115 206 20
115 206 20
116 206 20
116 206 20
117 206 21
117 206 21
117 206 21
118 206 21
118 206 21
119 206 21
119 206 21
119 206 21
120 206 22
120 206 22
120 206 22
121 206 22
121 206 22
122 206 22
122 206 22
122 206 22
123 206 23
123 206 23
124 206 23
124 206 23
124 206 23
125 206 23
125 206 23
126 206 23
126 206 24
126 206 24
127 206 24
127 206 24
128 206 24
128 206 24
128 206 24
129 206 24
129 206 25
130 206 25
130 206 25
130 206 25
131 206 25
131 206 25
132 206 25
132 206 25
132 206 25
133 206 26
133 206 26
134 206 26
134 206 26
134 206 26
135 206 26
135 206 26
135 206 26
136 206 27
136 206 27
137 206 27
137 206 27
137 206 27
138 206 27
138 206 27
139 206 27
139 206 28
139 206 28
140 206 28
140 206 28
141 206 28
141 206 28
141 206 28
142 206 28
142 206 29
143 206 29
143 206 29
143 206 29
144 206 29
144 206 29
145 206 29
145 206 29
145 206 30
146 206 30
146 206 30
147 206 30
147 206 30
147 206 30
148 206 30
148 206 30
149 206 30
149 206 31
149 206 31
150 206 31
150 206 31
151 206 31
151 206 31
151 206 31
152 206 31
152 206 32
152 206 32
153 206 32
153 206 32
154 206 32
154 206 32
154 206 32
155 206 32
155 206 33
156 206 33
156 206 33
156 206 33
157 206 33
157 206 33
158 206 33
158 206 33
158 206 34
159 206 34
159 206 34
160 206 34
160 206 34
160 206 34
161 206 34
161 206 34
162 206 35
162 206 35
162 206 35
163 206 35
163 206 35
164 206 35
164 206 35
164 206 35
165 206 36
165 206 36
166 206 36
166 206 36
166 206 36
167 206 36
167 206 36
167 206 36
168 206 36
168 206 37
169 206 37
169 206 37
169 206 37
170 206 37
170 206 37
171 206 37
171 206 37
171 206 38
172 206 38
172 206 38
173 206 38
173 206 38
173 206 38
174 206 38
174 206 38
175 206 39
175 206 39
175 206 39
176 206 39
176 206 39
177 206 39
177 206 39
177 206 39
178 206 40
178 206 40
179 206 40
179 206 40
179 206 40
180 206 40
180 206 40
181 206 40
181 206 41
181 206 41
182 206 41
182 206 41
183 206 41
183 206 41
183 206 41
184 206 41
184 206 41
184 206 42
185 206 42
185 206 42
186 206 42
186 206 42
186 206 42
187 206 42
187 206 42
188 206 43
188 206 43
188 206 43
189 206 43
189 206 43
190 206 43
190 206 43
190 206 43
191 206 44
191 206 44
192 206 44
192 206 44
192 206 44
193 206 44
193 206 44
194 206 44
194 206 45
194 206 45
195 206 45
195 206 45
196 206 45
196 206 45
196 206 45
197 206 45
197 206 46
198 206 46
198 206 46
198 206 46
199 206 46
199 206 46
199 206 46
200 206 46
200 206 46
201 206 47
201 206 47
201 206 47
202 206 47
202 206 47
203 206 47
203 206 47
203 206 47
204 206 48
204 206 48
205 206 48
205 206 48
205 206 48
206 206 48
49 205 0
50 205 0
50 205 0
51 205 0
51 205 0
51 205 0
52 205 0
52 205 0
53 205 1
53 205 1
53 205 1
54 205 1
54 205 1
55 205 1
55 205 1
55 205 1
56 205 2
56 205 2
56 205 2
57 205 2
57 205 2
58 205 2
58 205 2
58 205 2
59 205 3
59 205 3
60 205 3
60 205 3
60 205 3
61 205 3
61 205 3
62 205 3
62 205 4
62 205 4
63 205 4
63 205 4
63 205 4
64 205 4
64 205 4
65 205 4
65 205 5
65 205 5
66 205 5
66 205 5
67 205 5
67 205 5
67 205 5
68 205 5
68 205 6
69 205 6
69 205 6
69 205 6
70 205 6
70 205 6
70 205 6
71 205 6
71 205 7
72 205 7
72 205 7
72 205 7
73 205 7
73 205 7
74 205 7
74 205 7
74 205 8
75 205 8
75 205 8
76 205 8
76 205 8
76 205 8
77 205 8
77 205 8
77 205 9
78 205 9
78 205 9
79 205 9
79 205 9
79 205 9
80 205 9
80 205 9
81 205 10
81 205 10
81 205 10
82 205 10
82 205 10
83 205 10
83 205 10
83 205 10
84 205 11
84 205 11
84 205 11
85 205 11
85 205 11
86 205 11
86 205 11
86 205 11
87 205 12
87 205 12
88 205 12
88 205 12
88 205 12
89 205 12
89 205 12
90 205 12
90 205 13
90 205 13
91 205 13
91 205 13
91 205 13
92 205 13
92 205 13
93 205 13
93 205 14
93 205 14
94 205 14
94 205 14
95 205 14
95 205 14
95 205 14
96 205 14
96 205 15
96 205 15
97 205 15
97 205 15
98 205 15
98 205 15
98 205 15
99 205 15
99 205 16
100 205 16
100 205 16
100 205 16
101 205 16
101 205 16
102 205 16
102 205 16
102 205 17
103 205 17
103 205 17
103 205 17
104 205 17
104 205 17
105 205 17
105 205 17
105 205 18
106 205 18
106 205 18
107 205 18
107 205 18
107 205 18
108 205 18
108 205 18
109 205 19
109 205 19
109 205 19
110 205 19
110 205 19
110 205 19
111 205 19
111 205 19
112 205 20
112 205 20
112 205 20
113 205 20
113 205 20
114 205 20
114 205 20
114 205 20
115 205 21
115 205 21
116 205 21
116 205 21
116 205 21
117 205 21
117 205 21
117 205 21
118 205 22
118 205 22
119 205 22
119 205 22
119 205 22
120 205 22
120 205 22
121 205 22
121 205 23
121 205 23
122 205 23
122 205 23
123 205 23
123 205 23
123 205 23
124 205 23
124 205 24
124 205 24
125 205 24
125 205 24
126 205 24
126 205 24
126 205 24
127 205 24
127 205 25
128 205 25
128 205 25
128 205 25
129 205 25
129 205 25
130 205 25
130 205 25
130 205 26
131 205 26
131 205 26
131 205 26
132 205 26
132 205 26
133 205 26
133 205 26
133 205 27
134 205 27
134 205 27
135 205 27
135 205 27
135 205 27
136 205 27
136 205 27
137 205 28
137 205 28
137 205 28
138 205 28
138 205 28
138 205 28
139 205 28
139 205 28
140 205 29
140 205 29
140 205 29
141 205 29
141 205 29
142 205 29
142 205 29
142 205 29
143 205 30
143 205 30
144 205 30
144 205 30
144 205 30
145 205 30
145 205 30
145 205 30
146 205 31
146 205 31
147 205 31
147 205 31
147 205 31
148 205 31
148 205 31
149 205 31
149 205 32
149 205 32
150 205 32
150 205 32
151 205 32
151 205 32
151 205 32
152 205 32
152 205 33
152 205 33
153 205 33
153 205 33
154 205 33
154 205 33
154 205 33
155 205 33
155 205 34
156 205 34
156 205 34
156 205 34
157 205 34
157 205 34
158 205 34
158 205 34
158 205 35
159 205 35
159 205 35
159 205 35
160 205 35
160 205 35
161 205 35
161 205 35
161 205 36
162 205 36
162 205 36
163 205 36
163 205 36
163 205 36
164 205 36
164 205 36
164 205 37
165 205 37
165 205 37
166 205 37
166 205 37
166 205 37
167 205 37
167 205 37
168 205 38
168 205 38
168 205 38
169 205 38
169 205 38
170 205 38
170 205 38
170 205 38
171 205 39
171 205 39
171 205 39
172 205 39
172 205 39
173 205 39
173 205 39
173 205 39
174 205 40
174 205 40
175 205 40
175 205 40
175 205 40
176 205 40
176 205 40
177 205 40
177 205 41
177 205 41
178 205 41
178 205 41
178 205 41
179 205 41
179 205 41
180 205 41
180 205 42
180 205 42
181 205 42
181 205 42
182 205 42
182 205 42
182 205 42
183 205 42
183 205 43
184 205 43
184 205 43
184 205 43
185 205 43
185 205 43
185 205 43
186 205 43
186 205 44
187 205 44
187 205 44
187 205 44
188 205 44
188 205 44
189 205 44
189 205 44
189 205 45
190 205 45
190 205 45
191 205 45
191 205 45
191 205 45
192 205 45
192 205 45
192 205 46
193 205 46
193 205 46
194 205 46
194 205 46
194 205 46
195 205 46
195 205 46
196 205 47
196 205 47
196 205 47
197 205 47
197 205 47
198 205 47
198 205 47
198 205 47
199 205 48
199 205 48
199 205 48
200 205 48
200 205 48
201 205 48
201 205 48
201 205 48
202 205 49
202 205 49
203 205 49
203 205 49
203 205 49
204 205 49
204 205 49
205 205 49
51 203 0
51 203 0
52 203 0
52 203 0
52 203 0
53 203 0
53 203 0
53 203 0
54 203 1
54 203 1
55 203 1
55 203 1
55 203 1
56 203 1
56 203 1
56 203 1
57 203 2
57 203 2
58 203 2
58 203 2
58 203 2
59 203 2
59 203 2
60 203 2
60 203 3
60 203 3
61 203 3
61 203 3
61 203 3
62 203 3
62 203 3
63 203 3
63 203 4
63 203 4
64 203 4
64 203 4
65 203 4
65 203 4
65 203 4
66 203 5
66 203 5
66 203 5
67 203 5
67 203 5
68 203 5
68 203 5
68 203 5
69 203 6
69 203 6
69 203 6
70 203 6
70 203 6
71 203 6
71 203 6
71 203 6
72 203 7
72 203 7
73 203 7
73 203 7
73 203 7
74 203 7
74 203 7
74 203 7
75 203 8
75 203 8
76 203 8
76 203 8
76 203 8
77 203 8
77 203 8
78 203 8
78 203 9
78 203 9
79 203 9
79 203 9
79 203 9
80 203 9
80 203 9
81 203 10
81 203 10
81 203 10
82 203 10
82 203 10
82 203 10
83 203 10
83 203 10
84 203 11
84 203 11
84 203 11
85 203 11
85 203 11
86 203 11
86 203 11
86 203 11
87 203 12
87 203 12
87 203 12
88 203 12
88 203 12
89 203 12
89 203 12
89 203 12
90 203 13
90 203 13
91 203 13
91 203 13
91 203 13
92 203 13
92 203 13
92 203 14
93 203 14
93 203 14
94 203 14
94 203 14
94 203 14
95 203 14
95 203 14
95 203 15
96 203 15
96 203 15
97 203 15
97 203 15
97 203 15
98 203 15
98 203 15
99 203 16
99 203 16
99 203 16
100 203 16
100 203 16
100 203 16
101 203 16
101 203 16
102 203 17
102 203 17
102 203 17
103 203 17
103 203 17
103 203 17
104 203 17
104 203 17
105 203 18
105 203 18
105 203 18
106 203 18
106 203 18
107 203 18
107 203 18
107 203 19
108 203 19
108 203 19
108 203 19
109 203 19
109 203 19
110 203 19
110 203 19
110 203 20
111 203 20
111 203 20
112 203 20
112 203 20
112 203 20
113 203 20
113 203 20
113 203 21
114 203 21
114 203 21
115 203 21
115 203 21
115 203 21
116 203 21
116 203 21
116 203 22
117 203 22
117 203 22
118 203 22
118 203 22
118 203 22
119 203 22
119 203 22
120 203 23
120 203 23
120 203 23
121 203 23
121 203 23
121 203 23
122 203 23
122 203 24
123 203 24
123 203 24
123 203 24
124 203 24
124 203 24
125 203 24
125 203 24
125 203 25
126 203 25
126 203 25
126 203 25
127 203 25
127 203 25
128 203 25
128 203 25
128 203 26
129 203 26
129 203 26
129 203 26
130 203 26
130 203 26
131 203 26
131 203 26
131 203 27
132 203 27
132 203 27
133 203 27
133 203 27
133 203 27
134 203 27
134 203 28
134 203 28
135 203 28
135 203 28
136 203 28
136 203 28
136 203 28
137 203 28
137 203 29
138 203 29
138 203 29
138 203 29
139 203 29
139 203 29
139 203 29
140 203 29
140 203 30
141 203 30
141 203 30
141 203 30
142 203 30
142 203 30
142 203 30
143 203 30
143 203 31
144 203 31
144 203 31
144 203 31
145 203 31
145 203 31
146 203 31
146 203 31
146 203 32
147 203 32
147 203 32
147 203 32
148 203 32
148 203 32
149 203 32
149 203 33
149 203 33
150 203 33
150 203 33
151 203 33
151 203 33
151 203 33
152 203 33
152 203 34
152 203 34
153 203 34
153 203 34
154 203 34
154 203 34
154 203 34
155 203 34
155 203 35
155 203 35
156 203 35
156 203 35
157 203 35
157 203 35
157 203 35
158 203 35
158 203 36
159 203 36
159 203 36
159 203 36
160 203 36
160 203 36
160 203 36
161 203 36
161 203 37
162 203 37
162 203 37
162 203 37
163 203 37
163 203 37
163 203 37
164 203 38
164 203 38
165 203 38
165 203 38
165 203 38
166 203 38
166 203 38
167 203 38
167 203 39
167 203 39
168 203 39
168 203 39
168 203 39
169 203 39
169 203 39
170 203 39
170 203 40
170 203 40
171 203 40
171 203 40
172 203 40
172 203 40
172 203 40
173 203 40
173 203 41
173 203 41
174 203 41
174 203 41
175 203 41
175 203 41
175 203 41
176 203 42
176 203 42
176 203 42
177 203 42
177 203 42
178 203 42
178 203 42
178 203 42
179 203 43
179 203 43
180 203 43
180 203 43
180 203 43
181 203 43
181 203 43
181 203 43
182 203 44
182 203 44
183 203 44
183 203 44
183 203 44
184 203 44
184 203 44
185 203 44
185 203 45
185 203 45
186 203 45
186 203 45
186 203 45
187 203 45
187 203 45
188 203 45
188 203 46
188 203 46
189 203 46
189 203 46
189 203 46
190 203 46
190 203 46
191 203 47
191 203 47
191 203 47
192 203 47
192 203 47
193 203 47
193 203 47
193 203 47
194 203 48
194 203 48
194 203 48
195 203 48
195 203 48
196 203 48
196 203 48
196 203 48
197 203 49
197 203 49
198 203 49
198 203 49
198 203 49
199 203 49
199 203 49
199 203 49
200 203 50
200 203 50
201 203 50
201 203 50
201 203 50
202 203 50
202 203 50
202 203 50
203 203 51
203 203 51
52 202 0
52 202 0
53 202 0
53 202 0
54 202 0
54 202 0
54 202 0
55 202 0
55 202 1
55 202 1
56 202 1
56 202 1
57 202 1
57 202 1
57 202 1
58 202 1
58 202 2
58 202 2
59 202 2
59 202 2
60 202 2
60 202 2
60 202 2
61 202 3
61 202 3
61 202 3
62 202 3
62 202 3
63 202 3
63 202 3
63 202 3
64 202 4
64 202 4
64 202 4
65 202 4
65 202 4
66 202 4
66 202 4
66 202 5
67 202 5
67 202 5
67 202 5
68 202 5
68 202 5
69 202 5
69 202 5
69 202 6
70 202 6
70 202 6
70 202 6
71 202 6
71 202 6
72 202 6
72 202 6
72 202 7
73 202 7
73 202 7
73 202 7
74 202 7
74 202 7
75 202 7
75 202 8
75 202 8
76 202 8
76 202 8
76 202 8
77 202 8
77 202 8
78 202 8
78 202 9
78 202 9
79 202 9
79 202 9
79 202 9
80 202 9
80 202 9
81 202 10
81 202 10
81 202 10
82 202 10
82 202 10
82 202 10
83 202 10
83 202 10
84 202 11
84 202 11
84 202 11
85 202 11
85 202 11
85 202 11
86 202 11
86 202 11
87 202 12
87 202 12
87 202 12
88 202 12
88 202 12
88 202 12
89 202 12
89 202 13
90 202 13
90 202 13
90 202 13
91 202 13
91 202 13
91 202 13
92 202 13
92 202 14
93 202 14
93 202 14
93 202 14
94 202 14
94 202 14
94 202 14
95 202 15
95 202 15
96 202 15
96 202 15
96 202 15
97 202 15
97 202 15
98 202 15
98 202 16
98 202 16
99 202 16
99 202 16
99 202 16
100 202 16
100 202 16
101 202 16
101 202 17
101 202 17
102 202 17
102 202 17
102 202 17
103 202 17
103 202 17
104 202 18
104 202 18
104 202 18
105 202 18
105 202 18
105 202 18
106 202 18
106 202 18
107 202 19
107 202 19
107 202 19
108 202 19
108 202 19
108 202 19
109 202 19
109 202 20
110 202 20
110 202 20
110 202 20
111 202 20
111 202 20
111 202 20
112 202 20
112 202 21
113 202 21
113 202 21
113 202 21
114 202 21
114 202 21
114 202 21
115 202 21
115 202 22
116 202 22
116 202 22
116 202 22
117 202 22
117 202 22
117 202 22
118 202 23
118 202 23
119 202 23
119 202 23
119 202 23
120 202 23
120 202 23
120 202 23
121 202 24
121 202 24
122 202 24
122 202 24
122 202 24
123 202 24
123 202 24
123 202 25
124 202 25
124 202 25
125 202 25
125 202 25
125 202 25
126 202 25
126 202 25
126 202 26
127 202 26
127 202 26
128 202 26
128 202 26
128 202 26
129 202 26
129 202 26
129 202 27
130 202 27
130 202 27
131 202 27
131 202 27
131 202 27
132 202 27
132 202 28
132 202 28
133 202 28
133 202 28
134 202 28
134 202 28
134 202 28
135 202 28
135 202 29
135 202 29
136 202 29
136 202 29
137 202 29
137 202 29
137 202 29
138 202 30
138 202 30
138 202 30
139 202 30
139 202 30
140 202 30
140 202 30
140 202 30
141 202 31
141 202 31
141 202 31
142 202 31
142 202 31
143 202 31
143 202 31
143 202 31
144 202 32
144 202 32
144 202 32
145 202 32
145 202 32
146 202 32
146 202 32
146 202 33
147 202 33
147 202 33
147 202 33
148 202 33
148 202 33
149 202 33
149 202 33
149 202 34
150 202 34
150 202 34
150 202 34
151 202 34
151 202 34
152 202 34
152 202 35
152 202 35
153 202 35
153 202 35
153 202 35
154 202 35
154 202 35
155 202 35
155 202 36
155 202 36
156 202 36
156 202 36
156 202 36
157 202 36
157 202 36
158 202 37
158 202 37
158 202 37
159 202 37
159 202 37
160 202 37
160 202 37
160 202 37
161 202 38
161 202 38
161 202 38
162 202 38
162 202 38
163 202 38
163 202 38
163 202 38
164 202 39
164 202 39
164 202 39
165 202 39
165 202 39
166 202 39
166 202 39
166 202 40
167 202 40
167 202 40
167 202 40
168 202 40
168 202 40
169 202 40
169 202 40
169 202 41
170 202 41
170 202 41
170 202 41
171 202 41
171 202 41
172 202 41
172 202 42
172 202 42
173 202 42
173 202 42
173 202 42
174 202 42
174 202 42
175 202 42
175 202 43
175 202 43
176 202 43
176 202 43
176 202 43
177 202 43
177 202 43
178 202 43
178 202 44
178 202 44
179 202 44
179 202 44
179 202 44
180 202 44
180 202 44
181 202 45
181 202 45
181 202 45
182 202 45
182 202 45
182 202 45
183 202 45
183 202 45
184 202 46
184 202 46
184 202 46
185 202 46
185 202 46
185 202 46
186 202 46
186 202 47
187 202 47
187 202 47
187 202 47
188 202 47
188 202 47
188 202 47
189 202 47
189 202 48
190 202 48
190 202 48
190 202 48
191 202 48
191 202 48
191 202 48
192 202 48
192 202 49
193 202 49
193 202 49
193 202 49
194 202 49
194 202 49
194 202 49
195 202 50
195 202 50
196 202 50
196 202 50
196 202 50
197 202 50
197 202 50
197 202 50
198 202 51
198 202 51
199 202 51
199 202 51
199 202 51
200 202 51
200 202 51
200 202 52
201 202 52
201 202 52
202 202 52
202 202 52
53 201 0
54 201 0
54 201 0
54 201 0
55 201 0
55 201 0
56 201 0
56 201 0
56 201 1
57 201 1
57 201 1
57 201 1
58 201 1
58 201 1
58 201 1
59 201 2
59 201 2
60 201 2
60 201 2
60 201 2
61 201 2
61 201 2
61 201 2
62 201 3
62 201 3
63 201 3
63 201 3
63 201 3
64 201 3
64 201 3
64 201 4
65 201 4
65 201 4
66 201 4
66 201 4
66 201 4
67 201 4
67 201 4
67 201 5
68 201 5
68 201 5
68 201 5
69 201 5
69 201 5
70 201 5
70 201 6
70 201 6
71 201 6
71 201 6
71 201 6
72 201 6
72 201 6
73 201 7
73 201 7
73 201 7
74 201 7
74 201 7
74 201 7
75 201 7
75 201 7
75 201 8
76 201 8
76 201 8
77 201 8
77 201 8
77 201 8
78 201 8
78 201 9
78 201 9
79 201 9
79 201 9
80 201 9
80 201 9
80 201 9
81 201 9
81 201 10
81 201 10
82 201 10
82 201 10
82 201 10
83 201 10
83 201 10
84 201 11
84 201 11
84 201 11
85 201 11
85 201 11
85 201 11
86 201 11
86 201 12
87 201 12
87 201 12
87 201 12
88 201 12
88 201 12
88 201 12
89 201 12
89 201 13
90 201 13
90 201 13
90 201 13
91 201 13
91 201 13
91 201 13
92 201 14
92 201 14
92 201 14
93 201 14
93 201 14
94 201 14
94 201 14
94 201 14
95 201 15
95 201 15
95 201 15
96 201 15
96 201 15
97 201 15
97 201 15
97 201 16
98 201 16
98 201 16
98 201 16
99 201 16
99 201 16
99 201 16
100 201 16
100 201 17
101 201 17
101 201 17
101 201 17
102 201 17
102 201 17
102 201 17
103 201 18
103 201 18
104 201 18
104 201 18
104 201 18
105 201 18
105 201 18
105 201 19
106 201 19
106 201 19
107 201 19
107 201 19
107 201 19
108 201 19
108 201 19
108 201 20
109 201 20
109 201 20
109 201 20
110 201 20
110 201 20
111 201 20
111 201 21
111 201 21
112 201 21
112 201 21
112 201 21
113 201 21
113 201 21
114 201 21
114 201 22
114 201 22
115 201 22
115 201 22
115 201 22
116 201 22
116 201 22
116 201 23
117 201 23
117 201 23
118 201 23
118 201 23
118 201 23
119 201 23
119 201 24
119 201 24
120 201 24
120 201 24
121 201 24
121 201 24
121 201 24
122 201 24
122 201 25
122 201 25
123 201 25
123 201 25
123 201 25
124 201 25
124 201 25
125 201 26
125 201 26
125 201 26
126 201 26
126 201 26
126 201 26
127 201 26
127 201 26
128 201 27
128 201 27
128 201 27
129 201 27
129 201 27
129 201 27
130 201 27
130 201 28
131 201 28
131 201 28
131 201 28
132 201 28
132 201 28
132 201 28
133 201 29
133 201 29
133 201 29
134 201 29
134 201 29
135 201 29
135 201 29
135 201 29
136 201 30
136 201 30
136 201 30
137 201 30
137 201 30
138 201 30
138 201 30
138 201 31
139 201 31
139 201 31
139 201 31
140 201 31
140 201 31
140 201 31
141 201 31
141 201 32
142 201 32
142 201 32
142 201 32
143 201 32
143 201 32
143 201 32
144 201 33
144 201 33
145 201 33
145 201 33
145 201 33
146 201 33
146 201 33
146 201 33
147 201 34
147 201 34
147 201 34
148 201 34
148 201 34
149 201 34
149 201 34
149 201 35
150 201 35
150 201 35
150 201 35
151 201 35
151 201 35
152 201 35
152 201 36
152 201 36
153 201 36
153 201 36
153 201 36
154 201 36
154 201 36
155 201 36
155 201 37
155 201 37
156 201 37
156 201 37
156 201 37
157 201 37
157 201 37
157 201 38
158 201 38
158 201 38
159 201 38
159 201 38
159 201 38
160 201 38
160 201 38
160 201 39
161 201 39
161 201 39
162 201 39
162 201 39
162 201 39
163 201 39
163 201 40
163 201 40
164 201 40
164 201 40
164 201 40
165 201 40
165 201 40
166 201 41
166 201 41
166 201 41
167 201 41
167 201 41
167 201 41
168 201 41
168 201 41
169 201 42
169 201 42
169 201 42
170 201 42
170 201 42
170 201 42
171 201 42
171 201 43
172 201 43
172 201 43
172 201 43
173 201 43
173 201 43
173 201 43
174 201 43
174 201 44
174 201 44
175 201 44
175 201 44
176 201 44
176 201 44
176 201 44
177 201 45
177 201 45
177 201 45
178 201 45
178 201 45
179 201 45
179 201 45
179 201 45
180 201 46
180 201 46
180 201 46
181 201 46
181 201 46
181 201 46
182 201 46
182 201 47
183 201 47
183 201 47
183 201 47
184 201 47
184 201 47
184 201 47
185 201 48
185 201 48
186 201 48
186 201 48
186 201 48
187 201 48
187 201 48
187 201 48
188 201 49
188 201 49
188 201 49
189 201 49
189 201 49
190 201 49
190 201 49
190 201 50
191 201 50
191 201 50
191 201 50
192 201 50
192 201 50
193 201 50
193 201 50
193 201 51
194 201 51
194 201 51
194 201 51
195 201 51
195 201 51
196 201 51
196 201 52
196 201 52
197 201 52
197 201 52
197 201 52
198 201 52
198 201 52
198 201 53
199 201 53
199 201 53
200 201 53
200 201 53
200 201 53
201 201 53
55 199 0
55 199 0
55 199 0
56 199 0
56 199 0
56 199 0
57 199 0
57 199 0
58 199 1
58 199 1
58 199 1
59 199 1
59 199 1
59 199 1
60 199 1
60 199 2
60 199 2
61 199 2
61 199 2
61 199 2
62 199 2
62 199 2
63 199 3
63 199 3
63 199 3
64 199 3
64 199 3
64 199 3
65 199 3
65 199 4
65 199 4
66 199 4
66 199 4
67 199 4
67 199 4
67 199 4
68 199 4
68 199 5
68 199 5
69 199 5
69 199 5
69 199 5
70 199 5
70 199 5
71 199 6
71 199 6
71 199 6
72 199 6
72 199 6
72 199 6
73 199 6
73 199 7
73 199 7
74 199 7
74 199 7
75 199 7
75 199 7
75 199 7
76 199 8
76 199 8
76 199 8
77 199 8
77 199 8
77 199 8
78 199 8
78 199 8
79 199 9
79 199 9
79 199 9
80 199 9
80 199 9
80 199 9
81 199 9
81 199 10
81 199 10
82 199 10
82 199 10
83 199 10
83 199 10
83 199 10
84 199 11
84 199 11
84 199 11
85 199 11
85 199 11
85 199 11
86 199 11
86 199 12
87 199 12
87 199 12
87 199 12
88 199 12
88 199 12
88 199 12
89 199 12
89 199 13
89 199 13
90 199 13
90 199 13
91 199 13
91 199 13
91 199 13
92 199 14
92 199 14
92 199 14
93 199 14
93 199 14
93 199 14
94 199 14
94 199 15
95 199 15
95 199 15
95 199 15
96 199 15
96 199 15
96 199 15
97 199 16
97 199 16
97 199 16
98 199 16
98 199 16
99 199 16
99 199 16
99 199 16
100 199 17
100 199 17
100 199 17
101 199 17
101 199 17
101 199 17
102 199 17
102 199 18
103 199 18
103 199 18
103 199 18
104 199 18
104 199 18
104 199 18
105 199 19
105 199 19
105 199 19
106 199 19
106 199 19
106 199 19
107 199 19
107 199 20
108 199 20
108 199 20
108 199 20
109 199 20
109 199 20
109 199 20
110 199 20
110 199 21
110 199 21
111 199 21
111 199 21
112 199 21
112 199 21
112 199 21
113 199 22
113 199 22
113 199 22
114 199 22
114 199 22
114 199 22
115 199 22
115 199 23
116 199 23
116 199 23
116 199 23
117 199 23
117 199 23
117 199 23
118 199 24
118 199 24
118 199 24
119 199 24
119 199 24
120 199 24
120 199 24
120 199 24
121 199 25
121 199 25
121 199 25
122 199 25
122 199 25
122 199 25
123 199 25
123 199 26
124 199 26
124 199 26
124 199 26
125 199 26
125 199 26
125 199 26
126 199 27
126 199 27
126 199 27
127 199 27
127 199 27
128 199 27
128 199 27
128 199 28
129 199 28
129 199 28
129 199 28
130 199 28
130 199 28
130 199 28
131 199 29
131 199 29
132 199 29
132 199 29
132 199 29
133 199 29
133 199 29
133 199 29
134 199 30
134 199 30
134 199 30
135 199 30
135 199 30
136 199 30
136 199 30
136 199 31
137 199 31
137 199 31
137 199 31
138 199 31
138 199 31
138 199 31
139 199 32
139 199 32
140 199 32
140 199 32
140 199 32
141 199 32
141 199 32
141 199 33
142 199 33
142 199 33
142 199 33
143 199 33
143 199 33
144 199 33
144 199 33
144 199 34
145 199 34
145 199 34
145 199 34
146 199 34
146 199 34
146 199 34
147 199 35
147 199 35
148 199 35
148 199 35
148 199 35
149 199 35
149 199 35
149 199 36
150 199 36
150 199 36
150 199 36
151 199 36
151 199 36
151 199 36
152 199 37
152 199 37
153 199 37
153 199 37
153 199 37
154 199 37
154 199 37
154 199 37
155 199 38
155 199 38
155 199 38
156 199 38
156 199 38
157 199 38
157 199 38
157 199 39
158 199 39
158 199 39
158 199 39
159 199 39
159 199 39
159 199 39
160 199 40
160 199 40
161 199 40
161 199 40
161 199 40
162 199 40
162 199 40
162 199 41
163 199 41
163 199 41
163 199 41
164 199 41
164 199 41
165 199 41
165 199 41
165 199 42
166 199 42
166 199 42
166 199 42
167 199 42
167 199 42
167 199 42
168 199 43
168 199 43
169 199 43
169 199 43
169 199 43
170 199 43
170 199 43
170 199 44
171 199 44
171 199 44
171 199 44
172 199 44
172 199 44
173 199 44
173 199 45
173 199 45
174 199 45
174 199 45
174 199 45
175 199 45
175 199 45
175 199 45
176 199 46
176 199 46
177 199 46
177 199 46
177 199 46
178 199 46
178 199 46
178 199 47
179 199 47
179 199 47
179 199 47
180 199 47
180 199 47
181 199 47
181 199 48
181 199 48
182 199 48
182 199 48
182 199 48
183 199 48
183 199 48
183 199 49
184 199 49
184 199 49
185 199 49
185 199 49
185 199 49
186 199 49
186 199 49
186 199 50
187 199 50
187 199 50
187 199 50
188 199 50
188 199 50
189 199 50
189 199 51
189 199 51
190 199 51
190 199 51
190 199 51
191 199 51
191 199 51
191 199 52
192 199 52
192 199 52
193 199 52
193 199 52
193 199 52
194 199 52
194 199 53
194 199 53
195 199 53
195 199 53
195 199 53
196 199 53
196 199 53
196 199 53
197 199 54
197 199 54
198 199 54
198 199 54
198 199 54
199 199 54
199 199 54
199 199 55
56 198 0
56 198 0
57 198 0
57 198 0
57 198 0
58 198 0
58 198 0
58 198 0
59 198 1
59 198 1
59 198 1
60 198 1
60 198 1
61 198 1
61 198 1
61 198 2
62 198 2
62 198 2
62 198 2
63 198 2
63 198 2
63 198 2
64 198 3
64 198 3
64 198 3
65 198 3
65 198 3
66 198 3
66 198 3
66 198 4
67 198 4
67 198 4
67 198 4
68 198 4
68 198 4
68 198 4
69 198 5
69 198 5
69 198 5
70 198 5
70 198 5
70 198 5
71 198 5
71 198 6
72 198 6
72 198 6
72 198 6
73 198 6
73 198 6
73 198 6
74 198 7
74 198 7
74 198 7
75 198 7
75 198 7
75 198 7
76 198 7
76 198 8
77 198 8
77 198 8
77 198 8
78 198 8
78 198 8
78 198 8
79 198 9
79 198 9
79 198 9
80 198 9
80 198 9
80 198 9
81 198 9
81 198 10
82 198 10
82 198 10
82 198 10
83 198 10
83 198 10
83 198 10
84 198 11
84 198 11
84 198 11
85 198 11
85 198 11
85 198 11
86 198 11
86 198 12
87 198 12
87 198 12
87 198 12
88 198 12
88 198 12
88 198 12
89 198 13
89 198 13
89 198 13
90 198 13
90 198 13
90 198 13
91 198 13
91 198 13
92 198 14
92 198 14
92 198 14
93 198 14
93 198 14
93 198 14
94 198 14
94 198 15
94 198 15
95 198 15
95 198 15
95 198 15
96 198 15
96 198 15
97 198 16
97 198 16
97 198 16
98 198 16
98 198 16
98 198 16
99 198 16
99 198 17
99 198 17
100 198 17
100 198 17
100 198 17
101 198 17
101 198 17
102 198 18
102 198 18
102 198 18
103 198 18
103 198 18
103 198 18
104 198 18
104 198 19
104 198 19
105 198 19
105 198 19
105 198 19
106 198 19
106 198 19
107 198 20
107 198 20
107 198 20
108 198 20
108 198 20
108 198 20
109 198 20
109 198 21
109 198 21
110 198 21
110 198 21
110 198 21
111 198 21
111 198 21
111 198 22
112 198 22
112 198 22
113 198 22
113 198 22
113 198 22
114 198 22
114 198 23
114 198 23
115 198 23
115 198 23
115 198 23
116 198 23
116 198 23
116 198 24
117 198 24
117 198 24
118 198 24
118 198 24
118 198 24
119 198 24
119 198 25
119 198 25
120 198 25
120 198 25
120 198 25
121 198 25
121 198 25
121 198 26
122 198 26
122 198 26
123 198 26
123 198 26
123 198 26
124 198 26
124 198 26
124 198 27
125 198 27
125 198 27
125 198 27
126 198 27
126 198 27
126 198 27
127 198 28
127 198 28
128 198 28
128 198 28
128 198 28
129 198 28
129 198 28
129 198 29
130 198 29
130 198 29
130 198 29
131 198 29
131 198 29
131 198 29
132 198 30
132 198 30
133 198 30
133 198 30
133 198 30
134 198 30
134 198 30
134 198 31
135 198 31
135 198 31
135 198 31
136 198 31
136 198 31
136 198 31
137 198 32
137 198 32
138 198 32
138 198 32
138 198 32
139 198 32
139 198 32
139 198 33
140 198 33
140 198 33
140 198 33
141 198 33
141 198 33
141 198 33
142 198 34
142 198 34
143 198 34
143 198 34
143 198 34
144 198 34
144 198 34
144 198 35
145 198 35
145 198 35
145 198 35
146 198 35
146 198 35
146 198 35
147 198 36
147 198 36
147 198 36
148 198 36
148 198 36
149 198 36
149 198 36
149 198 37
150 198 37
150 198 37
150 198 37
151 198 37
151 198 37
151 198 37
152 198 38
152 198 38
152 198 38
153 198 38
153 198 38
154 198 38
154 198 38
154 198 39
155 198 39
155 198 39
155 198 39
156 198 39
156 198 39
156 198 39
157 198 39
157 198 40
157 198 40
158 198 40
158 198 40
159 198 40
159 198 40
159 198 40
160 198 41
160 198 41
160 198 41
161 198 41
161 198 41
161 198 41
162 198 41
162 198 42
162 198 42
163 198 42
163 198 42
164 198 42
164 198 42
164 198 42
165 198 43
165 198 43
165 198 43
166 198 43
166 198 43
166 198 43
167 198 43
167 198 44
167 198 44
168 198 44
168 198 44
169 198 44
169 198 44
169 198 44
170 198 45
170 198 45
170 198 45
171 198 45
171 198 45
171 198 45
172 198 45
172 198 46
172 198 46
173 198 46
173 198 46
174 198 46
174 198 46
174 198 46
175 198 47
175 198 47
175 198 47
176 198 47
176 198 47
176 198 47
177 198 47
177 198 48
177 198 48
178 198 48
178 198 48
179 198 48
179 198 48
179 198 48
180 198 49
180 198 49
180 198 49
181 198 49
181 198 49
181 198 49
182 198 49
182 198 50
182 198 50
183 198 50
183 198 50
184 198 50
184 198 50
184 198 50
185 198 51
185 198 51
185 198 51
186 198 51
186 198 51
186 198 51
187 198 51
187 198 52
187 198 52
188 198 52
188 198 52
188 198 52
189 198 52
189 198 52
190 198 52
190 198 53
190 198 53
191 198 53
191 198 53
191 198 53
192 198 53
192 198 53
192 198 54
193 198 54
193 198 54
193 198 54
194 198 54
194 198 54
195 198 54
195 198 55
195 198 55
196 198 55
196 198 55
196 198 55
197 198 55
197 198 55
197 198 56
198 198 56
198 198 56
57 197 0
58 197 0
58 197 0
58 197 0
59 197 0
59 197 0
59 197 0
60 197 1
60 197 1
60 197 1
61 197 1
61 197 1
61 197 1
62 197 1
62 197 2
62 197 2
63 197 2
63 197 2
63 197 2
64 197 2
64 197 2
65 197 3
65 197 3
65 197 3
66 197 3
66 197 3
66 197 3
67 197 3
67 197 4
67 197 4
68 197 4
68 197 4
68 197 4
69 197 4
69 197 4
69 197 5
70 197 5
70 197 5
70 197 5
71 197 5
71 197 5
72 197 5
72 197 6
72 197 6
73 197 6
73 197 6
73 197 6
74 197 6
74 197 6
74 197 7
75 197 7
75 197 7
75 197 7
76 197 7
76 197 7
76 197 7
77 197 8
77 197 8
77 197 8
78 197 8
78 197 8
79 197 8
79 197 8
79 197 9
80 197 9
80 197 9
80 197 9
81 197 9
81 197 9
81 197 9
82 197 10
82 197 10
82 197 10
83 197 10
83 197 10
83 197 10
84 197 10
84 197 11
84 197 11
85 197 11
85 197 11
86 197 11
86 197 11
86 197 11
87 197 12
87 197 12
87 197 12
88 197 12
88 197 12
88 197 12
89 197 13
89 197 13
89 197 13
90 197 13
90 197 13
90 197 13
91 197 13
91 197 14
91 197 14
92 197 14
92 197 14
93 197 14
93 197 14
93 197 14
94 197 15
94 197 15
94 197 15
95 197 15
95 197 15
95 197 15
96 197 15
96 197 16
96 197 16
97 197 16
97 197 16
97 197 16
98 197 16
98 197 16
98 197 17
99 197 17
99 197 17
100 197 17
100 197 17
100 197 17
101 197 17
101 197 18
101 197 18
102 197 18
102 197 18
102 197 18
103 197 18
103 197 18
103 197 19
104 197 19
104 197 19
104 197 19
105 197 19
105 197 19
105 197 19
106 197 20
106 197 20
107 197 20
107 197 20
107 197 20
108 197 20
108 197 20
108 197 21
109 197 21
109 197 21
109 197 21
110 197 21
110 197 21
110 197 21
111 197 22
111 197 22
111 197 22
112 197 22
112 197 22
112 197 22
113 197 22
113 197 23
114 197 23
114 197 23
114 197 23
115 197 23
115 197 23
115 197 23
116 197 24
116 197 24
116 197 24
117 197 24
117 197 24
117 197 24
118 197 25
118 197 25
118 197 25
119 197 25
119 197 25
119 197 25
120 197 25
120 197 26
121 197 26
121 197 26
121 197 26
122 197 26
122 197 26
122 197 26
123 197 27
123 197 27
123 197 27
124 197 27
124 197 27
124 197 27
125 197 27
125 197 28
125 197 28
126 197 28
126 197 28
126 197 28
127 197 28
127 197 28
128 197 29
128 197 29
128 197 29
129 197 29
129 197 29
129 197 29
130 197 29
130 197 30
130 197 30
131 197 30
131 197 30
131 197 30
132 197 30
132 197 30
132 197 31
133 197 31
133 197 31
133 197 31
134 197 31
134 197 31
135 197 31
135 197 32
135 197 32
136 197 32
136 197 32
136 197 32
137 197 32
137 197 32
137 197 33
138 197 33
138 197 33
138 197 33
139 197 33
139 197 33
139 197 33
140 197 34
140 197 34
140 197 34
141 197 34
141 197 34
142 197 34
142 197 34
142 197 35
143 197 35
143 197 35
143 197 35
144 197 35
144 197 35
144 197 35
145 197 36
145 197 36
145 197 36
146 197 36
146 197 36
146 197 36
147 197 36
147 197 37
147 197 37
148 197 37
148 197 37
149 197 37
149 197 37
149 197 38
150 197 38
150 197 38
150 197 38
151 197 38
151 197 38
151 197 38
152 197 39
152 197 39
152 197 39
153 197 39
153 197 39
153 197 39
154 197 39
154 197 40
154 197 40
155 197 40
155 197 40
156 197 40
156 197 40
156 197 40
157 197 41
157 197 41
157 197 41
158 197 41
158 197 41
158 197 41
159 197 41
159 197 42
159 197 42
160 197 42
160 197 42
160 197 42
161 197 42
161 197 42
161 197 43
162 197 43
162 197 43
163 197 43
163 197 43
163 197 43
164 197 43
164 197 44
164 197 44
165 197 44
165 197 44
165 197 44
166 197 44
166 197 44
166 197 45
167 197 45
167 197 45
167 197 45
168 197 45
168 197 45
168 197 45
169 197 46
169 197 46
170 197 46
170 197 46
170 197 46
171 197 46
171 197 46
171 197 47
172 197 47
172 197 47
172 197 47
173 197 47
173 197 47
173 197 47
174 197 48
174 197 48
174 197 48
175 197 48
175 197 48
175 197 48
176 197 48
176 197 49
177 197 49
177 197 49
177 197 49
178 197 49
178 197 49
178 197 50
179 197 50
179 197 50
179 197 50
180 197 50
180 197 50
180 197 50
181 197 51
181 197 51
181 197 51
182 197 51
182 197 51
182 197 51
183 197 51
183 197 52
184 197 52
184 197 52
184 197 52
185 197 52
185 197 52
185 197 52
186 197 53
186 197 53
186 197 53
187 197 53
187 197 53
187 197 53
188 197 53
188 197 54
188 197 54
189 197 54
189 197 54
189 197 54
190 197 54
190 197 54
191 197 55
191 197 55
191 197 55
192 197 55
192 197 55
192 197 55
193 197 55
193 197 56
193 197 56
194 197 56
194 197 56
194 197 56
195 197 56
195 197 56
195 197 57
196 197 57
196 197 57
196 197 57
197 197 57
58 196 0
59 196 0
59 196 0
59 196 0
60 196 0
60 196 0
61 196 0
61 196 1
61 196 1
62 196 1
62 196 1
62 196 1
63 196 1
63 196 1
63 196 2
64 196 2
64 196 2
64 196 2
65 196 2
65 196 2
65 196 2
66 196 3
66 196 3
66 196 3
67 196 3
67 196 3
67 196 3
68 196 3
68 196 4
68 196 4
69 196 4
69 196 4
69 196 4
70 196 4
70 196 5
70 196 5
71 196 5
71 196 5
72 196 5
72 196 5
72 196 5
73 196 6
73 196 6
73 196 6
74 196 6
74 196 6
74 196 6
75 196 6
75 196 7
75 196 7
76 196 7
76 196 7
76 196 7
77 196 7
77 196 7
77 196 8
78 196 8
78 196 8
78 196 8
79 196 8
79 196 8
79 196 9
80 196 9
80 196 9
80 196 9
81 196 9
81 196 9
81 196 9
82 196 10
82 196 10
82 196 10
83 196 10
83 196 10
84 196 10
84 196 10
84 196 11
85 196 11
85 196 11
85 196 11
86 196 11
86 196 11
86 196 11
87 196 12
87 196 12
87 196 12
88 196 12
88 196 12
88 196 12
89 196 13
89 196 13
89 196 13
90 196 13
90 196 13
90 196 13
91 196 13
91 196 14
91 196 14
92 196 14
92 196 14
92 196 14
93 196 14
93 196 14
93 196 15
94 196 15
94 196 15
95 196 15
95 196 15
95 196 15
96 196 15
96 196 16
96 196 16
97 196 16
97 196 16
97 196 16
98 196 16
98 196 16
98 196 17
99 196 17
99 196 17
99 196 17
100 196 17
100 196 17
100 196 18
101 196 18
101 196 18
101 196 18
102 196 18
102 196 18
102 196 18
103 196 19
103 196 19
103 196 19
104 196 19
104 196 19
104 196 19
105 196 19
105 196 20
106 196 20
106 196 20
106 196 20
107 196 20
107 196 20
107 196 20
108 196 21
108 196 21
108 196 21
109 196 21
109 196 21
109 196 21
110 196 22
110 196 22
110 196 22
111 196 22
111 196 22
111 196 22
112 196 22
112 196 23
112 196 23
113 196 23
113 196 23
113 196 23
114 196 23
114 196 23
114 196 24
115 196 24
115 196 24
115 196 24
116 196 24
116 196 24
117 196 24
117 196 25
117 196 25
118 196 25
118 196 25
118 196 25
119 196 25
119 196 26
119 196 26
120 196 26
120 196 26
120 196 26
121 196 26
121 196 26
121 196 27
122 196 27
122 196 27
122 196 27
123 196 27
123 196 27
123 196 27
124 196 28
124 196 28
124 196 28
125 196 28
125 196 28
125 196 28
126 196 28
126 196 29
126 196 29
127 196 29
127 196 29
128 196 29
128 196 29
128 196 29
129 196 30
129 196 30
129 196 30
130 196 30
130 196 30
130 196 30
131 196 31
131 196 31
131 196 31
132 196 31
132 196 31
132 196 31
133 196 31
133 196 32
133 196 32
134 196 32
134 196 32
134 196 32
135 196 32
135 196 32
135 196 33
136 196 33
136 196 33
136 196 33
137 196 33
137 196 33
137 196 33
138 196 34
138 196 34
139 196 34
139 196 34
139 196 34
140 196 34
140 196 35
140 196 35
141 196 35
141 196 35
141 196 35
142 196 35
142 196 35
142 196 36
143 196 36
143 196 36
143 196 36
144 196 36
144 196 36
144 196 36
145 196 37
145 196 37
145 196 37
146 196 37
146 196 37
146 196 37
147 196 37
147 196 38
147 196 38
148 196 38
148 196 38
148 196 38
149 196 38
149 196 39
150 196 39
150 196 39
150 196 39
151 196 39
151 196 39
151 196 39
152 196 40
152 196 40
152 196 40
153 196 40
153 196 40
153 196 40
154 196 40
154 196 41
154 196 41
155 196 41
155 196 41
155 196 41
156 196 41
156 196 41
156 196 42
157 196 42
157 196 42
157 196 42
158 196 42
158 196 42
158 196 42
159 196 43
159 196 43
159 196 43
160 196 43
160 196 43
161 196 43
161 196 44
161 196 44
162 196 44
162 196 44
162 196 44
163 196 44
163 196 44
163 196 45
164 196 45
164 196 45
164 196 45
165 196 45
165 196 45
165 196 45
166 196 46
166 196 46
166 196 46
167 196 46
167 196 46
167 196 46
168 196 46
168 196 47
168 196 47
169 196 47
169 196 47
169 196 47
170 196 47
170 196 48
170 196 48
171 196 48
171 196 48
172 196 48
172 196 48
172 196 48
173 196 49
173 196 49
173 196 49
174 196 49
174 196 49
174 196 49
175 196 49
175 196 50
175 196 50
176 196 50
176 196 50
176 196 50
177 196 50
177 196 50
177 196 51
178 196 51
178 196 51
178 196 51
179 196 51
179 196 51
179 196 52
180 196 52
180 196 52
180 196 52
181 196 52
181 196 52
181 196 52
182 196 53
182 196 53
182 196 53
183 196 53
183 196 53
184 196 53
184 196 53
184 196 54
185 196 54
185 196 54
185 196 54
186 196 54
186 196 54
186 196 54
187 196 55
187 196 55
187 196 55
188 196 55
188 196 55
188 196 55
189 196 55
189 196 56
189 196 56
190 196 56
190 196 56
190 196 56
191 196 56
191 196 57
191 196 57
192 196 57
192 196 57
192 196 57
193 196 57
193 196 57
193 196 58
194 196 58
194 196 58
195 196 58
195 196 58
195 196 58
196 196 58
60 194 0
60 194 0
60 194 0
61 194 0
61 194 0
61 194 0
62 194 0
62 194 1
62 194 1
63 194 1
63 194 1
63 194 1
64 194 1
64 194 1
64 194 2
65 194 2
65 194 2
65 194 2
66 194 2
66 194 2
66 194 3
67 194 3
67 194 3
67 194 3
68 194 3
68 194 3
68 194 3
69 194 4
69 194 4
70 194 4
70 194 4
70 194 4
71 194 4
71 194 4
71 194 5
72 194 5
72 194 5
72 194 5
73 194 5
73 194 5
73 194 6
74 194 6
74 194 6
74 194 6
75 194 6
75 194 6
75 194 6
76 194 7
76 194 7
76 194 7
77 194 7
77 194 7
77 194 7
78 194 7
78 194 8
78 194 8
79 194 8
79 194 8
79 194 8
80 194 8
80 194 9
80 194 9
81 194 9
81 194 9
81 194 9
82 194 9
82 194 9
82 194 10
83 194 10
83 194 10
83 194 10
84 194 10
84 194 10
84 194 11
85 194 11
85 194 11
85 194 11
86 194 11
86 194 11
86 194 11
87 194 12
87 194 12
87 194 12
88 194 12
88 194 12
88 194 12
89 194 12
89 194 13
89 194 13
90 194 13
90 194 13
90 194 13
91 194 13
91 194 14
91 194 14
92 194 14
92 194 14
92 194 14
93 194 14
93 194 14
93 194 15
94 194 15
94 194 15
94 194 15
95 194 15
95 194 15
95 194 15
96 194 16
96 194 16
96 194 16
97 194 16
97 194 16
97 194 16
98 194 17
98 194 17
99 194 17
99 194 17
99 194 17
100 194 17
100 194 17
100 194 18
101 194 18
101 194 18
101 194 18
102 194 18
102 194 18
102 194 19
103 194 19
103 194 19
103 194 19
104 194 19
104 194 19
104 194 19
105 194 20
105 194 20
105 194 20
106 194 20
106 194 20
106 194 20
107 194 20
107 194 21
107 194 21
108 194 21
108 194 21
108 194 21
109 194 21
109 194 22
109 194 22
110 194 22
110 194 22
110 194 22
111 194 22
111 194 22
111 194 23
112 194 23
112 194 23
112 194 23
113 194 23
113 194 23
113 194 23
114 194 24
114 194 24
114 194 24
115 194 24
115 194 24
115 194 24
116 194 25
116 194 25
116 194 25
117 194 25
117 194 25
117 194 25
118 194 25
118 194 26
118 194 26
119 194 26
119 194 26
119 194 26
120 194 26
120 194 27
120 194 27
121 194 27
121 194 27
121 194 27
122 194 27
122 194 27
122 194 28
123 194 28
123 194 28
123 194 28
124 194 28
124 194 28
124 194 28
125 194 29
125 194 29
125 194 29
126 194 29
126 194 29
126 194 29
127 194 30
127 194 30
128 194 30
128 194 30
128 194 30
129 194 30
129 194 30
129 194 31
130 194 31
130 194 31
130 194 31
131 194 31
131 194 31
131 194 31
132 194 32
132 194 32
132 194 32
133 194 32
133 194 32
133 194 32
134 194 33
134 194 33
134 194 33
135 194 33
135 194 33
135 194 33
136 194 33
136 194 34
136 194 34
137 194 34
137 194 34
137 194 34
138 194 34
138 194 35
138 194 35
139 194 35
139 194 35
139 194 35
140 194 35
140 194 35
140 194 36
141 194 36
141 194 36
141 194 36
142 194 36
142 194 36
142 194 36
143 194 37
143 194 37
143 194 37
144 194 37
144 194 37
144 194 37
145 194 38
145 194 38
145 194 38
146 194 38
146 194 38
146 194 38
147 194 38
147 194 39
147 194 39
148 194 39
148 194 39
148 194 39
149 194 39
149 194 39
149 194 40
150 194 40
150 194 40
150 194 40
151 194 40
151 194 40
151 194 41
152 194 41
152 194 41
152 194 41
153 194 41
153 194 41
153 194 41
154 194 42
154 194 42
154 194 42
155 194 42
155 194 42
155 194 42
156 194 43
156 194 43
157 194 43
157 194 43
157 194 43
158 194 43
158 194 43
158 194 44
159 194 44
159 194 44
159 194 44
160 194 44
160 194 44
160 194 44
161 194 45
161 194 45
161 194 45
162 194 45
162 194 45
162 194 45
163 194 46
163 194 46
163 194 46
164 194 46
164 194 46
164 194 46
165 194 46
165 194 47
165 194 47
166 194 47
166 194 47
166 194 47
167 194 47
167 194 47
167 194 48
168 194 48
168 194 48
168 194 48
169 194 48
169 194 48
169 194 49
170 194 49
170 194 49
170 194 49
171 194 49
171 194 49
171 194 49
172 194 50
172 194 50
172 194 50
173 194 50
173 194 50
173 194 50
174 194 51
174 194 51
174 194 51
175 194 51
175 194 51
175 194 51
176 194 51
176 194 52
176 194 52
177 194 52
177 194 52
177 194 52
178 194 52
178 194 52
178 194 53
179 194 53
179 194 53
179 194 53
180 194 53
180 194 53
180 194 54
181 194 54
181 194 54
181 194 54
182 194 54
182 194 54
182 194 54
183 194 55
183 194 55
183 194 55
184 194 55
184 194 55
184 194 55
185 194 55
185 194 56
186 194 56
186 194 56
186 194 56
187 194 56
187 194 56
187 194 57
188 194 57
188 194 57
188 194 57
189 194 57
189 194 57
189 194 57
190 194 58
190 194 58
190 194 58
191 194 58
191 194 58
191 194 58
192 194 59
192 194 59
192 194 59
193 194 59
193 194 59
193 194 59
194 194 59
194 194 60
194 194 60
61 193 0
61 193 0
62 193 0
62 193 0
62 193 0
63 193 0
63 193 0
63 193 1
64 193 1
64 193 1
64 193 1
65 193 1
65 193 1
65 193 2
66 193 2
66 193 2
66 193 2
67 193 2
67 193 2
67 193 2
68 193 3
68 193 3
68 193 3
69 193 3
69 193 3
69 193 3
70 193 4
70 193 4
70 193 4
71 193 4
71 193 4
71 193 4
72 193 4
72 193 5
72 193 5
73 193 5
73 193 5
73 193 5
74 193 5
74 193 6
74 193 6
75 193 6
75 193 6
75 193 6
76 193 6
76 193 6
76 193 7
77 193 7
77 193 7
77 193 7
78 193 7
78 193 7
78 193 8
79 193 8
79 193 8
79 193 8
80 193 8
80 193 8
80 193 8
81 193 9
81 193 9
81 193 9
82 193 9
82 193 9
82 193 9
83 193 10
83 193 10
83 193 10
84 193 10
84 193 10
84 193 10
84 193 10
85 193 11
85 193 11
85 193 11
86 193 11
86 193 11
86 193 11
87 193 12
87 193 12
87 193 12
88 193 12
88 193 12
88 193 12
89 193 12
89 193 13
89 193 13
90 193 13
90 193 13
90 193 13
91 193 13
91 193 14
91 193 14
92 193 14
92 193 14
92 193 14
93 193 14
93 193 14
93 193 15
94 193 15
94 193 15
94 193 15
95 193 15
95 193 15
95 193 16
96 193 16
96 193 16
96 193 16
97 193 16
97 193 16
97 193 16
98 193 17
98 193 17
98 193 17
99 193 17
99 193 17
99 193 17
100 193 18
100 193 18
100 193 18
101 193 18
101 193 18
101 193 18
102 193 18
102 193 19
102 193 19
103 193 19
103 193 19
103 193 19
104 193 19
104 193 20
104 193 20
105 193 20
105 193 20
105 193 20
106 193 20
106 193 20
106 193 21
107 193 21
107 193 21
107 193 21
108 193 21
108 193 21
108 193 22
109 193 22
109 193 22
109 193 22
110 193 22
110 193 22
110 193 22
111 193 23
111 193 23
111 193 23
112 193 23
112 193 23
112 193 23
113 193 24
113 193 24
113 193 24
114 193 24
114 193 24
114 193 24
115 193 24
115 193 25
115 193 25
116 193 25
116 193 25
116 193 25
117 193 25
117 193 26
117 193 26
118 193 26
118 193 26
118 193 26
119 193 26
119 193 26
119 193 27
120 193 27
120 193 27
120 193 27
121 193 27
121 193 27
121 193 28
122 193 28
122 193 28
122 193 28
123 193 28
123 193 28
123 193 28
124 193 29
124 193 29
124 193 29
125 193 29
125 193 29
125 193 29
126 193 30
126 193 30
126 193 30
127 193 30
127 193 30
127 193 30
127 193 30
128 193 31
128 193 31
128 193 31
129 193 31
129 193 31
129 193 31
130 193 32
130 193 32
130 193 32
131 193 32
131 193 32
131 193 32
132 193 32
132 193 33
132 193 33
133 193 33
133 193 33
133 193 33
134 193 33
134 193 34
134 193 34
135 193 34
135 193 34
135 193 34
136 193 34
136 193 34
136 193 35
137 193 35
137 193 35
137 193 35
138 193 35
138 193 35
138 193 36
139 193 36
139 193 36
139 193 36
140 193 36
140 193 36
140 193 36
141 193 37
141 193 37
141 193 37
142 193 37
142 193 37
142 193 37
143 193 38
143 193 38
143 193 38
144 193 38
144 193 38
144 193 38
145 193 39
145 193 39
145 193 39
146 193 39
146 193 39
146 193 39
147 193 39
147 193 40
147 193 40
148 193 40
148 193 40
148 193 40
149 193 40
149 193 41
149 193 41
150 193 41
150 193 41
150 193 41
151 193 41
151 193 41
151 193 42
152 193 42
152 193 42
152 193 42
153 193 42
153 193 42
153 193 43
154 193 43
154 193 43
154 193 43
155 193 43
155 193 43
155 193 43
156 193 44
156 193 44
156 193 44
157 193 44
157 193 44
157 193 44
158 193 45
158 193 45
158 193 45
159 193 45
159 193 45
159 193 45
160 193 45
160 193 46
160 193 46
161 193 46
161 193 46
161 193 46
162 193 46
162 193 47
162 193 47
163 193 47
163 193 47
163 193 47
164 193 47
164 193 47
164 193 48
165 193 48
165 193 48
165 193 48
166 193 48
166 193 48
166 193 49
167 193 49
167 193 49
167 193 49
168 193 49
168 193 49
168 193 49
169 193 50
169 193 50
169 193 50
170 193 50
170 193 50
170 193 50
170 193 51
171 193 51
171 193 51
171 193 51
172 193 51
172 193 51
172 193 51
173 193 52
173 193 52
173 193 52
174 193 52
174 193 52
174 193 52
175 193 53
175 193 53
175 193 53
176 193 53
176 193 53
176 193 53
177 193 53
177 193 54
177 193 54
178 193 54
178 193 54
178 193 54
179 193 54
179 193 55
179 193 55
180 193 55
180 193 55
180 193 55
181 193 55
181 193 55
181 193 56
182 193 56
182 193 56
182 193 56
183 193 56
183 193 56
183 193 57
184 193 57
184 193 57
184 193 57
185 193 57
185 193 57
185 193 57
186 193 58
186 193 58
186 193 58
187 193 58
187 193 58
187 193 58
188 193 59
188 193 59
188 193 59
189 193 59
189 193 59
189 193 59
190 193 59
190 193 60
190 193 60
191 193 60
191 193 60
191 193 60
192 193 60
192 193 61
192 193 61
193 193 61
193 193 61
62 192 0
63 192 0
63 192 0
63 192 0
64 192 0
64 192 0
64 192 0
65 192 1
65 192 1
65 192 1
66 192 1
66 192 1
66 192 1
67 192 2
67 192 2
67 192 2
67 192 2
68 192 2
68 192 2
68 192 2
69 192 3
69 192 3
69 192 3
70 192 3
70 192 3
70 192 3
71 192 4
71 192 4
71 192 4
72 192 4
72 192 4
72 192 4
73 192 5
73 192 5
73 192 5
74 192 5
74 192 5
74 192 5
75 192 5
75 192 6
75 192 6
76 192 6
76 192 6
76 192 6
77 192 6
77 192 7
77 192 7
78 192 7
78 192 7
78 192 7
79 192 7
79 192 8
79 192 8
79 192 8
80 192 8
80 192 8
80 192 8
81 192 8
81 192 9
81 192 9
82 192 9
82 192 9
82 192 9
83 192 9
83 192 10
83 192 10
84 192 10
84 192 10
84 192 10
85 192 10
85 192 11
85 192 11
86 192 11
86 192 11
86 192 11
87 192 11
87 192 11
87 192 12
88 192 12
88 192 12
88 192 12
89 192 12
89 192 12
89 192 13
90 192 13
90 192 13
90 192 13
91 192 13
91 192 13
91 192 14
91 192 14
92 192 14
92 192 14
92 192 14
93 192 14
93 192 14
93 192 15
94 192 15
94 192 15
94 192 15
95 192 15
95 192 15
95 192 16
96 192 16
96 192 16
96 192 16
97 192 16
97 192 16
97 192 16
98 192 17
98 192 17
98 192 17
99 192 17
99 192 17
99 192 17
100 192 18
100 192 18
100 192 18
101 192 18
101 192 18
101 192 18
102 192 19
102 192 19
102 192 19
103 192 19
103 192 19
103 192 19
103 192 19
104 192 20
104 192 20
104 192 20
105 192 20
105 192 20
105 192 20
106 192 21
106 192 21
106 192 21
107 192 21
107 192 21
107 192 21
108 192 22
108 192 22
108 192 22
109 192 22
109 192 22
109 192 22
110 192 22
110 192 23
110 192 23
111 192 23
111 192 23
111 192 23
112 192 23
112 192 24
112 192 24
113 192 24
113 192 24
113 192 24
114 192 24
114 192 25
114 192 25
115 192 25
115 192 25
115 192 25
115 192 25
116 192 25
116 192 26
116 192 26
117 192 26
117 192 26
117 192 26
118 192 26
118 192 27
118 192 27
119 192 27
119 192 27
119 192 27
120 192 27
120 192 28
120 192 28
121 192 28
121 192 28
121 192 28
122 192 28
122 192 28
122 192 29
123 192 29
123 192 29
123 192 29
124 192 29
124 192 29
124 192 30
125 192 30
125 192 30
125 192 30
126 192 30
126 192 30
126 192 31
127 192 31
127 192 31
127 192 31
127 192 31
128 192 31
128 192 31
128 192 32
129 192 32
129 192 32
129 192 32
130 192 32
130 192 32
130 192 33
131 192 33
131 192 33
131 192 33
132 192 33
132 192 33
132 192 33
133 192 34
133 192 34
133 192 34
134 192 34
134 192 34
134 192 34
135 192 35
135 192 35
135 192 35
136 192 35
136 192 35
136 192 35
137 192 36
137 192 36
137 192 36
138 192 36
138 192 36
138 192 36
139 192 36
139 192 37
139 192 37
139 192 37
140 192 37
140 192 37
140 192 37
141 192 38
141 192 38
141 192 38
142 192 38
142 192 38
142 192 38
143 192 39
143 192 39
143 192 39
144 192 39
144 192 39
144 192 39
145 192 39
145 192 40
145 192 40
146 192 40
146 192 40
146 192 40
147 192 40
147 192 41
147 192 41
148 192 41
148 192 41
148 192 41
149 192 41
149 192 42
149 192 42
150 192 42
150 192 42
150 192 42
151 192 42
151 192 42
151 192 43
151 192 43
152 192 43
152 192 43
152 192 43
153 192 43
153 192 44
153 192 44
154 192 44
154 192 44
154 192 44
155 192 44
155 192 45
155 192 45
156 192 45
156 192 45
156 192 45
157 192 45
157 192 45
157 192 46
158 192 46
158 192 46
158 192 46
159 192 46
159 192 46
159 192 47
160 192 47
160 192 47
160 192 47
161 192 47
161 192 47
161 192 47
162 192 48
162 192 48
162 192 48
163 192 48
163 192 48
163 192 48
163 192 49
164 192 49
164 192 49
164 192 49
165 192 49
165 192 49
165 192 50
166 192 50
166 192 50
166 192 50
167 192 50
167 192 50
167 192 50
168 192 51
168 192 51
168 192 51
169 192 51
169 192 51
169 192 51
170 192 52
170 192 52
170 192 52
171 192 52
171 192 52
171 192 52
172 192 53
172 192 53
172 192 53
173 192 53
173 192 53
173 192 53
174 192 53
174 192 54
174 192 54
175 192 54
175 192 54
175 192 54
175 192 54
176 192 55
176 192 55
176 192 55
177 192 55
177 192 55
177 192 55
178 192 56
178 192 56
178 192 56
179 192 56
179 192 56
179 192 56
180 192 56
180 192 57
180 192 57
181 192 57
181 192 57
181 192 57
182 192 57
182 192 58
182 192 58
183 192 58
183 192 58
183 192 58
184 192 58
184 192 59
184 192 59
185 192 59
185 192 59
185 192 59
186 192 59
186 192 59
186 192 60
187 192 60
187 192 60
187 192 60
187 192 60
188 192 60
188 192 61
188 192 61
189 192 61
189 192 61
189 192 61
190 192 61
190 192 62
190 192 62
191 192 62
191 192 62
191 192 62
192 192 62
64 190 0
64 190 0
64 190 0
65 190 0
65 190 0
65 190 0
65 190 0
66 190 1
66 190 1
66 190 1
67 190 1
67 190 1
67 190 1
68 190 2
68 190 2
68 190 2
69 190 2
69 190 2
69 190 2
70 190 3
70 190 3
70 190 3
71 190 3
71 190 3
71 190 3
72 190 4
72 190 4
72 190 4
72 190 4
73 190 4
73 190 4
73 190 4
74 190 5
74 190 5
74 190 5
75 190 5
75 190 5
75 190 5
76 190 6
76 190 6
76 190 6
77 190 6
77 190 6
77 190 6
78 190 7
78 190 7
78 190 7
79 190 7
79 190 7
79 190 7
79 190 8
80 190 8
80 190 8
80 190 8
81 190 8
81 190 8
81 190 8
82 190 9
82 190 9
82 190 9
83 190 9
83 190 9
83 190 9
84 190 10
84 190 10
84 190 10
85 190 10
85 190 10
85 190 10
86 190 11
86 190 11
86 190 11
86 190 11
87 190 11
87 190 11
87 190 12
88 190 12
88 190 12
88 190 12
89 190 12
89 190 12
89 190 13
90 190 13
90 190 13
90 190 13
91 190 13
91 190 13
91 190 13
92 190 14
92 190 14
92 190 14
93 190 14
93 190 14
93 190 14
93 190 15
94 190 15
94 190 15
94 190 15
95 190 15
95 190 15
95 190 16
96 190 16
96 190 16
96 190 16
97 190 16
97 190 16
97 190 17
98 190 17
98 190 17
98 190 17
99 190 17
99 190 17
99 190 17
99 190 18
100 190 18
100 190 18
100 190 18
101 190 18
101 190 18
101 190 19
102 190 19
102 190 19
102 190 19
103 190 19
103 190 19
103 190 20
104 190 20
104 190 20
104 190 20
105 190 20
105 190 20
105 190 21
106 190 21
106 190 21
106 190 21
106 190 21
107 190 21
107 190 21
107 190 22
108 190 22
108 190 22
108 190 22
109 190 22
109 190 22
109 190 23
110 190 23
110 190 23
110 190 23
111 190 23
111 190 23
111 190 24
112 190 24
112 190 24
112 190 24
113 190 24
113 190 24
113 190 25
113 190 25
114 190 25
114 190 25
114 190 25
115 190 25
115 190 26
115 190 26
116 190 26
116 190 26
116 190 26
117 190 26
117 190 26
117 190 27
118 190 27
118 190 27
118 190 27
119 190 27
119 190 27
119 190 28
120 190 28
120 190 28
120 190 28
120 190 28
121 190 28
121 190 29
121 190 29
122 190 29
122 190 29
122 190 29
123 190 29
123 190 30
123 190 30
124 190 30
124 190 30
124 190 30
125 190 30
125 190 30
125 190 31
126 190 31
126 190 31
126 190 31
127 190 31
127 190 31
127 190 32
127 190 32
128 190 32
128 190 32
128 190 32
129 190 32
129 190 33
129 190 33
130 190 33
130 190 33
130 190 33
131 190 33
131 190 34
131 190 34
132 190 34
132 190 34
132 190 34
133 190 34
133 190 35
133 190 35
134 190 35
134 190 35
134 190 35
134 190 35
135 190 35
135 190 36
135 190 36
136 190 36
136 190 36
136 190 36
137 190 36
137 190 37
137 190 37
138 190 37
138 190 37
138 190 37
139 190 37
139 190 38
139 190 38
140 190 38
140 190 38
140 190 38
141 190 38
141 190 39
141 190 39
141 190 39
142 190 39
142 190 39
142 190 39
143 190 39
143 190 40
143 190 40
144 190 40
144 190 40
144 190 40
145 190 40
145 190 41
145 190 41
146 190 41
146 190 41
146 190 41
147 190 41
147 190 42
147 190 42
148 190 42
148 190 42
148 190 42
148 190 42
149 190 43
149 190 43
149 190 43
150 190 43
150 190 43
150 190 43
151 190 43
151 190 44
151 190 44
152 190 44
152 190 44
152 190 44
153 190 44
153 190 45
153 190 45
154 190 45
154 190 45
154 190 45
155 190 45
155 190 46
155 190 46
155 190 46
156 190 46
156 190 46
156 190 46
157 190 47
157 190 47
157 190 47
158 190 47
158 190 47
158 190 47
159 190 48
159 190 48
159 190 48
160 190 48
160 190 48
160 190 48
161 190 48
161 190 49
161 190 49
161 190 49
162 190 49
162 190 49
162 190 49
163 190 50
163 190 50
163 190 50
164 190 50
164 190 50
164 190 50
165 190 51
165 190 51
165 190 51
166 190 51
166 190 51
166 190 51
167 190 52
167 190 52
167 190 52
168 190 52
168 190 52
168 190 52
168 190 52
169 190 53
169 190 53
169 190 53
170 190 53
170 190 53
170 190 53
171 190 54
171 190 54
171 190 54
172 190 54
172 190 54
172 190 54
173 190 55
173 190 55
173 190 55
174 190 55
174 190 55
174 190 55
175 190 56
175 190 56
175 190 56
175 190 56
176 190 56
176 190 56
176 190 57
177 190 57
177 190 57
177 190 57
178 190 57
178 190 57
178 190 57
179 190 58
179 190 58
179 190 58
180 190 58
180 190 58
180 190 58
181 190 59
181 190 59
181 190 59
182 190 59
182 190 59
182 190 59
182 190 60
183 190 60
183 190 60
183 190 60
184 190 60
184 190 60
184 190 61
185 190 61
185 190 61
185 190 61
186 190 61
186 190 61
186 190 61
187 190 62
187 190 62
187 190 62
188 190 62
188 190 62
188 190 62
189 190 63
189 190 63
189 190 63
189 190 63
190 190 63
190 190 63
190 190 64
65 189 0
65 189 0
65 189 0
66 189 0
66 189 0
66 189 0
67 189 0
67 189 1
67 189 1
68 189 1
68 189 1
68 189 1
69 189 1
69 189 2
69 189 2
70 189 2
70 189 2
70 189 2
70 189 2
71 189 3
71 189 3
71 189 3
72 189 3
72 189 3
72 189 3
73 189 4
73 189 4
73 189 4
74 189 4
74 189 4
74 189 4
75 189 5
75 189 5
75 189 5
75 189 5
76 189 5
76 189 5
76 189 6
77 189 6
77 189 6
77 189 6
78 189 6
78 189 6
78 189 7
79 189 7
79 189 7
79 189 7
79 189 7
80 189 7
80 189 8
80 189 8
81 189 8
81 189 8
81 189 8
82 189 8
82 189 9
82 189 9
83 189 9
83 189 9
83 189 9
84 189 9
84 189 9
84 189 10
84 189 10
85 189 10
85 189 10
85 189 10
86 189 10
86 189 11
86 189 11
87 189 11
87 189 11
87 189 11
88 189 11
88 189 12
88 189 12
89 189 12
89 189 12
89 189 12
89 189 12
90 189 13
90 189 13
90 189 13
91 189 13
91 189 13
91 189 13
92 189 14
92 189 14
92 189 14
93 189 14
93 189 14
93 189 14
94 189 15
94 189 15
94 189 15
94 189 15
95 189 15
95 189 15
95 189 16
96 189 16
96 189 16
96 189 16
97 189 16
97 189 16
97 189 17
98 189 17
98 189 17
98 189 17
98 189 17
99 189 17
99 189 18
99 189 18
100 189 18
100 189 18
100 189 18
101 189 18
101 189 18
101 189 19
102 189 19
102 189 19
102 189 19
103 189 19
103 189 19
103 189 20
103 189 20
104 189 20
104 189 20
104 189 20
105 189 20
105 189 21
105 189 21
106 189 21
106 189 21
106 189 21
107 189 21
107 189 22
107 189 22
108 189 22
108 189 22
108 189 22
108 189 22
109 189 23
109 189 23
109 189 23
110 189 23
110 189 23
110 189 23
111 189 24
111 189 24
111 189 24
112 189 24
112 189 24
112 189 24
113 189 25
113 189 25
113 189 25
113 189 25
114 189 25
114 189 25
114 189 26
115 189 26
115 189 26
115 189 26
116 189 26
116 189 26
116 189 27
117 189 27
117 189 27
117 189 27
117 189 27
118 189 27
118 189 28
118 189 28
119 189 28
119 189 28
119 189 28
120 189 28
120 189 28
120 189 29
121 189 29
121 189 29
121 189 29
122 189 29
122 189 29
122 189 30
122 189 30
123 189 30
123 189 30
123 189 30
124 189 30
124 189 31
124 189 31
125 189 31
125 189 31
125 189 31
126 189 31
126 189 32
126 189 32
127 189 32
127 189 32
127 189 32
127 189 32
128 189 33
128 189 33
128 189 33
129 189 33
129 189 33
129 189 33
130 189 34
130 189 34
130 189 34
131 189 34
131 189 34
131 189 34
132 189 35
132 189 35
132 189 35
132 189 35
133 189 35
133 189 35
133 189 36
134 189 36
134 189 36
134 189 36
135 189 36
135 189 36
135 189 37
136 189 37
136 189 37
136 189 37
137 189 37
137 189 37
137 189 37
137 189 38
138 189 38
138 189 38
138 189 38
139 189 38
139 189 38
139 189 39
140 189 39
140 189 39
140 189 39
141 189 39
141 189 39
141 189 40
141 189 40
142 189 40
142 189 40
142 189 40
143 189 40
143 189 41
143 189 41
144 189 41
144 189 41
144 189 41
145 189 41
145 189 42
145 189 42
146 189 42
146 189 42
146 189 42
146 189 42
147 189 43
147 189 43
147 189 43
148 189 43
148 189 43
148 189 43
149 189 44
149 189 44
149 189 44
150 189 44
150 189 44
150 189 44
151 189 45
151 189 45
151 189 45
151 189 45
152 189 45
152 189 45
152 189 46
153 189 46
153 189 46
153 189 46
154 189 46
154 189 46
154 189 47
155 189 47
155 189 47
155 189 47
156 189 47
156 189 47
156 189 47
156 189 48
157 189 48
157 189 48
157 189 48
158 189 48
158 189 48
158 189 49
159 189 49
159 189 49
159 189 49
160 189 49
160 189 49
160 189 50
160 189 50
161 189 50
161 189 50
161 189 50
162 189 50
162 189 51
162 189 51
163 189 51
163 189 51
163 189 51
164 189 51
164 189 52
164 189 52
165 189 52
165 189 52
165 189 52
165 189 52
166 189 53
166 189 53
166 189 53
167 189 53
167 189 53
167 189 53
168 189 54
168 189 54
168 189 54
169 189 54
169 189 54
169 189 54
170 189 55
170 189 55
170 189 55
170 189 55
171 189 55
171 189 55
171 189 56
172 189 56
172 189 56
172 189 56
173 189 56
173 189 56
173 189 56
174 189 57
174 189 57
174 189 57
175 189 57
175 189 57
175 189 57
175 189 58
176 189 58
176 189 58
176 189 58
177 189 58
177 189 58
177 189 59
178 189 59
178 189 59
178 189 59
179 189 59
179 189 59
179 189 60
179 189 60
180 189 60
180 189 60
180 189 60
181 189 60
181 189 61
181 189 61
182 189 61
182 189 61
182 189 61
183 189 61
183 189 62
183 189 62
184 189 62
184 189 62
184 189 62
184 189 62
185 189 63
185 189 63
185 189 63
186 189 63
186 189 63
186 189 63
187 189 64
187 189 64
187 189 64
188 189 64
188 189 64
188 189 64
189 189 65
189 189 65
189 189 65
66 188 0
66 188 0
67 188 0
67 188 0
67 188 0
68 188 0
68 188 1
68 188 1
69 188 1
69 188 1
69 188 1
69 188 1
70 188 2
70 188 2
70 188 2
71 188 2
71 188 2
71 188 2
72 188 3
72 188 3
72 188 3
73 188 3
73 188 3
73 188 3
73 188 4
74 188 4
74 188 4
74 188 4
75 188 4
75 188 4
75 188 5
76 188 5
76 188 5
76 188 5
77 188 5
77 188 5
77 188 6
77 188 6
78 188 6
78 188 6
78 188 6
79 188 6
79 188 7
79 188 7
80 188 7
80 188 7
80 188 7
80 188 7
81 188 8
81 188 8
81 188 8
82 188 8
82 188 8
82 188 8
83 188 9
83 188 9
83 188 9
84 188 9
84 188 9
84 188 9
84 188 10
85 188 10
85 188 10
85 188 10
86 188 10
86 188 10
86 188 11
87 188 11
87 188 11
87 188 11
87 188 11
88 188 11
88 188 12
88 188 12
89 188 12
89 188 12
89 188 12
90 188 12
90 188 13
90 188 13
91 188 13
91 188 13
91 188 13
91 188 13
92 188 14
92 188 14
92 188 14
93 188 14
93 188 14
93 188 14
94 188 15
94 188 15
94 188 15
95 188 15
95 188 15
95 188 15
95 188 16
96 188 16
96 188 16
96 188 16
97 188 16
97 188 16
97 188 17
98 188 17
98 188 17
98 188 17
98 188 17
99 188 17
99 188 18
99 188 18
100 188 18
100 188 18
100 188 18
101 188 18
101 188 19
101 188 19
102 188 19
102 188 19
102 188 19
102 188 19
103 188 20
103 188 20
103 188 20
104 188 20
104 188 20
104 188 20
105 188 21
105 188 21
105 188 21
105 188 21
106 188 21
106 188 21
106 188 22
107 188 22
107 188 22
107 188 22
108 188 22
108 188 22
108 188 23
109 188 23
109 188 23
109 188 23
109 188 23
110 188 23
110 188 24
110 188 24
111 188 24
111 188 24
111 188 24
112 188 24
112 188 25
112 188 25
113 188 25
113 188 25
113 188 25
113 188 25
114 188 26
114 188 26
114 188 26
115 188 26
115 188 26
115 188 26
116 188 27
116 188 27
116 188 27
116 188 27
117 188 27
117 188 27
117 188 28
118 188 28
118 188 28
118 188 28
119 188 28
119 188 28
119 188 29
120 188 29
120 188 29
120 188 29
120 188 29
121 188 29
121 188 30
121 188 30
122 188 30
122 188 30
122 188 30
123 188 30
123 188 31
123 188 31
123 188 31
124 188 31
124 188 31
124 188 31
125 188 32
125 188 32
125 188 32
126 188 32
126 188 32
126 188 32
127 188 33
127 188 33
127 188 33
127 188 33
128 188 33
128 188 33
128 188 34
129 188 34
129 188 34
129 188 34
130 188 34
130 188 34
130 188 35
131 188 35
131 188 35
131 188 35
131 188 35
132 188 35
132 188 36
132 188 36
133 188 36
133 188 36
133 188 36
134 188 36
134 188 37
134 188 37
134 188 37
135 188 37
135 188 37
135 188 37
136 188 38
136 188 38
136 188 38
137 188 38
137 188 38
137 188 38
138 188 39
138 188 39
138 188 39
138 188 39
139 188 39
139 188 39
139 188 40
140 188 40
140 188 40
140 188 40
141 188 40
141 188 40
141 188 41
141 188 41
142 188 41
142 188 41
142 188 41
143 188 41
143 188 42
143 188 42
144 188 42
144 188 42
144 188 42
145 188 42
145 188 43
145 188 43
145 188 43
146 188 43
146 188 43
146 188 43
147 188 44
147 188 44
147 188 44
148 188 44
148 188 44
148 188 44
149 188 45
149 188 45
149 188 45
149 188 45
150 188 45
150 188 45
150 188 46
151 188 46
151 188 46
151 188 46
152 188 46
152 188 46
152 188 47
152 188 47
153 188 47
153 188 47
153 188 47
154 188 47
154 188 48
154 188 48
155 188 48
155 188 48
155 188 48
156 188 48
156 188 49
156 188 49
156 188 49
157 188 49
157 188 49
157 188 49
158 188 50
158 188 50
158 188 50
159 188 50
159 188 50
159 188 50
159 188 51
160 188 51
160 188 51
160 188 51
161 188 51
161 188 51
161 188 52
162 188 52
162 188 52
162 188 52
163 188 52
163 188 52
163 188 53
163 188 53
164 188 53
164 188 53
164 188 53
165 188 53
165 188 54
165 188 54
166 188 54
166 188 54
166 188 54
167 188 54
167 188 55
167 188 55
167 188 55
168 188 55
168 188 55
168 188 55
169 188 56
169 188 56
169 188 56
170 188 56
170 188 56
170 188 56
170 188 57
171 188 57
171 188 57
171 188 57
172 188 57
172 188 57
172 188 58
173 188 58
173 188 58
173 188 58
174 188 58
174 188 58
174 188 59
174 188 59
175 188 59
175 188 59
175 188 59
176 188 59
176 188 60
176 188 60
177 188 60
177 188 60
177 188 60
177 188 60
178 188 61
178 188 61
178 188 61
179 188 61
179 188 61
179 188 61
180 188 62
180 188 62
180 188 62
181 188 62
181 188 62
181 188 62
181 188 63
182 188 63
182 188 63
182 188 63
183 188 63
183 188 63
183 188 64
184 188 64
184 188 64
184 188 64
185 188 64
185 188 64
185 188 65
185 188 65
186 188 65
186 188 65
186 188 65
187 188 65
187 188 66
187 188 66
188 188 66
188 188 66
67 187 0
68 187 0
68 187 0
68 187 0
69 187 0
69 187 0
69 187 1
70 187 1
70 187 1
70 187 1
70 187 1
71 187 1
71 187 2
71 187 2
72 187 2
72 187 2
72 187 2
72 187 2
73 187 3
73 187 3
73 187 3
74 187 3
74 187 3
74 187 3
75 187 4
75 187 4
75 187 4
75 187 4
76 187 4
76 187 4
76 187 5
77 187 5
77 187 5
77 187 5
78 187 5
78 187 5
78 187 6
78 187 6
79 187 6
79 187 6
79 187 6
80 187 6
80 187 7
80 187 7
81 187 7
81 187 7
81 187 7
81 187 7
82 187 8
82 187 8
82 187 8
83 187 8
83 187 8
83 187 9
84 187 9
84 187 9
84 187 9
84 187 9
85 187 9
85 187 10
85 187 10
86 187 10
86 187 10
86 187 10
87 187 10
87 187 11
87 187 11
87 187 11
88 187 11
88 187 11
88 187 11
89 187 12
89 187 12
89 187 12
90 187 12
90 187 12
90 187 12
90 187 13
91 187 13
91 187 13
91 187 13
92 187 13
92 187 13
92 187 14
93 187 14
93 187 14
93 187 14
93 187 14
94 187 14
94 187 15
94 187 15
95 187 15
95 187 15
95 187 15
95 187 15
96 187 16
96 187 16
96 187 16
97 187 16
97 187 16
97 187 17
98 187 17
98 187 17
98 187 17
98 187 17
99 187 17
99 187 18
99 187 18
100 187 18
100 187 18
100 187 18
101 187 18
101 187 19
101 187 19
101 187 19
102 187 19
102 187 19
102 187 19
103 187 20
103 187 20
103 187 20
104 187 20
104 187 20
104 187 20
104 187 21
105 187 21
105 187 21
105 187 21
106 187 21
106 187 21
106 187 22
107 187 22
107 187 22
107 187 22
107 187 22
108 187 22
108 187 23
108 187 23
109 187 23
109 187 23
109 187 23
110 187 23
110 187 24
110 187 24
110 187 24
111 187 24
111 187 24
111 187 25
112 187 25
112 187 25
112 187 25
113 187 25
113 187 25
113 187 26
113 187 26
114 187 26
114 187 26
114 187 26
115 187 26
115 187 27
115 187 27
116 187 27
116 187 27
116 187 27
116 187 27
117 187 28
117 187 28
117 187 28
118 187 28
118 187 28
118 187 28
118 187 29
119 187 29
119 187 29
119 187 29
120 187 29
120 187 29
120 187 30
121 187 30
121 187 30
121 187 30
121 187 30
122 187 30
122 187 31
122 187 31
123 187 31
123 187 31
123 187 31
124 187 31
124 187 32
124 187 32
124 187 32
125 187 32
125 187 32
125 187 33
126 187 33
126 187 33
126 187 33
127 187 33
127 187 33
127 187 34
127 187 34
128 187 34
128 187 34
128 187 34
129 187 34
129 187 35
129 187 35
130 187 35
130 187 35
130 187 35
130 187 35
131 187 36
131 187 36
131 187 36
132 187 36
132 187 36
132 187 36
133 187 37
133 187 37
133 187 37
133 187 37
134 187 37
134 187 37
134 187 38
135 187 38
135 187 38
135 187 38
136 187 38
136 187 38
136 187 39
136 187 39
137 187 39
137 187 39
137 187 39
138 187 39
138 187 40
138 187 40
138 187 40
139 187 40
139 187 40
139 187 41
140 187 41
140 187 41
140 187 41
141 187 41
141 187 41
141 187 42
141 187 42
142 187 42
142 187 42
142 187 42
143 187 42
143 187 43
143 187 43
144 187 43
144 187 43
144 187 43
144 187 43
145 187 44
145 187 44
145 187 44
146 187 44
146 187 44
146 187 44
147 187 45
147 187 45
147 187 45
147 187 45
148 187 45
148 187 45
148 187 46
149 187 46
149 187 46
149 187 46
150 187 46
150 187 46
150 187 47
150 187 47
151 187 47
151 187 47
151 187 47
152 187 47
152 187 48
152 187 48
153 187 48
153 187 48
153 187 48
153 187 49
154 187 49
154 187 49
154 187 49
155 187 49
155 187 49
155 187 50
156 187 50
156 187 50
156 187 50
156 187 50
157 187 50
157 187 51
157 187 51
158 187 51
158 187 51
158 187 51
159 187 51
159 187 52
159 187 52
159 187 52
160 187 52
160 187 52
160 187 52
161 187 53
161 187 53
161 187 53
161 187 53
162 187 53
162 187 53
162 187 54
163 187 54
163 187 54
163 187 54
164 187 54
164 187 54
164 187 55
164 187 55
165 187 55
165 187 55
165 187 55
166 187 55
166 187 56
166 187 56
167 187 56
167 187 56
167 187 56
167 187 57
168 187 57
168 187 57
168 187 57
169 187 57
169 187 57
169 187 58
170 187 58
170 187 58
170 187 58
170 187 58
171 187 58
171 187 59
171 187 59
172 187 59
172 187 59
172 187 59
173 187 59
173 187 60
173 187 60
173 187 60
174 187 60
174 187 60
174 187 60
175 187 61
175 187 61
175 187 61
176 187 61
176 187 61
176 187 61
176 187 62
177 187 62
177 187 62
177 187 62
178 187 62
178 187 62
178 187 63
179 187 63
179 187 63
179 187 63
179 187 63
180 187 63
180 187 64
180 187 64
181 187 64
181 187 64
181 187 64
182 187 65
182 187 65
182 187 65
182 187 65
183 187 65
183 187 65
183 187 66
184 187 66
184 187 66
184 187 66
184 187 66
185 187 66
185 187 67
185 187 67
186 187 67
186 187 67
186 187 67
187 187 67
69 185 0
69 185 0
69 185 0
70 185 0
70 185 0
70 185 0
70 185 1
71 185 1
71 185 1
71 185 1
72 185 1
72 185 1
72 185 2
72 185 2
73 185 2
73 185 2
73 185 2
74 185 2
74 185 3
74 185 3
75 185 3
75 185 3
75 185 3
75 185 3
76 185 4
76 185 4
76 185 4
77 185 4
77 185 4
77 185 5
77 185 5
78 185 5
78 185 5
78 185 5
79 185 5
79 185 6
79 185 6
80 185 6
80 185 6
80 185 6
80 185 6
81 185 7
81 185 7
81 185 7
82 185 7
82 185 7
82 185 7
82 185 8
83 185 8
83 185 8
83 185 8
84 185 8
84 185 9
84 185 9
84 185 9
85 185 9
85 185 9
85 185 9
86 185 10
86 185 10
86 185 10
87 185 10
87 185 10
87 185 10
87 185 11
88 185 11
88 185 11
88 185 11
89 185 11
89 185 11
89 185 12
89 185 12
90 185 12
90 185 12
90 185 12
91 185 13
91 185 13
91 185 13
91 185 13
92 185 13
92 185 13
92 185 14
93 185 14
93 185 14
93 185 14
94 185 14
94 185 14
94 185 15
94 185 15
95 185 15
95 185 15
95 185 15
96 185 15
96 185 16
96 185 16
96 185 16
97 185 16
97 185 16
97 185 16
98 185 17
98 185 17
98 185 17
99 185 17
99 185 17
99 185 18
99 185 18
100 185 18
100 185 18
100 185 18
101 185 18
101 185 19
101 185 19
101 185 19
102 185 19
102 185 19
102 185 19
103 185 20
103 185 20
103 185 20
103 185 20
104 185 20
104 185 20
104 185 21
105 185 21
105 185 21
105 185 21
106 185 21
106 185 22
106 185 22
106 185 22
107 185 22
107 185 22
107 185 22
108 185 23
108 185 23
108 185 23
108 185 23
109 185 23
109 185 23
109 185 24
110 185 24
110 185 24
110 185 24
110 185 24
111 185 24
111 185 25
111 185 25
112 185 25
112 185 25
112 185 25
113 185 26
113 185 26
113 185 26
113 185 26
114 185 26
114 185 26
114 185 27
115 185 27
115 185 27
115 185 27
115 185 27
116 185 27
116 185 28
116 185 28
117 185 28
117 185 28
117 185 28
118 185 28
118 185 29
118 185 29
118 185 29
119 185 29
119 185 29
119 185 30
120 185 30
120 185 30
120 185 30
120 185 30
121 185 30
121 185 31
121 185 31
122 185 31
122 185 31
122 185 31
122 185 31
123 185 32
123 185 32
123 185 32
124 185 32
124 185 32
124 185 32
125 185 33
125 185 33
125 185 33
125 185 33
126 185 33
126 185 33
126 185 34
127 185 34
127 185 34
127 185 34
127 185 34
128 185 35
128 185 35
128 185 35
129 185 35
129 185 35
129 185 35
129 185 36
130 185 36
130 185 36
130 185 36
131 185 36
131 185 36
131 185 37
132 185 37
132 185 37
132 185 37
132 185 37
133 185 37
133 185 38
133 185 38
134 185 38
134 185 38
134 185 38
134 185 39
135 185 39
135 185 39
135 185 39
136 185 39
136 185 39
136 185 40
136 185 40
137 185 40
137 185 40
137 185 40
138 185 40
138 185 41
138 185 41
139 185 41
139 185 41
139 185 41
139 185 41
140 185 42
140 185 42
140 185 42
141 185 42
141 185 42
141 185 43
141 185 43
142 185 43
142 185 43
142 185 43
143 185 43
143 185 44
143 185 44
144 185 44
144 185 44
144 185 44
144 185 44
145 185 45
145 185 45
145 185 45
146 185 45
146 185 45
146 185 45
146 185 46
147 185 46
147 185 46
147 185 46
148 185 46
148 185 46
148 185 47
148 185 47
149 185 47
149 185 47
149 185 47
150 185 48
150 185 48
150 185 48
151 185 48
151 185 48
151 185 48
151 185 49
152 185 49
152 185 49
152 185 49
153 185 49
153 185 49
153 185 50
153 185 50
154 185 50
154 185 50
154 185 50
155 185 50
155 185 51
155 185 51
155 185 51
156 185 51
156 185 51
156 185 52
157 185 52
157 185 52
157 185 52
158 185 52
158 185 52
158 185 53
158 185 53
159 185 53
159 185 53
159 185 53
160 185 53
160 185 54
160 185 54
160 185 54
161 185 54
161 185 54
161 185 54
162 185 55
162 185 55
162 185 55
163 185 55
163 185 55
163 185 56
163 185 56
164 185 56
164 185 56
164 185 56
165 185 56
165 185 57
165 185 57
165 185 57
166 185 57
166 185 57
166 185 57
167 185 58
167 185 58
167 185 58
167 185 58
168 185 58
168 185 58
168 185 59
169 185 59
169 185 59
169 185 59
170 185 59
170 185 60
170 185 60
170 185 60
171 185 60
171 185 60
171 185 60
172 185 61
172 185 61
172 185 61
172 185 61
173 185 61
173 185 61
173 185 62
174 185 62
174 185 62
174 185 62
174 185 62
175 185 62
175 185 63
175 185 63
176 185 63
176 185 63
176 185 63
177 185 63
177 185 64
177 185 64
177 185 64
178 185 64
178 185 64
178 185 65
179 185 65
179 185 65
179 185 65
179 185 65
180 185 65
180 185 66
180 185 66
181 185 66
181 185 66
181 185 66
182 185 66
182 185 67
182 185 67
182 185 67
183 185 67
183 185 67
183 185 67
184 185 68
184 185 68
184 185 68
184 185 68
185 185 68
185 185 69
185 185 69
70 184 0
70 184 0
71 184 0
71 184 0
71 184 0
71 184 0
72 184 1
72 184 1
72 184 1
73 184 1
73 184 1
73 184 1
73 184 2
74 184 2
74 184 2
74 184 2
75 184 2
75 184 3
75 184 3
75 184 3
76 184 3
76 184 3
76 184 3
77 184 4
77 184 4
77 184 4
77 184 4
78 184 4
78 184 4
78 184 5
79 184 5
79 184 5
79 184 5
79 184 5
80 184 6
80 184 6
80 184 6
81 184 6
81 184 6
81 184 6
81 184 7
82 184 7
82 184 7
82 184 7
83 184 7
83 184 7
83 184 8
83 184 8
84 184 8
84 184 8
84 184 8
85 184 9
85 184 9
85 184 9
85 184 9
86 184 9
86 184 9
86 184 10
87 184 10
87 184 10
87 184 10
87 184 10
88 184 10
88 184 11
88 184 11
89 184 11
89 184 11
89 184 11
89 184 12
90 184 12
90 184 12
90 184 12
91 184 12
91 184 12
91 184 13
91 184 13
92 184 13
92 184 13
92 184 13
93 184 13
93 184 14
93 184 14
93 184 14
94 184 14
94 184 14
94 184 15
95 184 15
95 184 15
95 184 15
95 184 15
96 184 15
96 184 16
96 184 16
97 184 16
97 184 16
97 184 16
97 184 16
98 184 17
98 184 17
98 184 17
99 184 17
99 184 17
99 184 18
99 184 18
100 184 18
100 184 18
100 184 18
101 184 18
101 184 19
101 184 19
101 184 19
102 184 19
102 184 19
102 184 19
103 184 20
103 184 20
103 184 20
103 184 20
104 184 20
104 184 21
104 184 21
105 184 21
105 184 21
105 184 21
105 184 21
106 184 22
106 184 22
106 184 22
107 184 22
107 184 22
107 184 22
107 184 23
108 184 23
108 184 23
108 184 23
109 184 23
109 184 24
109 184 24
109 184 24
110 184 24
110 184 24
110 184 24
111 184 25
111 184 25
111 184 25
111 184 25
112 184 25
112 184 25
112 184 26
113 184 26
113 184 26
113 184 26
113 184 26
114 184 27
114 184 27
114 184 27
115 184 27
115 184 27
115 184 27
115 184 28
116 184 28
116 184 28
116 184 28
117 184 28
117 184 28
117 184 29
117 184 29
118 184 29
118 184 29
118 184 29
119 184 30
119 184 30
119 184 30
119 184 30
120 184 30
120 184 30
120 184 31
121 184 31
121 184 31
121 184 31
121 184 31
122 184 31
122 184 32
122 184 32
123 184 32
123 184 32
123 184 32
123 184 33
124 184 33
124 184 33
124 184 33
125 184 33
125 184 33
125 184 34
125 184 34
126 184 34
126 184 34
126 184 34
127 184 34
127 184 35
127 184 35
127 184 35
128 184 35
128 184 35
128 184 36
129 184 36
129 184 36
129 184 36
129 184 36
130 184 36
130 184 37
130 184 37
131 184 37
131 184 37
131 184 37
131 184 37
132 184 38
132 184 38
132 184 38
133 184 38
133 184 38
133 184 39
133 184 39
134 184 39
134 184 39
134 184 39
135 184 39
135 184 40
135 184 40
135 184 40
136 184 40
136 184 40
136 184 40
137 184 41
137 184 41
137 184 41
137 184 41
138 184 41
138 184 42
138 184 42
139 184 42
139 184 42
139 184 42
139 184 42
140 184 43
140 184 43
140 184 43
141 184 43
141 184 43
141 184 43
141 184 44
142 184 44
142 184 44
142 184 44
143 184 44
143 184 45
143 184 45
143 184 45
144 184 45
144 184 45
144 184 45
145 184 46
145 184 46
145 184 46
145 184 46
146 184 46
146 184 46
146 184 47
147 184 47
147 184 47
147 184 47
147 184 47
148 184 48
148 184 48
148 184 48
149 184 48
149 184 48
149 184 48
149 184 49
150 184 49
150 184 49
150 184 49
151 184 49
151 184 49
151 184 50
151 184 50
152 184 50
152 184 50
152 184 50
153 184 51
153 184 51
153 184 51
153 184 51
154 184 51
154 184 51
154 184 52
155 184 52
155 184 52
155 184 52
155 184 52
156 184 52
156 184 53
156 184 53
157 184 53
157 184 53
157 184 53
157 184 54
158 184 54
158 184 54
158 184 54
159 184 54
159 184 54
159 184 55
159 184 55
160 184 55
160 184 55
160 184 55
161 184 55
161 184 56
161 184 56
161 184 56
162 184 56
162 184 56
162 184 57
163 184 57
163 184 57
163 184 57
163 184 57
164 184 57
164 184 58
164 184 58
165 184 58
165 184 58
165 184 58
165 184 58
166 184 59
166 184 59
166 184 59
167 184 59
167 184 59
167 184 60
167 184 60
168 184 60
168 184 60
168 184 60
169 184 60
169 184 61
169 184 61
169 184 61
170 184 61
170 184 61
170 184 61
171 184 62
171 184 62
171 184 62
171 184 62
172 184 62
172 184 63
172 184 63
173 184 63
173 184 63
173 184 63
173 184 63
174 184 64
174 184 64
174 184 64
175 184 64
175 184 64
175 184 65
175 184 65
176 184 65
176 184 65
176 184 65
177 184 65
177 184 66
177 184 66
177 184 66
178 184 66
178 184 66
178 184 66
179 184 67
179 184 67
179 184 67
179 184 67
180 184 67
180 184 68
180 184 68
181 184 68
181 184 68
181 184 68
181 184 68
182 184 69
182 184 69
182 184 69
183 184 69
183 184 69
183 184 69
183 184 70
184 184 70
184 184 70
71 183 0
72 183 0
72 183 0
72 183 0
72 183 0
73 183 0
73 183 1
73 183 1
73 183 1
74 183 1
74 183 1
74 183 1
75 183 2
75 183 2
75 183 2
75 183 2
76 183 2
76 183 3
76 183 3
77 183 3
77 183 3
77 183 3
77 183 3
78 183 4
78 183 4
78 183 4
79 183 4
79 183 4
79 183 5
79 183 5
80 183 5
80 183 5
80 183 5
80 183 5
81 183 6
81 183 6
81 183 6
82 183 6
82 183 6
82 183 7
82 183 7
83 183 7
83 183 7
83 183 7
84 183 7
84 183 8
84 183 8
84 183 8
85 183 8
85 183 8
85 183 8
86 183 9
86 183 9
86 183 9
86 183 9
87 183 9
87 183 10
87 183 10
87 183 10
88 183 10
88 183 10
88 183 10
89 183 11
89 183 11
89 183 11
89 183 11
90 183 11
90 183 12
90 183 12
91 183 12
91 183 12
91 183 12
91 183 12
92 183 13
92 183 13
92 183 13
92 183 13
93 183 13
93 183 14
93 183 14
94 183 14
94 183 14
94 183 14
94 183 14
95 183 15
95 183 15
95 183 15
96 183 15
96 183 15
96 183 16
96 183 16
97 183 16
97 183 16
97 183 16
98 183 16
98 183 17
98 183 17
98 183 17
99 183 17
99 183 17
99 183 17
99 183 18
100 183 18
100 183 18
100 183 18
101 183 18
101 183 19
101 183 19
101 183 19
102 183 19
102 183 19
102 183 19
103 183 20
103 183 20
103 183 20
103 183 20
104 183 20
104 183 21
104 183 21
105 183 21
105 183 21
105 183 21
105 183 21
106 183 22
106 183 22
106 183 22
106 183 22
107 183 22
107 183 23
107 183 23
108 183 23
108 183 23
108 183 23
108 183 23
109 183 24
109 183 24
109 183 24
110 183 24
110 183 24
110 183 24
110 183 25
111 183 25
111 183 25
111 183 25
111 183 25
112 183 26
112 183 26
112 183 26
113 183 26
113 183 26
113 183 26
113 183 27
114 183 27
114 183 27
114 183 27
115 183 27
115 183 28
115 183 28
115 183 28
116 183 28
116 183 28
116 183 28
117 183 29
117 183 29
117 183 29
117 183 29
118 183 29
118 183 30
118 183 30
118 183 30
119 183 30
119 183 30
119 183 30
120 183 31
120 183 31
120 183 31
120 183 31
121 183 31
121 183 32
121 183 32
122 183 32
122 183 32
122 183 32
122 183 32
123 183 33
123 183 33
123 183 33
124 183 33
124 183 33
124 183 33
124 183 34
125 183 34
125 183 34
125 183 34
125 183 34
126 183 35
126 183 35
126 183 35
127 183 35
127 183 35
127 183 35
127 183 36
128 183 36
128 183 36
128 183 36
129 183 36
129 183 37
129 183 37
129 183 37
130 183 37
130 183 37
130 183 37
130 183 38
131 183 38
131 183 38
131 183 38
132 183 38
132 183 39
132 183 39
132 183 39
133 183 39
133 183 39
133 183 39
134 183 40
134 183 40
134 183 40
134 183 40
135 183 40
135 183 41
135 183 41
136 183 41
136 183 41
136 183 41
136 183 41
137 183 42
137 183 42
137 183 42
137 183 42
138 183 42
138 183 42
138 183 43
139 183 43
139 183 43
139 183 43
139 183 43
140 183 44
140 183 44
140 183 44
141 183 44
141 183 44
141 183 44
141 183 45
142 183 45
142 183 45
142 183 45
143 183 45
143 183 46
143 183 46
143 183 46
144 183 46
144 183 46
144 183 46
144 183 47
145 183 47
145 183 47
145 183 47
146 183 47
146 183 48
146 183 48
146 183 48
147 183 48
147 183 48
147 183 48
148 183 49
148 183 49
148 183 49
148 183 49
149 183 49
149 183 49
149 183 50
149 183 50
150 183 50
150 183 50
150 183 50
151 183 51
151 183 51
151 183 51
151 183 51
152 183 51
152 183 51
152 183 52
153 183 52
153 183 52
153 183 52
153 183 52
154 183 53
154 183 53
154 183 53
155 183 53
155 183 53
155 183 53
155 183 54
156 183 54
156 183 54
156 183 54
156 183 54
157 183 55
157 183 55
157 183 55
158 183 55
158 183 55
158 183 55
158 183 56
159 183 56
159 183 56
159 183 56
160 183 56
160 183 57
160 183 57
160 183 57
161 183 57
161 183 57
161 183 57
162 183 58
162 183 58
162 183 58
162 183 58
163 183 58
163 183 58
163 183 59
163 183 59
164 183 59
164 183 59
164 183 59
165 183 60
165 183 60
165 183 60
165 183 60
166 183 60
166 183 60
166 183 61
167 183 61
167 183 61
167 183 61
167 183 61
168 183 62
168 183 62
168 183 62
168 183 62
169 183 62
169 183 62
169 183 63
170 183 63
170 183 63
170 183 63
170 183 63
171 183 64
171 183 64
171 183 64
172 183 64
172 183 64
172 183 64
172 183 65
173 183 65
173 183 65
173 183 65
174 183 65
174 183 66
174 183 66
174 183 66
175 183 66
175 183 66
175 183 66
175 183 67
176 183 67
176 183 67
176 183 67
177 183 67
177 183 67
177 183 68
177 183 68
178 183 68
178 183 68
178 183 68
179 183 69
179 183 69
179 183 69
179 183 69
180 183 69
180 183 69
180 183 70
181 183 70
181 183 70
181 183 70
181 183 70
182 183 71
182 183 71
182 183 71
182 183 71
183 183 71
73 181 0
73 181 0
73 181 0
73 181 0
74 181 0
74 181 0
74 181 1
74 181 1
75 181 1
75 181 1
75 181 1
76 181 2
76 181 2
76 181 2
76 181 2
77 181 2
77 181 2
77 181 3
77 181 3
78 181 3
78 181 3
78 181 3
79 181 4
79 181 4
79 181 4
79 181 4
80 181 4
80 181 4
80 181 5
80 181 5
81 181 5
81 181 5
81 181 5
82 181 6
82 181 6
82 181 6
82 181 6
83 181 6
83 181 6
83 181 7
83 181 7
84 181 7
84 181 7
84 181 7
85 181 8
85 181 8
85 181 8
85 181 8
86 181 8
86 181 8
86 181 9
86 181 9
87 181 9
87 181 9
87 181 9
88 181 10
88 181 10
88 181 10
88 181 10
89 181 10
89 181 10
89 181 11
89 181 11
90 181 11
90 181 11
90 181 11
91 181 12
91 181 12
91 181 12
91 181 12
92 181 12
92 181 12
92 181 13
92 181 13
93 181 13
93 181 13
93 181 13
94 181 14
94 181 14
94 181 14
94 181 14
95 181 14
95 181 15
95 181 15
95 181 15
96 181 15
96 181 15
96 181 15
97 181 16
97 181 16
97 181 16
97 181 16
98 181 16
98 181 17
98 181 17
98 181 17
99 181 17
99 181 17
99 181 17
100 181 18
100 181 18
100 181 18
100 181 18
101 181 18
101 181 19
101 181 19
101 181 19
102 181 19
102 181 19
102 181 19
103 181 20
103 181 20
103 181 20
103 181 20
104 181 20
104 181 21
104 181 21
104 181 21
105 181 21
105 181 21
105 181 21
106 181 22
106 181 22
106 181 22
106 181 22
107 181 22
107 181 23
107 181 23
107 181 23
108 181 23
108 181 23
108 181 23
109 181 24
109 181 24
109 181 24
109 181 24
110 181 24
110 181 25
110 181 25
110 181 25
111 181 25
111 181 25
111 181 25
112 181 26
112 181 26
112 181 26
112 181 26
113 181 26
113 181 27
113 181 27
113 181 27
114 181 27
114 181 27
114 181 28
115 181 28
115 181 28
115 181 28
115 181 28
116 181 28
116 181 29
116 181 29
116 181 29
117 181 29
117 181 29
117 181 30
118 181 30
118 181 30
118 181 30
118 181 30
119 181 30
119 181 31
119 181 31
119 181 31
120 181 31
120 181 31
120 181 32
121 181 32
121 181 32
121 181 32
121 181 32
122 181 32
122 181 33
122 181 33
122 181 33
123 181 33
123 181 33
123 181 34
124 181 34
124 181 34
124 181 34
124 181 34
125 181 34
125 181 35
125 181 35
125 181 35
126 181 35
126 181 35
126 181 36
127 181 36
127 181 36
127 181 36
127 181 36
128 181 36
128 181 37
128 181 37
129 181 37
129 181 37
129 181 37
129 181 38
130 181 38
130 181 38
130 181 38
130 181 38
131 181 38
131 181 39
131 181 39
132 181 39
132 181 39
132 181 39
132 181 40
133 181 40
133 181 40
133 181 40
133 181 40
134 181 41
134 181 41
134 181 41
135 181 41
135 181 41
135 181 41
135 181 42
136 181 42
136 181 42
136 181 42
136 181 42
137 181 43
137 181 43
137 181 43
138 181 43
138 181 43
138 181 43
138 181 44
139 181 44
139 181 44
139 181 44
139 181 44
140 181 45
140 181 45
140 181 45
141 181 45
141 181 45
141 181 45
141 181 46
142 181 46
142 181 46
142 181 46
142 181 46
143 181 47
143 181 47
143 181 47
144 181 47
144 181 47
144 181 47
144 181 48
145 181 48
145 181 48
145 181 48
145 181 48
146 181 49
146 181 49
146 181 49
147 181 49
147 181 49
147 181 49
147 181 50
148 181 50
148 181 50
148 181 50
148 181 50
149 181 51
149 181 51
149 181 51
150 181 51
150 181 51
150 181 51
150 181 52
151 181 52
151 181 52
151 181 52
151 181 52
152 181 53
152 181 53
152 181 53
153 181 53
153 181 53
153 181 54
153 181 54
154 181 54
154 181 54
154 181 54
154 181 54
155 181 55
155 181 55
155 181 55
156 181 55
156 181 55
156 181 56
156 181 56
157 181 56
157 181 56
157 181 56
157 181 56
158 181 57
158 181 57
158 181 57
159 181 57
159 181 57
159 181 58
159 181 58
160 181 58
160 181 58
160 181 58
160 181 58
161 181 59
161 181 59
161 181 59
162 181 59
162 181 59
162 181 60
162 181 60
163 181 60
163 181 60
163 181 60
163 181 60
164 181 61
164 181 61
164 181 61
165 181 61
165 181 61
165 181 62
165 181 62
166 181 62
166 181 62
166 181 62
166 181 62
167 181 63
167 181 63
167 181 63
168 181 63
168 181 63
168 181 64
168 181 64
169 181 64
169 181 64
169 181 64
169 181 64
170 181 65
170 181 65
170 181 65
171 181 65
171 181 65
171 181 66
171 181 66
172 181 66
172 181 66
172 181 66
172 181 66
173 181 67
173 181 67
173 181 67
174 181 67
174 181 67
174 181 68
174 181 68
175 181 68
175 181 68
175 181 68
175 181 69
176 181 69
176 181 69
176 181 69
177 181 69
177 181 69
177 181 70
177 181 70
178 181 70
178 181 70
178 181 70
178 181 71
179 181 71
179 181 71
179 181 71
180 181 71
180 181 71
180 181 72
180 181 72
181 181 72
181 181 72
181 181 72
181 181 73
74 180 0
74 180 0
74 180 0
75 180 0
75 180 0
75 180 0
75 180 1
76 180 1
76 180 1
76 180 1
76 180 1
77 180 2
77 180 2
77 180 2
78 180 2
78 180 2
78 180 2
78 180 3
79 180 3
79 180 3
79 180 3
79 180 3
80 180 4
80 180 4
80 180 4
80 180 4
81 180 4
81 180 5
81 180 5
82 180 5
82 180 5
82 180 5
82 180 5
83 180 6
83 180 6
83 180 6
83 180 6
84 180 6
84 180 7
84 180 7
84 180 7
85 180 7
85 180 7
85 180 8
86 180 8
86 180 8
86 180 8
86 180 8
87 180 8
87 180 9
87 180 9
87 180 9
88 180 9
88 180 9
88 180 10
88 180 10
89 180 10
89 180 10
89 180 10
90 180 10
90 180 11
90 180 11
90 180 11
91 180 11
91 180 11
91 180 12
91 180 12
92 180 12
92 180 12
92 180 12
92 180 13
93 180 13
93 180 13
93 180 13
94 180 13
94 180 13
94 180 14
94 180 14
95 180 14
95 180 14
95 180 14
95 180 15
96 180 15
96 180 15
96 180 15
96 180 15
97 180 16
97 180 16
97 180 16
98 180 16
98 180 16
98 180 16
98 180 17
99 180 17
99 180 17
99 180 17
99 180 17
100 180 18
100 180 18
100 180 18
100 180 18
101 180 18
101 180 18
101 180 19
102 180 19
102 180 19
102 180 19
102 180 19
103 180 20
103 180 20
103 180 20
103 180 20
104 180 20
104 180 21
104 180 21
104 180 21
105 180 21
105 180 21
105 180 21
106 180 22
106 180 22
106 180 22
106 180 22
107 180 22
107 180 23
107 180 23
107 180 23
108 180 23
108 180 23
108 180 24
108 180 24
109 180 24
109 180 24
109 180 24
110 180 24
110 180 25
110 180 25
110 180 25
111 180 25
111 180 25
111 180 26
111 180 26
112 180 26
112 180 26
112 180 26
112 180 27
113 180 27
113 180 27
113 180 27
114 180 27
114 180 27
114 180 28
114 180 28
115 180 28
115 180 28
115 180 28
115 180 29
116 180 29
116 180 29
116 180 29
116 180 29
117 180 29
117 180 30
117 180 30
118 180 30
118 180 30
118 180 30
118 180 31
119 180 31
119 180 31
119 180 31
119 180 31
120 180 32
120 180 32
120 180 32
120 180 32
121 180 32
121 180 32
121 180 33
122 180 33
122 180 33
122 180 33
122 180 33
123 180 34
123 180 34
123 180 34
123 180 34
124 180 34
124 180 35
124 180 35
124 180 35
125 180 35
125 180 35
125 180 35
126 180 36
126 180 36
126 180 36
126 180 36
127 180 36
127 180 37
127 180 37
127 180 37
128 180 37
128 180 37
128 180 37
128 180 38
129 180 38
129 180 38
129 180 38
130 180 38
130 180 39
130 180 39
130 180 39
131 180 39
131 180 39
131 180 40
131 180 40
132 180 40
132 180 40
132 180 40
132 180 40
133 180 41
133 180 41
133 180 41
134 180 41
134 180 41
134 180 42
134 180 42
135 180 42
135 180 42
135 180 42
135 180 43
136 180 43
136 180 43
136 180 43
136 180 43
137 180 43
137 180 44
137 180 44
138 180 44
138 180 44
138 180 44
138 180 45
139 180 45
139 180 45
139 180 45
139 180 45
140 180 46
140 180 46
140 180 46
140 180 46
141 180 46
141 180 46
141 180 47
142 180 47
142 180 47
142 180 47
142 180 47
143 180 48
143 180 48
143 180 48
143 180 48
144 180 48
144 180 48
144 180 49
144 180 49
145 180 49
145 180 49
145 180 49
146 180 50
146 180 50
146 180 50
146 180 50
147 180 50
147 180 51
147 180 51
147 180 51
148 180 51
148 180 51
148 180 51
148 180 52
149 180 52
149 180 52
149 180 52
150 180 52
150 180 53
150 180 53
150 180 53
151 180 53
151 180 53
151 180 54
151 180 54
152 180 54
152 180 54
152 180 54
152 180 54
153 180 55
153 180 55
153 180 55
154 180 55
154 180 55
154 180 56
154 180 56
155 180 56
155 180 56
155 180 56
155 180 56
156 180 57
156 180 57
156 180 57
156 180 57
157 180 57
157 180 58
157 180 58
158 180 58
158 180 58
158 180 58
158 180 59
159 180 59
159 180 59
159 180 59
159 180 59
160 180 59
160 180 60
160 180 60
160 180 60
161 180 60
161 180 60
161 180 61
162 180 61
162 180 61
162 180 61
162 180 61
163 180 62
163 180 62
163 180 62
163 180 62
164 180 62
164 180 62
164 180 63
164 180 63
165 180 63
165 180 63
165 180 63
166 180 64
166 180 64
166 180 64
166 180 64
167 180 64
167 180 65
167 180 65
167 180 65
168 180 65
168 180 65
168 180 65
168 180 66
169 180 66
169 180 66
169 180 66
170 180 66
170 180 67
170 180 67
170 180 67
171 180 67
171 180 67
171 180 67
171 180 68
172 180 68
172 180 68
172 180 68
172 180 68
173 180 69
173 180 69
173 180 69
174 180 69
174 180 69
174 180 70
174 180 70
175 180 70
175 180 70
175 180 70
175 180 70
176 180 71
176 180 71
176 180 71
176 180 71
177 180 71
177 180 72
177 180 72
178 180 72
178 180 72
178 180 72
178 180 73
179 180 73
179 180 73
179 180 73
179 180 73
180 180 73
180 180 74
180 180 74
75 179 0
75 179 0
76 179 0
76 179 0
76 179 0
76 179 0
77 179 1
77 179 1
77 179 1
77 179 1
78 179 1
78 179 2
78 179 2
78 179 2
79 179 2
79 179 2
79 179 3
80 179 3
80 179 3
80 179 3
80 179 3
81 179 3
81 179 4
81 179 4
81 179 4
82 179 4
82 179 4
82 179 5
82 179 5
83 179 5
83 179 5
83 179 5
83 179 6
84 179 6
84 179 6
84 179 6
84 179 6
85 179 7
85 179 7
85 179 7
86 179 7
86 179 7
86 179 7
86 179 8
87 179 8
87 179 8
87 179 8
87 179 8
88 179 9
88 179 9
88 179 9
88 179 9
89 179 9
89 179 10
89 179 10
89 179 10
90 179 10
90 179 10
90 179 10
90 179 11
91 179 11
91 179 11
91 179 11
91 179 11
92 179 12
92 179 12
92 179 12
93 179 12
93 179 12
93 179 13
93 179 13
94 179 13
94 179 13
94 179 13
94 179 14
95 179 14
95 179 14
95 179 14
95 179 14
96 179 14
96 179 15
96 179 15
96 179 15
97 179 15
97 179 15
97 179 16
97 179 16
98 179 16
98 179 16
98 179 16
99 179 17
99 179 17
99 179 17
99 179 17
100 179 17
100 179 18
100 179 18
100 179 18
101 179 18
101 179 18
101 179 18
101 179 19
102 179 19
102 179 19
102 179 19
102 179 19
103 179 20
103 179 20
103 179 20
103 179 20
104 179 20
104 179 21
104 179 21
104 179 21
105 179 21
105 179 21
105 179 21
106 179 22
106 179 22
106 179 22
106 179 22
107 179 22
107 179 23
107 179 23
107 179 23
108 179 23
108 179 23
108 179 24
108 179 24
109 179 24
109 179 24
109 179 24
109 179 25
110 179 25
110 179 25
110 179 25
110 179 25
111 179 25
111 179 26
111 179 26
112 179 26
112 179 26
112 179 26
112 179 27
113 179 27
113 179 27
113 179 27
113 179 27
114 179 28
114 179 28
114 179 28
114 179 28
115 179 28
115 179 28
115 179 29
115 179 29
116 179 29
116 179 29
116 179 29
116 179 30
117 179 30
117 179 30
117 179 30
118 179 30
118 179 31
118 179 31
118 179 31
119 179 31
119 179 31
119 179 32
119 179 32
120 179 32
120 179 32
120 179 32
120 179 32
121 179 33
121 179 33
121 179 33
121 179 33
122 179 33
122 179 34
122 179 34
122 179 34
123 179 34
123 179 34
123 179 35
123 179 35
124 179 35
124 179 35
124 179 35
125 179 36
125 179 36
125 179 36
125 179 36
126 179 36
126 179 36
126 179 37
126 179 37
127 179 37
127 179 37
127 179 37
127 179 38
128 179 38
128 179 38
128 179 38
128 179 38
129 179 39
129 179 39
129 179 39
129 179 39
130 179 39
130 179 39
130 179 40
131 179 40
131 179 40
131 179 40
131 179 40
132 179 41
132 179 41
132 179 41
132 179 41
133 179 41
133 179 42
133 179 42
133 179 42
134 179 42
134 179 42
134 179 43
134 179 43
135 179 43
135 179 43
135 179 43
135 179 43
136 179 44
136 179 44
136 179 44
136 179 44
137 179 44
137 179 45
137 179 45
138 179 45
138 179 45
138 179 45
138 179 46
139 179 46
139 179 46
139 179 46
139 179 46
140 179 46
140 179 47
140 179 47
140 179 47
141 179 47
141 179 47
141 179 48
141 179 48
142 179 48
142 179 48
142 179 48
142 179 49
143 179 49
143 179 49
143 179 49
144 179 49
144 179 50
144 179 50
144 179 50
145 179 50
145 179 50
145 179 50
145 179 51
146 179 51
146 179 51
146 179 51
146 179 51
147 179 52
147 179 52
147 179 52
147 179 52
148 179 52
148 179 53
148 179 53
148 179 53
149 179 53
149 179 53
149 179 54
150 179 54
150 179 54
150 179 54
150 179 54
151 179 54
151 179 55
151 179 55
151 179 55
152 179 55
152 179 55
152 179 56
152 179 56
153 179 56
153 179 56
153 179 56
153 179 57
154 179 57
154 179 57
154 179 57
154 179 57
155 179 57
155 179 58
155 179 58
155 179 58
156 179 58
156 179 58
156 179 59
157 179 59
157 179 59
157 179 59
157 179 59
158 179 60
158 179 60
158 179 60
158 179 60
159 179 60
159 179 61
159 179 61
159 179 61
160 179 61
160 179 61
160 179 61
160 179 62
161 179 62
161 179 62
161 179 62
161 179 62
162 179 63
162 179 63
162 179 63
163 179 63
163 179 63
163 179 64
163 179 64
164 179 64
164 179 64
164 179 64
164 179 64
165 179 65
165 179 65
165 179 65
165 179 65
166 179 65
166 179 66
166 179 66
166 179 66
167 179 66
167 179 66
167 179 67
167 179 67
168 179 67
168 179 67
168 179 67
168 179 68
169 179 68
169 179 68
169 179 68
170 179 68
170 179 68
170 179 69
170 179 69
171 179 69
171 179 69
171 179 69
171 179 70
172 179 70
172 179 70
172 179 70
172 179 70
173 179 71
173 179 71
173 179 71
173 179 71
174 179 71
174 179 72
174 179 72
174 179 72
175 179 72
175 179 72
175 179 72
176 179 73
176 179 73
176 179 73
176 179 73
177 179 73
177 179 74
177 179 74
177 179 74
178 179 74
178 179 74
178 179 75
178 179 75
179 179 75
179 179 75
76 178 0
77 178 0
77 178 0
77 178 0
77 178 0
78 178 0
78 178 1
78 178 1
78 178 1
79 178 1
79 178 1
79 178 2
79 178 2
80 178 2
80 178 2
80 178 2
80 178 3
81 178 3
81 178 3
81 178 3
81 178 3
82 178 4
82 178 4
82 178 4
82 178 4
83 178 4
83 178 5
83 178 5
83 178 5
84 178 5
84 178 5
84 178 5
85 178 6
85 178 6
85 178 6
85 178 6
86 178 6
86 178 7
86 178 7
86 178 7
87 178 7
87 178 7
87 178 8
87 178 8
88 178 8
88 178 8
88 178 8
88 178 9
89 178 9
89 178 9
89 178 9
89 178 9
90 178 10
90 178 10
90 178 10
90 178 10
91 178 10
91 178 10
91 178 11
91 178 11
92 178 11
92 178 11
92 178 11
92 178 12
93 178 12
93 178 12
93 178 12
93 178 12
94 178 13
94 178 13
94 178 13
94 178 13
95 178 13
95 178 14
95 178 14
95 178 14
96 178 14
96 178 14
96 178 15
96 178 15
97 178 15
97 178 15
97 178 15
97 178 15
98 178 16
98 178 16
98 178 16
98 178 16
99 178 16
99 178 17
99 178 17
99 178 17
100 178 17
100 178 17
100 178 18
100 178 18
101 178 18
101 178 18
101 178 18
102 178 19
102 178 19
102 178 19
102 178 19
103 178 19
103 178 20
103 178 20
103 178 20
104 178 20
104 178 20
104 178 21
104 178 21
105 178 21
105 178 21
105 178 21
105 178 21
106 178 22
106 178 22
106 178 22
106 178 22
107 178 22
107 178 23
107 178 23
107 178 23
108 178 23
108 178 23
108 178 24
108 178 24
109 178 24
109 178 24
109 178 24
109 178 25
110 178 25
110 178 25
110 178 25
110 178 25
111 178 26
111 178 26
111 178 26
111 178 26
112 178 26
112 178 26
112 178 27
112 178 27
113 178 27
113 178 27
113 178 27
113 178 28
114 178 28
114 178 28
114 178 28
114 178 28
115 178 29
115 178 29
115 178 29
115 178 29
116 178 29
116 178 30
116 178 30
116 178 30
117 178 30
117 178 30
117 178 31
117 178 31
118 178 31
118 178 31
118 178 31
119 178 31
119 178 32
119 178 32
119 178 32
120 178 32
120 178 32
120 178 33
120 178 33
121 178 33
121 178 33
121 178 33
121 178 34
122 178 34
122 178 34
122 178 34
122 178 34
123 178 35
123 178 35
123 178 35
123 178 35
124 178 35
124 178 36
124 178 36
124 178 36
125 178 36
125 178 36
125 178 36
125 178 37
126 178 37
126 178 37
126 178 37
126 178 37
127 178 38
127 178 38
127 178 38
127 178 38
128 178 38
128 178 39
128 178 39
128 178 39
129 178 39
129 178 39
129 178 40
129 178 40
130 178 40
130 178 40
130 178 40
130 178 41
131 178 41
131 178 41
131 178 41
131 178 41
132 178 42
132 178 42
132 178 42
132 178 42
133 178 42
133 178 42
133 178 43
133 178 43
134 178 43
134 178 43
134 178 43
134 178 44
135 178 44
135 178 44
135 178 44
135 178 44
136 178 45
136 178 45
136 178 45
137 178 45
137 178 45
137 178 46
137 178 46
138 178 46
138 178 46
138 178 46
138 178 47
139 178 47
139 178 47
139 178 47
139 178 47
140 178 47
140 178 48
140 178 48
140 178 48
141 178 48
141 178 48
141 178 49
141 178 49
142 178 49
142 178 49
142 178 49
142 178 50
143 178 50
143 178 50
143 178 50
143 178 50
144 178 51
144 178 51
144 178 51
144 178 51
145 178 51
145 178 52
145 178 52
145 178 52
146 178 52
146 178 52
146 178 52
146 178 53
147 178 53
147 178 53
147 178 53
147 178 53
148 178 54
148 178 54
148 178 54
148 178 54
149 178 54
149 178 55
149 178 55
149 178 55
150 178 55
150 178 55
150 178 56
150 178 56
151 178 56
151 178 56
151 178 56
151 178 57
152 178 57
152 178 57
152 178 57
152 178 57
153 178 58
153 178 58
153 178 58
154 178 58
154 178 58
154 178 58
154 178 59
155 178 59
155 178 59
155 178 59
155 178 59
156 178 60
156 178 60
156 178 60
156 178 60
157 178 60
157 178 61
157 178 61
157 178 61
158 178 61
158 178 61
158 178 62
158 178 62
159 178 62
159 178 62
159 178 62
159 178 63
160 178 63
160 178 63
160 178 63
160 178 63
161 178 63
161 178 64
161 178 64
161 178 64
162 178 64
162 178 64
162 178 65
162 178 65
163 178 65
163 178 65
163 178 65
163 178 66
164 178 66
164 178 66
164 178 66
164 178 66
165 178 67
165 178 67
165 178 67
165 178 67
166 178 67
166 178 68
166 178 68
166 178 68
167 178 68
167 178 68
167 178 68
167 178 69
168 178 69
168 178 69
168 178 69
168 178 69
169 178 70
169 178 70
169 178 70
169 178 70
170 178 70
170 178 71
170 178 71
171 178 71
171 178 71
171 178 71
171 178 72
172 178 72
172 178 72
172 178 72
172 178 72
173 178 73
173 178 73
173 178 73
173 178 73
174 178 73
174 178 73
174 178 74
174 178 74
175 178 74
175 178 74
175 178 74
175 178 75
176 178 75
176 178 75
176 178 75
176 178 75
177 178 76
177 178 76
177 178 76
177 178 76
178 178 76
78 176 0
78 176 0
78 176 0
78 176 0
79 176 0
79 176 0
79 176 1
79 176 1
80 176 1
80 176 1
80 176 1
80 176 2
81 176 2
81 176 2
81 176 2
81 176 2
82 176 3
82 176 3
82 176 3
82 176 3
83 176 3
83 176 4
83 176 4
83 176 4
84 176 4
84 176 4
84 176 5
84 176 5
85 176 5
85 176 5
85 176 5
85 176 6
86 176 6
86 176 6
86 176 6
86 176 6
87 176 7
87 176 7
87 176 7
87 176 7
88 176 7
88 176 8
88 176 8
88 176 8
89 176 8
89 176 8
89 176 9
89 176 9
90 176 9
90 176 9
90 176 9
90 176 9
91 176 10
91 176 10
91 176 10
91 176 10
92 176 10
92 176 11
92 176 11
92 176 11
93 176 11
93 176 11
93 176 12
93 176 12
93 176 12
94 176 12
94 176 12
94 176 13
94 176 13
95 176 13
95 176 13
95 176 13
95 176 14
96 176 14
96 176 14
96 176 14
96 176 14
97 176 15
97 176 15
97 176 15
97 176 15
98 176 15
98 176 16
98 176 16
98 176 16
99 176 16
99 176 16
99 176 17
99 176 17
100 176 17
100 176 17
100 176 17
100 176 18
101 176 18
101 176 18
101 176 18
101 176 18
102 176 19
102 176 19
102 176 19
102 176 19
103 176 19
103 176 19
103 176 20
103 176 20
104 176 20
104 176 20
104 176 20
104 176 21
105 176 21
105 176 21
105 176 21
105 176 21
106 176 22
106 176 22
106 176 22
106 176 22
107 176 22
107 176 23
107 176 23
107 176 23
108 176 23
108 176 23
108 176 24
108 176 24
109 176 24
109 176 24
109 176 24
109 176 25
110 176 25
110 176 25
110 176 25
110 176 25
111 176 26
111 176 26
111 176 26
111 176 26
112 176 26
112 176 27
112 176 27
112 176 27
113 176 27
113 176 27
113 176 28
113 176 28
114 176 28
114 176 28
114 176 28
114 176 28
115 176 29
115 176 29
115 176 29
115 176 29
116 176 29
116 176 30
116 176 30
116 176 30
116 176 30
117 176 30
117 176 31
117 176 31
117 176 31
118 176 31
118 176 31
118 176 32
118 176 32
119 176 32
119 176 32
119 176 32
119 176 33
120 176 33
120 176 33
120 176 33
120 176 33
121 176 34
121 176 34
121 176 34
121 176 34
122 176 34
122 176 35
122 176 35
122 176 35
123 176 35
123 176 35
123 176 36
123 176 36
124 176 36
124 176 36
124 176 36
124 176 37
125 176 37
125 176 37
125 176 37
125 176 37
126 176 38
126 176 38
126 176 38
126 176 38
127 176 38
127 176 38
127 176 39
127 176 39
128 176 39
128 176 39
128 176 39
128 176 40
129 176 40
129 176 40
129 176 40
129 176 40
130 176 41
130 176 41
130 176 41
130 176 41
131 176 41
131 176 42
131 176 42
131 176 42
132 176 42
132 176 42
132 176 43
132 176 43
133 176 43
133 176 43
133 176 43
133 176 44
134 176 44
134 176 44
134 176 44
134 176 44
135 176 45
135 176 45
135 176 45
135 176 45
136 176 45
136 176 46
136 176 46
136 176 46
137 176 46
137 176 46
137 176 47
137 176 47
138 176 47
138 176 47
138 176 47
138 176 47
138 176 48
139 176 48
139 176 48
139 176 48
139 176 48
140 176 49
140 176 49
140 176 49
140 176 49
141 176 49
141 176 50
141 176 50
141 176 50
142 176 50
142 176 50
142 176 51
142 176 51
143 176 51
143 176 51
143 176 51
143 176 52
144 176 52
144 176 52
144 176 52
144 176 52
145 176 53
145 176 53
145 176 53
145 176 53
146 176 53
146 176 54
146 176 54
146 176 54
147 176 54
147 176 54
147 176 55
147 176 55
148 176 55
148 176 55
148 176 55
148 176 56
149 176 56
149 176 56
149 176 56
149 176 56
150 176 57
150 176 57
150 176 57
150 176 57
151 176 57
151 176 57
151 176 58
151 176 58
152 176 58
152 176 58
152 176 58
152 176 59
153 176 59
153 176 59
153 176 59
153 176 59
154 176 60
154 176 60
154 176 60
154 176 60
155 176 60
155 176 61
155 176 61
155 176 61
156 176 61
156 176 61
156 176 62
156 176 62
157 176 62
157 176 62
157 176 62
157 176 63
158 176 63
158 176 63
158 176 63
158 176 63
159 176 64
159 176 64
159 176 64
159 176 64
160 176 64
160 176 65
160 176 65
160 176 65
161 176 65
161 176 65
161 176 66
161 176 66
161 176 66
162 176 66
162 176 66
162 176 66
162 176 67
163 176 67
163 176 67
163 176 67
163 176 67
164 176 68
164 176 68
164 176 68
164 176 68
165 176 68
165 176 69
165 176 69
165 176 69
166 176 69
166 176 69
166 176 70
166 176 70
167 176 70
167 176 70
167 176 70
167 176 71
168 176 71
168 176 71
168 176 71
168 176 71
169 176 72
169 176 72
169 176 72
169 176 72
170 176 72
170 176 73
170 176 73
170 176 73
171 176 73
171 176 73
171 176 74
171 176 74
172 176 74
172 176 74
172 176 74
172 176 75
173 176 75
173 176 75
173 176 75
173 176 75
174 176 76
174 176 76
174 176 76
174 176 76
175 176 76
175 176 76
175 176 77
175 176 77
176 176 77
176 176 77
176 176 77
176 176 78
79 175 0
79 175 0
79 175 0
80 175 0
80 175 0
80 175 0
80 175 1
81 175 1
81 175 1
81 175 1
81 175 1
82 175 2
82 175 2
82 175 2
82 175 2
83 175 2
83 175 3
83 175 3
83 175 3
84 175 3
84 175 3
84 175 4
84 175 4
84 175 4
85 175 4
85 175 4
85 175 5
85 175 5
86 175 5
86 175 5
86 175 5
86 175 6
87 175 6
87 175 6
87 175 6
87 175 6
88 175 7
88 175 7
88 175 7
88 175 7
89 175 7
89 175 8
89 175 8
89 175 8
90 175 8
90 175 8
90 175 9
90 175 9
91 175 9
91 175 9
91 175 9
91 175 10
91 175 10
92 175 10
92 175 10
92 175 10
92 175 11
93 175 11
93 175 11
93 175 11
93 175 11
94 175 12
94 175 12
94 175 12
94 175 12
95 175 12
95 175 13
95 175 13
95 175 13
96 175 13
96 175 13
96 175 14
96 175 14
97 175 14
97 175 14
97 175 14
97 175 15
97 175 15
98 175 15
98 175 15
98 175 15
98 175 16
99 175 16
99 175 16
99 175 16
99 175 16
100 175 17
100 175 17
100 175 17
100 175 17
101 175 17
101 175 18
101 175 18
101 175 18
102 175 18
102 175 18
102 175 19
102 175 19
103 175 19
103 175 19
103 175 19
103 175 20
104 175 20
104 175 20
104 175 20
104 175 20
104 175 21
105 175 21
105 175 21
105 175 21
105 175 21
106 175 22
106 175 22
106 175 22
106 175 22
107 175 22
107 175 23
107 175 23
107 175 23
108 175 23
108 175 23
108 175 24
108 175 24
109 175 24
109 175 24
109 175 24
109 175 25
110 175 25
110 175 25
110 175 25
110 175 25
111 175 26
111 175 26
111 175 26
111 175 26
111 175 26
112 175 27
112 175 27
112 175 27
112 175 27
113 175 27
113 175 28
113 175 28
113 175 28
114 175 28
114 175 28
114 175 29
114 175 29
115 175 29
115 175 29
115 175 29
115 175 30
116 175 30
116 175 30
116 175 30
116 175 30
117 175 31
117 175 31
117 175 31
117 175 31
117 175 31
118 175 32
118 175 32
118 175 32
118 175 32
119 175 32
119 175 33
119 175 33
119 175 33
120 175 33
120 175 33
120 175 34
120 175 34
121 175 34
121 175 34
121 175 34
121 175 35
122 175 35
122 175 35
122 175 35
122 175 35
123 175 36
123 175 36
123 175 36
123 175 36
124 175 36
124 175 37
124 175 37
124 175 37
124 175 37
125 175 37
125 175 38
125 175 38
125 175 38
126 175 38
126 175 38
126 175 39
126 175 39
127 175 39
127 175 39
127 175 39
127 175 40
128 175 40
128 175 40
128 175 40
128 175 40
129 175 41
129 175 41
129 175 41
129 175 41
130 175 41
130 175 42
130 175 42
130 175 42
130 175 42
131 175 42
131 175 43
131 175 43
131 175 43
132 175 43
132 175 43
132 175 44
132 175 44
133 175 44
133 175 44
133 175 44
133 175 45
134 175 45
134 175 45
134 175 45
134 175 45
135 175 45
135 175 46
135 175 46
135 175 46
136 175 46
136 175 46
136 175 47
136 175 47
137 175 47
137 175 47
137 175 47
137 175 48
137 175 48
138 175 48
138 175 48
138 175 48
138 175 49
139 175 49
139 175 49
139 175 49
139 175 49
140 175 50
140 175 50
140 175 50
140 175 50
141 175 50
141 175 51
141 175 51
141 175 51
142 175 51
142 175 51
142 175 52
142 175 52
143 175 52
143 175 52
143 175 52
143 175 53
143 175 53
144 175 53
144 175 53
144 175 53
144 175 54
145 175 54
145 175 54
145 175 54
145 175 54
146 175 55
146 175 55
146 175 55
146 175 55
147 175 55
147 175 56
147 175 56
147 175 56
148 175 56
148 175 56
148 175 57
148 175 57
149 175 57
149 175 57
149 175 57
149 175 58
150 175 58
150 175 58
150 175 58
150 175 58
150 175 59
151 175 59
151 175 59
151 175 59
151 175 59
152 175 60
152 175 60
152 175 60
152 175 60
153 175 60
153 175 61
153 175 61
153 175 61
154 175 61
154 175 61
154 175 62
154 175 62
155 175 62
155 175 62
155 175 62
155 175 63
156 175 63
156 175 63
156 175 63
156 175 63
157 175 64
157 175 64
157 175 64
157 175 64
157 175 64
158 175 65
158 175 65
158 175 65
158 175 65
159 175 65
159 175 66
159 175 66
159 175 66
160 175 66
160 175 66
160 175 67
160 175 67
161 175 67
161 175 67
161 175 67
161 175 68
162 175 68
162 175 68
162 175 68
162 175 68
163 175 69
163 175 69
163 175 69
163 175 69
163 175 69
164 175 70
164 175 70
164 175 70
164 175 70
165 175 70
165 175 71
165 175 71
165 175 71
166 175 71
166 175 71
166 175 72
166 175 72
167 175 72
167 175 72
167 175 72
167 175 73
168 175 73
168 175 73
168 175 73
168 175 73
169 175 74
169 175 74
169 175 74
169 175 74
170 175 74
170 175 75
170 175 75
170 175 75
170 175 75
171 175 75
171 175 76
171 175 76
171 175 76
172 175 76
172 175 76
172 175 77
172 175 77
173 175 77
173 175 77
173 175 77
173 175 78
174 175 78
174 175 78
174 175 78
174 175 78
175 175 79
175 175 79
175 175 79
80 174 0
80 174 0
81 174 0
81 174 0
81 174 0
81 174 1
82 174 1
82 174 1
82 174 1
82 174 1
83 174 2
83 174 2
83 174 2
83 174 2
84 174 2
84 174 3
84 174 3
84 174 3
84 174 3
85 174 3
85 174 4
85 174 4
85 174 4
86 174 4
86 174 4
86 174 5
86 174 5
87 174 5
87 174 5
87 174 5
87 174 6
87 174 6
88 174 6
88 174 6
88 174 6
88 174 7
89 174 7
89 174 7
89 174 7
89 174 7
90 174 8
90 174 8
90 174 8
90 174 8
91 174 8
91 174 9
91 174 9
91 174 9
91 174 9
92 174 9
92 174 10
92 174 10
92 174 10
93 174 10
93 174 10
93 174 11
93 174 11
94 174 11
94 174 11
94 174 11
94 174 12
95 174 12
95 174 12
95 174 12
95 174 12
95 174 13
96 174 13
96 174 13
96 174 13
96 174 13
97 174 14
97 174 14
97 174 14
97 174 14
98 174 14
98 174 15
98 174 15
98 174 15
99 174 15
99 174 15
99 174 16
99 174 16
99 174 16
100 174 16
100 174 16
100 174 17
100 174 17
101 174 17
101 174 17
101 174 18
101 174 18
102 174 18
102 174 18
102 174 18
102 174 19
103 174 19
103 174 19
103 174 19
103 174 19
103 174 20
104 174 20
104 174 20
104 174 20
104 174 20
105 174 21
105 174 21
105 174 21
105 174 21
106 174 21
106 174 22
106 174 22
106 174 22
106 174 22
107 174 22
107 174 23
107 174 23
107 174 23
108 174 23
108 174 23
108 174 24
108 174 24
109 174 24
109 174 24
109 174 24
109 174 25
110 174 25
110 174 25
110 174 25
110 174 25
110 174 26
111 174 26
111 174 26
111 174 26
111 174 26
112 174 27
112 174 27
112 174 27
112 174 27
113 174 27
113 174 28
113 174 28
113 174 28
114 174 28
114 174 28
114 174 29
114 174 29
114 174 29
115 174 29
115 174 29
115 174 30
115 174 30
116 174 30
116 174 30
116 174 30
116 174 31
117 174 31
117 174 31
117 174 31
117 174 31
118 174 32
118 174 32
118 174 32
118 174 32
118 174 32
119 174 33
119 174 33
119 174 33
119 174 33
120 174 33
120 174 34
120 174 34
120 174 34
121 174 34
121 174 35
121 174 35
121 174 35
121 174 35
122 174 35
122 174 36
122 174 36
122 174 36
123 174 36
123 174 36
123 174 37
123 174 37
124 174 37
124 174 37
124 174 37
124 174 38
125 174 38
125 174 38
125 174 38
125 174 38
125 174 39
126 174 39
126 174 39
126 174 39
126 174 39
127 174 40
127 174 40
127 174 40
127 174 40
128 174 40
128 174 41
128 174 41
128 174 41
129 174 41
129 174 41
129 174 42
129 174 42
129 174 42
130 174 42
130 174 42
130 174 43
130 174 43
131 174 43
131 174 43
131 174 43
131 174 44
132 174 44
132 174 44
132 174 44
132 174 44
133 174 45
133 174 45
133 174 45
133 174 45
133 174 45
134 174 46
134 174 46
134 174 46
134 174 46
135 174 46
135 174 47
135 174 47
135 174 47
136 174 47
136 174 47
136 174 48
136 174 48
136 174 48
137 174 48
137 174 48
137 174 49
137 174 49
138 174 49
138 174 49
138 174 49
138 174 50
139 174 50
139 174 50
139 174 50
139 174 50
140 174 51
140 174 51
140 174 51
140 174 51
140 174 51
141 174 52
141 174 52
141 174 52
141 174 52
142 174 53
142 174 53
142 174 53
142 174 53
143 174 53
143 174 54
143 174 54
143 174 54
144 174 54
144 174 54
144 174 55
144 174 55
144 174 55
145 174 55
145 174 55
145 174 56
145 174 56
146 174 56
146 174 56
146 174 56
146 174 57
147 174 57
147 174 57
147 174 57
147 174 57
148 174 58
148 174 58
148 174 58
148 174 58
148 174 58
149 174 59
149 174 59
149 174 59
149 174 59
150 174 59
150 174 60
150 174 60
150 174 60
151 174 60
151 174 60
151 174 61
151 174 61
151 174 61
152 174 61
152 174 61
152 174 62
152 174 62
153 174 62
153 174 62
153 174 62
153 174 63
154 174 63
154 174 63
154 174 63
154 174 63
155 174 64
155 174 64
155 174 64
155 174 64
155 174 64
156 174 65
156 174 65
156 174 65
156 174 65
157 174 65
157 174 66
157 174 66
157 174 66
158 174 66
158 174 66
158 174 67
158 174 67
159 174 67
159 174 67
159 174 67
159 174 68
159 174 68
160 174 68
160 174 68
160 174 68
160 174 69
161 174 69
161 174 69
161 174 69
161 174 70
162 174 70
162 174 70
162 174 70
162 174 70
163 174 71
163 174 71
163 174 71
163 174 71
163 174 71
164 174 72
164 174 72
164 174 72
164 174 72
165 174 72
165 174 73
165 174 73
165 174 73
166 174 73
166 174 73
166 174 74
166 174 74
167 174 74
167 174 74
167 174 74
167 174 75
167 174 75
168 174 75
168 174 75
168 174 75
168 174 76
169 174 76
169 174 76
169 174 76
169 174 76
170 174 77
170 174 77
170 174 77
170 174 77
170 174 77
171 174 78
171 174 78
171 174 78
171 174 78
172 174 78
172 174 79
172 174 79
172 174 79
173 174 79
173 174 79
173 174 80
173 174 80
174 174 80
174 174 80
82 172 0
82 172 0
82 172 0
82 172 0
82 172 0
83 172 1
83 172 1
83 172 1
83 172 1
84 172 1
84 172 2
84 172 2
84 172 2
84 172 2
85 172 2
85 172 3
85 172 3
85 172 3
86 172 3
86 172 3
86 172 4
86 172 4
87 172 4
87 172 4
87 172 4
87 172 5
87 172 5
88 172 5
88 172 5
88 172 5
88 172 6
89 172 6
89 172 6
89 172 6
89 172 6
89 172 7
90 172 7
90 172 7
90 172 7
90 172 8
91 172 8
91 172 8
91 172 8
91 172 8
92 172 9
92 172 9
92 172 9
92 172 9
92 172 9
93 172 10
93 172 10
93 172 10
93 172 10
94 172 10
94 172 11
94 172 11
94 172 11
95 172 11
95 172 11
95 172 12
95 172 12
95 172 12
96 172 12
96 172 12
96 172 13
96 172 13
97 172 13
97 172 13
97 172 13
97 172 14
97 172 14
98 172 14
98 172 14
98 172 15
98 172 15
99 172 15
99 172 15
99 172 15
99 172 16
100 172 16
100 172 16
100 172 16
100 172 16
100 172 17
101 172 17
101 172 17
101 172 17
101 172 17
102 172 18
102 172 18
102 172 18
102 172 18
102 172 18
103 172 19
103 172 19
103 172 19
103 172 19
104 172 19
104 172 20
104 172 20
104 172 20
105 172 20
105 172 20
105 172 21
105 172 21
105 172 21
106 172 21
106 172 21
106 172 22
106 172 22
107 172 22
107 172 22
107 172 23
107 172 23
108 172 23
108 172 23
108 172 23
108 172 24
108 172 24
109 172 24
109 172 24
109 172 24
109 172 25
110 172 25
110 172 25
110 172 25
110 172 25
110 172 26
111 172 26
111 172 26
111 172 26
111 172 26
112 172 27
112 172 27
112 172 27
112 172 27
113 172 27
113 172 28
113 172 28
113 172 28
113 172 28
114 172 28
114 172 29
114 172 29
114 172 29
115 172 29
115 172 30
115 172 30
115 172 30
115 172 30
116 172 30
116 172 31
116 172 31
116 172 31
117 172 31
117 172 31
117 172 32
117 172 32
118 172 32
118 172 32
118 172 32
118 172 33
118 172 33
119 172 33
119 172 33
119 172 33
119 172 34
120 172 34
120 172 34
120 172 34
120 172 34
121 172 35
121 172 35
121 172 35
121 172 35
121 172 35
122 172 36
122 172 36
122 172 36
122 172 36
123 172 36
123 172 37
123 172 37
123 172 37
123 172 37
124 172 38
124 172 38
124 172 38
124 172 38
125 172 38
125 172 39
125 172 39
125 172 39
126 172 39
126 172 39
126 172 40
126 172 40
126 172 40
127 172 40
127 172 40
127 172 41
127 172 41
128 172 41
128 172 41
128 172 41
128 172 42
128 172 42
129 172 42
129 172 42
129 172 42
129 172 43
130 172 43
130 172 43
130 172 43
130 172 43
131 172 44
131 172 44
131 172 44
131 172 44
131 172 45
132 172 45
132 172 45
132 172 45
132 172 45
133 172 46
133 172 46
133 172 46
133 172 46
133 172 46
134 172 47
134 172 47
134 172 47
134 172 47
135 172 47
135 172 48
135 172 48
135 172 48
136 172 48
136 172 48
136 172 49
136 172 49
136 172 49
137 172 49
137 172 49
137 172 50
137 172 50
138 172 50
138 172 50
138 172 50
138 172 51
139 172 51
139 172 51
139 172 51
139 172 52
139 172 52
140 172 52
140 172 52
140 172 52
140 172 53
141 172 53
141 172 53
141 172 53
141 172 53
141 172 54
142 172 54
142 172 54
142 172 54
142 172 54
143 172 55
143 172 55
143 172 55
143 172 55
144 172 55
144 172 56
144 172 56
144 172 56
144 172 56
145 172 56
145 172 57
145 172 57
145 172 57
146 172 57
146 172 57
146 172 58
146 172 58
146 172 58
147 172 58
147 172 58
147 172 59
147 172 59
148 172 59
148 172 59
148 172 60
148 172 60
149 172 60
149 172 60
149 172 60
149 172 61
149 172 61
150 172 61
150 172 61
150 172 61
150 172 62
151 172 62
151 172 62
151 172 62
151 172 62
152 172 63
152 172 63
152 172 63
152 172 63
152 172 63
153 172 64
153 172 64
153 172 64
153 172 64
154 172 64
154 172 65
154 172 65
154 172 65
154 172 65
155 172 65
155 172 66
155 172 66
155 172 66
156 172 66
156 172 67
156 172 67
156 172 67
157 172 67
157 172 67
157 172 68
157 172 68
157 172 68
158 172 68
158 172 68
158 172 69
158 172 69
159 172 69
159 172 69
159 172 69
159 172 70
159 172 70
160 172 70
160 172 70
160 172 70
160 172 71
161 172 71
161 172 71
161 172 71
161 172 71
162 172 72
162 172 72
162 172 72
162 172 72
162 172 72
163 172 73
163 172 73
163 172 73
163 172 73
164 172 73
164 172 74
164 172 74
164 172 74
165 172 74
165 172 75
165 172 75
165 172 75
165 172 75
166 172 75
166 172 76
166 172 76
166 172 76
167 172 76
167 172 76
167 172 77
167 172 77
167 172 77
168 172 77
168 172 77
168 172 78
168 172 78
169 172 78
169 172 78
169 172 78
169 172 79
170 172 79
170 172 79
170 172 79
170 172 79
170 172 80
171 172 80
171 172 80
171 172 80
171 172 80
172 172 81
172 172 81
172 172 81
172 172 81
172 172 82
83 171 0
83 171 0
83 171 0
83 171 0
84 171 0
84 171 1
84 171 1
84 171 1
85 171 1
85 171 1
85 171 2
85 171 2
85 171 2
86 171 2
86 171 2
86 171 3
86 171 3
87 171 3
87 171 3
87 171 3
87 171 4
87 171 4
88 171 4
88 171 4
88 171 5
88 171 5
89 171 5
89 171 5
89 171 5
89 171 6
89 171 6
90 171 6
90 171 6
90 171 6
90 171 7
91 171 7
91 171 7
91 171 7
91 171 7
91 171 8
92 171 8
92 171 8
92 171 8
92 171 8
93 171 9
93 171 9
93 171 9
93 171 9
93 171 10
94 171 10
94 171 10
94 171 10
94 171 10
95 171 11
95 171 11
95 171 11
95 171 11
95 171 11
96 171 12
96 171 12
96 171 12
96 171 12
97 171 12
97 171 13
97 171 13
97 171 13
97 171 13
98 171 13
98 171 14
98 171 14
98 171 14
99 171 14
99 171 15
99 171 15
99 171 15
99 171 15
100 171 15
100 171 16
100 171 16
100 171 16
101 171 16
101 171 16
101 171 17
101 171 17
101 171 17
102 171 17
102 171 17
102 171 18
102 171 18
103 171 18
103 171 18
103 171 18
103 171 19
103 171 19
104 171 19
104 171 19
104 171 20
104 171 20
105 171 20
105 171 20
105 171 20
105 171 21
105 171 21
106 171 21
106 171 21
106 171 21
106 171 22
107 171 22
107 171 22
107 171 22
107 171 22
107 171 23
108 171 23
108 171 23
108 171 23
108 171 24
108 171 24
109 171 24
109 171 24
109 171 24
109 171 25
110 171 25
110 171 25
110 171 25
110 171 25
110 171 26
111 171 26
111 171 26
111 171 26
111 171 26
112 171 27
112 171 27
112 171 27
112 171 27
112 171 27
113 171 28
113 171 28
113 171 28
113 171 28
114 171 29
114 171 29
114 171 29
114 171 29
114 171 29
115 171 30
115 171 30
115 171 30
115 171 30
116 171 30
116 171 31
116 171 31
116 171 31
116 171 31
117 171 31
117 171 32
117 171 32
117 171 32
118 171 32
118 171 32
118 171 33
118 171 33
118 171 33
119 171 33
119 171 34
119 171 34
119 171 34
120 171 34
120 171 34
120 171 35
120 171 35
120 171 35
121 171 35
121 171 35
121 171 36
121 171 36
122 171 36
122 171 36
122 171 36
122 171 37
122 171 37
123 171 37
123 171 37
123 171 37
123 171 38
124 171 38
124 171 38
124 171 38
124 171 39
124 171 39
125 171 39
125 171 39
125 171 39
125 171 40
126 171 40
126 171 40
126 171 40
126 171 40
126 171 41
127 171 41
127 171 41
127 171 41
127 171 41
128 171 42
128 171 42
128 171 42
128 171 42
128 171 43
129 171 43
129 171 43
129 171 43
129 171 43
130 171 44
130 171 44
130 171 44
130 171 44
130 171 44
131 171 45
131 171 45
131 171 45
131 171 45
132 171 45
132 171 46
132 171 46
132 171 46
132 171 46
133 171 46
133 171 47
133 171 47
133 171 47
134 171 47
134 171 48
134 171 48
134 171 48
134 171 48
135 171 48
135 171 49
135 171 49
135 171 49
136 171 49
136 171 49
136 171 50
136 171 50
136 171 50
137 171 50
137 171 50
137 171 51
137 171 51
138 171 51
138 171 51
138 171 51
138 171 52
138 171 52
139 171 52
139 171 52
139 171 53
139 171 53
140 171 53
140 171 53
140 171 53
140 171 54
140 171 54
141 171 54
141 171 54
141 171 54
141 171 55
142 171 55
142 171 55
142 171 55
142 171 55
142 171 56
143 171 56
143 171 56
143 171 56
143 171 56
144 171 57
144 171 57
144 171 57
144 171 57
144 171 58
145 171 58
145 171 58
145 171 58
145 171 58
146 171 59
146 171 59
146 171 59
146 171 59
146 171 59
147 171 60
147 171 60
147 171 60
147 171 60
147 171 60
148 171 61
148 171 61
148 171 61
148 171 61
149 171 61
149 171 62
149 171 62
149 171 62
149 171 62
150 171 63
150 171 63
150 171 63
150 171 63
151 171 63
151 171 64
151 171 64
151 171 64
151 171 64
152 171 64
152 171 65
152 171 65
152 171 65
153 171 65
153 171 65
153 171 66
153 171 66
153 171 66
154 171 66
154 171 67
154 171 67
154 171 67
155 171 67
155 171 67
155 171 68
155 171 68
155 171 68
156 171 68
156 171 68
156 171 69
156 171 69
157 171 69
157 171 69
157 171 69
157 171 70
157 171 70
158 171 70
158 171 70
158 171 70
158 171 71
159 171 71
159 171 71
159 171 71
159 171 72
159 171 72
160 171 72
160 171 72
160 171 72
160 171 73
161 171 73
161 171 73
161 171 73
161 171 73
161 171 74
162 171 74
162 171 74
162 171 74
162 171 74
163 171 75
163 171 75
163 171 75
163 171 75
163 171 75
164 171 76
164 171 76
164 171 76
164 171 76
165 171 77
165 171 77
165 171 77
165 171 77
165 171 77
166 171 78
166 171 78
166 171 78
166 171 78
167 171 78
167 171 79
167 171 79
167 171 79
167 171 79
168 171 79
168 171 80
168 171 80
168 171 80
169 171 80
169 171 80
169 171 81
169 171 81
169 171 81
170 171 81
170 171 82
170 171 82
170 171 82
171 171 82
171 171 82
171 171 83
171 171 83
84 170 0
84 170 0
85 170 0
85 170 0
85 170 0
85 170 1
85 170 1
86 170 1
86 170 1
86 170 1
86 170 2
86 170 2
87 170 2
87 170 2
87 170 2
87 170 3
88 170 3
88 170 3
88 170 3
88 170 4
88 170 4
89 170 4
89 170 4
89 170 4
89 170 5
89 170 5
90 170 5
90 170 5
90 170 5
90 170 6
91 170 6
91 170 6
91 170 6
91 170 6
91 170 7
92 170 7
92 170 7
92 170 7
92 170 8
92 170 8
93 170 8
93 170 8
93 170 8
93 170 9
94 170 9
94 170 9
94 170 9
94 170 9
94 170 10
95 170 10
95 170 10
95 170 10
95 170 11
95 170 11
96 170 11
96 170 11
96 170 11
96 170 12
97 170 12
97 170 12
97 170 12
97 170 12
97 170 13
98 170 13
98 170 13
98 170 13
98 170 13
98 170 14
99 170 14
99 170 14
99 170 14
99 170 15
100 170 15
100 170 15
100 170 15
100 170 15
100 170 16
101 170 16
101 170 16
101 170 16
101 170 16
102 170 17
102 170 17
102 170 17
102 170 17
102 170 18
103 170 18
103 170 18
103 170 18
103 170 18
103 170 19
104 170 19
104 170 19
104 170 19
104 170 19
105 170 20
105 170 20
105 170 20
105 170 20
105 170 20
106 170 21
106 170 21
106 170 21
106 170 21
106 170 22
107 170 22
107 170 22
107 170 22
107 170 22
108 170 23
108 170 23
108 170 23
108 170 23
108 170 23
109 170 24
109 170 24
109 170 24
109 170 24
109 170 25
110 170 25
110 170 25
110 170 25
110 170 25
111 170 26
111 170 26
111 170 26
111 170 26
111 170 26
112 170 27
112 170 27
112 170 27
112 170 27
112 170 27
113 170 28
113 170 28
113 170 28
113 170 28
114 170 29
114 170 29
114 170 29
114 170 29
114 170 29
115 170 30
115 170 30
115 170 30
115 170 30
115 170 30
116 170 31
116 170 31
116 170 31
116 170 31
117 170 32
117 170 32
117 170 32
117 170 32
117 170 32
118 170 33
118 170 33
118 170 33
118 170 33
119 170 33
119 170 34
119 170 34
119 170 34
119 170 34
120 170 34
120 170 35
120 170 35
120 170 35
120 170 35
121 170 36
121 170 36
121 170 36
121 170 36
122 170 36
122 170 37
122 170 37
122 170 37
122 170 37
123 170 37
123 170 38
123 170 38
123 170 38
123 170 38
124 170 39
124 170 39
124 170 39
124 170 39
125 170 39
125 170 40
125 170 40
125 170 40
125 170 40
126 170 40
126 170 41
126 170 41
126 170 41
126 170 41
127 170 41
127 170 42
127 170 42
127 170 42
128 170 42
128 170 43
128 170 43
128 170 43
128 170 43
129 170 43
129 170 44
129 170 44
129 170 44
129 170 44
130 170 44
130 170 45
130 170 45
130 170 45
131 170 45
131 170 45
131 170 46
131 170 46
131 170 46
132 170 46
132 170 47
132 170 47
132 170 47
132 170 47
133 170 47
133 170 48
133 170 48
133 170 48
134 170 48
134 170 48
134 170 49
134 170 49
134 170 49
135 170 49
135 170 50
135 170 50
135 170 50
135 170 50
136 170 50
136 170 51
136 170 51
136 170 51
137 170 51
137 170 51
137 170 52
137 170 52
137 170 52
138 170 52
138 170 52
138 170 53
138 170 53
139 170 53
139 170 53
139 170 54
139 170 54
139 170 54
140 170 54
140 170 54
140 170 55
140 170 55
140 170 55
141 170 55
141 170 55
141 170 56
141 170 56
142 170 56
142 170 56
142 170 57
142 170 57
142 170 57
143 170 57
143 170 57
143 170 58
143 170 58
143 170 58
144 170 58
144 170 58
144 170 59
144 170 59
145 170 59
145 170 59
145 170 59
145 170 60
145 170 60
146 170 60
146 170 60
146 170 61
146 170 61
146 170 61
147 170 61
147 170 61
147 170 62
147 170 62
148 170 62
148 170 62
148 170 62
148 170 63
148 170 63
149 170 63
149 170 63
149 170 64
149 170 64
149 170 64
150 170 64
150 170 64
150 170 65
150 170 65
151 170 65
151 170 65
151 170 65
151 170 66
151 170 66
152 170 66
152 170 66
152 170 66
152 170 67
152 170 67
153 170 67
153 170 67
153 170 68
153 170 68
154 170 68
154 170 68
154 170 68
154 170 69
154 170 69
155 170 69
155 170 69
155 170 69
155 170 70
156 170 70
156 170 70
156 170 70
156 170 71
156 170 71
157 170 71
157 170 71
157 170 71
157 170 72
157 170 72
158 170 72
158 170 72
158 170 72
158 170 73
159 170 73
159 170 73
159 170 73
159 170 73
159 170 74
160 170 74
160 170 74
160 170 74
160 170 75
160 170 75
161 170 75
161 170 75
161 170 75
161 170 76
162 170 76
162 170 76
162 170 76
162 170 76
162 170 77
163 170 77
163 170 77
163 170 77
163 170 78
163 170 78
164 170 78
164 170 78
164 170 78
164 170 79
165 170 79
165 170 79
165 170 79
165 170 79
165 170 80
166 170 80
166 170 80
166 170 80
166 170 80
166 170 81
167 170 81
167 170 81
167 170 81
167 170 82
168 170 82
168 170 82
168 170 82
168 170 82
168 170 83
169 170 83
169 170 83
169 170 83
169 170 83
169 170 84
170 170 84
170 170 84
85 169 0
86 169 0
86 169 0
86 169 0
86 169 0
86 169 1
87 169 1
87 169 1
87 169 1
87 169 1
87 169 2
88 169 2
88 169 2
88 169 2
88 169 3
88 169 3
89 169 3
89 169 3
89 169 3
89 169 4
90 169 4
90 169 4
90 169 4
90 169 4
90 169 5
91 169 5
91 169 5
91 169 5
91 169 6
91 169 6
92 169 6
92 169 6
92 169 6
92 169 7
92 169 7
93 169 7
93 169 7
93 169 7
93 169 8
93 169 8
94 169 8
94 169 8
94 169 9
94 169 9
95 169 9
95 169 9
95 169 9
95 169 10
95 169 10
96 169 10
96 169 10
96 169 10
96 169 11
96 169 11
97 169 11
97 169 11
97 169 12
97 169 12
97 169 12
98 169 12
98 169 12
98 169 13
98 169 13
99 169 13
99 169 13
99 169 13
99 169 14
99 169 14
100 169 14
100 169 14
100 169 15
100 169 15
100 169 15
101 169 15
101 169 15
101 169 16
101 169 16
101 169 16
102 169 16
102 169 16
102 169 17
102 169 17
102 169 17
103 169 17
103 169 18
103 169 18
103 169 18
104 169 18
104 169 18
104 169 19
104 169 19
104 169 19
105 169 19
105 169 20
105 169 20
105 169 20
105 169 20
106 169 20
106 169 21
106 169 21
106 169 21
106 169 21
107 169 21
107 169 22
107 169 22
107 169 22
107 169 22
108 169 23
108 169 23
108 169 23
108 169 23
109 169 23
109 169 24
109 169 24
109 169 24
109 169 24
110 169 24
110 169 25
110 169 25
110 169 25
110 169 25
111 169 26
111 169 26
111 169 26
111 169 26
111 169 26
112 169 27
112 169 27
112 169 27
112 169 27
112 169 27
113 169 28
113 169 28
113 169 28
113 169 28
114 169 29
114 169 29
114 169 29
114 169 29
114 169 29
115 169 30
115 169 30
115 169 30
115 169 30
115 169 30
116 169 31
116 169 31
116 169 31
116 169 31
116 169 32
117 169 32
117 169 32
117 169 32
117 169 32
118 169 33
118 169 33
118 169 33
118 169 33
118 169 33
119 169 34
119 169 34
119 169 34
119 169 34
119 169 35
120 169 35
120 169 35
120 169 35
120 169 35
120 169 36
121 169 36
121 169 36
121 169 36
121 169 37
121 169 37
122 169 37
122 169 37
122 169 37
122 169 38
123 169 38
123 169 38
123 169 38
123 169 38
123 169 39
124 169 39
124 169 39
124 169 39
124 169 40
124 169 40
125 169 40
125 169 40
125 169 40
125 169 41
125 169 41
126 169 41
126 169 41
126 169 41
126 169 42
126 169 42
127 169 42
127 169 42
127 169 43
127 169 43
128 169 43
128 169 43
128 169 43
128 169 44
128 169 44
129 169 44
129 169 44
129 169 44
129 169 45
129 169 45
130 169 45
130 169 45
130 169 46
130 169 46
130 169 46
131 169 46
131 169 46
131 169 47
131 169 47
131 169 47
132 169 47
132 169 47
132 169 48
132 169 48
133 169 48
133 169 48
133 169 49
133 169 49
133 169 49
134 169 49
134 169 49
134 169 50
134 169 50
134 169 50
135 169 50
135 169 50
135 169 51
135 169 51
135 169 51
136 169 51
136 169 52
136 169 52
136 169 52
136 169 52
137 169 52
137 169 53
137 169 53
137 169 53
138 169 53
138 169 54
138 169 54
138 169 54
138 169 54
139 169 54
139 169 55
139 169 55
139 169 55
139 169 55
140 169 55
140 169 56
140 169 56
140 169 56
140 169 56
141 169 57
141 169 57
141 169 57
141 169 57
142 169 57
142 169 58
142 169 58
142 169 58
142 169 58
143 169 58
143 169 59
143 169 59
143 169 59
143 169 59
144 169 60
144 169 60
144 169 60
144 169 60
144 169 60
145 169 61
145 169 61
145 169 61
145 169 61
145 169 61
146 169 62
146 169 62
146 169 62
146 169 62
147 169 63
147 169 63
147 169 63
147 169 63
147 169 63
148 169 64
148 169 64
148 169 64
148 169 64
148 169 64
149 169 65
149 169 65
149 169 65
149 169 65
149 169 66
150 169 66
150 169 66
150 169 66
150 169 66
150 169 67
151 169 67
151 169 67
151 169 67
151 169 67
152 169 68
152 169 68
152 169 68
152 169 68
152 169 69
153 169 69
153 169 69
153 169 69
153 169 69
153 169 70
154 169 70
154 169 70
154 169 70
154 169 71
154 169 71
155 169 71
155 169 71
155 169 71
155 169 72
155 169 72
156 169 72
156 169 72
156 169 72
156 169 73
157 169 73
157 169 73
157 169 73
157 169 74
157 169 74
158 169 74
158 169 74
158 169 74
158 169 75
158 169 75
159 169 75
159 169 75
159 169 75
159 169 76
159 169 76
160 169 76
160 169 76
160 169 77
160 169 77
161 169 77
161 169 77
161 169 77
161 169 78
161 169 78
162 169 78
162 169 78
162 169 78
162 169 79
162 169 79
163 169 79
163 169 79
163 169 80
163 169 80
163 169 80
164 169 80
164 169 80
164 169 81
164 169 81
164 169 81
165 169 81
165 169 81
165 169 82
165 169 82
166 169 82
166 169 82
166 169 83
166 169 83
166 169 83
167 169 83
167 169 83
167 169 84
167 169 84
167 169 84
168 169 84
168 169 84
168 169 85
168 169 85
168 169 85
169 169 85
87 167 0
87 167 0
87 167 0
87 167 0
87 167 0
88 167 1
88 167 1
88 167 1
88 167 1
88 167 1
89 167 2
89 167 2
89 167 2
89 167 2
89 167 3
90 167 3
90 167 3
90 167 3
90 167 3
90 167 4
91 167 4
91 167 4
91 167 4
91 167 5
91 167 5
92 167 5
92 167 5
92 167 5
92 167 6
93 167 6
93 167 6
93 167 6
93 167 6
93 167 7
94 167 7
94 167 7
94 167 7
94 167 8
94 167 8
95 167 8
95 167 8
95 167 8
95 167 9
95 167 9
96 167 9
96 167 9
96 167 10
96 167 10
96 167 10
97 167 10
97 167 10
97 167 11
97 167 11
97 167 11
98 167 11
98 167 12
98 167 12
98 167 12
98 167 12
99 167 12
99 167 13
99 167 13
99 167 13
99 167 13
100 167 13
100 167 14
100 167 14
100 167 14
100 167 14
101 167 15
101 167 15
101 167 15
101 167 15
101 167 15
102 167 16
102 167 16
102 167 16
102 167 16
102 167 17
103 167 17
103 167 17
103 167 17
103 167 17
103 167 18
104 167 18
104 167 18
104 167 18
104 167 18
104 167 19
105 167 19
105 167 19
105 167 19
105 167 20
105 167 20
106 167 20
106 167 20
106 167 20
106 167 21
106 167 21
107 167 21
107 167 21
107 167 22
107 167 22
107 167 22
108 167 22
108 167 22
108 167 23
108 167 23
108 167 23
109 167 23
109 167 24
109 167 24
109 167 24
109 167 24
110 167 24
110 167 25
110 167 25
110 167 25
111 167 25
111 167 25
111 167 26
111 167 26
111 167 26
112 167 26
112 167 27
112 167 27
112 167 27
112 167 27
113 167 27
113 167 28
113 167 28
113 167 28
113 167 28
114 167 29
114 167 29
114 167 29
114 167 29
114 167 29
115 167 30
115 167 30
115 167 30
115 167 30
115 167 31
116 167 31
116 167 31
116 167 31
116 167 31
116 167 32
117 167 32
117 167 32
117 167 32
117 167 32
117 167 33
118 167 33
118 167 33
118 167 33
118 167 34
118 167 34
119 167 34
119 167 34
119 167 34
119 167 35
119 167 35
120 167 35
120 167 35
120 167 36
120 167 36
120 167 36
121 167 36
121 167 36
121 167 37
121 167 37
121 167 37
122 167 37
122 167 37
122 167 38
122 167 38
122 167 38
123 167 38
123 167 39
123 167 39
123 167 39
123 167 39
124 167 39
124 167 40
124 167 40
124 167 40
124 167 40
125 167 41
125 167 41
125 167 41
125 167 41
125 167 41
126 167 42
126 167 42
126 167 42
126 167 42
126 167 43
127 167 43
127 167 43
127 167 43
127 167 43
128 167 44
128 167 44
128 167 44
128 167 44
128 167 44
129 167 45
129 167 45
129 167 45
129 167 45
129 167 46
130 167 46
130 167 46
130 167 46
130 167 46
130 167 47
131 167 47
131 167 47
131 167 47
131 167 48
131 167 48
132 167 48
132 167 48
132 167 48
132 167 49
132 167 49
133 167 49
133 167 49
133 167 50
133 167 50
133 167 50
134 167 50
134 167 50
134 167 51
134 167 51
134 167 51
135 167 51
135 167 51
135 167 52
135 167 52
135 167 52
136 167 52
136 167 53
136 167 53
136 167 53
136 167 53
137 167 53
137 167 54
137 167 54
137 167 54
137 167 54
138 167 55
138 167 55
138 167 55
138 167 55
138 167 55
139 167 56
139 167 56
139 167 56
139 167 56
139 167 56
140 167 57
140 167 57
140 167 57
140 167 57
140 167 58
141 167 58
141 167 58
141 167 58
141 167 58
141 167 59
142 167 59
142 167 59
142 167 59
142 167 60
142 167 60
143 167 60
143 167 60
143 167 60
143 167 61
143 167 61
144 167 61
144 167 61
144 167 62
144 167 62
145 167 62
145 167 62
145 167 62
145 167 63
145 167 63
146 167 63
146 167 63
146 167 63
146 167 64
146 167 64
147 167 64
147 167 64
147 167 65
147 167 65
147 167 65
148 167 65
148 167 65
148 167 66
148 167 66
148 167 66
149 167 66
149 167 67
149 167 67
149 167 67
149 167 67
150 167 67
150 167 68
150 167 68
150 167 68
150 167 68
151 167 69
151 167 69
151 167 69
151 167 69
151 167 69
152 167 70
152 167 70
152 167 70
152 167 70
152 167 70
153 167 71
153 167 71
153 167 71
153 167 71
153 167 72
154 167 72
154 167 72
154 167 72
154 167 72
154 167 73
155 167 73
155 167 73
155 167 73
155 167 74
155 167 74
156 167 74
156 167 74
156 167 74
156 167 75
156 167 75
157 167 75
157 167 75
157 167 75
157 167 76
157 167 76
158 167 76
158 167 76
158 167 77
158 167 77
158 167 77
159 167 77
159 167 77
159 167 78
159 167 78
159 167 78
160 167 78
160 167 79
160 167 79
160 167 79
160 167 79
161 167 79
161 167 80
161 167 80
161 167 80
161 167 80
162 167 81
162 167 81
162 167 81
162 167 81
163 167 81
163 167 82
163 167 82
163 167 82
163 167 82
164 167 82
164 167 83
164 167 83
164 167 83
164 167 83
165 167 84
165 167 84
165 167 84
165 167 84
165 167 84
166 167 85
166 167 85
166 167 85
166 167 85
166 167 86
167 167 86
167 167 86
167 167 86
167 167 86
167 167 87
88 166 0
88 166 0
88 166 0
89 166 0
89 166 0
89 166 1
89 166 1
89 166 1
89 166 1
90 166 1
90 166 2
90 166 2
90 166 2
90 166 2
91 166 3
91 166 3
91 166 3
91 166 3
91 166 3
92 166 4
92 166 4
92 166 4
92 166 4
92 166 5
93 166 5
93 166 5
93 166 5
93 166 5
93 166 6
94 166 6
94 166 6
94 166 6
94 166 7
94 166 7
95 166 7
95 166 7
95 166 7
95 166 8
95 166 8
96 166 8
96 166 8
96 166 9
96 166 9
96 166 9
97 166 9
97 166 9
97 166 10
97 166 10
97 166 10
98 166 10
98 166 11
98 166 11
98 166 11
98 166 11
98 166 11
99 166 12
99 166 12
99 166 12
99 166 12
99 166 13
100 166 13
100 166 13
100 166 13
100 166 13
100 166 14
101 166 14
101 166 14
101 166 14
101 166 15
101 166 15
102 166 15
102 166 15
102 166 15
102 166 16
102 166 16
103 166 16
103 166 16
103 166 17
103 166 17
103 166 17
104 166 17
104 166 17
104 166 18
104 166 18
104 166 18
105 166 18
105 166 19
105 166 19
105 166 19
105 166 19
106 166 19
106 166 20
106 166 20
106 166 20
106 166 20
107 166 21
107 166 21
107 166 21
107 166 21
107 166 21
108 166 22
108 166 22
108 166 22
108 166 22
108 166 23
108 166 23
109 166 23
109 166 23
109 166 23
109 166 24
109 166 24
110 166 24
110 166 24
110 166 25
110 166 25
110 166 25
111 166 25
111 166 25
111 166 26
111 166 26
111 166 26
112 166 26
112 166 27
112 166 27
112 166 27
112 166 27
113 166 27
113 166 28
113 166 28
113 166 28
113 166 28
114 166 29
114 166 29
114 166 29
114 166 29
114 166 29
115 166 30
115 166 30
115 166 30
115 166 30
115 166 31
116 166 31
116 166 31
116 166 31
116 166 31
116 166 32
117 166 32
117 166 32
117 166 32
117 166 33
117 166 33
117 166 33
118 166 33
118 166 33
118 166 34
118 166 34
118 166 34
119 166 34
119 166 35
119 166 35
119 166 35
119 166 35
120 166 35
120 166 36
120 166 36
120 166 36
120 166 36
121 166 37
121 166 37
121 166 37
121 166 37
121 166 37
122 166 38
122 166 38
122 166 38
122 166 38
122 166 39
123 166 39
123 166 39
123 166 39
123 166 39
123 166 40
124 166 40
124 166 40
124 166 40
124 166 40
124 166 41
125 166 41
125 166 41
125 166 41
125 166 42
125 166 42
126 166 42
126 166 42
126 166 42
126 166 43
126 166 43
127 166 43
127 166 43
127 166 44
127 166 44
127 166 44
127 166 44
128 166 44
128 166 45
128 166 45
128 166 45
128 166 45
129 166 46
129 166 46
129 166 46
129 166 46
129 166 46
130 166 47
130 166 47
130 166 47
130 166 47
130 166 48
131 166 48
131 166 48
131 166 48
131 166 48
131 166 49
132 166 49
132 166 49
132 166 49
132 166 50
132 166 50
133 166 50
133 166 50
133 166 50
133 166 51
133 166 51
134 166 51
134 166 51
134 166 52
134 166 52
134 166 52
135 166 52
135 166 52
135 166 53
135 166 53
135 166 53
136 166 53
136 166 54
136 166 54
136 166 54
136 166 54
137 166 54
137 166 55
137 166 55
137 166 55
137 166 55
137 166 56
138 166 56
138 166 56
138 166 56
138 166 56
138 166 57
139 166 57
139 166 57
139 166 57
139 166 58
139 166 58
140 166 58
140 166 58
140 166 58
140 166 59
140 166 59
141 166 59
141 166 59
141 166 60
141 166 60
141 166 60
142 166 60
142 166 60
142 166 61
142 166 61
142 166 61
143 166 61
143 166 62
143 166 62
143 166 62
143 166 62
144 166 62
144 166 63
144 166 63
144 166 63
144 166 63
145 166 64
145 166 64
145 166 64
145 166 64
145 166 64
146 166 65
146 166 65
146 166 65
146 166 65
146 166 66
146 166 66
147 166 66
147 166 66
147 166 66
147 166 67
147 166 67
148 166 67
148 166 67
148 166 68
148 166 68
148 166 68
149 166 68
149 166 68
149 166 69
149 166 69
149 166 69
150 166 69
150 166 70
150 166 70
150 166 70
150 166 70
151 166 70
151 166 71
151 166 71
151 166 71
151 166 71
152 166 72
152 166 72
152 166 72
152 166 72
152 166 72
153 166 73
153 166 73
153 166 73
153 166 73
153 166 74
154 166 74
154 166 74
154 166 74
154 166 74
154 166 75
155 166 75
155 166 75
155 166 75
155 166 76
155 166 76
156 166 76
156 166 76
156 166 76
156 166 77
156 166 77
156 166 77
157 166 77
157 166 78
157 166 78
157 166 78
157 166 78
158 166 78
158 166 79
158 166 79
158 166 79
158 166 79
159 166 79
159 166 80
159 166 80
159 166 80
159 166 80
160 166 81
160 166 81
160 166 81
160 166 81
160 166 81
161 166 82
161 166 82
161 166 82
161 166 82
161 166 83
162 166 83
162 166 83
162 166 83
162 166 83
162 166 84
163 166 84
163 166 84
163 166 84
163 166 85
163 166 85
164 166 85
164 166 85
164 166 85
164 166 86
164 166 86
165 166 86
165 166 86
165 166 87
165 166 87
165 166 87
165 166 87
166 166 87
166 166 88
166 166 88
89 165 0
89 165 0
90 165 0
90 165 0
90 165 0
90 165 1
90 165 1
91 165 1
91 165 1
91 165 2
91 165 2
91 165 2
91 165 2
92 165 2
92 165 3
92 165 3
92 165 3
92 165 3
93 165 4
93 165 4
93 165 4
93 165 4
93 165 4
94 165 5
94 165 5
94 165 5
94 165 5
94 165 6
95 165 6
95 165 6
95 165 6
95 165 6
95 165 7
95 165 7
96 165 7
96 165 7
96 165 8
96 165 8
96 165 8
97 165 8
97 165 8
97 165 9
97 165 9
97 165 9
98 165 9
98 165 10
98 165 10
98 165 10
98 165 10
98 165 11
99 165 11
99 165 11
99 165 11
99 165 11
99 165 12
100 165 12
100 165 12
100 165 12
100 165 13
100 165 13
101 165 13
101 165 13
101 165 13
101 165 14
101 165 14
102 165 14
102 165 14
102 165 15
102 165 15
102 165 15
102 165 15
103 165 15
103 165 16
103 165 16
103 165 16
103 165 16
104 165 17
104 165 17
104 165 17
104 165 17
104 165 17
105 165 18
105 165 18
105 165 18
105 165 18
105 165 19
105 165 19
106 165 19
106 165 19
106 165 20
106 165 20
106 165 20
107 165 20
107 165 20
107 165 21
107 165 21
107 165 21
108 165 21
108 165 22
108 165 22
108 165 22
108 165 22
109 165 22
109 165 23
109 165 23
109 165 23
109 165 23
109 165 24
110 165 24
110 165 24
110 165 24
110 165 24
110 165 25
111 165 25
111 165 25
111 165 25
111 165 26
111 165 26
112 165 26
112 165 26
112 165 26
112 165 27
112 165 27
113 165 27
113 165 27
113 165 28
113 165 28
113 165 28
113 165 28
114 165 29
114 165 29
114 165 29
114 165 29
114 165 29
115 165 30
115 165 30
115 165 30
115 165 30
115 165 31
116 165 31
116 165 31
116 165 31
116 165 31
116 165 32
116 165 32
117 165 32
117 165 32
117 165 33
117 165 33
117 165 33
118 165 33
118 165 33
118 165 34
118 165 34
118 165 34
119 165 34
119 165 35
119 165 35
119 165 35
119 165 35
120 165 35
120 165 36
120 165 36
120 165 36
120 165 36
120 165 37
121 165 37
121 165 37
121 165 37
121 165 37
121 165 38
122 165 38
122 165 38
122 165 38
122 165 39
122 165 39
123 165 39
123 165 39
123 165 40
123 165 40
123 165 40
123 165 40
124 165 40
124 165 41
124 165 41
124 165 41
124 165 41
125 165 42
125 165 42
125 165 42
125 165 42
125 165 42
126 165 43
126 165 43
126 165 43
126 165 43
126 165 44
127 165 44
127 165 44
127 165 44
127 165 44
127 165 45
127 165 45
128 165 45
128 165 45
128 165 46
128 165 46
128 165 46
129 165 46
129 165 46
129 165 47
129 165 47
129 165 47
130 165 47
130 165 48
130 165 48
130 165 48
130 165 48
131 165 49
131 165 49
131 165 49
131 165 49
131 165 49
131 165 50
132 165 50
132 165 50
132 165 50
132 165 51
132 165 51
133 165 51
133 165 51
133 165 51
133 165 52
133 165 52
134 165 52
134 165 52
134 165 53
134 165 53
134 165 53
134 165 53
135 165 53
135 165 54
135 165 54
135 165 54
135 165 54
136 165 55
136 165 55
136 165 55
136 165 55
136 165 55
137 165 56
137 165 56
137 165 56
137 165 56
137 165 57
138 165 57
138 165 57
138 165 57
138 165 58
138 165 58
138 165 58
139 165 58
139 165 58
139 165 59
139 165 59
139 165 59
140 165 59
140 165 60
140 165 60
140 165 60
140 165 60
141 165 60
141 165 61
141 165 61
141 165 61
141 165 61
141 165 62
142 165 62
142 165 62
142 165 62
142 165 62
142 165 63
143 165 63
143 165 63
143 165 63
143 165 64
143 165 64
144 165 64
144 165 64
144 165 64
144 165 65
144 165 65
145 165 65
145 165 65
145 165 66
145 165 66
145 165 66
145 165 66
146 165 66
146 165 67
146 165 67
146 165 67
146 165 67
147 165 68
147 165 68
147 165 68
147 165 68
147 165 69
148 165 69
148 165 69
148 165 69
148 165 69
148 165 70
149 165 70
149 165 70
149 165 70
149 165 71
149 165 71
149 165 71
150 165 71
150 165 71
150 165 72
150 165 72
150 165 72
151 165 72
151 165 73
151 165 73
151 165 73
151 165 73
152 165 73
152 165 74
152 165 74
152 165 74
152 165 74
152 165 75
153 165 75
153 165 75
153 165 75
153 165 75
153 165 76
154 165 76
154 165 76
154 165 76
154 165 77
154 165 77
155 165 77
155 165 77
155 165 78
155 165 78
155 165 78
156 165 78
156 165 78
156 165 79
156 165 79
156 165 79
156 165 79
157 165 80
157 165 80
157 165 80
157 165 80
157 165 80
158 165 81
158 165 81
158 165 81
158 165 81
158 165 82
159 165 82
159 165 82
159 165 82
159 165 82
159 165 83
159 165 83
160 165 83
160 165 83
160 165 84
160 165 84
160 165 84
161 165 84
161 165 84
161 165 85
161 165 85
161 165 85
162 165 85
162 165 86
162 165 86
162 165 86
162 165 86
163 165 87
163 165 87
163 165 87
163 165 87
163 165 87
163 165 88
164 165 88
164 165 88
164 165 88
164 165 89
164 165 89
165 165 89
165 165 89
90 164 0
91 164 0
91 164 0
91 164 0
91 164 0
91 164 1
92 164 1
92 164 1
92 164 1
92 164 2
92 164 2
92 164 2
93 164 2
93 164 2
93 164 3
93 164 3
93 164 3
94 164 3
94 164 4
94 164 4
94 164 4
94 164 4
95 164 5
95 164 5
95 164 5
95 164 5
95 164 5
95 164 6
96 164 6
96 164 6
96 164 6
96 164 7
96 164 7
97 164 7
97 164 7
97 164 7
97 164 8
97 164 8
97 164 8
98 164 8
98 164 9
98 164 9
98 164 9
98 164 9
99 164 10
99 164 10
99 164 10
99 164 10
99 164 10
99 164 11
100 164 11
100 164 11
100 164 11
100 164 12
100 164 12
101 164 12
101 164 12
101 164 12
101 164 13
101 164 13
101 164 13
102 164 13
102 164 14
102 164 14
102 164 14
102 164 14
103 164 15
103 164 15
103 164 15
103 164 15
103 164 15
103 164 16
104 164 16
104 164 16
104 164 16
104 164 17
104 164 17
105 164 17
105 164 17
105 164 18
105 164 18
105 164 18
105 164 18
106 164 18
106 164 19
106 164 19
106 164 19
106 164 19
107 164 20
107 164 20
107 164 20
107 164 20
107 164 20
108 164 21
108 164 21
108 164 21
108 164 21
108 164 22
108 164 22
109 164 22
109 164 22
109 164 23
109 164 23
109 164 23
110 164 23
110 164 23
110 164 24
110 164 24
110 164 24
110 164 24
111 164 25
111 164 25
111 164 25
111 164 25
111 164 25
112 164 26
112 164 26
112 164 26
112 164 26
112 164 27
112 164 27
113 164 27
113 164 27
113 164 28
113 164 28
113 164 28
114 164 28
114 164 28
114 164 29
114 164 29
114 164 29
114 164 29
115 164 30
115 164 30
115 164 30
115 164 30
115 164 31
116 164 31
116 164 31
116 164 31
116 164 31
116 164 32
116 164 32
117 164 32
117 164 32
117 164 33
117 164 33
117 164 33
118 164 33
118 164 33
118 164 34
118 164 34
118 164 34
118 164 34
119 164 35
119 164 35
119 164 35
119 164 35
119 164 36
120 164 36
120 164 36
120 164 36
120 164 36
120 164 37
121 164 37
121 164 37
121 164 37
121 164 38
121 164 38
121 164 38
122 164 38
122 164 38
122 164 39
122 164 39
122 164 39
123 164 39
123 164 40
123 164 40
123 164 40
123 164 40
123 164 41
124 164 41
124 164 41
124 164 41
124 164 41
124 164 42
125 164 42
125 164 42
125 164 42
125 164 43
125 164 43
125 164 43
126 164 43
126 164 44
126 164 44
126 164 44
126 164 44
127 164 44
127 164 45
127 164 45
127 164 45
127 164 45
127 164 46
128 164 46
128 164 46
128 164 46
128 164 46
128 164 47
129 164 47
129 164 47
129 164 47
129 164 48
129 164 48
129 164 48
130 164 48
130 164 49
130 164 49
130 164 49
130 164 49
131 164 49
131 164 50
131 164 50
131 164 50
131 164 50
131 164 51
132 164 51
132 164 51
132 164 51
132 164 51
132 164 52
133 164 52
133 164 52
133 164 52
133 164 53
133 164 53
133 164 53
134 164 53
134 164 54
134 164 54
134 164 54
134 164 54
135 164 54
135 164 55
135 164 55
135 164 55
135 164 55
136 164 56
136 164 56
136 164 56
136 164 56
136 164 57
136 164 57
137 164 57
137 164 57
137 164 57
137 164 58
137 164 58
138 164 58
138 164 58
138 164 59
138 164 59
138 164 59
138 164 59
139 164 59
139 164 60
139 164 60
139 164 60
139 164 60
140 164 61
140 164 61
140 164 61
140 164 61
140 164 62
140 164 62
141 164 62
141 164 62
141 164 62
141 164 63
141 164 63
142 164 63
142 164 63
142 164 64
142 164 64
142 164 64
142 164 64
143 164 64
143 164 65
143 164 65
143 164 65
143 164 65
144 164 66
144 164 66
144 164 66
144 164 66
144 164 67
144 164 67
145 164 67
145 164 67
145 164 67
145 164 68
145 164 68
146 164 68
146 164 68
146 164 69
146 164 69
146 164 69
146 164 69
147 164 70
147 164 70
147 164 70
147 164 70
147 164 70
148 164 71
148 164 71
148 164 71
148 164 71
148 164 72
149 164 72
149 164 72
149 164 72
149 164 72
149 164 73
149 164 73
150 164 73
150 164 73
150 164 74
150 164 74
150 164 74
151 164 74
151 164 75
151 164 75
151 164 75
151 164 75
151 164 75
152 164 76
152 164 76
152 164 76
152 164 76
152 164 77
153 164 77
153 164 77
153 164 77
153 164 77
153 164 78
153 164 78
154 164 78
154 164 78
154 164 79
154 164 79
154 164 79
155 164 79
155 164 80
155 164 80
155 164 80
155 164 80
155 164 80
156 164 81
156 164 81
156 164 81
156 164 81
156 164 82
157 164 82
157 164 82
157 164 82
157 164 82
157 164 83
157 164 83
158 164 83
158 164 83
158 164 84
158 164 84
158 164 84
159 164 84
159 164 85
159 164 85
159 164 85
159 164 85
159 164 85
160 164 86
160 164 86
160 164 86
160 164 86
160 164 87
161 164 87
161 164 87
161 164 87
161 164 88
161 164 88
162 164 88
162 164 88
162 164 88
162 164 89
162 164 89
162 164 89
163 164 89
163 164 90
163 164 90
163 164 90
163 164 90
164 164 90
92 162 0
92 162 0
92 162 0
92 162 0
92 162 0
93 162 1
93 162 1
93 162 1
93 162 1
93 162 2
94 162 2
94 162 2
94 162 2
94 162 3
94 162 3
94 162 3
95 162 3
95 162 3
95 162 4
95 162 4
95 162 4
95 162 4
96 162 5
96 162 5
96 162 5
96 162 5
96 162 6
97 162 6
97 162 6
97 162 6
97 162 6
97 162 7
97 162 7
98 162 7
98 162 7
98 162 8
98 162 8
98 162 8
98 162 8
99 162 9
99 162 9
99 162 9
99 162 9
99 162 9
100 162 10
100 162 10
100 162 10
100 162 10
100 162 11
100 162 11
101 162 11
101 162 11
101 162 12
101 162 12
101 162 12
101 162 12
102 162 12
102 162 13
102 162 13
102 162 13
102 162 13
103 162 14
103 162 14
103 162 14
103 162 14
103 162 15
103 162 15
104 162 15
104 162 15
104 162 15
104 162 16
104 162 16
104 162 16
105 162 16
105 162 17
105 162 17
105 162 17
105 162 17
106 162 18
106 162 18
106 162 18
106 162 18
106 162 18
106 162 19
107 162 19
107 162 19
107 162 19
107 162 20
107 162 20
107 162 20
108 162 20
108 162 21
108 162 21
108 162 21
108 162 21
109 162 21
109 162 22
109 162 22
109 162 22
109 162 22
109 162 23
110 162 23
110 162 23
110 162 23
110 162 24
110 162 24
110 162 24
111 162 24
111 162 24
111 162 25
111 162 25
111 162 25
112 162 25
112 162 26
112 162 26
112 162 26
112 162 26
112 162 27
113 162 27
113 162 27
113 162 27
113 162 27
113 162 28
113 162 28
114 162 28
114 162 28
114 162 29
114 162 29
114 162 29
115 162 29
115 162 30
115 162 30
115 162 30
115 162 30
115 162 30
116 162 31
116 162 31
116 162 31
116 162 31
116 162 32
116 162 32
117 162 32
117 162 32
117 162 33
117 162 33
117 162 33
118 162 33
118 162 33
118 162 34
118 162 34
118 162 34
118 162 34
119 162 35
119 162 35
119 162 35
119 162 35
119 162 36
119 162 36
120 162 36
120 162 36
120 162 36
120 162 37
120 162 37
121 162 37
121 162 37
121 162 38
121 162 38
121 162 38
121 162 38
122 162 39
122 162 39
122 162 39
122 162 39
122 162 40
122 162 40
123 162 40
123 162 40
123 162 40
123 162 41
123 162 41
124 162 41
124 162 41
124 162 42
124 162 42
124 162 42
124 162 42
125 162 43
125 162 43
125 162 43
125 162 43
125 162 43
125 162 44
126 162 44
126 162 44
126 162 44
126 162 45
126 162 45
127 162 45
127 162 45
127 162 46
127 162 46
127 162 46
127 162 46
128 162 46
128 162 47
128 162 47
128 162 47
128 162 47
129 162 48
129 162 48
129 162 48
129 162 48
129 162 49
129 162 49
130 162 49
130 162 49
130 162 49
130 162 50
130 162 50
130 162 50
131 162 50
131 162 51
131 162 51
131 162 51
131 162 51
132 162 52
132 162 52
132 162 52
132 162 52
132 162 52
132 162 53
133 162 53
133 162 53
133 162 53
133 162 54
133 162 54
133 162 54
134 162 54
134 162 55
134 162 55
134 162 55
134 162 55
135 162 55
135 162 56
135 162 56
135 162 56
135 162 56
135 162 57
136 162 57
136 162 57
136 162 57
136 162 58
136 162 58
136 162 58
137 162 58
137 162 58
137 162 59
137 162 59
137 162 59
138 162 59
138 162 60
138 162 60
138 162 60
138 162 60
138 162 61
139 162 61
139 162 61
139 162 61
139 162 61
139 162 62
139 162 62
140 162 62
140 162 62
140 162 63
140 162 63
140 162 63
141 162 63
141 162 64
141 162 64
141 162 64
141 162 64
141 162 64
142 162 65
142 162 65
142 162 65
142 162 65
142 162 66
142 162 66
143 162 66
143 162 66
143 162 67
143 162 67
143 162 67
144 162 67
144 162 67
144 162 68
144 162 68
144 162 68
144 162 68
145 162 69
145 162 69
145 162 69
145 162 69
145 162 70
145 162 70
146 162 70
146 162 70
146 162 70
146 162 71
146 162 71
147 162 71
147 162 71
147 162 72
147 162 72
147 162 72
147 162 72
148 162 73
148 162 73
148 162 73
148 162 73
148 162 73
148 162 74
149 162 74
149 162 74
149 162 74
149 162 75
149 162 75
150 162 75
150 162 75
150 162 76
150 162 76
150 162 76
150 162 76
151 162 77
151 162 77
151 162 77
151 162 77
151 162 77
151 162 78
152 162 78
152 162 78
152 162 78
152 162 79
152 162 79
153 162 79
153 162 79
153 162 80
153 162 80
153 162 80
153 162 80
154 162 80
154 162 81
154 162 81
154 162 81
154 162 81
154 162 82
155 162 82
155 162 82
155 162 82
155 162 83
155 162 83
156 162 83
156 162 83
156 162 83
156 162 84
156 162 84
156 162 84
157 162 84
157 162 85
157 162 85
157 162 85
157 162 85
157 162 86
158 162 86
158 162 86
158 162 86
158 162 86
158 162 87
159 162 87
159 162 87
159 162 87
159 162 88
159 162 88
159 162 88
160 162 88
160 162 89
160 162 89
160 162 89
160 162 89
160 162 89
161 162 90
161 162 90
161 162 90
161 162 90
161 162 91
162 162 91
162 162 91
162 162 91
162 162 92
162 162 92
93 161 0
93 161 0
93 161 0
94 161 0
94 161 0
94 161 1
94 161 1
94 161 1
94 161 1
95 161 2
95 161 2
95 161 2
95 161 2
95 161 3
95 161 3
96 161 3
96 161 3
96 161 3
96 161 4
96 161 4
96 161 4
97 161 4
97 161 5
97 161 5
97 161 5
97 161 5
97 161 6
98 161 6
98 161 6
98 161 6
98 161 7
98 161 7
98 161 7
99 161 7
99 161 7
99 161 8
99 161 8
99 161 8
100 161 8
100 161 9
100 161 9
100 161 9
100 161 9
100 161 10
101 161 10
101 161 10
101 161 10
101 161 11
101 161 11
101 161 11
102 161 11
102 161 11
102 161 12
102 161 12
102 161 12
102 161 12
103 161 13
103 161 13
103 161 13
103 161 13
103 161 14
103 161 14
104 161 14
104 161 14
104 161 15
104 161 15
104 161 15
104 161 15
105 161 15
105 161 16
105 161 16
105 161 16
105 161 16
105 161 17
106 161 17
106 161 17
106 161 17
106 161 18
106 161 18
106 161 18
107 161 18
107 161 18
107 161 19
107 161 19
107 161 19
108 161 19
108 161 20
108 161 20
108 161 20
108 161 20
108 161 21
109 161 21
109 161 21
109 161 21
109 161 22
109 161 22
109 161 22
110 161 22
110 161 22
110 161 23
110 161 23
110 161 23
110 161 23
111 161 24
111 161 24
111 161 24
111 161 24
111 161 25
111 161 25
112 161 25
112 161 25
112 161 26
112 161 26
112 161 26
112 161 26
113 161 26
113 161 27
113 161 27
113 161 27
113 161 27
113 161 28
114 161 28
114 161 28
114 161 28
114 161 29
114 161 29
114 161 29
115 161 29
115 161 30
115 161 30
115 161 30
115 161 30
116 161 30
116 161 31
116 161 31
116 161 31
116 161 31
116 161 32
117 161 32
117 161 32
117 161 32
117 161 33
117 161 33
117 161 33
118 161 33
118 161 33
118 161 34
118 161 34
118 161 34
118 161 34
119 161 35
119 161 35
119 161 35
119 161 35
119 161 36
119 161 36
120 161 36
120 161 36
120 161 37
120 161 37
120 161 37
120 161 37
121 161 37
121 161 38
121 161 38
121 161 38
121 161 38
121 161 39
122 161 39
122 161 39
122 161 39
122 161 40
122 161 40
122 161 40
123 161 40
123 161 41
123 161 41
123 161 41
123 161 41
124 161 41
124 161 42
124 161 42
124 161 42
124 161 42
124 161 43
125 161 43
125 161 43
125 161 43
125 161 44
125 161 44
125 161 44
126 161 44
126 161 45
126 161 45
126 161 45
126 161 45
126 161 45
127 161 46
127 161 46
127 161 46
127 161 46
127 161 47
127 161 47
128 161 47
128 161 47
128 161 48
128 161 48
128 161 48
128 161 48
129 161 48
129 161 49
129 161 49
129 161 49
129 161 49
129 161 50
130 161 50
130 161 50
130 161 50
130 161 51
130 161 51
130 161 51
131 161 51
131 161 52
131 161 52
131 161 52
131 161 52
132 161 52
132 161 53
132 161 53
132 161 53
132 161 53
132 161 54
133 161 54
133 161 54
133 161 54
133 161 55
133 161 55
133 161 55
134 161 55
134 161 56
134 161 56
134 161 56
134 161 56
134 161 56
135 161 57
135 161 57
135 161 57
135 161 57
135 161 58
135 161 58
136 161 58
136 161 58
136 161 59
136 161 59
136 161 59
136 161 59
137 161 60
137 161 60
137 161 60
137 161 60
137 161 60
137 161 61
138 161 61
138 161 61
138 161 61
138 161 62
138 161 62
138 161 62
139 161 62
139 161 63
139 161 63
139 161 63
139 161 63
140 161 64
140 161 64
140 161 64
140 161 64
140 161 64
140 161 65
141 161 65
141 161 65
141 161 65
141 161 66
141 161 66
141 161 66
142 161 66
142 161 67
142 161 67
142 161 67
142 161 67
142 161 67
143 161 68
143 161 68
143 161 68
143 161 68
143 161 69
143 161 69
144 161 69
144 161 69
144 161 70
144 161 70
144 161 70
144 161 70
145 161 71
145 161 71
145 161 71
145 161 71
145 161 71
145 161 72
146 161 72
146 161 72
146 161 72
146 161 73
146 161 73
146 161 73
147 161 73
147 161 74
147 161 74
147 161 74
147 161 74
148 161 75
148 161 75
148 161 75
148 161 75
148 161 75
148 161 76
149 161 76
149 161 76
149 161 76
149 161 77
149 161 77
149 161 77
150 161 77
150 161 78
150 161 78
150 161 78
150 161 78
150 161 79
151 161 79
151 161 79
151 161 79
151 161 79
151 161 80
151 161 80
152 161 80
152 161 80
152 161 81
152 161 81
152 161 81
152 161 81
153 161 82
153 161 82
153 161 82
153 161 82
153 161 82
153 161 83
154 161 83
154 161 83
154 161 83
154 161 84
154 161 84
154 161 84
155 161 84
155 161 85
155 161 85
155 161 85
155 161 85
156 161 86
156 161 86
156 161 86
156 161 86
156 161 86
156 161 87
157 161 87
157 161 87
157 161 87
157 161 88
157 161 88
157 161 88
158 161 88
158 161 89
158 161 89
158 161 89
158 161 89
158 161 90
159 161 90
159 161 90
159 161 90
159 161 90
159 161 91
159 161 91
160 161 91
160 161 91
160 161 92
160 161 92
160 161 92
160 161 92
161 161 93
161 161 93
161 161 93
94 160 0
94 160 0
95 160 0
95 160 0
95 160 0
95 160 1
95 160 1
95 160 1
96 160 1
96 160 2
96 160 2
96 160 2
96 160 2
96 160 3
97 160 3
97 160 3
97 160 3
97 160 4
97 160 4
97 160 4
98 160 4
98 160 4
98 160 5
98 160 5
98 160 5
98 160 5
99 160 6
99 160 6
99 160 6
99 160 6
99 160 7
99 160 7
100 160 7
100 160 7
100 160 8
100 160 8
100 160 8
100 160 8
101 160 9
101 160 9
101 160 9
101 160 9
101 160 9
101 160 10
102 160 10
102 160 10
102 160 10
102 160 11
102 160 11
102 160 11
103 160 11
103 160 12
103 160 12
103 160 12
103 160 12
103 160 13
103 160 13
104 160 13
104 160 13
104 160 14
104 160 14
104 160 14
104 160 14
105 160 14
105 160 15
105 160 15
105 160 15
105 160 15
105 160 16
106 160 16
106 160 16
106 160 16
106 160 17
106 160 17
106 160 17
107 160 17
107 160 18
107 160 18
107 160 18
107 160 18
107 160 19
108 160 19
108 160 19
108 160 19
108 160 19
108 160 20
108 160 20
109 160 20
109 160 20
109 160 21
109 160 21
109 160 21
109 160 21
110 160 22
110 160 22
110 160 22
110 160 22
110 160 23
110 160 23
111 160 23
111 160 23
111 160 24
111 160 24
111 160 24
111 160 24
112 160 24
112 160 25
112 160 25
112 160 25
112 160 25
112 160 26
113 160 26
113 160 26
113 160 26
113 160 27
113 160 27
113 160 27
113 160 27
114 160 28
114 160 28
114 160 28
114 160 28
114 160 28
114 160 29
115 160 29
115 160 29
115 160 29
115 160 30
115 160 30
115 160 30
116 160 30
116 160 31
116 160 31
116 160 31
116 160 31
116 160 32
117 160 32
117 160 32
117 160 32
117 160 33
117 160 33
117 160 33
118 160 33
118 160 33
118 160 34
118 160 34
118 160 34
118 160 34
119 160 35
119 160 35
119 160 35
119 160 35
119 160 36
119 160 36
120 160 36
120 160 36
120 160 37
120 160 37
120 160 37
120 160 37
121 160 38
121 160 38
121 160 38
121 160 38
121 160 38
121 160 39
122 160 39
122 160 39
122 160 39
122 160 40
122 160 40
122 160 40
122 160 40
123 160 41
123 160 41
123 160 41
123 160 41
123 160 42
123 160 42
124 160 42
124 160 42
124 160 43
124 160 43
124 160 43
124 160 43
125 160 43
125 160 44
125 160 44
125 160 44
125 160 44
125 160 45
126 160 45
126 160 45
126 160 45
126 160 46
126 160 46
126 160 46
127 160 46
127 160 47
127 160 47
127 160 47
127 160 47
127 160 48
128 160 48
128 160 48
128 160 48
128 160 48
128 160 49
128 160 49
129 160 49
129 160 49
129 160 50
129 160 50
129 160 50
129 160 50
130 160 51
130 160 51
130 160 51
130 160 51
130 160 52
130 160 52
131 160 52
131 160 52
131 160 52
131 160 53
131 160 53
131 160 53
132 160 53
132 160 54
132 160 54
132 160 54
132 160 54
132 160 55
132 160 55
133 160 55
133 160 55
133 160 56
133 160 56
133 160 56
133 160 56
134 160 57
134 160 57
134 160 57
134 160 57
134 160 57
134 160 58
135 160 58
135 160 58
135 160 58
135 160 59
135 160 59
135 160 59
136 160 59
136 160 60
136 160 60
136 160 60
136 160 60
136 160 61
137 160 61
137 160 61
137 160 61
137 160 62
137 160 62
137 160 62
138 160 62
138 160 62
138 160 63
138 160 63
138 160 63
138 160 63
139 160 64
139 160 64
139 160 64
139 160 64
139 160 65
139 160 65
140 160 65
140 160 65
140 160 66
140 160 66
140 160 66
140 160 66
141 160 67
141 160 67
141 160 67
141 160 67
141 160 67
141 160 68
141 160 68
142 160 68
142 160 68
142 160 69
142 160 69
142 160 69
142 160 69
143 160 70
143 160 70
143 160 70
143 160 70
143 160 71
143 160 71
144 160 71
144 160 71
144 160 72
144 160 72
144 160 72
144 160 72
145 160 72
145 160 73
145 160 73
145 160 73
145 160 73
145 160 74
146 160 74
146 160 74
146 160 74
146 160 75
146 160 75
146 160 75
147 160 75
147 160 76
147 160 76
147 160 76
147 160 76
147 160 77
148 160 77
148 160 77
148 160 77
148 160 77
148 160 78
148 160 78
149 160 78
149 160 78
149 160 79
149 160 79
149 160 79
149 160 79
150 160 80
150 160 80
150 160 80
150 160 80
150 160 81
150 160 81
151 160 81
151 160 81
151 160 81
151 160 82
151 160 82
151 160 82
151 160 82
152 160 83
152 160 83
152 160 83
152 160 83
152 160 84
152 160 84
153 160 84
153 160 84
153 160 85
153 160 85
153 160 85
153 160 85
154 160 86
154 160 86
154 160 86
154 160 86
154 160 86
154 160 87
155 160 87
155 160 87
155 160 87
155 160 88
155 160 88
155 160 88
156 160 88
156 160 89
156 160 89
156 160 89
156 160 89
156 160 90
157 160 90
157 160 90
157 160 90
157 160 91
157 160 91
157 160 91
158 160 91
158 160 91
158 160 92
158 160 92
158 160 92
158 160 92
159 160 93
159 160 93
159 160 93
159 160 93
159 160 94
159 160 94
160 160 94
160 160 94
96 158 0
96 158 0
96 158 0
96 158 0
96 158 0
96 158 1
97 158 1
97 158 1
97 158 1
97 158 2
97 158 2
97 158 2
97 158 2
98 158 3
98 158 3
98 158 3
98 158 3
98 158 4
98 158 4
99 158 4
99 158 4
99 158 5
99 158 5
99 158 5
99 158 5
100 158 6
100 158 6
100 158 6
100 158 6
100 158 6
100 158 7
100 158 7
101 158 7
101 158 7
101 158 8
101 158 8
101 158 8
101 158 8
102 158 9
102 158 9
102 158 9
102 158 9
102 158 10
102 158 10
103 158 10
103 158 10
103 158 11
103 158 11
103 158 11
103 158 11
103 158 12
104 158 12
104 158 12
104 158 12
104 158 13
104 158 13
104 158 13
105 158 13
105 158 13
105 158 14
105 158 14
105 158 14
105 158 14
106 158 15
106 158 15
106 158 15
106 158 15
106 158 16
106 158 16
106 158 16
107 158 16
107 158 17
107 158 17
107 158 17
107 158 17
107 158 18
108 158 18
108 158 18
108 158 18
108 158 19
108 158 19
108 158 19
109 158 19
109 158 19
109 158 20
109 158 20
109 158 20
109 158 20
109 158 21
110 158 21
110 158 21
110 158 21
110 158 22
110 158 22
110 158 22
111 158 22
111 158 23
111 158 23
111 158 23
111 158 23
111 158 24
111 158 24
112 158 24
112 158 24
112 158 25
112 158 25
112 158 25
112 158 25
113 158 26
113 158 26
113 158 26
113 158 26
113 158 26
113 158 27
114 158 27
114 158 27
114 158 27
114 158 28
114 158 28
114 158 28
114 158 28
115 158 29
115 158 29
115 158 29
115 158 29
115 158 30
115 158 30
116 158 30
116 158 30
116 158 31
116 158 31
116 158 31
116 158 31
117 158 32
117 158 32
117 158 32
117 158 32
117 158 32
117 158 33
117 158 33
118 158 33
118 158 33
118 158 34
118 158 34
118 158 34
118 158 34
119 158 35
119 158 35
119 158 35
119 158 35
119 158 36
119 158 36
120 158 36
120 158 36
120 158 37
120 158 37
120 158 37
120 158 37
120 158 38
121 158 38
121 158 38
121 158 38
121 158 39
121 158 39
121 158 39
122 158 39
122 158 39
122 158 40
122 158 40
122 158 40
122 158 40
123 158 41
123 158 41
123 158 41
123 158 41
123 158 42
123 158 42
123 158 42
124 158 42
124 158 43
124 158 43
124 158 43
124 158 43
124 158 44
125 158 44
125 158 44
125 158 44
125 158 45
125 158 45
125 158 45
126 158 45
126 158 46
126 158 46
126 158 46
126 158 46
126 158 46
126 158 47
127 158 47
127 158 47
127 158 47
127 158 48
127 158 48
127 158 48
128 158 48
128 158 49
128 158 49
128 158 49
128 158 49
128 158 50
128 158 50
129 158 50
129 158 50
129 158 51
129 158 51
129 158 51
129 158 51
130 158 52
130 158 52
130 158 52
130 158 52
130 158 52
130 158 53
131 158 53
131 158 53
131 158 53
131 158 54
131 158 54
131 158 54
131 158 54
132 158 55
132 158 55
132 158 55
132 158 55
132 158 56
132 158 56
133 158 56
133 158 56
133 158 57
133 158 57
133 158 57
133 158 57
134 158 58
134 158 58
134 158 58
134 158 58
134 158 59
134 158 59
134 158 59
135 158 59
135 158 59
135 158 60
135 158 60
135 158 60
135 158 60
136 158 61
136 158 61
136 158 61
136 158 61
136 158 62
136 158 62
137 158 62
137 158 62
137 158 63
137 158 63
137 158 63
137 158 63
137 158 64
138 158 64
138 158 64
138 158 64
138 158 65
138 158 65
138 158 65
139 158 65
139 158 65
139 158 66
139 158 66
139 158 66
139 158 66
140 158 67
140 158 67
140 158 67
140 158 67
140 158 68
140 158 68
140 158 68
141 158 68
141 158 69
141 158 69
141 158 69
141 158 69
141 158 70
142 158 70
142 158 70
142 158 70
142 158 71
142 158 71
142 158 71
143 158 71
143 158 72
143 158 72
143 158 72
143 158 72
143 158 72
143 158 73
144 158 73
144 158 73
144 158 73
144 158 74
144 158 74
144 158 74
145 158 74
145 158 75
145 158 75
145 158 75
145 158 75
145 158 76
145 158 76
146 158 76
146 158 76
146 158 77
146 158 77
146 158 77
146 158 77
147 158 78
147 158 78
147 158 78
147 158 78
147 158 79
147 158 79
148 158 79
148 158 79
148 158 79
148 158 80
148 158 80
148 158 80
148 158 80
149 158 81
149 158 81
149 158 81
149 158 81
149 158 82
149 158 82
150 158 82
150 158 82
150 158 83
150 158 83
150 158 83
150 158 83
151 158 84
151 158 84
151 158 84
151 158 84
151 158 85
151 158 85
151 158 85
152 158 85
152 158 85
152 158 86
152 158 86
152 158 86
152 158 86
153 158 87
153 158 87
153 158 87
153 158 87
153 158 88
153 158 88
154 158 88
154 158 88
154 158 89
154 158 89
154 158 89
154 158 89
154 158 90
155 158 90
155 158 90
155 158 90
155 158 91
155 158 91
155 158 91
156 158 91
156 158 92
156 158 92
156 158 92
156 158 92
156 158 92
157 158 93
157 158 93
157 158 93
157 158 93
157 158 94
157 158 94
157 158 94
158 158 94
158 158 95
158 158 95
158 158 95
158 158 95
158 158 96
97 157 0
97 157 0
97 157 0
97 157 0
97 157 0
98 157 1
98 157 1
98 157 1
98 157 1
98 157 2
98 157 2
99 157 2
99 157 2
99 157 3
99 157 3
99 157 3
99 157 3
99 157 4
100 157 4
100 157 4
100 157 4
100 157 5
100 157 5
100 157 5
101 157 5
101 157 6
101 157 6
101 157 6
101 157 6
101 157 7
101 157 7
102 157 7
102 157 7
102 157 8
102 157 8
102 157 8
102 157 8
102 157 9
103 157 9
103 157 9
103 157 9
103 157 10
103 157 10
103 157 10
104 157 10
104 157 10
104 157 11
104 157 11
104 157 11
104 157 11
104 157 12
105 157 12
105 157 12
105 157 12
105 157 13
105 157 13
105 157 13
105 157 13
106 157 14
106 157 14
106 157 14
106 157 14
106 157 15
106 157 15
107 157 15
107 157 15
107 157 16
107 157 16
107 157 16
107 157 16
107 157 17
108 157 17
108 157 17
108 157 17
108 157 18
108 157 18
108 157 18
109 157 18
109 157 19
109 157 19
109 157 19
109 157 19
109 157 20
109 157 20
110 157 20
110 157 20
110 157 20
110 157 21
110 157 21
110 157 21
110 157 21
111 157 22
111 157 22
111 157 22
111 157 22
111 157 23
111 157 23
112 157 23
112 157 23
112 157 24
112 157 24
112 157 24
112 157 24
112 157 25
113 157 25
113 157 25
113 157 25
113 157 26
113 157 26
113 157 26
113 157 26
114 157 27
114 157 27
114 157 27
114 157 27
114 157 28
114 157 28
115 157 28
115 157 28
115 157 29
115 157 29
115 157 29
115 157 29
115 157 30
116 157 30
116 157 30
116 157 30
116 157 30
116 157 31
116 157 31
117 157 31
117 157 31
117 157 32
117 157 32
117 157 32
117 157 32
117 157 33
118 157 33
118 157 33
118 157 33
118 157 34
118 157 34
118 157 34
118 157 34
119 157 35
119 157 35
119 157 35
119 157 35
119 157 36
119 157 36
120 157 36
120 157 36
120 157 37
120 157 37
120 157 37
120 157 37
120 157 38
121 157 38
121 157 38
121 157 38
121 157 39
121 157 39
121 157 39
121 157 39
122 157 40
122 157 40
122 157 40
122 157 40
122 157 41
122 157 41
123 157 41
123 157 41
123 157 41
123 157 42
123 157 42
123 157 42
123 157 42
124 157 43
124 157 43
124 157 43
124 157 43
124 157 44
124 157 44
125 157 44
125 157 44
125 157 45
125 157 45
125 157 45
125 157 45
125 157 46
126 157 46
126 157 46
126 157 46
126 157 47
126 157 47
126 157 47
126 157 47
127 157 48
127 157 48
127 157 48
127 157 48
127 157 49
127 157 49
128 157 49
128 157 49
128 157 50
128 157 50
128 157 50
128 157 50
128 157 51
129 157 51
129 157 51
129 157 51
129 157 51
129 157 52
129 157 52
129 157 52
130 157 52
130 157 53
130 157 53
130 157 53
130 157 53
130 157 54
131 157 54
131 157 54
131 157 54
131 157 55
131 157 55
131 157 55
131 157 55
132 157 56
132 157 56
132 157 56
132 157 56
132 157 57
132 157 57
133 157 57
133 157 57
133 157 58
133 157 58
133 157 58
133 157 58
133 157 59
134 157 59
134 157 59
134 157 59
134 157 60
134 157 60
134 157 60
134 157 60
135 157 61
135 157 61
135 157 61
135 157 61
135 157 61
135 157 62
136 157 62
136 157 62
136 157 62
136 157 63
136 157 63
136 157 63
136 157 63
137 157 64
137 157 64
137 157 64
137 157 64
137 157 65
137 157 65
137 157 65
138 157 65
138 157 66
138 157 66
138 157 66
138 157 66
138 157 67
139 157 67
139 157 67
139 157 67
139 157 68
139 157 68
139 157 68
139 157 68
140 157 69
140 157 69
140 157 69
140 157 69
140 157 70
140 157 70
141 157 70
141 157 70
141 157 71
141 157 71
141 157 71
141 157 71
141 157 72
142 157 72
142 157 72
142 157 72
142 157 72
142 157 73
142 157 73
142 157 73
143 157 73
143 157 74
143 157 74
143 157 74
143 157 74
143 157 75
144 157 75
144 157 75
144 157 75
144 157 76
144 157 76
144 157 76
144 157 76
145 157 77
145 157 77
145 157 77
145 157 77
145 157 78
145 157 78
145 157 78
146 157 78
146 157 79
146 157 79
146 157 79
146 157 79
146 157 80
147 157 80
147 157 80
147 157 80
147 157 81
147 157 81
147 157 81
147 157 81
148 157 82
148 157 82
148 157 82
148 157 82
148 157 82
148 157 83
149 157 83
149 157 83
149 157 83
149 157 84
149 157 84
149 157 84
149 157 84
150 157 85
150 157 85
150 157 85
150 157 85
150 157 86
150 157 86
150 157 86
151 157 86
151 157 87
151 157 87
151 157 87
151 157 87
151 157 88
152 157 88
152 157 88
152 157 88
152 157 89
152 157 89
152 157 89
152 157 89
153 157 90
153 157 90
153 157 90
153 157 90
153 157 91
153 157 91
153 157 91
154 157 91
154 157 92
154 157 92
154 157 92
154 157 92
154 157 92
155 157 93
155 157 93
155 157 93
155 157 93
155 157 94
155 157 94
155 157 94
156 157 94
156 157 95
156 157 95
156 157 95
156 157 95
156 157 96
157 157 96
157 157 96
157 157 96
157 157 97
157 157 97
98 156 0
98 156 0
98 156 0
99 156 0
99 156 0
99 156 1
99 156 1
99 156 1
99 156 1
99 156 2
100 156 2
100 156 2
100 156 2
100 156 3
100 156 3
100 156 3
100 156 3
101 156 4
101 156 4
101 156 4
101 156 4
101 156 5
101 156 5
101 156 5
102 156 5
102 156 6
102 156 6
102 156 6
102 156 6
102 156 7
103 156 7
103 156 7
103 156 7
103 156 8
103 156 8
103 156 8
103 156 8
104 156 9
104 156 9
104 156 9
104 156 9
104 156 10
104 156 10
104 156 10
105 156 10
105 156 11
105 156 11
105 156 11
105 156 11
105 156 12
105 156 12
106 156 12
106 156 12
106 156 13
106 156 13
106 156 13
106 156 13
106 156 14
107 156 14
107 156 14
107 156 14
107 156 15
107 156 15
107 156 15
107 156 15
108 156 16
108 156 16
108 156 16
108 156 16
108 156 17
108 156 17
108 156 17
109 156 17
109 156 18
109 156 18
109 156 18
109 156 18
109 156 19
109 156 19
110 156 19
110 156 19
110 156 20
110 156 20
110 156 20
110 156 20
110 156 21
111 156 21
111 156 21
111 156 21
111 156 22
111 156 22
111 156 22
111 156 22
112 156 22
112 156 23
112 156 23
112 156 23
112 156 23
112 156 24
112 156 24
113 156 24
113 156 24
113 156 25
113 156 25
113 156 25
113 156 25
113 156 26
114 156 26
114 156 26
114 156 26
114 156 27
114 156 27
114 156 27
114 156 27
115 156 28
115 156 28
115 156 28
115 156 28
115 156 29
115 156 29
116 156 29
116 156 29
116 156 30
116 156 30
116 156 30
116 156 30
116 156 31
117 156 31
117 156 31
117 156 31
117 156 32
117 156 32
117 156 32
117 156 32
118 156 33
118 156 33
118 156 33
118 156 33
118 156 34
118 156 34
118 156 34
119 156 34
119 156 35
119 156 35
119 156 35
119 156 35
119 156 36
119 156 36
120 156 36
120 156 36
120 156 37
120 156 37
120 156 37
120 156 37
120 156 38
121 156 38
121 156 38
121 156 38
121 156 39
121 156 39
121 156 39
121 156 39
122 156 40
122 156 40
122 156 40
122 156 40
122 156 41
122 156 41
122 156 41
123 156 41
123 156 42
123 156 42
123 156 42
123 156 42
123 156 43
123 156 43
124 156 43
124 156 43
124 156 44
124 156 44
124 156 44
124 156 44
124 156 45
125 156 45
125 156 45
125 156 45
125 156 45
125 156 46
125 156 46
125 156 46
126 156 46
126 156 47
126 156 47
126 156 47
126 156 47
126 156 48
126 156 48
127 156 48
127 156 48
127 156 49
127 156 49
127 156 49
127 156 49
128 156 50
128 156 50
128 156 50
128 156 50
128 156 51
128 156 51
128 156 51
129 156 51
129 156 52
129 156 52
129 156 52
129 156 52
129 156 53
129 156 53
130 156 53
130 156 53
130 156 54
130 156 54
130 156 54
130 156 54
130 156 55
131 156 55
131 156 55
131 156 55
131 156 56
131 156 56
131 156 56
131 156 56
132 156 57
132 156 57
132 156 57
132 156 57
132 156 58
132 156 58
132 156 58
133 156 58
133 156 59
133 156 59
133 156 59
133 156 59
133 156 60
133 156 60
134 156 60
134 156 60
134 156 61
134 156 61
134 156 61
134 156 61
134 156 62
135 156 62
135 156 62
135 156 62
135 156 63
135 156 63
135 156 63
135 156 63
136 156 64
136 156 64
136 156 64
136 156 64
136 156 65
136 156 65
136 156 65
137 156 65
137 156 66
137 156 66
137 156 66
137 156 66
137 156 67
137 156 67
138 156 67
138 156 67
138 156 68
138 156 68
138 156 68
138 156 68
138 156 68
139 156 69
139 156 69
139 156 69
139 156 69
139 156 70
139 156 70
140 156 70
140 156 70
140 156 71
140 156 71
140 156 71
140 156 71
140 156 72
141 156 72
141 156 72
141 156 72
141 156 73
141 156 73
141 156 73
141 156 73
142 156 74
142 156 74
142 156 74
142 156 74
142 156 75
142 156 75
142 156 75
143 156 75
143 156 76
143 156 76
143 156 76
143 156 76
143 156 77
143 156 77
144 156 77
144 156 77
144 156 78
144 156 78
144 156 78
144 156 78
144 156 79
145 156 79
145 156 79
145 156 79
145 156 80
145 156 80
145 156 80
145 156 80
146 156 81
146 156 81
146 156 81
146 156 81
146 156 82
146 156 82
146 156 82
147 156 82
147 156 83
147 156 83
147 156 83
147 156 83
147 156 84
147 156 84
148 156 84
148 156 84
148 156 85
148 156 85
148 156 85
148 156 85
148 156 86
149 156 86
149 156 86
149 156 86
149 156 87
149 156 87
149 156 87
149 156 87
150 156 88
150 156 88
150 156 88
150 156 88
150 156 89
150 156 89
150 156 89
151 156 89
151 156 90
151 156 90
151 156 90
151 156 90
151 156 91
151 156 91
152 156 91
152 156 91
152 156 91
152 156 92
152 156 92
152 156 92
153 156 92
153 156 93
153 156 93
153 156 93
153 156 93
153 156 94
153 156 94
154 156 94
154 156 94
154 156 95
154 156 95
154 156 95
154 156 95
154 156 96
155 156 96
155 156 96
155 156 96
155 156 97
155 156 97
155 156 97
155 156 97
156 156 98
156 156 98
156 156 98
99 155 0
100 155 0
100 155 0
100 155 0
100 155 1
100 155 1
100 155 1
100 155 1
101 155 2
101 155 2
101 155 2
101 155 2
101 155 3
101 155 3
101 155 3
102 155 3
102 155 4
102 155 4
102 155 4
102 155 4
102 155 5
102 155 5
102 155 5
103 155 5
103 155 6
103 155 6
103 155 6
103 155 6
103 155 7
103 155 7
104 155 7
104 155 7
104 155 8
104 155 8
104 155 8
104 155 8
104 155 9
105 155 9
105 155 9
105 155 9
105 155 10
105 155 10
105 155 10
105 155 10
106 155 11
106 155 11
106 155 11
106 155 11
106 155 12
106 155 12
106 155 12
106 155 12
107 155 13
107 155 13
107 155 13
107 155 13
107 155 14
107 155 14
107 155 14
108 155 14
108 155 15
108 155 15
108 155 15
108 155 15
108 155 16
108 155 16
109 155 16
109 155 16
109 155 17
109 155 17
109 155 17
109 155 17
109 155 18
110 155 18
110 155 18
110 155 18
110 155 19
110 155 19
110 155 19
110 155 19
110 155 20
111 155 20
111 155 20
111 155 20
111 155 21
111 155 21
111 155 21
111 155 21
112 155 22
112 155 22
112 155 22
112 155 22
112 155 23
112 155 23
112 155 23
113 155 23
113 155 24
113 155 24
113 155 24
113 155 24
113 155 25
113 155 25
114 155 25
114 155 25
114 155 26
114 155 26
114 155 26
114 155 26
114 155 27
115 155 27
115 155 27
115 155 27
115 155 28
115 155 28
115 155 28
115 155 28
115 155 29
116 155 29
116 155 29
116 155 29
116 155 30
116 155 30
116 155 30
116 155 30
117 155 31
117 155 31
117 155 31
117 155 31
117 155 32
117 155 32
117 155 32
118 155 32
118 155 33
118 155 33
118 155 33
118 155 33
118 155 34
118 155 34
119 155 34
119 155 34
119 155 35
119 155 35
119 155 35
119 155 35
119 155 36
119 155 36
120 155 36
120 155 36
120 155 37
120 155 37
120 155 37
120 155 37
120 155 38
121 155 38
121 155 38
121 155 38
121 155 39
121 155 39
121 155 39
121 155 39
122 155 40
122 155 40
122 155 40
122 155 40
122 155 41
122 155 41
122 155 41
123 155 41
123 155 42
123 155 42
123 155 42
123 155 42
123 155 43
123 155 43
123 155 43
124 155 43
124 155 44
124 155 44
124 155 44
124 155 44
124 155 45
124 155 45
125 155 45
125 155 45
125 155 46
125 155 46
125 155 46
125 155 46
125 155 47
126 155 47
126 155 47
126 155 47
126 155 48
126 155 48
126 155 48
126 155 48
127 155 49
127 155 49
127 155 49
127 155 49
127 155 50
127 155 50
127 155 50
127 155 50
128 155 51
128 155 51
128 155 51
128 155 51
128 155 52
128 155 52
128 155 52
129 155 52
129 155 53
129 155 53
129 155 53
129 155 53
129 155 54
129 155 54
130 155 54
130 155 54
130 155 55
130 155 55
130 155 55
130 155 55
130 155 56
131 155 56
131 155 56
131 155 56
131 155 57
131 155 57
131 155 57
131 155 57
131 155 58
132 155 58
132 155 58
132 155 58
132 155 59
132 155 59
132 155 59
132 155 59
133 155 60
133 155 60
133 155 60
133 155 60
133 155 61
133 155 61
133 155 61
134 155 61
134 155 62
134 155 62
134 155 62
134 155 62
134 155 63
134 155 63
135 155 63
135 155 63
135 155 64
135 155 64
135 155 64
135 155 64
135 155 65
135 155 65
136 155 65
136 155 65
136 155 66
136 155 66
136 155 66
136 155 66
136 155 67
137 155 67
137 155 67
137 155 67
137 155 68
137 155 68
137 155 68
137 155 68
138 155 69
138 155 69
138 155 69
138 155 69
138 155 70
138 155 70
138 155 70
139 155 70
139 155 71
139 155 71
139 155 71
139 155 71
139 155 72
139 155 72
139 155 72
140 155 72
140 155 73
140 155 73
140 155 73
140 155 73
140 155 74
140 155 74
141 155 74
141 155 74
141 155 75
141 155 75
141 155 75
141 155 75
141 155 76
142 155 76
142 155 76
142 155 76
142 155 77
142 155 77
142 155 77
142 155 77
143 155 78
143 155 78
143 155 78
143 155 78
143 155 79
143 155 79
143 155 79
144 155 79
144 155 80
144 155 80
144 155 80
144 155 80
144 155 81
144 155 81
144 155 81
145 155 81
145 155 82
145 155 82
145 155 82
145 155 82
145 155 83
145 155 83
146 155 83
146 155 83
146 155 84
146 155 84
146 155 84
146 155 84
146 155 85
147 155 85
147 155 85
147 155 85
147 155 86
147 155 86
147 155 86
147 155 86
148 155 87
148 155 87
148 155 87
148 155 87
148 155 88
148 155 88
148 155 88
148 155 88
149 155 89
149 155 89
149 155 89
149 155 89
149 155 90
149 155 90
149 155 90
150 155 90
150 155 91
150 155 91
150 155 91
150 155 91
150 155 92
150 155 92
151 155 92
151 155 92
151 155 93
151 155 93
151 155 93
151 155 93
151 155 94
152 155 94
152 155 94
152 155 94
152 155 95
152 155 95
152 155 95
152 155 95
152 155 96
153 155 96
153 155 96
153 155 96
153 155 97
153 155 97
153 155 97
153 155 97
154 155 98
154 155 98
154 155 98
154 155 98
154 155 99
154 155 99
154 155 99
155 155 99
101 153 0
101 153 0
101 153 0
101 153 0
101 153 1
101 153 1
102 153 1
102 153 1
102 153 2
102 153 2
102 153 2
102 153 2
102 153 3
102 153 3
103 153 3
103 153 3
103 153 4
103 153 4
103 153 4
103 153 4
103 153 5
103 153 5
104 153 5
104 153 5
104 153 6
104 153 6
104 153 6
104 153 6
104 153 7
105 153 7
105 153 7
105 153 7
105 153 8
105 153 8
105 153 8
105 153 8
105 153 9
106 153 9
106 153 9
106 153 9
106 153 10
106 153 10
106 153 10
106 153 10
107 153 11
107 153 11
107 153 11
107 153 11
107 153 12
107 153 12
107 153 12
107 153 12
108 153 13
108 153 13
108 153 13
108 153 13
108 153 14
108 153 14
108 153 14
108 153 14
109 153 15
109 153 15
109 153 15
109 153 15
109 153 16
109 153 16
109 153 16
110 153 16
110 153 17
110 153 17
110 153 17
110 153 18
110 153 18
110 153 18
110 153 18
111 153 19
111 153 19
111 153 19
111 153 19
111 153 20
111 153 20
111 153 20
112 153 20
112 153 21
112 153 21
112 153 21
112 153 21
112 153 22
112 153 22
112 153 22
113 153 22
113 153 23
113 153 23
113 153 23
113 153 23
113 153 24
113 153 24
114 153 24
114 153 24
114 153 25
114 153 25
114 153 25
114 153 25
114 153 26
114 153 26
115 153 26
115 153 26
115 153 27
115 153 27
115 153 27
115 153 27
115 153 28
115 153 28
116 153 28
116 153 28
116 153 29
116 153 29
116 153 29
116 153 29
116 153 30
117 153 30
117 153 30
117 153 30
117 153 31
117 153 31
117 153 31
117 153 31
117 153 32
118 153 32
118 153 32
118 153 32
118 153 33
118 153 33
118 153 33
118 153 33
119 153 34
119 153 34
119 153 34
119 153 35
119 153 35
119 153 35
119 153 35
119 153 36
120 153 36
120 153 36
120 153 36
120 153 37
120 153 37
120 153 37
120 153 37
120 153 38
121 153 38
121 153 38
121 153 38
121 153 39
121 153 39
121 153 39
121 153 39
122 153 40
122 153 40
122 153 40
122 153 40
122 153 41
122 153 41
122 153 41
122 153 41
123 153 42
123 153 42
123 153 42
123 153 42
123 153 43
123 153 43
123 153 43
124 153 43
124 153 44
124 153 44
124 153 44
124 153 44
124 153 45
124 153 45
124 153 45
125 153 45
125 153 46
125 153 46
125 153 46
125 153 46
125 153 47
125 153 47
125 153 47
126 153 47
126 153 48
126 153 48
126 153 48
126 153 48
126 153 49
126 153 49
127 153 49
127 153 49
127 153 50
127 153 50
127 153 50
127 153 50
127 153 51
127 153 51
128 153 51
128 153 52
128 153 52
128 153 52
128 153 52
128 153 53
128 153 53
129 153 53
129 153 53
129 153 54
129 153 54
129 153 54
129 153 54
129 153 55
129 153 55
130 153 55
130 153 55
130 153 56
130 153 56
130 153 56
130 153 56
130 153 57
130 153 57
131 153 57
131 153 57
131 153 58
131 153 58
131 153 58
131 153 58
131 153 59
132 153 59
132 153 59
132 153 59
132 153 60
132 153 60
132 153 60
132 153 60
132 153 61
133 153 61
133 153 61
133 153 61
133 153 62
133 153 62
133 153 62
133 153 62
134 153 63
134 153 63
134 153 63
134 153 63
134 153 64
134 153 64
134 153 64
134 153 64
135 153 65
135 153 65
135 153 65
135 153 65
135 153 66
135 153 66
135 153 66
135 153 66
136 153 67
136 153 67
136 153 67
136 153 67
136 153 68
136 153 68
136 153 68
137 153 69
137 153 69
137 153 69
137 153 69
137 153 70
137 153 70
137 153 70
137 153 70
138 153 71
138 153 71
138 153 71
138 153 71
138 153 72
138 153 72
138 153 72
139 153 72
139 153 73
139 153 73
139 153 73
139 153 73
139 153 74
139 153 74
139 153 74
140 153 74
140 153 75
140 153 75
140 153 75
140 153 75
140 153 76
140 153 76
140 153 76
141 153 76
141 153 77
141 153 77
141 153 77
141 153 77
141 153 78
141 153 78
142 153 78
142 153 78
142 153 79
142 153 79
142 153 79
142 153 79
142 153 80
142 153 80
143 153 80
143 153 80
143 153 81
143 153 81
143 153 81
143 153 81
143 153 82
144 153 82
144 153 82
144 153 82
144 153 83
144 153 83
144 153 83
144 153 83
144 153 84
145 153 84
145 153 84
145 153 84
145 153 85
145 153 85
145 153 85
145 153 86
146 153 86
146 153 86
146 153 86
146 153 87
146 153 87
146 153 87
146 153 87
146 153 88
147 153 88
147 153 88
147 153 88
147 153 89
147 153 89
147 153 89
147 153 89
147 153 90
148 153 90
148 153 90
148 153 90
148 153 91
148 153 91
148 153 91
148 153 91
149 153 92
149 153 92
149 153 92
149 153 92
149 153 93
149 153 93
149 153 93
149 153 93
150 153 94
150 153 94
150 153 94
150 153 94
150 153 95
150 153 95
150 153 95
151 153 95
151 153 96
151 153 96
151 153 96
151 153 96
151 153 97
151 153 97
151 153 97
152 153 97
152 153 98
152 153 98
152 153 98
152 153 98
152 153 99
152 153 99
152 153 99
153 153 99
153 153 100
153 153 100
153 153 100
153 153 100
153 153 101
102 152 0
102 152 0
102 152 0
102 152 0
103 152 1
103 152 1
103 152 1
103 152 1
103 152 2
103 152 2
103 152 2
103 152 2
104 152 3
104 152 3
104 152 3
104 152 3
104 152 4
104 152 4
104 152 4
104 152 4
105 152 5
105 152 5
105 152 5
105 152 5
105 152 6
105 152 6
105 152 6
105 152 6
106 152 7
106 152 7
106 152 7
106 152 7
106 152 8
106 152 8
106 152 8
106 152 8
107 152 9
107 152 9
107 152 9
107 152 10
107 152 10
107 152 10
107 152 10
107 152 11
108 152 11
108 152 11
108 152 11
108 152 12
108 152 12
108 152 12
108 152 12
108 152 13
109 152 13
109 152 13
109 152 13
109 152 14
109 152 14
109 152 14
109 152 14
109 152 15
110 152 15
110 152 15
110 152 15
110 152 16
110 152 16
110 152 16
110 152 16
110 152 17
111 152 17
111 152 17
111 152 17
111 152 18
111 152 18
111 152 18
111 152 19
111 152 19
112 152 19
112 152 19
112 152 20
112 152 20
112 152 20
112 152 20
112 152 21
112 152 21
113 152 21
113 152 21
113 152 22
113 152 22
113 152 22
113 152 22
113 152 23
113 152 23
114 152 23
114 152 23
114 152 24
114 152 24
114 152 24
114 152 24
114 152 25
114 152 25
115 152 25
115 152 25
115 152 26
115 152 26
115 152 26
115 152 26
115 152 27
115 152 27
116 152 27
116 152 28
116 152 28
116 152 28
116 152 28
116 152 29
116 152 29
116 152 29
117 152 29
117 152 30
117 152 30
117 152 30
117 152 30
117 152 31
117 152 31
117 152 31
118 152 31
118 152 32
118 152 32
118 152 32
118 152 32
118 152 33
118 152 33
118 152 33
119 152 33
119 152 34
119 152 34
119 152 34
119 152 34
119 152 35
119 152 35
119 152 35
120 152 35
120 152 36
120 152 36
120 152 36
120 152 36
120 152 37
120 152 37
120 152 37
121 152 38
121 152 38
121 152 38
121 152 38
121 152 39
121 152 39
121 152 39
121 152 39
122 152 40
122 152 40
122 152 40
122 152 40
122 152 41
122 152 41
122 152 41
122 152 41
123 152 42
123 152 42
123 152 42
123 152 42
123 152 43
123 152 43
123 152 43
123 152 43
124 152 44
124 152 44
124 152 44
124 152 44
124 152 45
124 152 45
124 152 45
124 152 45
125 152 46
125 152 46
125 152 46
125 152 47
125 152 47
125 152 47
125 152 47
125 152 48
126 152 48
126 152 48
126 152 48
126 152 49
126 152 49
126 152 49
126 152 49
126 152 50
127 152 50
127 152 50
127 152 50
127 152 51
127 152 51
127 152 51
127 152 51
127 152 52
128 152 52
128 152 52
128 152 52
128 152 53
128 152 53
128 152 53
128 152 53
128 152 54
129 152 54
129 152 54
129 152 54
129 152 55
129 152 55
129 152 55
129 152 56
129 152 56
130 152 56
130 152 56
130 152 57
130 152 57
130 152 57
130 152 57
130 152 58
130 152 58
131 152 58
131 152 58
131 152 59
131 152 59
131 152 59
131 152 59
131 152 60
131 152 60
132 152 60
132 152 60
132 152 61
132 152 61
132 152 61
132 152 61
132 152 62
132 152 62
133 152 62
133 152 62
133 152 63
133 152 63
133 152 63
133 152 63
133 152 64
133 152 64
134 152 64
134 152 65
134 152 65
134 152 65
134 152 65
134 152 66
134 152 66
134 152 66
135 152 66
135 152 67
135 152 67
135 152 67
135 152 67
135 152 68
135 152 68
135 152 68
136 152 68
136 152 69
136 152 69
136 152 69
136 152 69
136 152 70
136 152 70
136 152 70
137 152 70
137 152 71
137 152 71
137 152 71
137 152 71
137 152 72
137 152 72
137 152 72
138 152 72
138 152 73
138 152 73
138 152 73
138 152 73
138 152 74
138 152 74
138 152 74
139 152 75
139 152 75
139 152 75
139 152 75
139 152 76
139 152 76
139 152 76
139 152 76
140 152 77
140 152 77
140 152 77
140 152 77
140 152 78
140 152 78
140 152 78
140 152 78
141 152 79
141 152 79
141 152 79
141 152 79
141 152 80
141 152 80
141 152 80
141 152 80
142 152 81
142 152 81
142 152 81
142 152 81
142 152 82
142 152 82
142 152 82
142 152 82
143 152 83
143 152 83
143 152 83
143 152 84
143 152 84
143 152 84
143 152 84
143 152 85
144 152 85
144 152 85
144 152 85
144 152 86
144 152 86
144 152 86
144 152 86
144 152 87
145 152 87
145 152 87
145 152 87
145 152 88
145 152 88
145 152 88
145 152 88
145 152 89
146 152 89
146 152 89
146 152 89
146 152 90
146 152 90
146 152 90
146 152 90
146 152 91
147 152 91
147 152 91
147 152 91
147 152 92
147 152 92
147 152 92
147 152 93
147 152 93
148 152 93
148 152 93
148 152 94
148 152 94
148 152 94
148 152 94
148 152 95
148 152 95
149 152 95
149 152 95
149 152 96
149 152 96
149 152 96
149 152 96
149 152 97
149 152 97
150 152 97
150 152 97
150 152 98
150 152 98
150 152 98
150 152 98
150 152 99
150 152 99
151 152 99
151 152 99
151 152 100
151 152 100
151 152 100
151 152 100
151 152 101
151 152 101
152 152 101
152 152 101
152 152 102
152 152 102
103 151 0
103 151 0
104 151 0
104 151 0
104 151 1
104 151 1
104 151 1
104 151 1
104 151 2
104 151 2
104 151 2
105 151 2
105 151 3
105 151 3
105 151 3
105 151 3
105 151 4
105 151 4
105 151 4
106 151 4
106 151 5
106 151 5
106 151 5
106 151 5
106 151 6
106 151 6
106 151 6
107 151 7
107 151 7
107 151 7
107 151 7
107 151 8
107 151 8
107 151 8
107 151 8
107 151 9
108 151 9
108 151 9
108 151 9
108 151 10
108 151 10
108 151 10
108 151 10
108 151 11
109 151 11
109 151 11
109 151 11
109 151 12
109 151 12
109 151 12
109 151 13
109 151 13
109 151 13
110 151 13
110 151 14
110 151 14
110 151 14
110 151 14
110 151 15
110 151 15
110 151 15
111 151 15
111 151 16
111 151 16
111 151 16
111 151 16
111 151 17
111 151 17
111 151 17
111 151 17
112 151 18
112 151 18
112 151 18
112 151 18
112 151 19
112 151 19
112 151 19
112 151 20
113 151 20
113 151 20
113 151 20
113 151 21
113 151 21
113 151 21
113 151 21
113 151 22
114 151 22
114 151 22
114 151 22
114 151 23
114 151 23
114 151 23
114 151 23
114 151 24
114 151 24
115 151 24
115 151 24
115 151 25
115 151 25
115 151 25
115 151 26
115 151 26
115 151 26
116 151 26
116 151 27
116 151 27
116 151 27
116 151 27
116 151 28
116 151 28
116 151 28
116 151 28
117 151 29
117 151 29
117 151 29
117 151 29
117 151 30
117 151 30
117 151 30
117 151 30
118 151 31
118 151 31
118 151 31
118 151 31
118 151 32
118 151 32
118 151 32
118 151 33
119 151 33
119 151 33
119 151 33
119 151 34
119 151 34
119 151 34
119 151 34
119 151 35
119 151 35
120 151 35
120 151 35
120 151 36
120 151 36
120 151 36
120 151 36
120 151 37
120 151 37
121 151 37
121 151 37
121 151 38
121 151 38
121 151 38
121 151 39
121 151 39
121 151 39
121 151 39
122 151 40
122 151 40
122 151 40
122 151 40
122 151 41
122 151 41
122 151 41
122 151 41
123 151 42
123 151 42
123 151 42
123 151 42
123 151 43
123 151 43
123 151 43
123 151 43
123 151 44
124 151 44
124 151 44
124 151 45
124 151 45
124 151 45
124 151 45
124 151 46
124 151 46
125 151 46
125 151 46
125 151 47
125 151 47
125 151 47
125 151 47
125 151 48
125 151 48
126 151 48
126 151 48
126 151 49
126 151 49
126 151 49
126 151 49
126 151 50
126 151 50
126 151 50
127 151 50
127 151 51
127 151 51
127 151 51
127 151 52
127 151 52
127 151 52
127 151 52
128 151 53
128 151 53
128 151 53
128 151 53
128 151 54
128 151 54
128 151 54
128 151 54
128 151 55
129 151 55
129 151 55
129 151 55
129 151 56
129 151 56
129 151 56
129 151 56
129 151 57
130 151 57
130 151 57
130 151 58
130 151 58
130 151 58
130 151 58
130 151 59
130 151 59
131 151 59
131 151 59
131 151 60
131 151 60
131 151 60
131 151 60
131 151 61
131 151 61
131 151 61
132 151 61
132 151 62
132 151 62
132 151 62
132 151 62
132 151 63
132 151 63
132 151 63
133 151 63
133 151 64
133 151 64
133 151 64
133 151 65
133 151 65
133 151 65
133 151 65
133 151 66
134 151 66
134 151 66
134 151 66
134 151 67
134 151 67
134 151 67
134 151 67
134 151 68
135 151 68
135 151 68
135 151 68
135 151 69
135 151 69
135 151 69
135 151 69
135 151 70
135 151 70
136 151 70
136 151 71
136 151 71
136 151 71
136 151 71
136 151 72
136 151 72
136 151 72
137 151 72
137 151 73
137 151 73
137 151 73
137 151 73
137 151 74
137 151 74
137 151 74
138 151 74
138 151 75
138 151 75
138 151 75
138 151 75
138 151 76
138 151 76
138 151 76
138 151 77
139 151 77
139 151 77
139 151 77
139 151 78
139 151 78
139 151 78
139 151 78
139 151 79
140 151 79
140 151 79
140 151 79
140 151 80
140 151 80
140 151 80
140 151 80
140 151 81
140 151 81
141 151 81
141 151 81
141 151 82
141 151 82
141 151 82
141 151 82
141 151 83
141 151 83
142 151 83
142 151 84
142 151 84
142 151 84
142 151 84
142 151 85
142 151 85
142 151 85
143 151 85
143 151 86
143 151 86
143 151 86
143 151 86
143 151 87
143 151 87
143 151 87
143 151 87
144 151 88
144 151 88
144 151 88
144 151 88
144 151 89
144 151 89
144 151 89
144 151 90
145 151 90
145 151 90
145 151 90
145 151 91
145 151 91
145 151 91
145 151 91
145 151 92
145 151 92
146 151 92
146 151 92
146 151 93
146 151 93
146 151 93
146 151 93
146 151 94
146 151 94
147 151 94
147 151 94
147 151 95
147 151 95
147 151 95
147 151 95
147 151 96
147 151 96
147 151 96
148 151 97
148 151 97
148 151 97
148 151 97
148 151 98
148 151 98
148 151 98
148 151 98
149 151 99
149 151 99
149 151 99
149 151 99
149 151 100
149 151 100
149 151 100
149 151 100
150 151 101
150 151 101
150 151 101
150 151 101
150 151 102
150 151 102
150 151 102
150 151 103
150 151 103
151 151 103
151 151 103
105 149 0
105 149 0
105 149 0
105 149 0
105 149 1
105 149 1
105 149 1
105 149 1
105 149 2
106 149 2
106 149 2
106 149 2
106 149 3
106 149 3
106 149 3
106 149 3
106 149 4
106 149 4
107 149 4
107 149 5
107 149 5
107 149 5
107 149 5
107 149 6
107 149 6
107 149 6
107 149 6
108 149 7
108 149 7
108 149 7
108 149 7
108 149 8
108 149 8
108 149 8
108 149 8
109 149 9
109 149 9
109 149 9
109 149 10
109 149 10
109 149 10
109 149 10
109 149 11
109 149 11
110 149 11
110 149 11
110 149 12
110 149 12
110 149 12
110 149 12
110 149 13
110 149 13
110 149 13
111 149 13
111 149 14
111 149 14
111 149 14
111 149 15
111 149 15
111 149 15
111 149 15
111 149 16
112 149 16
112 149 16
112 149 16
112 149 17
112 149 17
112 149 17
112 149 17
112 149 18
112 149 18
113 149 18
113 149 18
113 149 19
113 149 19
113 149 19
113 149 20
113 149 20
113 149 20
113 149 20
114 149 21
114 149 21
114 149 21
114 149 21
114 149 22
114 149 22
114 149 22
114 149 22
114 149 23
115 149 23
115 149 23
115 149 23
115 149 24
115 149 24
115 149 24
115 149 25
115 149 25
115 149 25
116 149 25
116 149 26
116 149 26
116 149 26
116 149 26
116 149 27
116 149 27
116 149 27
116 149 27
117 149 28
117 149 28
117 149 28
117 149 28
117 149 29
117 149 29
117 149 29
117 149 30
118 149 30
118 149 30
118 149 30
118 149 31
118 149 31
118 149 31
118 149 31
118 149 32
118 149 32
119 149 32
119 149 32
119 149 33
119 149 33
119 149 33
119 149 33
119 149 34
119 149 34
119 149 34
120 149 35
120 149 35
120 149 35
120 149 35
120 149 36
120 149 36
120 149 36
120 149 36
120 149 37
121 149 37
121 149 37
121 149 37
121 149 38
121 149 38
121 149 38
121 149 38
121 149 39
121 149 39
122 149 39
122 149 40
122 149 40
122 149 40
122 149 40
122 149 41
122 149 41
122 149 41
122 149 41
123 149 42
123 149 42
123 149 42
123 149 42
123 149 43
123 149 43
123 149 43
123 149 43
123 149 44
124 149 44
124 149 44
124 149 45
124 149 45
124 149 45
124 149 45
124 149 46
124 149 46
124 149 46
125 149 46
125 149 47
125 149 47
125 149 47
125 149 47
125 149 48
125 149 48
125 149 48
125 149 48
126 149 49
126 149 49
126 149 49
126 149 50
126 149 50
126 149 50
126 149 50
126 149 51
126 149 51
127 149 51
127 149 51
127 149 52
127 149 52
127 149 52
127 149 52
127 149 53
127 149 53
128 149 53
128 149 53
128 149 54
128 149 54
128 149 54
128 149 55
128 149 55
128 149 55
128 149 55
129 149 56
129 149 56
129 149 56
129 149 56
129 149 57
129 149 57
129 149 57
129 149 57
129 149 58
130 149 58
130 149 58
130 149 58
130 149 59
130 149 59
130 149 59
130 149 60
130 149 60
130 149 60
131 149 60
131 149 61
131 149 61
131 149 61
131 149 61
131 149 62
131 149 62
131 149 62
131 149 62
132 149 63
132 149 63
132 149 63
132 149 63
132 149 64
132 149 64
132 149 64
132 149 65
132 149 65
133 149 65
133 149 65
133 149 66
133 149 66
133 149 66
133 149 66
133 149 67
133 149 67
133 149 67
134 149 67
134 149 68
134 149 68
134 149 68
134 149 68
134 149 69
134 149 69
134 149 69
134 149 70
135 149 70
135 149 70
135 149 70
135 149 71
135 149 71
135 149 71
135 149 71
135 149 72
135 149 72
136 149 72
136 149 72
136 149 73
136 149 73
136 149 73
136 149 74
136 149 74
136 149 74
136 149 74
137 149 75
137 149 75
137 149 75
137 149 75
137 149 76
137 149 76
137 149 76
137 149 76
138 149 77
138 149 77
138 149 77
138 149 77
138 149 78
138 149 78
138 149 78
138 149 79
138 149 79
139 149 79
139 149 79
139 149 80
139 149 80
139 149 80
139 149 80
139 149 81
139 149 81
139 149 81
140 149 81
140 149 82
140 149 82
140 149 82
140 149 82
140 149 83
140 149 83
140 149 83
140 149 84
141 149 84
141 149 84
141 149 84
141 149 85
141 149 85
141 149 85
141 149 85
141 149 86
141 149 86
142 149 86
142 149 86
142 149 87
142 149 87
142 149 87
142 149 87
142 149 88
142 149 88
142 149 88
143 149 89
143 149 89
143 149 89
143 149 89
143 149 90
143 149 90
143 149 90
143 149 90
143 149 91
144 149 91
144 149 91
144 149 91
144 149 92
144 149 92
144 149 92
144 149 92
144 149 93
144 149 93
145 149 93
145 149 94
145 149 94
145 149 94
145 149 94
145 149 95
145 149 95
145 149 95
145 149 95
146 149 96
146 149 96
146 149 96
146 149 96
146 149 97
146 149 97
146 149 97
146 149 97
147 149 98
147 149 98
147 149 98
147 149 99
147 149 99
147 149 99
147 149 99
147 149 100
147 149 100
148 149 100
148 149 100
148 149 101
148 149 101
148 149 101
148 149 101
148 149 102
148 149 102
148 149 102
149 149 102
149 149 103
149 149 103
149 149 103
149 149 104
149 149 104
149 149 104
149 149 104
149 149 105
106 148 0
106 148 0
106 148 0
106 148 0
106 148 1
106 148 1
106 148 1
107 148 1
107 148 2
107 148 2
107 148 2
107 148 2
107 148 3
107 148 3
107 148 3
107 148 3
108 148 4
108 148 4
108 148 4
108 148 5
108 148 5
108 148 5
108 148 5
108 148 6
108 148 6
109 148 6
109 148 6
109 148 7
109 148 7
109 148 7
109 148 7
109 148 8
109 148 8
109 148 8
109 148 9
110 148 9
110 148 9
110 148 9
110 148 10
110 148 10
110 148 10
110 148 10
110 148 11
110 148 11
111 148 11
111 148 11
111 148 12
111 148 12
111 148 12
111 148 13
111 148 13
111 148 13
111 148 13
111 148 14
112 148 14
112 148 14
112 148 14
112 148 15
112 148 15
112 148 15
112 148 15
112 148 16
112 148 16
113 148 16
113 148 17
113 148 17
113 148 17
113 148 17
113 148 18
113 148 18
113 148 18
113 148 18
113 148 19
114 148 19
114 148 19
114 148 19
114 148 20
114 148 20
114 148 20
114 148 21
114 148 21
114 148 21
115 148 21
115 148 22
115 148 22
115 148 22
115 148 22
115 148 23
115 148 23
115 148 23
115 148 23
116 148 24
116 148 24
116 148 24
116 148 25
116 148 25
116 148 25
116 148 25
116 148 26
116 148 26
116 148 26
117 148 26
117 148 27
117 148 27
117 148 27
117 148 27
117 148 28
117 148 28
117 148 28
117 148 29
118 148 29
118 148 29
118 148 29
118 148 30
118 148 30
118 148 30
118 148 30
118 148 31
118 148 31
118 148 31
119 148 31
119 148 32
119 148 32
119 148 32
119 148 33
119 148 33
119 148 33
119 148 33
119 148 34
120 148 34
120 148 34
120 148 34
120 148 35
120 148 35
120 148 35
120 148 35
120 148 36
120 148 36
120 148 36
121 148 37
121 148 37
121 148 37
121 148 37
121 148 38
121 148 38
121 148 38
121 148 38
121 148 39
122 148 39
122 148 39
122 148 39
122 148 40
122 148 40
122 148 40
122 148 41
122 148 41
122 148 41
122 148 41
123 148 42
123 148 42
123 148 42
123 148 42
123 148 43
123 148 43
123 148 43
123 148 43
123 148 44
124 148 44
124 148 44
124 148 45
124 148 45
124 148 45
124 148 45
124 148 46
124 148 46
124 148 46
125 148 46
125 148 47
125 148 47
125 148 47
125 148 47
125 148 48
125 148 48
125 148 48
125 148 49
125 148 49
126 148 49
126 148 49
126 148 50
126 148 50
126 148 50
126 148 50
126 148 51
126 148 51
126 148 51
127 148 51
127 148 52
127 148 52
127 148 52
127 148 53
127 148 53
127 148 53
127 148 53
127 148 54
127 148 54
128 148 54
128 148 54
128 148 55
128 148 55
128 148 55
128 148 55
128 148 56
128 148 56
128 148 56
129 148 57
129 148 57
129 148 57
129 148 57
129 148 58
129 148 58
129 148 58
129 148 58
129 148 59
129 148 59
130 148 59
130 148 59
130 148 60
130 148 60
130 148 60
130 148 61
130 148 61
130 148 61
130 148 61
131 148 62
131 148 62
131 148 62
131 148 62
131 148 63
131 148 63
131 148 63
131 148 63
131 148 64
132 148 64
132 148 64
132 148 65
132 148 65
132 148 65
132 148 65
132 148 66
132 148 66
132 148 66
132 148 66
133 148 67
133 148 67
133 148 67
133 148 67
133 148 68
133 148 68
133 148 68
133 148 69
133 148 69
134 148 69
134 148 69
134 148 70
134 148 70
134 148 70
134 148 70
134 148 71
134 148 71
134 148 71
134 148 71
135 148 72
135 148 72
135 148 72
135 148 73
135 148 73
135 148 73
135 148 73
135 148 74
135 148 74
136 148 74
136 148 74
136 148 75
136 148 75
136 148 75
136 148 75
136 148 76
136 148 76
136 148 76
136 148 77
137 148 77
137 148 77
137 148 77
137 148 78
137 148 78
137 148 78
137 148 78
137 148 79
137 148 79
138 148 79
138 148 79
138 148 80
138 148 80
138 148 80
138 148 81
138 148 81
138 148 81
138 148 81
138 148 82
139 148 82
139 148 82
139 148 82
139 148 83
139 148 83
139 148 83
139 148 83
139 148 84
139 148 84
140 148 84
140 148 85
140 148 85
140 148 85
140 148 85
140 148 86
140 148 86
140 148 86
140 148 86
141 148 87
141 148 87
141 148 87
141 148 87
141 148 88
141 148 88
141 148 88
141 148 89
141 148 89
141 148 89
142 148 89
142 148 90
142 148 90
142 148 90
142 148 90
142 148 91
142 148 91
142 148 91
142 148 91
143 148 92
143 148 92
143 148 92
143 148 93
143 148 93
143 148 93
143 148 93
143 148 94
143 148 94
143 148 94
144 148 94
144 148 95
144 148 95
144 148 95
144 148 95
144 148 96
144 148 96
144 148 96
144 148 97
145 148 97
145 148 97
145 148 97
145 148 98
145 148 98
145 148 98
145 148 98
145 148 99
145 148 99
145 148 99
146 148 99
146 148 100
146 148 100
146 148 100
146 148 101
146 148 101
146 148 101
146 148 101
146 148 102
147 148 102
147 148 102
147 148 102
147 148 103
147 148 103
147 148 103
147 148 103
147 148 104
147 148 104
148 148 104
148 148 105
148 148 105
148 148 105
148 148 105
148 148 106
148 148 106
107 147 0
107 147 0
107 147 0
107 147 0
108 147 1
108 147 1
108 147 1
108 147 1
108 147 2
108 147 2
108 147 2
108 147 2
108 147 3
108 147 3
109 147 3
109 147 4
109 147 4
109 147 4
109 147 4
109 147 5
109 147 5
109 147 5
109 147 5
109 147 6
110 147 6
110 147 6
110 147 7
110 147 7
110 147 7
110 147 7
110 147 8
110 147 8
110 147 8
110 147 8
111 147 9
111 147 9
111 147 9
111 147 9
111 147 10
111 147 10
111 147 10
111 147 11
111 147 11
111 147 11
112 147 11
112 147 12
112 147 12
112 147 12
112 147 12
112 147 13
112 147 13
112 147 13
112 147 14
112 147 14
113 147 14
113 147 14
113 147 15
113 147 15
113 147 15
113 147 15
113 147 16
113 147 16
113 147 16
113 147 16
114 147 17
114 147 17
114 147 17
114 147 18
114 147 18
114 147 18
114 147 18
114 147 19
114 147 19
114 147 19
115 147 19
115 147 20
115 147 20
115 147 20
115 147 21
115 147 21
115 147 21
115 147 21
115 147 22
115 147 22
116 147 22
116 147 22
116 147 23
116 147 23
116 147 23
116 147 24
116 147 24
116 147 24
116 147 24
116 147 25
116 147 25
117 147 25
117 147 25
117 147 26
117 147 26
117 147 26
117 147 26
117 147 27
117 147 27
117 147 27
117 147 28
118 147 28
118 147 28
118 147 28
118 147 29
118 147 29
118 147 29
118 147 29
118 147 30
118 147 30
118 147 30
119 147 31
119 147 31
119 147 31
119 147 31
119 147 32
119 147 32
119 147 32
119 147 32
119 147 33
119 147 33
120 147 33
120 147 33
120 147 34
120 147 34
120 147 34
120 147 35
120 147 35
120 147 35
120 147 35
120 147 36
121 147 36
121 147 36
121 147 36
121 147 37
121 147 37
121 147 37
121 147 38
121 147 38
121 147 38
121 147 38
122 147 39
122 147 39
122 147 39
122 147 39
122 147 40
122 147 40
122 147 40
122 147 41
122 147 41
122 147 41
123 147 41
123 147 42
123 147 42
123 147 42
123 147 42
123 147 43
123 147 43
123 147 43
123 147 43
123 147 44
124 147 44
124 147 44
124 147 45
124 147 45
124 147 45
124 147 45
124 147 46
124 147 46
124 147 46
124 147 46
125 147 47
125 147 47
125 147 47
125 147 48
125 147 48
125 147 48
125 147 48
125 147 49
125 147 49
125 147 49
126 147 49
126 147 50
126 147 50
126 147 50
126 147 50
126 147 51
126 147 51
126 147 51
126 147 52
126 147 52
127 147 52
127 147 52
127 147 53
127 147 53
127 147 53
127 147 53
127 147 54
127 147 54
127 147 54
127 147 55
128 147 55
128 147 55
128 147 55
128 147 56
128 147 56
128 147 56
128 147 56
128 147 57
128 147 57
128 147 57
129 147 58
129 147 58
129 147 58
129 147 58
129 147 59
129 147 59
129 147 59
129 147 59
129 147 60
129 147 60
130 147 60
130 147 60
130 147 61
130 147 61
130 147 61
130 147 62
130 147 62
130 147 62
130 147 62
130 147 63
131 147 63
131 147 63
131 147 63
131 147 64
131 147 64
131 147 64
131 147 65
131 147 65
131 147 65
131 147 65
132 147 66
132 147 66
132 147 66
132 147 66
132 147 67
132 147 67
132 147 67
132 147 67
132 147 68
132 147 68
133 147 68
133 147 69
133 147 69
133 147 69
133 147 69
133 147 70
133 147 70
133 147 70
133 147 70
133 147 71
134 147 71
134 147 71
134 147 72
134 147 72
134 147 72
134 147 72
134 147 73
134 147 73
134 147 73
134 147 73
135 147 74
135 147 74
135 147 74
135 147 74
135 147 75
135 147 75
135 147 75
135 147 76
135 147 76
135 147 76
136 147 76
136 147 77
136 147 77
136 147 77
136 147 77
136 147 78
136 147 78
136 147 78
136 147 79
136 147 79
137 147 79
137 147 79
137 147 80
137 147 80
137 147 80
137 147 80
137 147 81
137 147 81
137 147 81
137 147 82
138 147 82
138 147 82
138 147 82
138 147 83
138 147 83
138 147 83
138 147 83
138 147 84
138 147 84
138 147 84
138 147 84
139 147 85
139 147 85
139 147 85
139 147 86
139 147 86
139 147 86
139 147 86
139 147 87
139 147 87
139 147 87
140 147 87
140 147 88
140 147 88
140 147 88
140 147 89
140 147 89
140 147 89
140 147 89
140 147 90
140 147 90
141 147 90
141 147 90
141 147 91
141 147 91
141 147 91
141 147 91
141 147 92
141 147 92
141 147 92
141 147 93
142 147 93
142 147 93
142 147 93
142 147 94
142 147 94
142 147 94
142 147 94
142 147 95
142 147 95
142 147 95
143 147 96
143 147 96
143 147 96
143 147 96
143 147 97
143 147 97
143 147 97
143 147 97
143 147 98
143 147 98
144 147 98
144 147 99
144 147 99
144 147 99
144 147 99
144 147 100
144 147 100
144 147 100
144 147 100
144 147 101
145 147 101
145 147 101
145 147 101
145 147 102
145 147 102
145 147 102
145 147 103
145 147 103
145 147 103
145 147 103
146 147 104
146 147 104
146 147 104
146 147 104
146 147 105
146 147 105
146 147 105
146 147 106
146 147 106
146 147 106
147 147 106
147 147 107
147 147 107
147 147 107
108 146 0
109 146 0
109 146 0
109 146 0
109 146 1
109 146 1
109 146 1
109 146 1
109 146 2
109 146 2
109 146 2
109 146 3
110 146 3
110 146 3
110 146 3
110 146 4
110 146 4
110 146 4
110 146 4
110 146 5
110 146 5
110 146 5
110 146 6
111 146 6
111 146 6
111 146 6
111 146 7
111 146 7
111 146 7
111 146 7
111 146 8
111 146 8
111 146 8
111 146 9
112 146 9
112 146 9
112 146 9
112 146 10
112 146 10
112 146 10
112 146 10
112 146 11
112 146 11
112 146 11
113 146 12
113 146 12
113 146 12
113 146 12
113 146 13
113 146 13
113 146 13
113 146 13
113 146 14
113 146 14
113 146 14
114 146 15
114 146 15
114 146 15
114 146 15
114 146 16
114 146 16
114 146 16
114 146 16
114 146 17
114 146 17
114 146 17
115 146 18
115 146 18
115 146 18
115 146 18
115 146 19
115 146 19
115 146 19
115 146 19
115 146 20
115 146 20
115 146 20
116 146 21
116 146 21
116 146 21
116 146 21
116 146 22
116 146 22
116 146 22
116 146 22
116 146 23
116 146 23
117 146 23
117 146 24
117 146 24
117 146 24
117 146 24
117 146 25
117 146 25
117 146 25
117 146 25
117 146 26
117 146 26
118 146 26
118 146 27
118 146 27
118 146 27
118 146 27
118 146 28
118 146 28
118 146 28
118 146 28
118 146 29
118 146 29
119 146 29
119 146 30
119 146 30
119 146 30
119 146 30
119 146 31
119 146 31
119 146 31
119 146 31
119 146 32
120 146 32
120 146 32
120 146 33
120 146 33
120 146 33
120 146 33
120 146 34
120 146 34
120 146 34
120 146 34
120 146 35
121 146 35
121 146 35
121 146 36
121 146 36
121 146 36
121 146 36
121 146 37
121 146 37
121 146 37
121 146 37
121 146 38
122 146 38
122 146 38
122 146 39
122 146 39
122 146 39
122 146 39
122 146 40
122 146 40
122 146 40
122 146 40
122 146 41
123 146 41
123 146 41
123 146 42
123 146 42
123 146 42
123 146 42
123 146 43
123 146 43
123 146 43
123 146 43
124 146 44
124 146 44
124 146 44
124 146 45
124 146 45
124 146 45
124 146 45
124 146 46
124 146 46
124 146 46
124 146 46
125 146 47
125 146 47
125 146 47
125 146 48
125 146 48
125 146 48
125 146 48
125 146 49
125 146 49
125 146 49
125 146 49
126 146 50
126 146 50
126 146 50
126 146 51
126 146 51
126 146 51
126 146 51
126 146 52
126 146 52
126 146 52
126 146 52
127 146 53
127 146 53
127 146 53
127 146 54
127 146 54
127 146 54
127 146 54
127 146 55
127 146 55
127 146 55
128 146 55
128 146 56
128 146 56
128 146 56
128 146 57
128 146 57
128 146 57
128 146 57
128 146 58
128 146 58
128 146 58
129 146 58
129 146 59
129 146 59
129 146 59
129 146 60
129 146 60
129 146 60
129 146 60
129 146 61
129 146 61
129 146 61
130 146 61
130 146 62
130 146 62
130 146 62
130 146 63
130 146 63
130 146 63
130 146 63
130 146 64
130 146 64
130 146 64
131 146 64
131 146 65
131 146 65
131 146 65
131 146 66
131 146 66
131 146 66
131 146 66
131 146 67
131 146 67
132 146 67
132 146 67
132 146 68
132 146 68
132 146 68
132 146 69
132 146 69
132 146 69
132 146 69
132 146 70
132 146 70
133 146 70
133 146 70
133 146 71
133 146 71
133 146 71
133 146 72
133 146 72
133 146 72
133 146 72
133 146 73
133 146 73
134 146 73
134 146 73
134 146 74
134 146 74
134 146 74
134 146 75
134 146 75
134 146 75
134 146 75
134 146 76
134 146 76
135 146 76
135 146 76
135 146 77
135 146 77
135 146 77
135 146 78
135 146 78
135 146 78
135 146 78
135 146 79
136 146 79
136 146 79
136 146 79
136 146 80
136 146 80
136 146 80
136 146 81
136 146 81
136 146 81
136 146 81
136 146 82
137 146 82
137 146 82
137 146 82
137 146 83
137 146 83
137 146 83
137 146 84
137 146 84
137 146 84
137 146 84
137 146 85
138 146 85
138 146 85
138 146 85
138 146 86
138 146 86
138 146 86
138 146 87
138 146 87
138 146 87
138 146 87
139 146 88
139 146 88
139 146 88
139 146 88
139 146 89
139 146 89
139 146 89
139 146 90
139 146 90
139 146 90
139 146 90
140 146 91
140 146 91
140 146 91
140 146 91
140 146 92
140 146 92
140 146 92
140 146 93
140 146 93
140 146 93
140 146 93
141 146 94
141 146 94
141 146 94
141 146 94
141 146 95
141 146 95
141 146 95
141 146 96
141 146 96
141 146 96
141 146 96
142 146 97
142 146 97
142 146 97
142 146 98
142 146 98
142 146 98
142 146 98
142 146 99
142 146 99
142 146 99
143 146 99
143 146 100
143 146 100
143 146 100
143 146 101
143 146 101
143 146 101
143 146 101
143 146 102
143 146 102
143 146 102
144 146 102
144 146 103
144 146 103
144 146 103
144 146 104
144 146 104
144 146 104
144 146 104
144 146 105
144 146 105
144 146 105
145 146 105
145 146 106
145 146 106
145 146 106
145 146 107
145 146 107
145 146 107
145 146 107
145 146 108
145 146 108
145 146 108
146 146 108
110 144 0
110 144 0
110 144 0
110 144 0
110 144 1
110 144 1
110 144 1
110 144 1
110 144 2
110 144 2
111 144 2
111 144 3
111 144 3
111 144 3
111 144 3
111 144 4
111 144 4
111 144 4
111 144 4
111 144 5
111 144 5
112 144 5
112 144 6
112 144 6
112 144 6
112 144 6
112 144 7
112 144 7
112 144 7
112 144 8
112 144 8
112 144 8
112 144 8
113 144 9
113 144 9
113 144 9
113 144 9
113 144 10
113 144 10
113 144 10
113 144 11
113 144 11
113 144 11
113 144 11
114 144 12
114 144 12
114 144 12
114 144 12
114 144 13
114 144 13
114 144 13
114 144 14
114 144 14
114 144 14
114 144 14
114 144 15
115 144 15
115 144 15
115 144 16
115 144 16
115 144 16
115 144 16
115 144 17
115 144 17
115 144 17
115 144 17
115 144 18
116 144 18
116 144 18
116 144 19
116 144 19
116 144 19
116 144 19
116 144 20
116 144 20
116 144 20
116 144 20
116 144 21
116 144 21
117 144 21
117 144 22
117 144 22
117 144 22
117 144 22
117 144 23
117 144 23
117 144 23
117 144 24
117 144 24
117 144 24
118 144 24
118 144 25
118 144 25
118 144 25
118 144 25
118 144 26
118 144 26
118 144 26
118 144 27
118 144 27
118 144 27
118 144 27
119 144 28
119 144 28
119 144 28
119 144 29
119 144 29
119 144 29
119 144 29
119 144 30
119 144 30
119 144 30
119 144 30
119 144 31
120 144 31
120 144 31
120 144 32
120 144 32
120 144 32
120 144 32
120 144 33
120 144 33
120 144 33
120 144 33
120 144 34
121 144 34
121 144 34
121 144 35
121 144 35
121 144 35
121 144 35
121 144 36
121 144 36
121 144 36
121 144 37
121 144 37
121 144 37
122 144 37
122 144 38
122 144 38
122 144 38
122 144 38
122 144 39
122 144 39
122 144 39
122 144 40
122 144 40
122 144 40
123 144 40
123 144 41
123 144 41
123 144 41
123 144 41
123 144 42
123 144 42
123 144 42
123 144 43
123 144 43
123 144 43
123 144 43
124 144 44
124 144 44
124 144 44
124 144 45
124 144 45
124 144 45
124 144 45
124 144 46
124 144 46
124 144 46
124 144 46
125 144 47
125 144 47
125 144 47
125 144 48
125 144 48
125 144 48
125 144 48
125 144 49
125 144 49
125 144 49
125 144 49
125 144 50
126 144 50
126 144 50
126 144 51
126 144 51
126 144 51
126 144 51
126 144 52
126 144 52
126 144 52
126 144 53
126 144 53
127 144 53
127 144 53
127 144 54
127 144 54
127 144 54
127 144 54
127 144 55
127 144 55
127 144 55
127 144 56
127 144 56
127 144 56
128 144 56
128 144 57
128 144 57
128 144 57
128 144 58
128 144 58
128 144 58
128 144 58
128 144 59
128 144 59
128 144 59
129 144 59
129 144 60
129 144 60
129 144 60
129 144 61
129 144 61
129 144 61
129 144 61
129 144 62
129 144 62
129 144 62
129 144 62
130 144 63
130 144 63
130 144 63
130 144 64
130 144 64
130 144 64
130 144 64
130 144 65
130 144 65
130 144 65
130 144 66
131 144 66
131 144 66
131 144 66
131 144 67
131 144 67
131 144 67
131 144 67
131 144 68
131 144 68
131 144 68
131 144 69
131 144 69
132 144 69
132 144 69
132 144 70
132 144 70
132 144 70
132 144 70
132 144 71
132 144 71
132 144 71
132 144 72
132 144 72
133 144 72
133 144 72
133 144 73
133 144 73
133 144 73
133 144 74
133 144 74
133 144 74
133 144 74
133 144 75
133 144 75
133 144 75
134 144 75
134 144 76
134 144 76
134 144 76
134 144 77
134 144 77
134 144 77
134 144 77
134 144 78
134 144 78
134 144 78
135 144 78
135 144 79
135 144 79
135 144 79
135 144 80
135 144 80
135 144 80
135 144 80
135 144 81
135 144 81
135 144 81
135 144 82
136 144 82
136 144 82
136 144 82
136 144 83
136 144 83
136 144 83
136 144 83
136 144 84
136 144 84
136 144 84
136 144 85
136 144 85
137 144 85
137 144 85
137 144 86
137 144 86
137 144 86
137 144 87
137 144 87
137 144 87
137 144 87
137 144 88
137 144 88
138 144 88
138 144 88
138 144 89
138 144 89
138 144 89
138 144 90
138 144 90
138 144 90
138 144 90
138 144 91
138 144 91
138 144 91
139 144 91
139 144 92
139 144 92
139 144 92
139 144 93
139 144 93
139 144 93
139 144 93
139 144 94
139 144 94
139 144 94
140 144 95
140 144 95
140 144 95
140 144 95
140 144 96
140 144 96
140 144 96
140 144 96
140 144 97
140 144 97
140 144 97
140 144 98
141 144 98
141 144 98
141 144 98
141 144 99
141 144 99
141 144 99
141 144 99
141 144 100
141 144 100
141 144 100
141 144 101
142 144 101
142 144 101
142 144 101
142 144 102
142 144 102
142 144 102
142 144 103
142 144 103
142 144 103
142 144 103
142 144 104
142 144 104
143 144 104
143 144 104
143 144 105
143 144 105
143 144 105
143 144 106
143 144 106
143 144 106
143 144 106
143 144 107
143 144 107
144 144 107
144 144 107
144 144 108
144 144 108
144 144 108
144 144 109
144 144 109
144 144 109
144 144 109
144 144 110
111 143 0
111 143 0
111 143 0
111 143 0
111 143 1
111 143 1
111 143 1
112 143 1
112 143 2
112 143 2
112 143 2
112 143 3
112 143 3
112 143 3
112 143 3
112 143 4
112 143 4
112 143 4
112 143 5
113 143 5
113 143 5
113 143 5
113 143 6
113 143 6
113 143 6
113 143 6
113 143 7
113 143 7
113 143 7
113 143 8
113 143 8
113 143 8
114 143 8
114 143 9
114 143 9
114 143 9
114 143 10
114 143 10
114 143 10
114 143 10
114 143 11
114 143 11
114 143 11
114 143 12
115 143 12
115 143 12
115 143 12
115 143 13
115 143 13
115 143 13
115 143 13
115 143 14
115 143 14
115 143 14
115 143 15
115 143 15
115 143 15
116 143 15
116 143 16
116 143 16
116 143 16
116 143 17
116 143 17
116 143 17
116 143 17
116 143 18
116 143 18
116 143 18
116 143 18
117 143 19
117 143 19
117 143 19
117 143 20
117 143 20
117 143 20
117 143 20
117 143 21
117 143 21
117 143 21
117 143 22
117 143 22
117 143 22
118 143 22
118 143 23
118 143 23
118 143 23
118 143 24
118 143 24
118 143 24
118 143 24
118 143 25
118 143 25
118 143 25
118 143 25
119 143 26
119 143 26
119 143 26
119 143 27
119 143 27
119 143 27
119 143 27
119 143 28
119 143 28
119 143 28
119 143 29
119 143 29
119 143 29
120 143 29
120 143 30
120 143 30
120 143 30
120 143 31
120 143 31
120 143 31
120 143 31
120 143 32
120 143 32
120 143 32
120 143 32
121 143 33
121 143 33
121 143 33
121 143 34
121 143 34
121 143 34
121 143 34
121 143 35
121 143 35
121 143 35
121 143 36
121 143 36
122 143 36
122 143 36
122 143 37
122 143 37
122 143 37
122 143 37
122 143 38
122 143 38
122 143 38
122 143 39
122 143 39
122 143 39
122 143 39
123 143 40
123 143 40
123 143 40
123 143 41
123 143 41
123 143 41
123 143 41
123 143 42
123 143 42
123 143 42
123 143 43
123 143 43
124 143 43
124 143 43
124 143 44
124 143 44
124 143 44
124 143 44
124 143 45
124 143 45
124 143 45
124 143 46
124 143 46
124 143 46
124 143 46
125 143 47
125 143 47
125 143 47
125 143 48
125 143 48
125 143 48
125 143 48
125 143 49
125 143 49
125 143 49
125 143 50
125 143 50
126 143 50
126 143 50
126 143 51
126 143 51
126 143 51
126 143 51
126 143 52
126 143 52
126 143 52
126 143 53
126 143 53
126 143 53
126 143 53
127 143 54
127 143 54
127 143 54
127 143 55
127 143 55
127 143 55
127 143 55
127 143 56
127 143 56
127 143 56
127 143 56
127 143 57
128 143 57
128 143 57
128 143 58
128 143 58
128 143 58
128 143 58
128 143 59
128 143 59
128 143 59
128 143 60
128 143 60
128 143 60
128 143 60
129 143 61
129 143 61
129 143 61
129 143 62
129 143 62
129 143 62
129 143 62
129 143 63
129 143 63
129 143 63
129 143 63
129 143 64
130 143 64
130 143 64
130 143 65
130 143 65
130 143 65
130 143 65
130 143 66
130 143 66
130 143 66
130 143 67
130 143 67
130 143 67
130 143 67
131 143 68
131 143 68
131 143 68
131 143 69
131 143 69
131 143 69
131 143 69
131 143 70
131 143 70
131 143 70
131 143 70
131 143 71
132 143 71
132 143 71
132 143 72
132 143 72
132 143 72
132 143 72
132 143 73
132 143 73
132 143 73
132 143 74
132 143 74
132 143 74
132 143 74
133 143 75
133 143 75
133 143 75
133 143 75
133 143 76
133 143 76
133 143 76
133 143 77
133 143 77
133 143 77
133 143 77
133 143 78
134 143 78
134 143 78
134 143 79
134 143 79
134 143 79
134 143 79
134 143 80
134 143 80
134 143 80
134 143 81
134 143 81
134 143 81
135 143 81
135 143 82
135 143 82
135 143 82
135 143 82
135 143 83
135 143 83
135 143 83
135 143 84
135 143 84
135 143 84
135 143 84
135 143 85
136 143 85
136 143 85
136 143 86
136 143 86
136 143 86
136 143 86
136 143 87
136 143 87
136 143 87
136 143 88
136 143 88
136 143 88
137 143 88
137 143 89
137 143 89
137 143 89
137 143 89
137 143 90
137 143 90
137 143 90
137 143 91
137 143 91
137 143 91
137 143 91
137 143 92
138 143 92
138 143 92
138 143 93
138 143 93
138 143 93
138 143 93
138 143 94
138 143 94
138 143 94
138 143 94
138 143 95
138 143 95
139 143 95
139 143 96
139 143 96
139 143 96
139 143 96
139 143 97
139 143 97
139 143 97
139 143 98
139 143 98
139 143 98
139 143 98
139 143 99
140 143 99
140 143 99
140 143 100
140 143 100
140 143 100
140 143 100
140 143 101
140 143 101
140 143 101
140 143 101
140 143 102
140 143 102
141 143 102
141 143 103
141 143 103
141 143 103
141 143 103
141 143 104
141 143 104
141 143 104
141 143 105
141 143 105
141 143 105
141 143 105
141 143 106
142 143 106
142 143 106
142 143 107
142 143 107
142 143 107
142 143 107
142 143 108
142 143 108
142 143 108
142 143 108
142 143 109
142 143 109
143 143 109
143 143 110
143 143 110
143 143 110
143 143 110
143 143 111
143 143 111
112 142 0
112 142 0
112 142 0
112 142 0
113 142 1
113 142 1
113 142 1
113 142 1
113 142 2
113 142 2
113 142 2
113 142 3
113 142 3
113 142 3
113 142 3
113 142 4
113 142 4
114 142 4
114 142 5
114 142 5
114 142 5
114 142 5
114 142 6
114 142 6
114 142 6
114 142 7
114 142 7
114 142 7
114 142 7
114 142 8
114 142 8
115 142 8
115 142 9
115 142 9
115 142 9
115 142 9
115 142 10
115 142 10
115 142 10
115 142 11
115 142 11
115 142 11
115 142 11
115 142 12
116 142 12
116 142 12
116 142 13
116 142 13
116 142 13
116 142 13
116 142 14
116 142 14
116 142 14
116 142 14
116 142 15
116 142 15
116 142 15
116 142 16
117 142 16
117 142 16
117 142 16
117 142 17
117 142 17
117 142 17
117 142 18
117 142 18
117 142 18
117 142 18
117 142 19
117 142 19
117 142 19
118 142 20
118 142 20
118 142 20
118 142 20
118 142 21
118 142 21
118 142 21
118 142 22
118 142 22
118 142 22
118 142 22
118 142 23
118 142 23
118 142 23
119 142 24
119 142 24
119 142 24
119 142 24
119 142 25
119 142 25
119 142 25
119 142 26
119 142 26
119 142 26
119 142 26
119 142 27
119 142 27
120 142 27
120 142 27
120 142 28
120 142 28
120 142 28
120 142 29
120 142 29
120 142 29
120 142 29
120 142 30
120 142 30
120 142 30
120 142 31
120 142 31
121 142 31
121 142 31
121 142 32
121 142 32
121 142 32
121 142 33
121 142 33
121 142 33
121 142 33
121 142 34
121 142 34
121 142 34
121 142 35
121 142 35
122 142 35
122 142 35
122 142 36
122 142 36
122 142 36
122 142 37
122 142 37
122 142 37
122 142 37
122 142 38
122 142 38
122 142 38
122 142 39
123 142 39
123 142 39
123 142 39
123 142 40
123 142 40
123 142 40
123 142 40
123 142 41
123 142 41
123 142 41
123 142 42
123 142 42
123 142 42
123 142 42
124 142 43
124 142 43
124 142 43
124 142 44
124 142 44
124 142 44
124 142 44
124 142 45
124 142 45
124 142 45
124 142 46
124 142 46
124 142 46
125 142 46
125 142 47
125 142 47
125 142 47
125 142 48
125 142 48
125 142 48
125 142 48
125 142 49
125 142 49
125 142 49
125 142 50
125 142 50
125 142 50
126 142 50
126 142 51
126 142 51
126 142 51
126 142 52
126 142 52
126 142 52
126 142 52
126 142 53
126 142 53
126 142 53
126 142 53
126 142 54
127 142 54
127 142 54
127 142 55
127 142 55
127 142 55
127 142 55
127 142 56
127 142 56
127 142 56
127 142 57
127 142 57
127 142 57
127 142 57
127 142 58
128 142 58
128 142 58
128 142 59
128 142 59
128 142 59
128 142 59
128 142 60
128 142 60
128 142 60
128 142 61
128 142 61
128 142 61
128 142 61
129 142 62
129 142 62
129 142 62
129 142 63
129 142 63
129 142 63
129 142 63
129 142 64
129 142 64
129 142 64
129 142 65
129 142 65
129 142 65
129 142 65
130 142 66
130 142 66
130 142 66
130 142 66
130 142 67
130 142 67
130 142 67
130 142 68
130 142 68
130 142 68
130 142 68
130 142 69
130 142 69
131 142 69
131 142 70
131 142 70
131 142 70
131 142 70
131 142 71
131 142 71
131 142 71
131 142 72
131 142 72
131 142 72
131 142 72
131 142 73
131 142 73
132 142 73
132 142 74
132 142 74
132 142 74
132 142 74
132 142 75
132 142 75
132 142 75
132 142 76
132 142 76
132 142 76
132 142 76
132 142 77
133 142 77
133 142 77
133 142 78
133 142 78
133 142 78
133 142 78
133 142 79
133 142 79
133 142 79
133 142 79
133 142 80
133 142 80
133 142 80
133 142 81
134 142 81
134 142 81
134 142 81
134 142 82
134 142 82
134 142 82
134 142 83
134 142 83
134 142 83
134 142 83
134 142 84
134 142 84
134 142 84
134 142 85
135 142 85
135 142 85
135 142 85
135 142 86
135 142 86
135 142 86
135 142 87
135 142 87
135 142 87
135 142 87
135 142 88
135 142 88
135 142 88
136 142 89
136 142 89
136 142 89
136 142 89
136 142 90
136 142 90
136 142 90
136 142 91
136 142 91
136 142 91
136 142 91
136 142 92
136 142 92
136 142 92
137 142 92
137 142 93
137 142 93
137 142 93
137 142 94
137 142 94
137 142 94
137 142 94
137 142 95
137 142 95
137 142 95
137 142 96
137 142 96
138 142 96
138 142 96
138 142 97
138 142 97
138 142 97
138 142 98
138 142 98
138 142 98
138 142 98
138 142 99
138 142 99
138 142 99
138 142 100
138 142 100
139 142 100
139 142 100
139 142 101
139 142 101
139 142 101
139 142 102
139 142 102
139 142 102
139 142 102
139 142 103
139 142 103
139 142 103
139 142 104
140 142 104
140 142 104
140 142 104
140 142 105
140 142 105
140 142 105
140 142 105
140 142 106
140 142 106
140 142 106
140 142 107
140 142 107
140 142 107
140 142 107
141 142 108
141 142 108
141 142 108
141 142 109
141 142 109
141 142 109
141 142 109
141 142 110
141 142 110
141 142 110
141 142 111
141 142 111
141 142 111
142 142 111
142 142 112
142 142 112
142 142 112
114 140 0
114 140 0
114 140 0
114 140 0
114 140 1
114 140 1
114 140 1
114 140 2
114 140 2
114 140 2
114 140 2
114 140 3
114 140 3
114 140 3
114 140 4
115 140 4
115 140 4
115 140 4
115 140 5
115 140 5
115 140 5
115 140 6
115 140 6
115 140 6
115 140 6
115 140 7
115 140 7
115 140 7
115 140 8
116 140 8
116 140 8
116 140 8
116 140 9
116 140 9
116 140 9
116 140 10
116 140 10
116 140 10
116 140 10
116 140 11
116 140 11
116 140 11
116 140 12
116 140 12
117 140 12
117 140 12
117 140 13
117 140 13
117 140 13
117 140 14
117 140 14
117 140 14
117 140 14
117 140 15
117 140 15
117 140 15
117 140 16
117 140 16
117 140 16
118 140 16
118 140 17
118 140 17
118 140 17
118 140 18
118 140 18
118 140 18
118 140 18
118 140 19
118 140 19
118 140 19
118 140 20
118 140 20
118 140 20
118 140 20
119 140 21
119 140 21
119 140 21
119 140 22
119 140 22
119 140 22
119 140 22
119 140 23
119 140 23
119 140 23
119 140 24
119 140 24
119 140 24
119 140 24
119 140 25
120 140 25
120 140 25
120 140 26
120 140 26
120 140 26
120 140 26
120 140 27
120 140 27
120 140 27
120 140 28
120 140 28
120 140 28
120 140 28
120 140 29
120 140 29
121 140 29
121 140 30
121 140 30
121 140 30
121 140 30
121 140 31
121 140 31
121 140 31
121 140 32
121 140 32
121 140 32
121 140 32
121 140 33
121 140 33
122 140 33
122 140 34
122 140 34
122 140 34
122 140 34
122 140 35
122 140 35
122 140 35
122 140 36
122 140 36
122 140 36
122 140 36
122 140 37
122 140 37
122 140 37
123 140 38
123 140 38
123 140 38
123 140 38
123 140 39
123 140 39
123 140 39
123 140 40
123 140 40
123 140 40
123 140 40
123 140 41
123 140 41
123 140 41
123 140 42
124 140 42
124 140 42
124 140 42
124 140 43
124 140 43
124 140 43
124 140 44
124 140 44
124 140 44
124 140 44
124 140 45
124 140 45
124 140 45
124 140 46
124 140 46
125 140 46
125 140 46
125 140 47
125 140 47
125 140 47
125 140 48
125 140 48
125 140 48
125 140 48
125 140 49
125 140 49
125 140 49
125 140 50
125 140 50
125 140 50
126 140 50
126 140 51
126 140 51
126 140 51
126 140 52
126 140 52
126 140 52
126 140 52
126 140 53
126 140 53
126 140 53
126 140 54
126 140 54
126 140 54
126 140 54
127 140 55
127 140 55
127 140 55
127 140 56
127 140 56
127 140 56
127 140 56
127 140 57
127 140 57
127 140 57
127 140 58
127 140 58
127 140 58
127 140 58
128 140 59
128 140 59
128 140 59
128 140 60
128 140 60
128 140 60
128 140 60
128 140 61
128 140 61
128 140 61
128 140 62
128 140 62
128 140 62
128 140 62
128 140 63
129 140 63
129 140 63
129 140 64
129 140 64
129 140 64
129 140 64
129 140 65
129 140 65
129 140 65
129 140 66
129 140 66
129 140 66
129 140 66
129 140 67
129 140 67
130 140 67
130 140 68
130 140 68
130 140 68
130 140 68
130 140 69
130 140 69
130 140 69
130 140 70
130 140 70
130 140 70
130 140 70
130 140 71
130 140 71
130 140 71
131 140 72
131 140 72
131 140 72
131 140 72
131 140 73
131 140 73
131 140 73
131 140 74
131 140 74
131 140 74
131 140 74
131 140 75
131 140 75
131 140 75
131 140 76
132 140 76
132 140 76
132 140 76
132 140 77
132 140 77
132 140 77
132 140 78
132 140 78
132 140 78
132 140 78
132 140 79
132 140 79
132 140 79
132 140 80
132 140 80
133 140 80
133 140 80
133 140 81
133 140 81
133 140 81
133 140 82
133 140 82
133 140 82
133 140 82
133 140 83
133 140 83
133 140 83
133 140 84
133 140 84
134 140 84
134 140 84
134 140 85
134 140 85
134 140 85
134 140 86
134 140 86
134 140 86
134 140 86
134 140 87
134 140 87
134 140 87
134 140 88
134 140 88
134 140 88
135 140 88
135 140 89
135 140 89
135 140 89
135 140 90
135 140 90
135 140 90
135 140 90
135 140 91
135 140 91
135 140 91
135 140 92
135 140 92
135 140 92
135 140 92
136 140 93
136 140 93
136 140 93
136 140 94
136 140 94
136 140 94
136 140 94
136 140 95
136 140 95
136 140 95
136 140 96
136 140 96
136 140 96
136 140 96
136 140 97
137 140 97
137 140 97
137 140 98
137 140 98
137 140 98
137 140 98
137 140 99
137 140 99
137 140 99
137 140 100
137 140 100
137 140 100
137 140 100
137 140 101
137 140 101
138 140 101
138 140 102
138 140 102
138 140 102
138 140 102
138 140 103
138 140 103
138 140 103
138 140 104
138 140 104
138 140 104
138 140 104
138 140 105
138 140 105
138 140 105
139 140 106
139 140 106
139 140 106
139 140 106
139 140 107
139 140 107
139 140 107
139 140 108
139 140 108
139 140 108
139 140 108
139 140 109
139 140 109
139 140 109
140 140 110
140 140 110
140 140 110
140 140 110
140 140 111
140 140 111
140 140 111
140 140 112
140 140 112
140 140 112
140 140 112
140 140 113
140 140 113
140 140 113
140 140 114
115 139 0
115 139 0
115 139 0
115 139 0
115 139 1
115 139 1
115 139 1
115 139 2
115 139 2
115 139 2
115 139 2
115 139 3
116 139 3
116 139 3
116 139 4
116 139 4
116 139 4
116 139 4
116 139 5
116 139 5
116 139 5
116 139 6
116 139 6
116 139 6
116 139 6
116 139 7
116 139 7
116 139 7
117 139 8
117 139 8
117 139 8
117 139 8
117 139 9
117 139 9
117 139 9
117 139 10
117 139 10
117 139 10
117 139 10
117 139 11
117 139 11
117 139 11
117 139 12
117 139 12
118 139 12
118 139 13
118 139 13
118 139 13
118 139 13
118 139 14
118 139 14
118 139 14
118 139 15
118 139 15
118 139 15
118 139 15
118 139 16
118 139 16
118 139 16
118 139 17
118 139 17
119 139 17
119 139 17
119 139 18
119 139 18
119 139 18
119 139 19
119 139 19
119 139 19
119 139 19
119 139 20
119 139 20
119 139 20
119 139 21
119 139 21
119 139 21
119 139 21
120 139 22
120 139 22
120 139 22
120 139 23
120 139 23
120 139 23
120 139 23
120 139 24
120 139 24
120 139 24
120 139 25
120 139 25
120 139 25
120 139 26
120 139 26
120 139 26
121 139 26
121 139 27
121 139 27
121 139 27
121 139 28
121 139 28
121 139 28
121 139 28
121 139 29
121 139 29
121 139 29
121 139 30
121 139 30
121 139 30
121 139 30
121 139 31
121 139 31
122 139 31
122 139 32
122 139 32
122 139 32
122 139 32
122 139 33
122 139 33
122 139 33
122 139 34
122 139 34
122 139 34
122 139 34
122 139 35
122 139 35
122 139 35
122 139 36
123 139 36
123 139 36
123 139 36
123 139 37
123 139 37
123 139 37
123 139 38
123 139 38
123 139 38
123 139 39
123 139 39
123 139 39
123 139 39
123 139 40
123 139 40
123 139 40
123 139 41
124 139 41
124 139 41
124 139 41
124 139 42
124 139 42
124 139 42
124 139 43
124 139 43
124 139 43
124 139 43
124 139 44
124 139 44
124 139 44
124 139 45
124 139 45
124 139 45
125 139 45
125 139 46
125 139 46
125 139 46
125 139 47
125 139 47
125 139 47
125 139 47
125 139 48
125 139 48
125 139 48
125 139 49
125 139 49
125 139 49
125 139 50
125 139 50
126 139 50
126 139 50
126 139 51
126 139 51
126 139 51
126 139 52
126 139 52
126 139 52
126 139 52
126 139 53
126 139 53
126 139 53
126 139 54
126 139 54
126 139 54
126 139 54
126 139 55
127 139 55
127 139 55
127 139 56
127 139 56
127 139 56
127 139 56
127 139 57
127 139 57
127 139 57
127 139 58
127 139 58
127 139 58
127 139 58
127 139 59
127 139 59
127 139 59
128 139 60
128 139 60
128 139 60
128 139 60
128 139 61
128 139 61
128 139 61
128 139 62
128 139 62
128 139 62
128 139 63
128 139 63
128 139 63
128 139 63
128 139 64
128 139 64
128 139 64
129 139 65
129 139 65
129 139 65
129 139 65
129 139 66
129 139 66
129 139 66
129 139 67
129 139 67
129 139 67
129 139 67
129 139 68
129 139 68
129 139 68
129 139 69
129 139 69
130 139 69
130 139 69
130 139 70
130 139 70
130 139 70
130 139 71
130 139 71
130 139 71
130 139 71
130 139 72
130 139 72
130 139 72
130 139 73
130 139 73
130 139 73
130 139 73
131 139 74
131 139 74
131 139 74
131 139 75
131 139 75
131 139 75
131 139 76
131 139 76
131 139 76
131 139 76
131 139 77
131 139 77
131 139 77
131 139 78
131 139 78
131 139 78
131 139 78
132 139 79
132 139 79
132 139 79
132 139 80
132 139 80
132 139 80
132 139 80
132 139 81
132 139 81
132 139 81
132 139 82
132 139 82
132 139 82
132 139 82
132 139 83
132 139 83
133 139 83
133 139 84
133 139 84
133 139 84
133 139 84
133 139 85
133 139 85
133 139 85
133 139 86
133 139 86
133 139 86
133 139 87
133 139 87
133 139 87
133 139 87
133 139 88
133 139 88
134 139 88
134 139 89
134 139 89
134 139 89
134 139 89
134 139 90
134 139 90
134 139 90
134 139 91
134 139 91
134 139 91
134 139 91
134 139 92
134 139 92
134 139 92
134 139 93
135 139 93
135 139 93
135 139 93
135 139 94
135 139 94
135 139 94
135 139 95
135 139 95
135 139 95
135 139 95
135 139 96
135 139 96
135 139 96
135 139 97
135 139 97
135 139 97
136 139 97
136 139 98
136 139 98
136 139 98
136 139 99
136 139 99
136 139 99
136 139 100
136 139 100
136 139 100
136 139 100
136 139 101
136 139 101
136 139 101
136 139 102
136 139 102
136 139 102
137 139 102
137 139 103
137 139 103
137 139 103
137 139 104
137 139 104
137 139 104
137 139 104
137 139 105
137 139 105
137 139 105
137 139 106
137 139 106
137 139 106
137 139 106
137 139 107
138 139 107
138 139 107
138 139 108
138 139 108
138 139 108
138 139 108
138 139 109
138 139 109
138 139 109
138 139 110
138 139 110
138 139 110
138 139 110
138 139 111
138 139 111
138 139 111
139 139 112
139 139 112
139 139 112
139 139 113
139 139 113
139 139 113
139 139 113
139 139 114
139 139 114
139 139 114
139 139 115
139 139 115
116 138 0
116 138 0
116 138 0
116 138 0
116 138 1
116 138 1
116 138 1
116 138 2
117 138 2
117 138 2
117 138 2
117 138 3
117 138 3
117 138 3
117 138 4
117 138 4
117 138 4
117 138 4
117 138 5
117 138 5
117 138 5
117 138 6
117 138 6
117 138 6
117 138 7
117 138 7
118 138 7
118 138 7
118 138 8
118 138 8
118 138 8
118 138 9
118 138 9
118 138 9
118 138 9
118 138 10
118 138 10
118 138 10
118 138 11
118 138 11
118 138 11
118 138 11
118 138 12
118 138 12
119 138 12
119 138 13
119 138 13
119 138 13
119 138 14
119 138 14
119 138 14
119 138 14
119 138 15
119 138 15
119 138 15
119 138 16
119 138 16
119 138 16
119 138 16
119 138 17
119 138 17
119 138 17
119 138 18
120 138 18
120 138 18
120 138 18
120 138 19
120 138 19
120 138 19
120 138 20
120 138 20
120 138 20
120 138 21
120 138 21
120 138 21
120 138 21
120 138 22
120 138 22
120 138 22
120 138 23
120 138 23
121 138 23
121 138 23
121 138 24
121 138 24
121 138 24
121 138 25
121 138 25
121 138 25
121 138 26
121 138 26
121 138 26
121 138 26
121 138 27
121 138 27
121 138 27
121 138 28
121 138 28
121 138 28
122 138 28
122 138 29
122 138 29
122 138 29
122 138 30
122 138 30
122 138 30
122 138 30
122 138 31
122 138 31
122 138 31
122 138 32
122 138 32
122 138 32
122 138 33
122 138 33
122 138 33
122 138 33
122 138 34
123 138 34
123 138 34
123 138 35
123 138 35
123 138 35
123 138 35
123 138 36
123 138 36
123 138 36
123 138 37
123 138 37
123 138 37
123 138 37
123 138 38
123 138 38
123 138 38
123 138 39
123 138 39
124 138 39
124 138 40
124 138 40
124 138 40
124 138 40
124 138 41
124 138 41
124 138 41
124 138 42
124 138 42
124 138 42
124 138 42
124 138 43
124 138 43
124 138 43
124 138 44
124 138 44
124 138 44
125 138 45
125 138 45
125 138 45
125 138 45
125 138 46
125 138 46
125 138 46
125 138 47
125 138 47
125 138 47
125 138 47
125 138 48
125 138 48
125 138 48
125 138 49
125 138 49
125 138 49
125 138 49
125 138 50
126 138 50
126 138 50
126 138 51
126 138 51
126 138 51
126 138 52
126 138 52
126 138 52
126 138 52
126 138 53
126 138 53
126 138 53
126 138 54
126 138 54
126 138 54
126 138 54
126 138 55
126 138 55
127 138 55
127 138 56
127 138 56
127 138 56
127 138 56
127 138 57
127 138 57
127 138 57
127 138 58
127 138 58
127 138 58
127 138 59
127 138 59
127 138 59
127 138 59
127 138 60
127 138 60
127 138 60
128 138 61
128 138 61
128 138 61
128 138 61
128 138 62
128 138 62
128 138 62
128 138 63
128 138 63
128 138 63
128 138 64
128 138 64
128 138 64
128 138 64
128 138 65
128 138 65
128 138 65
128 138 66
129 138 66
129 138 66
129 138 66
129 138 67
129 138 67
129 138 67
129 138 68
129 138 68
129 138 68
129 138 68
129 138 69
129 138 69
129 138 69
129 138 70
129 138 70
129 138 70
129 138 71
129 138 71
129 138 71
130 138 71
130 138 72
130 138 72
130 138 72
130 138 73
130 138 73
130 138 73
130 138 73
130 138 74
130 138 74
130 138 74
130 138 75
130 138 75
130 138 75
130 138 75
130 138 76
130 138 76
130 138 76
131 138 77
131 138 77
131 138 77
131 138 78
131 138 78
131 138 78
131 138 78
131 138 79
131 138 79
131 138 79
131 138 80
131 138 80
131 138 80
131 138 80
131 138 81
131 138 81
131 138 81
131 138 82
132 138 82
132 138 82
132 138 82
132 138 83
132 138 83
132 138 83
132 138 84
132 138 84
132 138 84
132 138 85
132 138 85
132 138 85
132 138 85
132 138 86
132 138 86
132 138 86
132 138 87
132 138 87
132 138 87
133 138 87
133 138 88
133 138 88
133 138 88
133 138 89
133 138 89
133 138 89
133 138 90
133 138 90
133 138 90
133 138 90
133 138 91
133 138 91
133 138 91
133 138 92
133 138 92
133 138 92
133 138 92
134 138 93
134 138 93
134 138 93
134 138 94
134 138 94
134 138 94
134 138 94
134 138 95
134 138 95
134 138 95
134 138 96
134 138 96
134 138 96
134 138 97
134 138 97
134 138 97
134 138 97
134 138 98
135 138 98
135 138 98
135 138 99
135 138 99
135 138 99
135 138 99
135 138 100
135 138 100
135 138 100
135 138 101
135 138 101
135 138 101
135 138 101
135 138 102
135 138 102
135 138 102
135 138 103
135 138 103
135 138 103
136 138 104
136 138 104
136 138 104
136 138 104
136 138 105
136 138 105
136 138 105
136 138 106
136 138 106
136 138 106
136 138 106
136 138 107
136 138 107
136 138 107
136 138 108
136 138 108
136 138 108
136 138 109
137 138 109
137 138 109
137 138 109
137 138 110
137 138 110
137 138 110
137 138 111
137 138 111
137 138 111
137 138 111
137 138 112
137 138 112
137 138 112
137 138 113
137 138 113
137 138 113
137 138 113
137 138 114
138 138 114
138 138 114
138 138 115
138 138 115
138 138 115
138 138 116
138 138 116
138 138 116
117 137 0
117 137 0
117 137 0
118 137 0
118 137 1
118 137 1
118 137 1
118 137 2
118 137 2
118 137 2
118 137 2
118 137 3
118 137 3
118 137 3
118 137 4
118 137 4
118 137 4
118 137 5
118 137 5
118 137 5
118 137 5
118 137 6
118 137 6
118 137 6
119 137 7
119 137 7
119 137 7
119 137 7
119 137 8
119 137 8
119 137 8
119 137 9
119 137 9
119 137 9
119 137 10
119 137 10
119 137 10
119 137 10
119 137 11
119 137 11
119 137 11
119 137 12
119 137 12
119 137 12
120 137 13
120 137 13
120 137 13
120 137 13
120 137 14
120 137 14
120 137 14
120 137 15
120 137 15
120 137 15
120 137 15
120 137 16
120 137 16
120 137 16
120 137 17
120 137 17
120 137 17
120 137 18
120 137 18
120 137 18
120 137 18
121 137 19
121 137 19
121 137 19
121 137 20
121 137 20
121 137 20
121 137 20
121 137 21
121 137 21
121 137 21
121 137 22
121 137 22
121 137 22
121 137 23
121 137 23
121 137 23
121 137 23
121 137 24
121 137 24
121 137 24
121 137 25
122 137 25
122 137 25
122 137 26
122 137 26
122 137 26
122 137 26
122 137 27
122 137 27
122 137 27
122 137 28
122 137 28
122 137 28
122 137 28
122 137 29
122 137 29
122 137 29
122 137 30
122 137 30
122 137 30
122 137 31
122 137 31
123 137 31
123 137 31
123 137 32
123 137 32
123 137 32
123 137 33
123 137 33
123 137 33
123 137 33
123 137 34
123 137 34
123 137 34
123 137 35
123 137 35
123 137 35
123 137 36
123 137 36
123 137 36
123 137 36
123 137 37
124 137 37
124 137 37
124 137 38
124 137 38
124 137 38
124 137 39
124 137 39
124 137 39
124 137 39
124 137 40
124 137 40
124 137 40
124 137 41
124 137 41
124 137 41
124 137 41
124 137 42
124 137 42
124 137 42
124 137 43
124 137 43
125 137 43
125 137 44
125 137 44
125 137 44
125 137 44
125 137 45
125 137 45
125 137 45
125 137 46
125 137 46
125 137 46
125 137 46
125 137 47
125 137 47
125 137 47
125 137 48
125 137 48
125 137 48
125 137 49
125 137 49
125 137 49
126 137 49
126 137 50
126 137 50
126 137 50
126 137 51
126 137 51
126 137 51
126 137 52
126 137 52
126 137 52
126 137 52
126 137 53
126 137 53
126 137 53
126 137 54
126 137 54
126 137 54
126 137 54
126 137 55
126 137 55
126 137 55
127 137 56
127 137 56
127 137 56
127 137 57
127 137 57
127 137 57
127 137 57
127 137 58
127 137 58
127 137 58
127 137 59
127 137 59
127 137 59
127 137 59
127 137 60
127 137 60
127 137 60
127 137 61
127 137 61
127 137 61
128 137 62
128 137 62
128 137 62
128 137 62
128 137 63
128 137 63
128 137 63
128 137 64
128 137 64
128 137 64
128 137 65
128 137 65
128 137 65
128 137 65
128 137 66
128 137 66
128 137 66
128 137 67
128 137 67
128 137 67
128 137 67
129 137 68
129 137 68
129 137 68
129 137 69
129 137 69
129 137 69
129 137 70
129 137 70
129 137 70
129 137 70
129 137 71
129 137 71
129 137 71
129 137 72
129 137 72
129 137 72
129 137 72
129 137 73
129 137 73
129 137 73
129 137 74
130 137 74
130 137 74
130 137 75
130 137 75
130 137 75
130 137 75
130 137 76
130 137 76
130 137 76
130 137 77
130 137 77
130 137 77
130 137 78
130 137 78
130 137 78
130 137 78
130 137 79
130 137 79
130 137 79
130 137 80
130 137 80
131 137 80
131 137 80
131 137 81
131 137 81
131 137 81
131 137 82
131 137 82
131 137 82
131 137 83
131 137 83
131 137 83
131 137 83
131 137 84
131 137 84
131 137 84
131 137 85
131 137 85
131 137 85
131 137 85
131 137 86
132 137 86
132 137 86
132 137 87
132 137 87
132 137 87
132 137 88
132 137 88
132 137 88
132 137 88
132 137 89
132 137 89
132 137 89
132 137 90
132 137 90
132 137 90
132 137 91
132 137 91
132 137 91
132 137 91
132 137 92
132 137 92
133 137 92
133 137 93
133 137 93
133 137 93
133 137 93
133 137 94
133 137 94
133 137 94
133 137 95
133 137 95
133 137 95
133 137 96
133 137 96
133 137 96
133 137 96
133 137 97
133 137 97
133 137 97
133 137 98
133 137 98
133 137 98
134 137 98
134 137 99
134 137 99
134 137 99
134 137 100
134 137 100
134 137 100
134 137 101
134 137 101
134 137 101
134 137 101
134 137 102
134 137 102
134 137 102
134 137 103
134 137 103
134 137 103
134 137 104
134 137 104
134 137 104
134 137 104
135 137 105
135 137 105
135 137 105
135 137 106
135 137 106
135 137 106
135 137 106
135 137 107
135 137 107
135 137 107
135 137 108
135 137 108
135 137 108
135 137 109
135 137 109
135 137 109
135 137 109
135 137 110
135 137 110
135 137 110
136 137 111
136 137 111
136 137 111
136 137 111
136 137 112
136 137 112
136 137 112
136 137 113
136 137 113
136 137 113
136 137 114
136 137 114
136 137 114
136 137 114
136 137 115
136 137 115
136 137 115
136 137 116
136 137 116
136 137 116
136 137 117
137 137 117
137 137 117
137 137 117
119 135 0
119 135 0
119 135 0
119 135 0
119 135 1
119 135 1
119 135 1
119 135 2
119 135 2
119 135 2
119 135 2
119 135 3
119 135 3
119 135 3
119 135 4
119 135 4
119 135 4
119 135 5
119 135 5
119 135 5
120 135 5
120 135 6
120 135 6
120 135 6
120 135 7
120 135 7
120 135 7
120 135 8
120 135 8
120 135 8
120 135 8
120 135 9
120 135 9
120 135 9
120 135 10
120 135 10
120 135 10
120 135 11
120 135 11
120 135 11
120 135 11
120 135 12
120 135 12
120 135 12
121 135 13
121 135 13
121 135 13
121 135 14
121 135 14
121 135 14
121 135 14
121 135 15
121 135 15
121 135 15
121 135 16
121 135 16
121 135 16
121 135 17
121 135 17
121 135 17
121 135 17
121 135 18
121 135 18
121 135 18
121 135 19
121 135 19
121 135 19
121 135 20
122 135 20
122 135 20
122 135 20
122 135 21
122 135 21
122 135 21
122 135 22
122 135 22
122 135 22
122 135 22
122 135 23
122 135 23
122 135 23
122 135 24
122 135 24
122 135 24
122 135 25
122 135 25
122 135 25
122 135 25
122 135 26
122 135 26
122 135 26
122 135 27
123 135 27
123 135 27
123 135 28
123 135 28
123 135 28
123 135 28
123 135 29
123 135 29
123 135 29
123 135 30
123 135 30
123 135 30
123 135 31
123 135 31
123 135 31
123 135 31
123 135 32
123 135 32
123 135 32
123 135 33
123 135 33
123 135 33
123 135 34
123 135 34
124 135 34
124 135 34
124 135 35
124 135 35
124 135 35
124 135 36
124 135 36
124 135 36
124 135 37
124 135 37
124 135 37
124 135 37
124 135 38
124 135 38
124 135 38
124 135 39
124 135 39
124 135 39
124 135 40
124 135 40
124 135 40
124 135 40
124 135 41
124 135 41
125 135 41
125 135 42
125 135 42
125 135 42
125 135 43
125 135 43
125 135 43
125 135 43
125 135 44
125 135 44
125 135 44
125 135 45
125 135 45
125 135 45
125 135 45
125 135 46
125 135 46
125 135 46
125 135 47
125 135 47
125 135 47
125 135 48
125 135 48
125 135 48
126 135 48
126 135 49
126 135 49
126 135 49
126 135 50
126 135 50
126 135 50
126 135 51
126 135 51
126 135 51
126 135 51
126 135 52
126 135 52
126 135 52
126 135 53
126 135 53
126 135 53
126 135 54
126 135 54
126 135 54
126 135 54
126 135 55
126 135 55
126 135 55
127 135 56
127 135 56
127 135 56
127 135 57
127 135 57
127 135 57
127 135 57
127 135 58
127 135 58
127 135 58
127 135 59
127 135 59
127 135 59
127 135 60
127 135 60
127 135 60
127 135 60
127 135 61
127 135 61
127 135 61
127 135 62
127 135 62
127 135 62
127 135 63
128 135 63
128 135 63
128 135 63
128 135 64
128 135 64
128 135 64
128 135 65
128 135 65
128 135 65
128 135 66
128 135 66
128 135 66
128 135 66
128 135 67
128 135 67
128 135 67
128 135 68
128 135 68
128 135 68
128 135 68
128 135 69
128 135 69
128 135 69
128 135 70
129 135 70
129 135 70
129 135 71
129 135 71
129 135 71
129 135 71
129 135 72
129 135 72
129 135 72
129 135 73
129 135 73
129 135 73
129 135 74
129 135 74
129 135 74
129 135 74
129 135 75
129 135 75
129 135 75
129 135 76
129 135 76
129 135 76
129 135 77
129 135 77
130 135 77
130 135 77
130 135 78
130 135 78
130 135 78
130 135 79
130 135 79
130 135 79
130 135 80
130 135 80
130 135 80
130 135 80
130 135 81
130 135 81
130 135 81
130 135 82
130 135 82
130 135 82
130 135 83
130 135 83
130 135 83
130 135 83
130 135 84
130 135 84
131 135 84
131 135 85
131 135 85
131 135 85
131 135 86
131 135 86
131 135 86
131 135 86
131 135 87
131 135 87
131 135 87
131 135 88
131 135 88
131 135 88
131 135 89
131 135 89
131 135 89
131 135 89
131 135 90
131 135 90
131 135 90
131 135 91
131 135 91
131 135 91
132 135 91
132 135 92
132 135 92
132 135 92
132 135 93
132 135 93
132 135 93
132 135 94
132 135 94
132 135 94
132 135 94
132 135 95
132 135 95
132 135 95
132 135 96
132 135 96
132 135 96
132 135 97
132 135 97
132 135 97
132 135 97
132 135 98
132 135 98
132 135 98
133 135 99
133 135 99
133 135 99
133 135 100
133 135 100
133 135 100
133 135 100
133 135 101
133 135 101
133 135 101
133 135 102
133 135 102
133 135 102
133 135 103
133 135 103
133 135 103
133 135 103
133 135 104
133 135 104
133 135 104
133 135 105
133 135 105
133 135 105
133 135 106
134 135 106
134 135 106
134 135 106
134 135 107
134 135 107
134 135 107
134 135 108
134 135 108
134 135 108
134 135 109
134 135 109
134 135 109
134 135 109
134 135 110
134 135 110
134 135 110
134 135 111
134 135 111
134 135 111
134 135 112
134 135 112
134 135 112
134 135 112
134 135 113
135 135 113
135 135 113
135 135 114
135 135 114
135 135 114
135 135 114
135 135 115
135 135 115
135 135 115
135 135 116
135 135 116
135 135 116
135 135 117
135 135 117
135 135 117
135 135 117
135 135 118
135 135 118
135 135 118
135 135 119
120 134 0
120 134 0
120 134 0
120 134 0
120 134 1
120 134 1
120 134 1
120 134 2
120 134 2
120 134 2
120 134 3
120 134 3
120 134 3
120 134 3
120 134 4
120 134 4
121 134 4
121 134 5
121 134 5
121 134 5
121 134 6
121 134 6
121 134 6
121 134 6
121 134 7
121 134 7
121 134 7
121 134 8
121 134 8
121 134 8
121 134 9
121 134 9
121 134 9
121 134 9
121 134 10
121 134 10
121 134 10
121 134 11
121 134 11
121 134 11
121 134 12
121 134 12
121 134 12
121 134 12
122 134 13
122 134 13
122 134 13
122 134 14
122 134 14
122 134 14
122 134 15
122 134 15
122 134 15
122 134 15
122 134 16
122 134 16
122 134 16
122 134 17
122 134 17
122 134 17
122 134 18
122 134 18
122 134 18
122 134 19
122 134 19
122 134 19
122 134 19
122 134 20
122 134 20
122 134 20
122 134 21
122 134 21
122 134 21
123 134 22
123 134 22
123 134 22
123 134 22
123 134 23
123 134 23
123 134 23
123 134 24
123 134 24
123 134 24
123 134 25
123 134 25
123 134 25
123 134 25
123 134 26
123 134 26
123 134 26
123 134 27
123 134 27
123 134 27
123 134 28
123 134 28
123 134 28
123 134 28
123 134 29
123 134 29
123 134 29
123 134 30
124 134 30
124 134 30
124 134 31
124 134 31
124 134 31
124 134 31
124 134 32
124 134 32
124 134 32
124 134 33
124 134 33
124 134 33
124 134 34
124 134 34
124 134 34
124 134 35
124 134 35
124 134 35
124 134 35
124 134 36
124 134 36
124 134 36
124 134 37
124 134 37
124 134 37
124 134 38
124 134 38
124 134 38
125 134 38
125 134 39
125 134 39
125 134 39
125 134 40
125 134 40
125 134 40
125 134 41
125 134 41
125 134 41
125 134 41
125 134 42
125 134 42
125 134 42
125 134 43
125 134 43
125 134 43
125 134 44
125 134 44
125 134 44
125 134 44
125 134 45
125 134 45
125 134 45
125 134 46
125 134 46
125 134 46
125 134 47
125 134 47
126 134 47
126 134 47
126 134 48
126 134 48
126 134 48
126 134 49
126 134 49
126 134 49
126 134 50
126 134 50
126 134 50
126 134 51
126 134 51
126 134 51
126 134 51
126 134 52
126 134 52
126 134 52
126 134 53
126 134 53
126 134 53
126 134 54
126 134 54
126 134 54
126 134 54
126 134 55
126 134 55
126 134 55
127 134 56
127 134 56
127 134 56
127 134 57
127 134 57
127 134 57
127 134 57
127 134 58
127 134 58
127 134 58
127 134 59
127 134 59
127 134 59
127 134 60
127 134 60
127 134 60
127 134 60
127 134 61
127 134 61
127 134 61
127 134 62
127 134 62
127 134 62
127 134 63
127 134 63
127 134 63
127 134 63
127 134 64
128 134 64
128 134 64
128 134 65
128 134 65
128 134 65
128 134 66
128 134 66
128 134 66
128 134 67
128 134 67
128 134 67
128 134 67
128 134 68
128 134 68
128 134 68
128 134 69
128 134 69
128 134 69
128 134 70
128 134 70
128 134 70
128 134 70
128 134 71
128 134 71
128 134 71
128 134 72
128 134 72
128 134 72
129 134 73
129 134 73
129 134 73
129 134 73
129 134 74
129 134 74
129 134 74
129 134 75
129 134 75
129 134 75
129 134 76
129 134 76
129 134 76
129 134 76
129 134 77
129 134 77
129 134 77
129 134 78
129 134 78
129 134 78
129 134 79
129 134 79
129 134 79
129 134 79
129 134 80
129 134 80
129 134 80
129 134 81
129 134 81
130 134 81
130 134 82
130 134 82
130 134 82
130 134 83
130 134 83
130 134 83
130 134 83
130 134 84
130 134 84
130 134 84
130 134 85
130 134 85
130 134 85
130 134 86
130 134 86
130 134 86
130 134 86
130 134 87
130 134 87
130 134 87
130 134 88
130 134 88
130 134 88
130 134 89
130 134 89
130 134 89
130 134 89
131 134 90
131 134 90
131 134 90
131 134 91
131 134 91
131 134 91
131 134 92
131 134 92
131 134 92
131 134 92
131 134 93
131 134 93
131 134 93
131 134 94
131 134 94
131 134 94
131 134 95
131 134 95
131 134 95
131 134 95
131 134 96
131 134 96
131 134 96
131 134 97
131 134 97
131 134 97
131 134 98
131 134 98
132 134 98
132 134 99
132 134 99
132 134 99
132 134 99
132 134 100
132 134 100
132 134 100
132 134 101
132 134 101
132 134 101
132 134 102
132 134 102
132 134 102
132 134 102
132 134 103
132 134 103
132 134 103
132 134 104
132 134 104
132 134 104
132 134 105
132 134 105
132 134 105
132 134 105
132 134 106
132 134 106
132 134 106
132 134 107
133 134 107
133 134 107
133 134 108
133 134 108
133 134 108
133 134 108
133 134 109
133 134 109
133 134 109
133 134 110
133 134 110
133 134 110
133 134 111
133 134 111
133 134 111
133 134 111
133 134 112
133 134 112
133 134 112
133 134 113
133 134 113
133 134 113
133 134 114
133 134 114
133 134 114
133 134 115
133 134 115
133 134 115
134 134 115
134 134 116
134 134 116
134 134 116
134 134 117
134 134 117
134 134 117
134 134 118
134 134 118
134 134 118
134 134 118
134 134 119
134 134 119
134 134 119
134 134 120
134 134 120
121 133 0
121 133 0
121 133 0
121 133 0
121 133 1
121 133 1
121 133 1
121 133 2
121 133 2
121 133 2
122 133 3
122 133 3
122 133 3
122 133 3
122 133 4
122 133 4
122 133 4
122 133 5
122 133 5
122 133 5
122 133 6
122 133 6
122 133 6
122 133 7
122 133 7
122 133 7
122 133 7
122 133 8
122 133 8
122 133 8
122 133 9
122 133 9
122 133 9
122 133 10
122 133 10
122 133 10
122 133 10
122 133 11
122 133 11
122 133 11
122 133 12
122 133 12
122 133 12
122 133 13
123 133 13
123 133 13
123 133 14
123 133 14
123 133 14
123 133 14
123 133 15
123 133 15
123 133 15
123 133 16
123 133 16
123 133 16
123 133 17
123 133 17
123 133 17
123 133 18
123 133 18
123 133 18
123 133 18
123 133 19
123 133 19
123 133 19
123 133 20
123 133 20
123 133 20
123 133 21
123 133 21
123 133 21
123 133 21
123 133 22
123 133 22
123 133 22
123 133 23
123 133 23
123 133 23
124 133 24
124 133 24
124 133 24
124 133 25
124 133 25
124 133 25
124 133 25
124 133 26
124 133 26
124 133 26
124 133 27
124 133 27
124 133 27
124 133 28
124 133 28
124 133 28
124 133 28
124 133 29
124 133 29
124 133 29
124 133 30
124 133 30
124 133 30
124 133 31
124 133 31
124 133 31
124 133 32
124 133 32
124 133 32
124 133 32
124 133 33
124 133 33
124 133 33
124 133 34
124 133 34
125 133 34
125 133 35
125 133 35
125 133 35
125 133 36
125 133 36
125 133 36
125 133 36
125 133 37
125 133 37
125 133 37
125 133 38
125 133 38
125 133 38
125 133 39
125 133 39
125 133 39
125 133 39
125 133 40
125 133 40
125 133 40
125 133 41
125 133 41
125 133 41
125 133 42
125 133 42
125 133 42
125 133 43
125 133 43
125 133 43
125 133 43
125 133 44
125 133 44
125 133 44
126 133 45
126 133 45
126 133 45
126 133 46
126 133 46
126 133 46
126 133 46
126 133 47
126 133 47
126 133 47
126 133 48
126 133 48
126 133 48
126 133 49
126 133 49
126 133 49
126 133 50
126 133 50
126 133 50
126 133 50
126 133 51
126 133 51
126 133 51
126 133 52
126 133 52
126 133 52
126 133 53
126 133 53
126 133 53
126 133 54
126 133 54
126 133 54
126 133 54
126 133 55
126 133 55
127 133 55
127 133 56
127 133 56
127 133 56
127 133 57
127 133 57
127 133 57
127 133 57
127 133 58
127 133 58
127 133 58
127 133 59
127 133 59
127 133 59
127 133 60
127 133 60
127 133 60
127 133 61
127 133 61
127 133 61
127 133 61
127 133 62
127 133 62
127 133 62
127 133 63
127 133 63
127 133 63
127 133 64
127 133 64
127 133 64
127 133 64
127 133 65
127 133 65
127 133 65
128 133 66
128 133 66
128 133 66
128 133 67
128 133 67
128 133 67
128 133 68
128 133 68
128 133 68
128 133 68
128 133 69
128 133 69
128 133 69
128 133 70
128 133 70
128 133 70
128 133 71
128 133 71
128 133 71
128 133 72
128 133 72
128 133 72
128 133 72
128 133 73
128 133 73
128 133 73
128 133 74
128 133 74
128 133 74
128 133 75
128 133 75
128 133 75
128 133 75
128 133 76
128 133 76
129 133 76
129 133 77
129 133 77
129 133 77
129 133 78
129 133 78
129 133 78
129 133 79
129 133 79
129 133 79
129 133 79
129 133 80
129 133 80
129 133 80
129 133 81
129 133 81
129 133 81
129 133 82
129 133 82
129 133 82
129 133 82
129 133 83
129 133 83
129 133 83
129 133 84
129 133 84
129 133 84
129 133 85
129 133 85
129 133 85
129 133 86
129 133 86
129 133 86
129 133 86
130 133 87
130 133 87
130 133 87
130 133 88
130 133 88
130 133 88
130 133 89
130 133 89
130 133 89
130 133 90
130 133 90
130 133 90
130 133 90
130 133 91
130 133 91
130 133 91
130 133 92
130 133 92
130 133 92
130 133 93
130 133 93
130 133 93
130 133 93
130 133 94
130 133 94
130 133 94
130 133 95
130 133 95
130 133 95
130 133 96
130 133 96
130 133 96
130 133 97
130 133 97
130 133 97
131 133 97
131 133 98
131 133 98
131 133 98
131 133 99
131 133 99
131 133 99
131 133 100
131 133 100
131 133 100
131 133 100
131 133 101
131 133 101
131 133 101
131 133 102
131 133 102
131 133 102
131 133 103
131 133 103
131 133 103
131 133 104
131 133 104
131 133 104
131 133 104
131 133 105
131 133 105
131 133 105
131 133 106
131 133 106
131 133 106
131 133 107
131 133 107
131 133 107
131 133 108
131 133 108
132 133 108
132 133 108
132 133 109
132 133 109
132 133 109
132 133 110
132 133 110
132 133 110
132 133 111
132 133 111
132 133 111
132 133 111
132 133 112
132 133 112
132 133 112
132 133 113
132 133 113
132 133 113
132 133 114
132 133 114
132 133 114
132 133 115
132 133 115
132 133 115
132 133 115
132 133 116
132 133 116
132 133 116
132 133 117
132 133 117
132 133 117
132 133 118
132 133 118
132 133 118
133 133 118
133 133 119
133 133 119
133 133 119
133 133 120
133 133 120
133 133 120
133 133 121
133 133 121
133 133 121
123 131 0
123 131 0
123 131 0
123 131 0
123 131 1
123 131 1
123 131 1
123 131 2
123 131 2
123 131 2
123 131 3
123 131 3
123 131 3
123 131 4
123 131 4
123 131 4
123 131 4
123 131 5
123 131 5
123 131 5
123 131 6
123 131 6
123 131 6
123 131 7
123 131 7
123 131 7
123 131 8
123 131 8
123 131 8
123 131 8
123 131 9
123 131 9
123 131 9
123 131 10
123 131 10
123 131 10
123 131 11
123 131 11
123 131 11
123 131 12
123 131 12
123 131 12
123 131 12
123 131 13
124 131 13
124 131 13
124 131 14
124 131 14
124 131 14
124 131 15
124 131 15
124 131 15
124 131 16
124 131 16
124 131 16
124 131 16
124 131 17
124 131 17
124 131 17
124 131 18
124 131 18
124 131 18
124 131 19
124 131 19
124 131 19
124 131 20
124 131 20
124 131 20
124 131 20
124 131 21
124 131 21
124 131 21
124 131 22
124 131 22
124 131 22
124 131 23
124 131 23
124 131 23
124 131 24
124 131 24
124 131 24
124 131 24
124 131 25
124 131 25
124 131 25
124 131 26
124 131 26
124 131 26
124 131 27
125 131 27
125 131 27
125 131 28
125 131 28
125 131 28
125 131 28
125 131 29
125 131 29
125 131 29
125 131 30
125 131 30
125 131 30
125 131 31
125 131 31
125 131 31
125 131 32
125 131 32
125 131 32
125 131 32
125 131 33
125 131 33
125 131 33
125 131 34
125 131 34
125 131 34
125 131 35
125 131 35
125 131 35
125 131 36
125 131 36
125 131 36
125 131 36
125 131 37
125 131 37
125 131 37
125 131 38
125 131 38
125 131 38
125 131 39
125 131 39
125 131 39
125 131 40
125 131 40
125 131 40
126 131 41
126 131 41
126 131 41
126 131 41
126 131 42
126 131 42
126 131 42
126 131 43
126 131 43
126 131 43
126 131 44
126 131 44
126 131 44
126 131 45
126 131 45
126 131 45
126 131 45
126 131 46
126 131 46
126 131 46
126 131 47
126 131 47
126 131 47
126 131 48
126 131 48
126 131 48
126 131 49
126 131 49
126 131 49
126 131 49
126 131 50
126 131 50
126 131 50
126 131 51
126 131 51
126 131 51
126 131 52
126 131 52
126 131 52
126 131 53
126 131 53
126 131 53
126 131 53
126 131 54
126 131 54
127 131 54
127 131 55
127 131 55
127 131 55
127 131 56
127 131 56
127 131 56
127 131 57
127 131 57
127 131 57
127 131 57
127 131 58
127 131 58
127 131 58
127 131 59
127 131 59
127 131 59
127 131 60
127 131 60
127 131 60
127 131 61
127 131 61
127 131 61
127 131 61
127 131 62
127 131 62
127 131 62
127 131 63
127 131 63
127 131 63
127 131 64
127 131 64
127 131 64
127 131 65
127 131 65
127 131 65
127 131 65
127 131 66
127 131 66
127 131 66
127 131 67
127 131 67
127 131 67
127 131 68
128 131 68
128 131 68
128 131 69
128 131 69
128 131 69
128 131 69
128 131 70
128 131 70
128 131 70
128 131 71
128 131 71
128 131 71
128 131 72
128 131 72
128 131 72
128 131 73
128 131 73
128 131 73
128 131 73
128 131 74
128 131 74
128 131 74
128 131 75
128 131 75
128 131 75
128 131 76
128 131 76
128 131 76
128 131 77
128 131 77
128 131 77
128 131 78
128 131 78
128 131 78
128 131 78
128 131 79
128 131 79
128 131 79
128 131 80
128 131 80
128 131 80
128 131 81
128 131 81
128 131 81
128 131 82
129 131 82
129 131 82
129 131 82
129 131 83
129 131 83
129 131 83
129 131 84
129 131 84
129 131 84
129 131 85
129 131 85
129 131 85
129 131 86
129 131 86
129 131 86
129 131 86
129 131 87
129 131 87
129 131 87
129 131 88
129 131 88
129 131 88
129 131 89
129 131 89
129 131 89
129 131 90
129 131 90
129 131 90
129 131 90
129 131 91
129 131 91
129 131 91
129 131 92
129 131 92
129 131 92
129 131 93
129 131 93
129 131 93
129 131 94
129 131 94
129 131 94
129 131 94
129 131 95
129 131 95
130 131 95
130 131 96
130 131 96
130 131 96
130 131 97
130 131 97
130 131 97
130 131 98
130 131 98
130 131 98
130 131 98
130 131 99
130 131 99
130 131 99
130 131 100
130 131 100
130 131 100
130 131 101
130 131 101
130 131 101
130 131 102
130 131 102
130 131 102
130 131 102
130 131 103
130 131 103
130 131 103
130 131 104
130 131 104
130 131 104
130 131 105
130 131 105
130 131 105
130 131 106
130 131 106
130 131 106
130 131 106
130 131 107
130 131 107
130 131 107
130 131 108
130 131 108
130 131 108
130 131 109
130 131 109
131 131 109
131 131 110
131 131 110
131 131 110
131 131 110
131 131 111
131 131 111
131 131 111
131 131 112
131 131 112
131 131 112
131 131 113
131 131 113
131 131 113
131 131 114
131 131 114
131 131 114
131 131 114
131 131 115
131 131 115
131 131 115
131 131 116
131 131 116
131 131 116
131 131 117
131 131 117
131 131 117
131 131 118
131 131 118
131 131 118
131 131 119
131 131 119
131 131 119
131 131 119
131 131 120
131 131 120
131 131 120
131 131 121
131 131 121
131 131 121
131 131 122
131 131 122
131 131 122
131 131 123
124 130 0
124 130 0
124 130 0
124 130 0
124 130 1
124 130 1
124 130 1
124 130 2
124 130 2
124 130 2
124 130 3
124 130 3
124 130 3
124 130 4
124 130 4
124 130 4
124 130 4
124 130 5
124 130 5
124 130 5
124 130 6
124 130 6
124 130 6
124 130 7
124 130 7
124 130 7
124 130 8
124 130 8
124 130 8
124 130 9
124 130 9
124 130 9
124 130 9
124 130 10
124 130 10
124 130 10
124 130 11
124 130 11
124 130 11
124 130 12
124 130 12
124 130 12
124 130 13
124 130 13
125 130 13
125 130 14
125 130 14
125 130 14
125 130 14
125 130 15
125 130 15
125 130 15
125 130 16
125 130 16
125 130 16
125 130 17
125 130 17
125 130 17
125 130 18
125 130 18
125 130 18
125 130 19
125 130 19
125 130 19
125 130 19
125 130 20
125 130 20
125 130 20
125 130 21
125 130 21
125 130 21
125 130 22
125 130 22
125 130 22
125 130 23
125 130 23
125 130 23
125 130 23
125 130 24
125 130 24
125 130 24
125 130 25
125 130 25
125 130 25
125 130 26
125 130 26
125 130 26
125 130 27
125 130 27
125 130 27
125 130 28
125 130 28
125 130 28
125 130 28
125 130 29
125 130 29
125 130 29
125 130 30
125 130 30
125 130 30
125 130 31
125 130 31
125 130 31
125 130 32
125 130 32
125 130 32
125 130 33
126 130 33
126 130 33
126 130 33
126 130 34
126 130 34
126 130 34
126 130 35
126 130 35
126 130 35
126 130 36
126 130 36
126 130 36
126 130 37
126 130 37
126 130 37
126 130 38
126 130 38
126 130 38
126 130 38
126 130 39
126 130 39
126 130 39
126 130 40
126 130 40
126 130 40
126 130 41
126 130 41
126 130 41
126 130 42
126 130 42
126 130 42
126 130 42
126 130 43
126 130 43
126 130 43
126 130 44
126 130 44
126 130 44
126 130 45
126 130 45
126 130 45
126 130 46
126 130 46
126 130 46
126 130 47
126 130 47
126 130 47
126 130 47
126 130 48
126 130 48
126 130 48
126 130 49
126 130 49
126 130 49
126 130 50
126 130 50
126 130 50
126 130 51
126 130 51
126 130 51
126 130 52
126 130 52
127 130 52
127 130 52
127 130 53
127 130 53
127 130 53
127 130 54
127 130 54
127 130 54
127 130 55
127 130 55
127 130 55
127 130 56
127 130 56
127 130 56
127 130 57
127 130 57
127 130 57
127 130 57
127 130 58
127 130 58
127 130 58
127 130 59
127 130 59
127 130 59
127 130 60
127 130 60
127 130 60
127 130 61
127 130 61
127 130 61
127 130 61
127 130 62
127 130 62
127 130 62
127 130 63
127 130 63
127 130 63
127 130 64
127 130 64
127 130 64
127 130 65
127 130 65
127 130 65
127 130 66
127 130 66
127 130 66
127 130 66
127 130 67
127 130 67
127 130 67
127 130 68
127 130 68
127 130 68
127 130 69
127 130 69
127 130 69
127 130 70
127 130 70
127 130 70
127 130 71
127 130 71
127 130 71
128 130 71
128 130 72
128 130 72
128 130 72
128 130 73
128 130 73
128 130 73
128 130 74
128 130 74
128 130 74
128 130 75
128 130 75
128 130 75
128 130 76
128 130 76
128 130 76
128 130 76
128 130 77
128 130 77
128 130 77
128 130 78
128 130 78
128 130 78
128 130 79
128 130 79
128 130 79
128 130 80
128 130 80
128 130 80
128 130 80
128 130 81
128 130 81
128 130 81
128 130 82
128 130 82
128 130 82
128 130 83
128 130 83
128 130 83
128 130 84
128 130 84
128 130 84
128 130 85
128 130 85
128 130 85
128 130 85
128 130 86
128 130 86
128 130 86
128 130 87
128 130 87
128 130 87
128 130 88
128 130 88
128 130 88
128 130 89
128 130 89
128 130 89
128 130 90
128 130 90
128 130 90
128 130 90
129 130 91
129 130 91
129 130 91
129 130 92
129 130 92
129 130 92
129 130 93
129 130 93
129 130 93
129 130 94
129 130 94
129 130 94
129 130 95
129 130 95
129 130 95
129 130 95
129 130 96
129 130 96
129 130 96
129 130 97
129 130 97
129 130 97
129 130 98
129 130 98
129 130 98
129 130 99
129 130 99
129 130 99
129 130 99
129 130 100
129 130 100
129 130 100
129 130 101
129 130 101
129 130 101
129 130 102
129 130 102
129 130 102
129 130 103
129 130 103
129 130 103
129 130 104
129 130 104
129 130 104
129 130 104
129 130 105
129 130 105
129 130 105
129 130 106
129 130 106
129 130 106
129 130 107
129 130 107
129 130 107
129 130 108
129 130 108
129 130 108
129 130 109
129 130 109
129 130 109
129 130 109
129 130 110
129 130 110
130 130 110
130 130 111
130 130 111
130 130 111
130 130 112
130 130 112
130 130 112
130 130 113
130 130 113
130 130 113
130 130 114
130 130 114
130 130 114
130 130 114
130 130 115
130 130 115
130 130 115
130 130 116
130 130 116
130 130 116
130 130 117
130 130 117
130 130 117
130 130 118
130 130 118
130 130 118
130 130 119
130 130 119
130 130 119
130 130 119
130 130 120
130 130 120
130 130 120
130 130 121
130 130 121
130 130 121
130 130 122
130 130 122
130 130 122
130 130 123
130 130 123
130 130 123
130 130 123
130 130 124
125 129 0
125 129 0
125 129 0
125 129 0
125 129 1
125 129 1
125 129 1
125 129 2
125 129 2
125 129 2
125 129 3
125 129 3
125 129 3
125 129 4
125 129 4
125 129 4
125 129 5
125 129 5
125 129 5
125 129 5
125 129 6
125 129 6
125 129 6
125 129 7
125 129 7
125 129 7
125 129 8
125 129 8
125 129 8
125 129 9
125 129 9
125 129 9
125 129 10
125 129 10
125 129 10
125 129 11
125 129 11
125 129 11
125 129 11
125 129 12
125 129 12
125 129 12
125 129 13
125 129 13
126 129 13
126 129 14
126 129 14
126 129 14
126 129 15
126 129 15
126 129 15
126 129 16
126 129 16
126 129 16
126 129 16
126 129 17
126 129 17
126 129 17
126 129 18
126 129 18
126 129 18
126 129 19
126 129 19
126 129 19
126 129 20
126 129 20
126 129 20
126 129 21
126 129 21
126 129 21
126 129 22
126 129 22
126 129 22
126 129 22
126 129 23
126 129 23
126 129 23
126 129 24
126 129 24
126 129 24
126 129 25
126 129 25
126 129 25
126 129 26
126 129 26
126 129 26
126 129 27
126 129 27
126 129 27
126 129 28
126 129 28
126 129 28
126 129 28
126 129 29
126 129 29
126 129 29
126 129 30
126 129 30
126 129 30
126 129 31
126 129 31
126 129 31
126 129 32
126 129 32
126 129 32
126 129 33
126 129 33
126 129 33
126 129 33
126 129 34
126 129 34
126 129 34
126 129 35
126 129 35
126 129 35
126 129 36
126 129 36
126 129 36
126 129 37
126 129 37
126 129 37
126 129 38
126 129 38
126 129 38
126 129 39
126 129 39
126 129 39
126 129 39
126 129 40
126 129 40
126 129 40
126 129 41
126 129 41
126 129 41
126 129 42
126 129 42
126 129 42
126 129 43
126 129 43
126 129 43
126 129 44
126 129 44
126 129 44
126 129 45
126 129 45
126 129 45
126 129 45
126 129 46
127 129 46
127 129 46
127 129 47
127 129 47
127 129 47
127 129 48
127 129 48
127 129 48
127 129 49
127 129 49
127 129 49
127 129 50
127 129 50
127 129 50
127 129 50
127 129 51
127 129 51
127 129 51
127 129 52
127 129 52
127 129 52
127 129 53
127 129 53
127 129 53
127 129 54
127 129 54
127 129 54
127 129 55
127 129 55
127 129 55
127 129 56
127 129 56
127 129 56
127 129 56
127 129 57
127 129 57
127 129 57
127 129 58
127 129 58
127 129 58
127 129 59
127 129 59
127 129 59
127 129 60
127 129 60
127 129 60
127 129 61
127 129 61
127 129 61
127 129 62
127 129 62
127 129 62
127 129 62
127 129 63
127 129 63
127 129 63
127 129 64
127 129 64
127 129 64
127 129 65
127 129 65
127 129 65
127 129 66
127 129 66
127 129 66
127 129 67
127 129 67
127 129 67
127 129 67
127 129 68
127 129 68
127 129 68
127 129 69
127 129 69
127 129 69
127 129 70
127 129 70
127 129 70
127 129 71
127 129 71
127 129 71
127 129 72
127 129 72
127 129 72
127 129 73
127 129 73
127 129 73
127 129 73
127 129 74
127 129 74
127 129 74
127 129 75
127 129 75
127 129 75
127 129 76
127 129 76
127 129 76
127 129 77
127 129 77
127 129 77
127 129 78
127 129 78
127 129 78
127 129 78
128 129 79
128 129 79
128 129 79
128 129 80
128 129 80
128 129 80
128 129 81
128 129 81
128 129 81
128 129 82
128 129 82
128 129 82
128 129 83
128 129 83
128 129 83
128 129 84
128 129 84
128 129 84
128 129 84
128 129 85
128 129 85
128 129 85
128 129 86
128 129 86
128 129 86
128 129 87
128 129 87
128 129 87
128 129 88
128 129 88
128 129 88
128 129 89
128 129 89
128 129 89
128 129 90
128 129 90
128 129 90
128 129 90
128 129 91
128 129 91
128 129 91
128 129 92
128 129 92
128 129 92
128 129 93
128 129 93
128 129 93
128 129 94
128 129 94
128 129 94
128 129 95
128 129 95
128 129 95
128 129 95
128 129 96
128 129 96
128 129 96
128 129 97
128 129 97
128 129 97
128 129 98
128 129 98
128 129 98
128 129 99
128 129 99
128 129 99
128 129 100
128 129 100
128 129 100
128 129 101
128 129 101
128 129 101
128 129 101
128 129 102
128 129 102
128 129 102
128 129 103
128 129 103
128 129 103
128 129 104
128 129 104
128 129 104
128 129 105
128 129 105
128 129 105
128 129 106
128 129 106
128 129 106
128 129 107
128 129 107
128 129 107
128 129 107
128 129 108
128 129 108
128 129 108
128 129 109
128 129 109
128 129 109
128 129 110
128 129 110
128 129 110
128 129 111
128 129 111
128 129 111
129 129 112
129 129 112
129 129 112
129 129 112
129 129 113
129 129 113
129 129 113
129 129 114
129 129 114
129 129 114
129 129 115
129 129 115
129 129 115
129 129 116
129 129 116
129 129 116
129 129 117
129 129 117
129 129 117
129 129 118
129 129 118
129 129 118
129 129 118
129 129 119
129 129 119
129 129 119
129 129 120
129 129 120
129 129 120
129 129 121
129 129 121
129 129 121
129 129 122
129 129 122
129 129 122
129 129 123
129 129 123
129 129 123
129 129 124
129 129 124
129 129 124
129 129 124
129 129 125
129 129 125
126 128 0
126 128 0
126 128 0
126 128 0
126 128 1
126 128 1
126 128 1
126 128 2
126 128 2
126 128 2
126 128 3
126 128 3
126 128 3
126 128 4
126 128 4
126 128 4
126 128 5
126 128 5
126 128 5
126 128 6
126 128 6
126 128 6
126 128 6
126 128 7
126 128 7
126 128 7
126 128 8
126 128 8
126 128 8
126 128 9
126 128 9
126 128 9
126 128 10
126 128 10
126 128 10
126 128 11
126 128 11
126 128 11
126 128 12
126 128 12
126 128 12
126 128 13
126 128 13
126 128 13
127 128 13
127 128 14
127 128 14
127 128 14
127 128 15
127 128 15
127 128 15
127 128 16
127 128 16
127 128 16
127 128 17
127 128 17
127 128 17
127 128 18
127 128 18
127 128 18
127 128 19
127 128 19
127 128 19
127 128 20
127 128 20
127 128 20
127 128 20
127 128 21
127 128 21
127 128 21
127 128 22
127 128 22
127 128 22
127 128 23
127 128 23
127 128 23
127 128 24
127 128 24
127 128 24
127 128 25
127 128 25
127 128 25
127 128 26
127 128 26
127 128 26
127 128 27
127 128 27
127 128 27
127 128 27
127 128 28
127 128 28
127 128 28
127 128 29
127 128 29
127 128 29
127 128 30
127 128 30
127 128 30
127 128 31
127 128 31
127 128 31
127 128 32
127 128 32
127 128 32
127 128 33
127 128 33
127 128 33
127 128 34
127 128 34
127 128 34
127 128 34
127 128 35
127 128 35
127 128 35
127 128 36
127 128 36
127 128 36
127 128 37
127 128 37
127 128 37
127 128 38
127 128 38
127 128 38
127 128 39
127 128 39
127 128 39
127 128 40
127 128 40
127 128 40
127 128 41
127 128 41
127 128 41
127 128 41
127 128 42
127 128 42
127 128 42
127 128 43
127 128 43
127 128 43
127 128 44
127 128 44
127 128 44
127 128 45
127 128 45
127 128 45
127 128 46
127 128 46
127 128 46
127 128 47
127 128 47
127 128 47
127 128 48
127 128 48
127 128 48
127 128 48
127 128 49
127 128 49
127 128 49
127 128 50
127 128 50
127 128 50
127 128 51
127 128 51
127 128 51
127 128 52
127 128 52
127 128 52
127 128 53
127 128 53
127 128 53
127 128 54
127 128 54
127 128 54
127 128 55
127 128 55
127 128 55
127 128 55
127 128 56
127 128 56
127 128 56
127 128 57
127 128 57
127 128 57
127 128 58
127 128 58
127 128 58
127 128 59
127 128 59
127 128 59
127 128 60
127 128 60
127 128 60
127 128 61
127 128 61
127 128 61
127 128 61
127 128 62
127 128 62
127 128 62
127 128 63
127 128 63
127 128 63
127 128 64
127 128 64
127 128 64
127 128 65
127 128 65
127 128 65
127 128 66
127 128 66
127 128 66
127 128 67
127 128 67
127 128 67
127 128 68
127 128 68
127 128 68
127 128 68
127 128 69
127 128 69
127 128 69
127 128 70
127 128 70
127 128 70
127 128 71
127 128 71
127 128 71
127 128 72
127 128 72
127 128 72
127 128 73
127 128 73
127 128 73
127 128 74
127 128 74
127 128 74
127 128 75
127 128 75
127 128 75
127 128 75
127 128 76
127 128 76
127 128 76
127 128 77
127 128 77
127 128 77
127 128 78
127 128 78
127 128 78
127 128 79
127 128 79
127 128 79
127 128 80
127 128 80
127 128 80
127 128 81
127 128 81
127 128 81
127 128 82
127 128 82
127 128 82
127 128 82
127 128 83
127 128 83
127 128 83
127 128 84
127 128 84
127 128 84
127 128 85
127 128 85
127 128 85
127 128 86
127 128 86
127 128 86
127 128 87
127 128 87
127 128 87
127 128 88
127 128 88
127 128 88
127 128 89
127 128 89
127 128 89
127 128 89
127 128 90
127 128 90
127 128 90
127 128 91
127 128 91
127 128 91
127 128 92
127 128 92
127 128 92
127 128 93
127 128 93
127 128 93
127 128 94
127 128 94
127 128 94
127 128 95
127 128 95
127 128 95
127 128 96
127 128 96
127 128 96
127 128 96
127 128 97
127 128 97
127 128 97
127 128 98
127 128 98
127 128 98
127 128 99
127 128 99
127 128 99
127 128 100
127 128 100
127 128 100
127 128 101
127 128 101
127 128 101
127 128 102
127 128 102
127 128 102
127 128 103
127 128 103
127 128 103
127 128 103
127 128 104
127 128 104
127 128 104
127 128 105
127 128 105
127 128 105
127 128 106
127 128 106
127 128 106
127 128 107
127 128 107
127 128 107
127 128 108
127 128 108
127 128 108
127 128 109
127 128 109
127 128 109
127 128 110
127 128 110
127 128 110
127 128 110
127 128 111
127 128 111
127 128 111
127 128 112
127 128 112
127 128 112
128 128 113
128 128 113
128 128 113
128 128 114
128 128 114
128 128 114
128 128 115
128 128 115
128 128 115
128 128 116
128 128 116
128 128 116
128 128 117
128 128 117
128 128 117
128 128 117
128 128 118
128 128 118
128 128 118
128 128 119
128 128 119
128 128 119
128 128 120
128 128 120
128 128 120
128 128 121
128 128 121
128 128 121
128 128 122
128 128 122
128 128 122
128 128 123
128 128 123
128 128 123
128 128 123
128 128 124
128 128 124
128 128 124
128 128 125
128 128 125
128 128 125
128 128 126
128 128 126
128 128 126
128 126 0
128 126 0
128 126 0
128 126 0
128 126 1
128 126 1
128 126 1
128 126 2
128 126 2
128 126 2
128 126 3
128 126 3
128 126 3
128 126 4
128 126 4
128 126 4
128 126 5
128 126 5
128 126 5
128 126 6
128 126 6
128 126 6
128 126 7
128 126 7
128 126 7
128 126 8
128 126 8
128 126 8
128 126 8
128 126 9
128 126 9
128 126 9
128 126 10
128 126 10
128 126 10
128 126 11
128 126 11
128 126 11
128 126 12
128 126 12
128 126 12
128 126 13
128 126 13
128 126 13
127 126 14
127 126 14
127 126 14
127 126 15
127 126 15
127 126 15
127 126 16
127 126 16
127 126 16
127 126 17
127 126 17
127 126 17
127 126 17
127 126 18
127 126 18
127 126 18
127 126 19
127 126 19
127 126 19
127 126 20
127 126 20
127 126 20
127 126 21
127 126 21
127 126 21
127 126 22
127 126 22
127 126 22
127 126 23
127 126 23
127 126 23
127 126 24
127 126 24
127 126 24
127 126 25
127 126 25
127 126 25
127 126 26
127 126 26
127 126 26
127 126 26
127 126 27
127 126 27
127 126 27
127 126 28
127 126 28
127 126 28
127 126 29
127 126 29
127 126 29
127 126 30
127 126 30
127 126 30
127 126 31
127 126 31
127 126 31
127 126 32
127 126 32
127 126 32
127 126 33
127 126 33
127 126 33
127 126 34
127 126 34
127 126 34
127 126 35
127 126 35
127 126 35
127 126 35
127 126 36
127 126 36
127 126 36
127 126 37
127 126 37
127 126 37
127 126 38
127 126 38
127 126 38
127 126 39
127 126 39
127 126 39
127 126 40
127 126 40
127 126 40
127 126 41
127 126 41
127 126 41
127 126 42
127 126 42
127 126 42
127 126 43
127 126 43
127 126 43
127 126 43
127 126 44
127 126 44
127 126 44
127 126 45
127 126 45
127 126 45
127 126 46
127 126 46
127 126 46
127 126 47
127 126 47
127 126 47
127 126 48
127 126 48
127 126 48
127 126 49
127 126 49
127 126 49
127 126 50
127 126 50
127 126 50
127 126 51
127 126 51
127 126 51
127 126 52
127 126 52
127 126 52
127 126 52
127 126 53
127 126 53
127 126 53
127 126 54
127 126 54
127 126 54
127 126 55
127 126 55
127 126 55
127 126 56
127 126 56
127 126 56
127 126 57
127 126 57
127 126 57
127 126 58
127 126 58
127 126 58
127 126 59
127 126 59
127 126 59
127 126 60
127 126 60
127 126 60
127 126 61
127 126 61
127 126 61
127 126 61
127 126 62
127 126 62
127 126 62
127 126 63
127 126 63
127 126 63
127 126 64
127 126 64
127 126 64
127 126 65
127 126 65
127 126 65
127 126 66
127 126 66
127 126 66
127 126 67
127 126 67
127 126 67
127 126 68
127 126 68
127 126 68
127 126 69
127 126 69
127 126 69
127 126 70
127 126 70
127 126 70
127 126 70
127 126 71
127 126 71
127 126 71
127 126 72
127 126 72
127 126 72
127 126 73
127 126 73
127 126 73
127 126 74
127 126 74
127 126 74
127 126 75
127 126 75
127 126 75
127 126 76
127 126 76
127 126 76
127 126 77
127 126 77
127 126 77
127 126 78
127 126 78
127 126 78
127 126 79
127 126 79
127 126 79
127 126 79
127 126 80
127 126 80
127 126 80
127 126 81
127 126 81
127 126 81
127 126 82
127 126 82
127 126 82
127 126 83
127 126 83
127 126 83
127 126 84
127 126 84
127 126 84
127 126 85
127 126 85
127 126 85
127 126 86
127 126 86
127 126 86
127 126 87
127 126 87
127 126 87
127 126 87
127 126 88
127 126 88
127 126 88
127 126 89
127 126 89
127 126 89
127 126 90
127 126 90
127 126 90
127 126 91
127 126 91
127 126 91
127 126 92
127 126 92
127 126 92
127 126 93
127 126 93
127 126 93
127 126 94
127 126 94
127 126 94
127 126 95
127 126 95
127 126 95
127 126 96
127 126 96
127 126 96
127 126 96
127 126 97
127 126 97
127 126 97
127 126 98
127 126 98
127 126 98
127 126 99
127 126 99
127 126 99
127 126 100
127 126 100
127 126 100
127 126 101
127 126 101
127 126 101
127 126 102
127 126 102
127 126 102
127 126 103
127 126 103
127 126 103
127 126 104
127 126 104
127 126 104
127 126 105
127 126 105
127 126 105
127 126 105
127 126 106
127 126 106
127 126 106
127 126 107
127 126 107
127 126 107
127 126 108
127 126 108
127 126 108
127 126 109
127 126 109
127 126 109
127 126 110
127 126 110
127 126 110
127 126 111
127 126 111
127 126 111
127 126 112
127 126 112
127 126 112
127 126 113
127 126 113
127 126 113
127 126 114
126 126 114
126 126 114
126 126 114
126 126 115
126 126 115
126 126 115
126 126 116
126 126 116
126 126 116
126 126 117
126 126 117
126 126 117
126 126 118
126 126 118
126 126 118
126 126 119
126 126 119
126 126 119
126 126 120
126 126 120
126 126 120
126 126 121
126 126 121
126 126 121
126 126 122
126 126 122
126 126 122
126 126 123
126 126 123
126 126 123
126 126 123
126 126 124
126 126 124
126 126 124
126 126 125
126 126 125
126 126 125
126 126 126
126 126 126
126 126 126
126 126 127
126 126 127
126 126 127
126 126 128
129 125 0
129 125 0
129 125 0
129 125 0
129 125 1
129 125 1
129 125 1
129 125 2
129 125 2
129 125 2
129 125 3
129 125 3
129 125 3
129 125 4
129 125 4
129 125 4
129 125 5
129 125 5
129 125 5
129 125 6
129 125 6
129 125 6
129 125 7
129 125 7
129 125 7
129 125 8
129 125 8
129 125 8
129 125 9
129 125 9
129 125 9
129 125 10
129 125 10
129 125 10
129 125 11
129 125 11
129 125 11
129 125 12
129 125 12
129 125 12
129 125 12
129 125 13
129 125 13
129 125 13
128 125 14
128 125 14
128 125 14
128 125 15
128 125 15
128 125 15
128 125 16
128 125 16
128 125 16
128 125 17
128 125 17
128 125 17
128 125 18
128 125 18
128 125 18
128 125 19
128 125 19
128 125 19
128 125 20
128 125 20
128 125 20
128 125 21
128 125 21
128 125 21
128 125 22
128 125 22
128 125 22
128 125 23
128 125 23
128 125 23
128 125 24
128 125 24
128 125 24
128 125 24
128 125 25
128 125 25
128 125 25
128 125 26
128 125 26
128 125 26
128 125 27
128 125 27
128 125 27
128 125 28
128 125 28
128 125 28
128 125 29
128 125 29
128 125 29
128 125 30
128 125 30
128 125 30
128 125 31
128 125 31
128 125 31
128 125 32
128 125 32
128 125 32
128 125 33
128 125 33
128 125 33
128 125 34
128 125 34
128 125 34
128 125 35
128 125 35
128 125 35
128 125 36
128 125 36
128 125 36
128 125 36
128 125 37
128 125 37
128 125 37
128 125 38
128 125 38
128 125 38
128 125 39
128 125 39
128 125 39
128 125 40
128 125 40
128 125 40
128 125 41
128 125 41
128 125 41
128 125 42
128 125 42
128 125 42
128 125 43
128 125 43
128 125 43
128 125 44
128 125 44
128 125 44
128 125 45
128 125 45
128 125 45
128 125 46
128 125 46
128 125 46
128 125 47
128 125 47
128 125 47
127 125 48
127 125 48
127 125 48
127 125 48
127 125 49
127 125 49
127 125 49
127 125 50
127 125 50
127 125 50
127 125 51
127 125 51
127 125 51
127 125 52
127 125 52
127 125 52
127 125 53
127 125 53
127 125 53
127 125 54
127 125 54
127 125 54
127 125 55
127 125 55
127 125 55
127 125 56
127 125 56
127 125 56
127 125 57
127 125 57
127 125 57
127 125 58
127 125 58
127 125 58
127 125 59
127 125 59
127 125 59
127 125 60
127 125 60
127 125 60
127 125 60
127 125 61
127 125 61
127 125 61
127 125 62
127 125 62
127 125 62
127 125 63
127 125 63
127 125 63
127 125 64
127 125 64
127 125 64
127 125 65
127 125 65
127 125 65
127 125 66
127 125 66
127 125 66
127 125 67
127 125 67
127 125 67
127 125 68
127 125 68
127 125 68
127 125 69
127 125 69
127 125 69
127 125 70
127 125 70
127 125 70
127 125 71
127 125 71
127 125 71
127 125 72
127 125 72
127 125 72
127 125 72
127 125 73
127 125 73
127 125 73
127 125 74
127 125 74
127 125 74
127 125 75
127 125 75
127 125 75
127 125 76
127 125 76
127 125 76
127 125 77
127 125 77
127 125 77
127 125 78
127 125 78
127 125 78
127 125 79
127 125 79
127 125 79
127 125 80
127 125 80
127 125 80
127 125 81
127 125 81
126 125 81
126 125 82
126 125 82
126 125 82
126 125 83
126 125 83
126 125 83
126 125 84
126 125 84
126 125 84
126 125 84
126 125 85
126 125 85
126 125 85
126 125 86
126 125 86
126 125 86
126 125 87
126 125 87
126 125 87
126 125 88
126 125 88
126 125 88
126 125 89
126 125 89
126 125 89
126 125 90
126 125 90
126 125 90
126 125 91
126 125 91
126 125 91
126 125 92
126 125 92
126 125 92
126 125 93
126 125 93
126 125 93
126 125 94
126 125 94
126 125 94
126 125 95
126 125 95
126 125 95
126 125 96
126 125 96
126 125 96
126 125 96
126 125 97
126 125 97
126 125 97
126 125 98
126 125 98
126 125 98
126 125 99
126 125 99
126 125 99
126 125 100
126 125 100
126 125 100
126 125 101
126 125 101
126 125 101
126 125 102
126 125 102
126 125 102
126 125 103
126 125 103
126 125 103
126 125 104
126 125 104
126 125 104
126 125 105
126 125 105
126 125 105
126 125 106
126 125 106
126 125 106
126 125 107
126 125 107
126 125 107
126 125 108
126 125 108
126 125 108
126 125 108
126 125 109
126 125 109
126 125 109
126 125 110
126 125 110
126 125 110
126 125 111
126 125 111
126 125 111
126 125 112
126 125 112
126 125 112
126 125 113
126 125 113
126 125 113
126 125 114
126 125 114
126 125 114
126 125 115
125 125 115
125 125 115
125 125 116
125 125 116
125 125 116
125 125 117
125 125 117
125 125 117
125 125 118
125 125 118
125 125 118
125 125 119
125 125 119
125 125 119
125 125 120
125 125 120
125 125 120
125 125 120
125 125 121
125 125 121
125 125 121
125 125 122
125 125 122
125 125 122
125 125 123
125 125 123
125 125 123
125 125 124
125 125 124
125 125 124
125 125 125
125 125 125
125 125 125
125 125 126
125 125 126
125 125 126
125 125 127
125 125 127
125 125 127
125 125 128
125 125 128
125 125 128
125 125 129
125 125 129
130 124 0
130 124 0
130 124 0
130 124 0
130 124 1
130 124 1
130 124 1
130 124 2
130 124 2
130 124 2
130 124 3
130 124 3
130 124 3
130 124 4
130 124 4
130 124 4
130 124 5
130 124 5
130 124 5
130 124 6
130 124 6
130 124 6
130 124 7
130 124 7
130 124 7
130 124 8
130 124 8
130 124 8
130 124 9
130 124 9
130 124 9
130 124 10
130 124 10
130 124 10
130 124 11
130 124 11
130 124 11
130 124 12
130 124 12
130 124 12
130 124 13
130 124 13
130 124 13
130 124 14
129 124 14
129 124 14
129 124 15
129 124 15
129 124 15
129 124 16
129 124 16
129 124 16
129 124 17
129 124 17
129 124 17
129 124 18
129 124 18
129 124 18
129 124 18
129 124 19
129 124 19
129 124 19
129 124 20
129 124 20
129 124 20
129 124 21
129 124 21
129 124 21
129 124 22
129 124 22
129 124 22
129 124 23
129 124 23
129 124 23
129 124 24
129 124 24
129 124 24
129 124 25
129 124 25
129 124 25
129 124 26
129 124 26
129 124 26
129 124 27
129 124 27
129 124 27
129 124 28
129 124 28
129 124 28
129 124 29
129 124 29
129 124 29
129 124 30
129 124 30
129 124 30
129 124 31
129 124 31
129 124 31
129 124 32
129 124 32
129 124 32
129 124 33
129 124 33
129 124 33
129 124 34
129 124 34
129 124 34
128 124 35
128 124 35
128 124 35
128 124 36
128 124 36
128 124 36
128 124 37
128 124 37
128 124 37
128 124 37
128 124 38
128 124 38
128 124 38
128 124 39
128 124 39
128 124 39
128 124 40
128 124 40
128 124 40
128 124 41
128 124 41
128 124 41
128 124 42
128 124 42
128 124 42
128 124 43
128 124 43
128 124 43
128 124 44
128 124 44
128 124 44
128 124 45
128 124 45
128 124 45
128 124 46
128 124 46
128 124 46
128 124 47
128 124 47
128 124 47
128 124 48
128 124 48
128 124 48
128 124 49
128 124 49
128 124 49
128 124 50
128 124 50
128 124 50
128 124 51
128 124 51
128 124 51
128 124 52
128 124 52
128 124 52
128 124 53
128 124 53
128 124 53
128 124 54
128 124 54
128 124 54
128 124 55
127 124 55
127 124 55
127 124 56
127 124 56
127 124 56
127 124 56
127 124 57
127 124 57
127 124 57
127 124 58
127 124 58
127 124 58
127 124 59
127 124 59
127 124 59
127 124 60
127 124 60
127 124 60
127 124 61
127 124 61
127 124 61
127 124 62
127 124 62
127 124 62
127 124 63
127 124 63
127 124 63
127 124 64
127 124 64
127 124 64
127 124 65
127 124 65
127 124 65
127 124 66
127 124 66
127 124 66
127 124 67
127 124 67
127 124 67
127 124 68
127 124 68
127 124 68
127 124 69
127 124 69
127 124 69
127 124 70
127 124 70
127 124 70
127 124 71
127 124 71
127 124 71
127 124 72
127 124 72
127 124 72
127 124 73
127 124 73
127 124 73
127 124 74
127 124 74
127 124 74
127 124 75
127 124 75
126 124 75
126 124 75
126 124 76
126 124 76
126 124 76
126 124 77
126 124 77
126 124 77
126 124 78
126 124 78
126 124 78
126 124 79
126 124 79
126 124 79
126 124 80
126 124 80
126 124 80
126 124 81
126 124 81
126 124 81
126 124 82
126 124 82
126 124 82
126 124 83
126 124 83
126 124 83
126 124 84
126 124 84
126 124 84
126 124 85
126 124 85
126 124 85
126 124 86
126 124 86
126 124 86
126 124 87
126 124 87
126 124 87
126 124 88
126 124 88
126 124 88
126 124 89
126 124 89
126 124 89
126 124 90
126 124 90
126 124 90
126 124 91
126 124 91
126 124 91
126 124 92
126 124 92
126 124 92
126 124 93
126 124 93
126 124 93
126 124 94
126 124 94
126 124 94
126 124 94
126 124 95
126 124 95
125 124 95
125 124 96
125 124 96
125 124 96
125 124 97
125 124 97
125 124 97
125 124 98
125 124 98
125 124 98
125 124 99
125 124 99
125 124 99
125 124 100
125 124 100
125 124 100
125 124 101
125 124 101
125 124 101
125 124 102
125 124 102
125 124 102
125 124 103
125 124 103
125 124 103
125 124 104
125 124 104
125 124 104
125 124 105
125 124 105
125 124 105
125 124 106
125 124 106
125 124 106
125 124 107
125 124 107
125 124 107
125 124 108
125 124 108
125 124 108
125 124 109
125 124 109
125 124 109
125 124 110
125 124 110
125 124 110
125 124 111
125 124 111
125 124 111
125 124 112
125 124 112
125 124 112
125 124 113
125 124 113
125 124 113
125 124 113
125 124 114
125 124 114
125 124 114
125 124 115
125 124 115
125 124 115
125 124 116
124 124 116
124 124 116
124 124 117
124 124 117
124 124 117
124 124 118
124 124 118
124 124 118
124 124 119
124 124 119
124 124 119
124 124 120
124 124 120
124 124 120
124 124 121
124 124 121
124 124 121
124 124 122
124 124 122
124 124 122
124 124 123
124 124 123
124 124 123
124 124 124
124 124 124
124 124 124
124 124 125
124 124 125
124 124 125
124 124 126
124 124 126
124 124 126
124 124 127
124 124 127
124 124 127
124 124 128
124 124 128
124 124 128
124 124 129
124 124 129
124 124 129
124 124 130
124 124 130
124 124 130
131 123 0
131 123 0
131 123 0
131 123 0
131 123 1
131 123 1
131 123 1
131 123 2
131 123 2
131 123 2
131 123 3
131 123 3
131 123 3
131 123 4
131 123 4
131 123 4
131 123 5
131 123 5
131 123 5
131 123 6
131 123 6
131 123 6
131 123 7
131 123 7
131 123 7
131 123 8
131 123 8
131 123 8
131 123 9
131 123 9
131 123 9
131 123 10
131 123 10
131 123 10
131 123 11
131 123 11
131 123 11
131 123 12
131 123 12
131 123 12
131 123 13
131 123 13
131 123 13
131 123 14
130 123 14
130 123 14
130 123 15
130 123 15
130 123 15
130 123 16
130 123 16
130 123 16
130 123 17
130 123 17
130 123 17
130 123 18
130 123 18
130 123 18
130 123 19
130 123 19
130 123 19
130 123 20
130 123 20
130 123 20
130 123 21
130 123 21
130 123 21
130 123 22
130 123 22
130 123 22
130 123 23
130 123 23
130 123 23
130 123 24
130 123 24
130 123 24
130 123 25
130 123 25
130 123 25
130 123 26
130 123 26
130 123 26
130 123 27
130 123 27
130 123 27
130 123 28
130 123 28
130 123 28
130 123 29
129 123 29
129 123 29
129 123 30
129 123 30
129 123 30
129 123 31
129 123 31
129 123 31
129 123 32
129 123 32
129 123 32
129 123 33
129 123 33
129 123 33
129 123 34
129 123 34
129 123 34
129 123 35
129 123 35
129 123 35
129 123 36
129 123 36
129 123 36
129 123 37
129 123 37
129 123 37
129 123 38
129 123 38
129 123 38
129 123 39
129 123 39
129 123 39
129 123 40
129 123 40
129 123 40
129 123 41
129 123 41
129 123 41
129 123 42
129 123 42
129 123 42
129 123 43
129 123 43
129 123 43
128 123 43
128 123 44
128 123 44
128 123 44
128 123 45
128 123 45
128 123 45
128 123 46
128 123 46
128 123 46
128 123 47
128 123 47
128 123 47
128 123 48
128 123 48
128 123 48
128 123 49
128 123 49
128 123 49
128 123 50
128 123 50
128 123 50
128 123 51
128 123 51
128 123 51
128 123 52
128 123 52
128 123 52
128 123 53
128 123 53
128 123 53
128 123 54
128 123 54
128 123 54
128 123 55
128 123 55
128 123 55
128 123 56
128 123 56
128 123 56
128 123 57
128 123 57
128 123 57
128 123 58
128 123 58
127 123 58
127 123 59
127 123 59
127 123 59
127 123 60
127 123 60
127 123 60
127 123 61
127 123 61
127 123 61
127 123 62
127 123 62
127 123 62
127 123 63
127 123 63
127 123 63
127 123 64
127 123 64
127 123 64
127 123 65
127 123 65
127 123 65
127 123 66
127 123 66
127 123 66
127 123 67
127 123 67
127 123 67
127 123 68
127 123 68
127 123 68
127 123 69
127 123 69
127 123 69
127 123 70
127 123 70
127 123 70
127 123 71
127 123 71
127 123 71
127 123 72
127 123 72
127 123 72
127 123 73
126 123 73
126 123 73
126 123 74
126 123 74
126 123 74
126 123 75
126 123 75
126 123 75
126 123 76
126 123 76
126 123 76
126 123 77
126 123 77
126 123 77
126 123 78
126 123 78
126 123 78
126 123 79
126 123 79
126 123 79
126 123 80
126 123 80
126 123 80
126 123 81
126 123 81
126 123 81
126 123 82
126 123 82
126 123 82
126 123 83
126 123 83
126 123 83
126 123 84
126 123 84
126 123 84
126 123 85
126 123 85
126 123 85
126 123 86
126 123 86
126 123 86
126 123 86
126 123 87
126 123 87
126 123 87
125 123 88
125 123 88
125 123 88
125 123 89
125 123 89
125 123 89
125 123 90
125 123 90
125 123 90
125 123 91
125 123 91
125 123 91
125 123 92
125 123 92
125 123 92
125 123 93
125 123 93
125 123 93
125 123 94
125 123 94
125 123 94
125 123 95
125 123 95
125 123 95
125 123 96
125 123 96
125 123 96
125 123 97
125 123 97
125 123 97
125 123 98
125 123 98
125 123 98
125 123 99
125 123 99
125 123 99
125 123 100
125 123 100
125 123 100
125 123 101
125 123 101
125 123 101
125 123 102
125 123 102
124 123 102
124 123 103
124 123 103
124 123 103
124 123 104
124 123 104
124 123 104
124 123 105
124 123 105
124 123 105
124 123 106
124 123 106
124 123 106
124 123 107
124 123 107
124 123 107
124 123 108
124 123 108
124 123 108
124 123 109
124 123 109
124 123 109
124 123 110
124 123 110
124 123 110
124 123 111
124 123 111
124 123 111
124 123 112
124 123 112
124 123 112
124 123 113
124 123 113
124 123 113
124 123 114
124 123 114
124 123 114
124 123 115
124 123 115
124 123 115
124 123 116
124 123 116
124 123 116
124 123 117
124 123 117
123 123 117
123 123 118
123 123 118
123 123 118
123 123 119
123 123 119
123 123 119
123 123 120
123 123 120
123 123 120
123 123 121
123 123 121
123 123 121
123 123 122
123 123 122
123 123 122
123 123 123
123 123 123
123 123 123
123 123 124
123 123 124
123 123 124
123 123 125
123 123 125
123 123 125
123 123 126
123 123 126
123 123 126
123 123 127
123 123 127
123 123 127
123 123 128
123 123 128
123 123 128
123 123 129
123 123 129
123 123 129
123 123 130
123 123 130
123 123 130
123 123 130
123 123 131
123 123 131
123 123 131
133 121 0
133 121 0
133 121 0
133 121 1
133 121 1
133 121 1
133 121 2
133 121 2
133 121 2
133 121 3
132 121 3
132 121 3
132 121 4
132 121 4
132 121 4
132 121 5
132 121 5
132 121 5
132 121 6
132 121 6
132 121 6
132 121 7
132 121 7
132 121 7
132 121 8
132 121 8
132 121 8
132 121 9
132 121 9
132 121 9
132 121 10
132 121 10
132 121 10
132 121 11
132 121 11
132 121 11
132 121 12
132 121 12
132 121 12
132 121 13
132 121 13
132 121 13
132 121 14
132 121 14
131 121 14
131 121 15
131 121 15
131 121 15
131 121 16
131 121 16
131 121 16
131 121 17
131 121 17
131 121 17
131 121 18
131 121 18
131 121 18
131 121 19
131 121 19
131 121 19
131 121 20
131 121 20
131 121 20
131 121 21
131 121 21
131 121 21
131 121 22
131 121 22
131 121 22
131 121 23
131 121 23
131 121 23
131 121 24
131 121 24
131 121 24
131 121 25
131 121 25
131 121 25
131 121 26
130 121 26
130 121 26
130 121 27
130 121 27
130 121 27
130 121 28
130 121 28
130 121 28
130 121 29
130 121 29
130 121 29
130 121 30
130 121 30
130 121 30
130 121 31
130 121 31
130 121 31
130 121 32
130 121 32
130 121 32
130 121 33
130 121 33
130 121 33
130 121 34
130 121 34
130 121 34
130 121 35
130 121 35
130 121 35
130 121 36
130 121 36
130 121 36
130 121 37
130 121 37
130 121 37
129 121 38
129 121 38
129 121 38
129 121 39
129 121 39
129 121 39
129 121 40
129 121 40
129 121 40
129 121 41
129 121 41
129 121 41
129 121 42
129 121 42
129 121 42
129 121 43
129 121 43
129 121 43
129 121 44
129 121 44
129 121 44
129 121 45
129 121 45
129 121 45
129 121 46
129 121 46
129 121 46
129 121 47
129 121 47
129 121 47
129 121 48
129 121 48
129 121 48
129 121 49
128 121 49
128 121 49
128 121 50
128 121 50
128 121 50
128 121 51
128 121 51
128 121 51
128 121 52
128 121 52
128 121 52
128 121 53
128 121 53
128 121 53
128 121 54
128 121 54
128 121 54
128 121 55
128 121 55
128 121 55
128 121 56
128 121 56
128 121 56
128 121 57
128 121 57
128 121 57
128 121 58
128 121 58
128 121 58
128 121 59
128 121 59
128 121 59
128 121 60
128 121 60
128 121 60
127 121 61
127 121 61
127 121 61
127 121 62
127 121 62
127 121 62
127 121 63
127 121 63
127 121 63
127 121 64
127 121 64
127 121 64
127 121 65
127 121 65
127 121 65
127 121 66
127 121 66
127 121 66
127 121 67
127 121 67
127 121 67
127 121 68
127 121 68
127 121 68
127 121 69
127 121 69
127 121 69
127 121 70
127 121 70
127 121 70
127 121 71
127 121 71
127 121 71
127 121 72
126 121 72
126 121 72
126 121 73
126 121 73
126 121 73
126 121 74
126 121 74
126 121 74
126 121 75
126 121 75
126 121 75
126 121 76
126 121 76
126 121 76
126 121 77
126 121 77
126 121 77
126 121 78
126 121 78
126 121 78
126 121 79
126 121 79
126 121 79
126 121 80
126 121 80
126 121 80
126 121 81
126 121 81
126 121 81
126 121 82
126 121 82
126 121 82
126 121 83
126 121 83
126 121 83
125 121 84
125 121 84
125 121 84
125 121 85
125 121 85
125 121 85
125 121 86
125 121 86
125 121 86
125 121 87
125 121 87
125 121 87
125 121 88
125 121 88
125 121 88
125 121 89
125 121 89
125 121 89
125 121 90
125 121 90
125 121 90
125 121 91
125 121 91
125 121 91
125 121 92
125 121 92
125 121 92
125 121 93
125 121 93
125 121 93
125 121 94
125 121 94
125 121 94
125 121 95
124 121 95
124 121 95
124 121 96
124 121 96
124 121 96
124 121 97
124 121 97
124 121 97
124 121 98
124 121 98
124 121 98
124 121 99
124 121 99
124 121 99
124 121 100
124 121 100
124 121 100
124 121 101
124 121 101
124 121 101
124 121 102
124 121 102
124 121 102
124 121 103
124 121 103
124 121 103
124 121 104
124 121 104
124 121 104
124 121 105
124 121 105
124 121 105
124 121 106
124 121 106
124 121 106
123 121 107
123 121 107
123 121 107
123 121 108
123 121 108
123 121 108
123 121 109
123 121 109
123 121 109
123 121 110
123 121 110
123 121 110
123 121 111
123 121 111
123 121 111
123 121 112
123 121 112
123 121 112
123 121 113
123 121 113
123 121 113
123 121 114
123 121 114
123 121 114
123 121 115
123 121 115
123 121 115
123 121 116
123 121 116
123 121 116
123 121 117
123 121 117
123 121 117
123 121 118
123 121 118
122 121 118
122 121 119
122 121 119
122 121 119
122 121 120
122 121 120
122 121 120
122 121 121
122 121 121
122 121 121
122 121 122
122 121 122
122 121 122
122 121 123
122 121 123
122 121 123
122 121 124
122 121 124
122 121 124
122 121 125
122 121 125
122 121 125
122 121 126
122 121 126
122 121 126
122 121 127
122 121 127
122 121 127
122 121 128
122 121 128
122 121 128
122 121 129
122 121 129
122 121 129
121 121 130
121 121 130
121 121 130
121 121 131
121 121 131
121 121 131
121 121 132
121 121 132
121 121 132
121 121 133
134 120 0
134 120 0
134 120 0
134 120 1
134 120 1
134 120 1
134 120 2
134 120 2
134 120 2
134 120 3
134 120 3
134 120 3
134 120 4
134 120 4
134 120 4
134 120 5
133 120 5
133 120 5
133 120 6
133 120 6
133 120 6
133 120 7
133 120 7
133 120 7
133 120 8
133 120 8
133 120 8
133 120 9
133 120 9
133 120 9
133 120 10
133 120 10
133 120 10
133 120 11
133 120 11
133 120 11
133 120 12
133 120 12
133 120 12
133 120 13
133 120 13
133 120 13
133 120 14
133 120 14
132 120 14
132 120 15
132 120 15
132 120 15
132 120 16
132 120 16
132 120 16
132 120 17
132 120 17
132 120 17
132 120 18
132 120 18
132 120 18
132 120 19
132 120 19
132 120 19
132 120 20
132 120 20
132 120 20
132 120 21
132 120 21
132 120 21
132 120 22
132 120 22
132 120 22
132 120 23
132 120 23
132 120 23
132 120 24
131 120 24
131 120 24
131 120 25
131 120 25
131 120 25
131 120 26
131 120 26
131 120 26
131 120 27
131 120 27
131 120 27
131 120 28
131 120 28
131 120 29
131 120 29
131 120 29
131 120 30
131 120 30
131 120 30
131 120 31
131 120 31
131 120 31
131 120 32
131 120 32
131 120 32
131 120 33
131 120 33
131 120 33
130 120 34
130 120 34
130 120 34
130 120 35
130 120 35
130 120 35
130 120 36
130 120 36
130 120 36
130 120 37
130 120 37
130 120 37
130 120 38
130 120 38
130 120 38
130 120 39
130 120 39
130 120 39
130 120 40
130 120 40
130 120 40
130 120 41
130 120 41
130 120 41
130 120 42
130 120 42
130 120 42
130 120 43
129 120 43
129 120 43
129 120 44
129 120 44
129 120 44
129 120 45
129 120 45
129 120 45
129 120 46
129 120 46
129 120 46
129 120 47
129 120 47
129 120 47
129 120 48
129 120 48
129 120 48
129 120 49
129 120 49
129 120 49
129 120 50
129 120 50
129 120 50
129 120 51
129 120 51
129 120 51
129 120 52
129 120 52
129 120 52
128 120 53
128 120 53
128 120 53
128 120 54
128 120 54
128 120 54
128 120 55
128 120 55
128 120 55
128 120 56
128 120 56
128 120 56
128 120 57
128 120 57
128 120 58
128 120 58
128 120 58
128 120 59
128 120 59
128 120 59
128 120 60
128 120 60
128 120 60
128 120 61
128 120 61
128 120 61
128 120 62
128 120 62
127 120 62
127 120 63
127 120 63
127 120 63
127 120 64
127 120 64
127 120 64
127 120 65
127 120 65
127 120 65
127 120 66
127 120 66
127 120 66
127 120 67
127 120 67
127 120 67
127 120 68
127 120 68
127 120 68
127 120 69
127 120 69
127 120 69
127 120 70
127 120 70
127 120 70
127 120 71
127 120 71
127 120 71
126 120 72
126 120 72
126 120 72
126 120 73
126 120 73
126 120 73
126 120 74
126 120 74
126 120 74
126 120 75
126 120 75
126 120 75
126 120 76
126 120 76
126 120 76
126 120 77
126 120 77
126 120 77
126 120 78
126 120 78
126 120 78
126 120 79
126 120 79
126 120 79
126 120 80
126 120 80
126 120 80
126 120 81
125 120 81
125 120 81
125 120 82
125 120 82
125 120 82
125 120 83
125 120 83
125 120 83
125 120 84
125 120 84
125 120 84
125 120 85
125 120 85
125 120 85
125 120 86
125 120 86
125 120 87
125 120 87
125 120 87
125 120 88
125 120 88
125 120 88
125 120 89
125 120 89
125 120 89
125 120 90
125 120 90
125 120 90
125 120 91
124 120 91
124 120 91
124 120 92
124 120 92
124 120 92
124 120 93
124 120 93
124 120 93
124 120 94
124 120 94
124 120 94
124 120 95
124 120 95
124 120 95
124 120 96
124 120 96
124 120 96
124 120 97
124 120 97
124 120 97
124 120 98
124 120 98
124 120 98
124 120 99
124 120 99
124 120 99
124 120 100
124 120 100
123 120 100
123 120 101
123 120 101
123 120 101
123 120 102
123 120 102
123 120 102
123 120 103
123 120 103
123 120 103
123 120 104
123 120 104
123 120 104
123 120 105
123 120 105
123 120 105
123 120 106
123 120 106
123 120 106
123 120 107
123 120 107
123 120 107
123 120 108
123 120 108
123 120 108
123 120 109
123 120 109
123 120 109
122 120 110
122 120 110
122 120 110
122 120 111
122 120 111
122 120 111
122 120 112
122 120 112
122 120 112
122 120 113
122 120 113
122 120 113
122 120 114
122 120 114
122 120 114
122 120 115
122 120 115
122 120 116
122 120 116
122 120 116
122 120 117
122 120 117
122 120 117
122 120 118
122 120 118
122 120 118
122 120 119
122 120 119
122 120 119
121 120 120
121 120 120
121 120 120
121 120 121
121 120 121
121 120 121
121 120 122
121 120 122
121 120 122
121 120 123
121 120 123
121 120 123
121 120 124
121 120 124
121 120 124
121 120 125
121 120 125
121 120 125
121 120 126
121 120 126
121 120 126
121 120 127
121 120 127
121 120 127
121 120 128
121 120 128
121 120 128
121 120 129
120 120 129
120 120 129
120 120 130
120 120 130
120 120 130
120 120 131
120 120 131
120 120 131
120 120 132
120 120 132
120 120 132
120 120 133
120 120 133
120 120 133
120 120 134
120 120 134
135 119 0
135 119 0
135 119 0
135 119 1
135 119 1
135 119 1
135 119 2
135 119 2
135 119 2
135 119 3
135 119 3
135 119 3
135 119 4
135 119 4
135 119 4
135 119 5
135 119 5
135 119 5
135 119 6
135 119 6
134 119 6
134 119 7
134 119 7
134 119 7
134 119 8
134 119 8
134 119 8
134 119 9
134 119 9
134 119 9
134 119 10
134 119 10
134 119 10
134 119 11
134 119 11
134 119 11
134 119 12
134 119 12
134 119 12
134 119 13
134 119 13
134 119 13
134 119 14
134 119 14
133 119 14
133 119 15
133 119 15
133 119 15
133 119 16
133 119 16
133 119 17
133 119 17
133 119 17
133 119 18
133 119 18
133 119 18
133 119 19
133 119 19
133 119 19
133 119 20
133 119 20
133 119 20
133 119 21
133 119 21
133 119 21
133 119 22
133 119 22
133 119 22
132 119 23
132 119 23
132 119 23
132 119 24
132 119 24
132 119 24
132 119 25
132 119 25
132 119 25
132 119 26
132 119 26
132 119 26
132 119 27
132 119 27
132 119 27
132 119 28
132 119 28
132 119 28
132 119 29
132 119 29
132 119 29
132 119 30
132 119 30
132 119 30
131 119 31
131 119 31
131 119 31
131 119 32
131 119 32
131 119 33
131 119 33
131 119 33
131 119 34
131 119 34
131 119 34
131 119 35
131 119 35
131 119 35
131 119 36
131 119 36
131 119 36
131 119 37
131 119 37
131 119 37
131 119 38
131 119 38
131 119 38
131 119 39
130 119 39
130 119 39
130 119 40
130 119 40
130 119 40
130 119 41
130 119 41
130 119 41
130 119 42
130 119 42
130 119 42
130 119 43
130 119 43
130 119 43
130 119 44
130 119 44
130 119 44
130 119 45
130 119 45
130 119 45
130 119 46
130 119 46
130 119 46
130 119 47
129 119 47
129 119 47
129 119 48
129 119 48
129 119 49
129 119 49
129 119 49
129 119 50
129 119 50
129 119 50
129 119 51
129 119 51
129 119 51
129 119 52
129 119 52
129 119 52
129 119 53
129 119 53
129 119 53
129 119 54
129 119 54
129 119 54
129 119 55
129 119 55
128 119 55
128 119 56
128 119 56
128 119 56
128 119 57
128 119 57
128 119 57
128 119 58
128 119 58
128 119 58
128 119 59
128 119 59
128 119 59
128 119 60
128 119 60
128 119 60
128 119 61
128 119 61
128 119 61
128 119 62
128 119 62
128 119 62
128 119 63
128 119 63
127 119 63
127 119 64
127 119 64
127 119 65
127 119 65
127 119 65
127 119 66
127 119 66
127 119 66
127 119 67
127 119 67
127 119 67
127 119 68
127 119 68
127 119 68
127 119 69
127 119 69
127 119 69
127 119 70
127 119 70
127 119 70
127 119 71
127 119 71
127 119 71
126 119 72
126 119 72
126 119 72
126 119 73
126 119 73
126 119 73
126 119 74
126 119 74
126 119 74
126 119 75
126 119 75
126 119 75
126 119 76
126 119 76
126 119 76
126 119 77
126 119 77
126 119 77
126 119 78
126 119 78
126 119 78
126 119 79
126 119 79
126 119 79
125 119 80
125 119 80
125 119 81
125 119 81
125 119 81
125 119 82
125 119 82
125 119 82
125 119 83
125 119 83
125 119 83
125 119 84
125 119 84
125 119 84
125 119 85
125 119 85
125 119 85
125 119 86
125 119 86
125 119 86
125 119 87
125 119 87
125 119 87
125 119 88
124 119 88
124 119 88
124 119 89
124 119 89
124 119 89
124 119 90
124 119 90
124 119 90
124 119 91
124 119 91
124 119 91
124 119 92
124 119 92
124 119 92
124 119 93
124 119 93
124 119 93
124 119 94
124 119 94
124 119 94
124 119 95
124 119 95
124 119 95
124 119 96
123 119 96
123 119 97
123 119 97
123 119 97
123 119 98
123 119 98
123 119 98
123 119 99
123 119 99
123 119 99
123 119 100
123 119 100
123 119 100
123 119 101
123 119 101
123 119 101
123 119 102
123 119 102
123 119 102
123 119 103
123 119 103
123 119 103
123 119 104
123 119 104
122 119 104
122 119 105
122 119 105
122 119 105
122 119 106
122 119 106
122 119 106
122 119 107
122 119 107
122 119 107
122 119 108
122 119 108
122 119 108
122 119 109
122 119 109
122 119 109
122 119 110
122 119 110
122 119 110
122 119 111
122 119 111
122 119 111
122 119 112
122 119 112
121 119 113
121 119 113
121 119 113
121 119 114
121 119 114
121 119 114
121 119 115
121 119 115
121 119 115
121 119 116
121 119 116
121 119 116
121 119 117
121 119 117
121 119 117
121 119 118
121 119 118
121 119 118
121 119 119
121 119 119
121 119 119
121 119 120
121 119 120
121 119 120
120 119 121
120 119 121
120 119 121
120 119 122
120 119 122
120 119 122
120 119 123
120 119 123
120 119 123
120 119 124
120 119 124
120 119 124
120 119 125
120 119 125
120 119 125
120 119 126
120 119 126
120 119 126
120 119 127
120 119 127
120 119 127
120 119 128
120 119 128
120 119 129
119 119 129
119 119 129
119 119 130
119 119 130
119 119 130
119 119 131
119 119 131
119 119 131
119 119 132
119 119 132
119 119 132
119 119 133
119 119 133
119 119 133
119 119 134
119 119 134
119 119 134
119 119 135
119 119 135
119 119 135
137 117 0
137 117 0
137 117 0
136 117 1
136 117 1
136 117 1
136 117 2
136 117 2
136 117 2
136 117 3
136 117 3
136 117 3
136 117 4
136 117 4
136 117 4
136 117 5
136 117 5
136 117 5
136 117 6
136 117 6
136 117 6
136 117 7
136 117 7
136 117 7
135 117 8
135 117 8
135 117 8
135 117 9
135 117 9
135 117 9
135 117 10
135 117 10
135 117 10
135 117 11
135 117 11
135 117 12
135 117 12
135 117 12
135 117 13
135 117 13
135 117 13
135 117 14
135 117 14
135 117 14
134 117 15
134 117 15
134 117 15
134 117 16
134 117 16
134 117 16
134 117 17
134 117 17
134 117 17
134 117 18
134 117 18
134 117 18
134 117 19
134 117 19
134 117 19
134 117 20
134 117 20
134 117 20
134 117 21
134 117 21
134 117 21
133 117 22
133 117 22
133 117 23
133 117 23
133 117 23
133 117 24
133 117 24
133 117 24
133 117 25
133 117 25
133 117 25
133 117 26
133 117 26
133 117 26
133 117 27
133 117 27
133 117 27
133 117 28
133 117 28
133 117 28
133 117 29
132 117 29
132 117 29
132 117 30
132 117 30
132 117 30
132 117 31
132 117 31
132 117 31
132 117 32
132 117 32
132 117 32
132 117 33
132 117 33
132 117 34
132 117 34
132 117 34
132 117 35
132 117 35
132 117 35
132 117 36
132 117 36
131 117 36
131 117 37
131 117 37
131 117 37
131 117 38
131 117 38
131 117 38
131 117 39
131 117 39
131 117 39
131 117 40
131 117 40
131 117 40
131 117 41
131 117 41
131 117 41
131 117 42
131 117 42
131 117 42
131 117 43
130 117 43
130 117 43
130 117 44
130 117 44
130 117 45
130 117 45
130 117 45
130 117 46
130 117 46
130 117 46
130 117 47
130 117 47
130 117 47
130 117 48
130 117 48
130 117 48
130 117 49
130 117 49
130 117 49
130 117 50
130 117 50
129 117 50
129 117 51
129 117 51
129 117 51
129 117 52
129 117 52
129 117 52
129 117 53
129 117 53
129 117 53
129 117 54
129 117 54
129 117 54
129 117 55
129 117 55
129 117 56
129 117 56
129 117 56
129 117 57
129 117 57
129 117 57
128 117 58
128 117 58
128 117 58
128 117 59
128 117 59
128 117 59
128 117 60
128 117 60
128 117 60
128 117 61
128 117 61
128 117 61
128 117 62
128 117 62
128 117 62
128 117 63
128 117 63
128 117 63
128 117 64
128 117 64
128 117 64
127 117 65
127 117 65
127 117 65
127 117 66
127 117 66
127 117 67
127 117 67
127 117 67
127 117 68
127 117 68
127 117 68
127 117 69
127 117 69
127 117 69
127 117 70
127 117 70
127 117 70
127 117 71
127 117 71
127 117 71
126 117 72
126 117 72
126 117 72
126 117 73
126 117 73
126 117 73
126 117 74
126 117 74
126 117 74
126 117 75
126 117 75
126 117 75
126 117 76
126 117 76
126 117 76
126 117 77
126 117 77
126 117 78
126 117 78
126 117 78
126 117 79
125 117 79
125 117 79
125 117 80
125 117 80
125 117 80
125 117 81
125 117 81
125 117 81
125 117 82
125 117 82
125 117 82
125 117 83
125 117 83
125 117 83
125 117 84
125 117 84
125 117 84
125 117 85
125 117 85
125 117 85
125 117 86
124 117 86
124 117 86
124 117 87
124 117 87
124 117 87
124 117 88
124 117 88
124 117 89
124 117 89
124 117 89
124 117 90
124 117 90
124 117 90
124 117 91
124 117 91
124 117 91
124 117 92
124 117 92
124 117 92
124 117 93
124 117 93
123 117 93
123 117 94
123 117 94
123 117 94
123 117 95
123 117 95
123 117 95
123 117 96
123 117 96
123 117 96
123 117 97
123 117 97
123 117 97
123 117 98
123 117 98
123 117 98
123 117 99
123 117 99
123 117 99
123 117 100
122 117 100
122 117 101
122 117 101
122 117 101
122 117 102
122 117 102
122 117 102
122 117 103
122 117 103
122 117 103
122 117 104
122 117 104
122 117 104
122 117 105
122 117 105
122 117 105
122 117 106
122 117 106
122 117 106
122 117 107
122 117 107
121 117 107
121 117 108
121 117 108
121 117 108
121 117 109
121 117 109
121 117 109
121 117 110
121 117 110
121 117 110
121 117 111
121 117 111
121 117 112
121 117 112
121 117 112
121 117 113
121 117 113
121 117 113
121 117 114
121 117 114
121 117 114
120 117 115
120 117 115
120 117 115
120 117 116
120 117 116
120 117 116
120 117 117
120 117 117
120 117 117
120 117 118
120 117 118
120 117 118
120 117 119
120 117 119
120 117 119
120 117 120
120 117 120
120 117 120
120 117 121
120 117 121
120 117 121
119 117 122
119 117 122
119 117 123
119 117 123
119 117 123
119 117 124
119 117 124
119 117 124
119 117 125
119 117 125
119 117 125
119 117 126
119 117 126
119 117 126
119 117 127
119 117 127
119 117 127
119 117 128
119 117 128
119 117 128
118 117 129
118 117 129
118 117 129
118 117 130
118 117 130
118 117 130
118 117 131
118 117 131
118 117 131
118 117 132
118 117 132
118 117 132
118 117 133
118 117 133
118 117 134
118 117 134
118 117 134
118 117 135
118 117 135
118 117 135
118 117 136
117 117 136
117 117 136
117 117 137
138 116 0
138 116 0
138 116 0
138 116 1
138 116 1
138 116 1
138 116 2
138 116 2
137 116 2
137 116 3
137 116 3
137 116 3
137 116 4
137 116 4
137 116 4
137 116 5
137 116 5
137 116 5
137 116 6
137 116 6
137 116 6
137 116 7
137 116 7
137 116 7
137 116 8
137 116 8
136 116 9
136 116 9
136 116 9
136 116 10
136 116 10
136 116 10
136 116 11
136 116 11
136 116 11
136 116 12
136 116 12
136 116 12
136 116 13
136 116 13
136 116 13
136 116 14
136 116 14
136 116 14
135 116 15
135 116 15
135 116 15
135 116 16
135 116 16
135 116 16
135 116 17
135 116 17
135 116 18
135 116 18
135 116 18
135 116 19
135 116 19
135 116 19
135 116 20
135 116 20
135 116 20
135 116 21
135 116 21
134 116 21
134 116 22
134 116 22
134 116 22
134 116 23
134 116 23
134 116 23
134 116 24
134 116 24
134 116 24
134 116 25
134 116 25
134 116 26
134 116 26
134 116 26
134 116 27
134 116 27
134 116 27
133 116 28
133 116 28
133 116 28
133 116 29
133 116 29
133 116 29
133 116 30
133 116 30
133 116 30
133 116 31
133 116 31
133 116 31
133 116 32
133 116 32
133 116 32
133 116 33
133 116 33
133 116 33
132 116 34
132 116 34
132 116 35
132 116 35
132 116 35
132 116 36
132 116 36
132 116 36
132 116 37
132 116 37
132 116 37
132 116 38
132 116 38
132 116 38
132 116 39
132 116 39
132 116 39
132 116 40
132 116 40
131 116 40
131 116 41
131 116 41
131 116 41
131 116 42
131 116 42
131 116 43
131 116 43
131 116 43
131 116 44
131 116 44
131 116 44
131 116 45
131 116 45
131 116 45
131 116 46
131 116 46
131 116 46
130 116 47
130 116 47
130 116 47
130 116 48
130 116 48
130 116 48
130 116 49
130 116 49
130 116 49
130 116 50
130 116 50
130 116 50
130 116 51
130 116 51
130 116 52
130 116 52
130 116 52
130 116 53
129 116 53
129 116 53
129 116 54
129 116 54
129 116 54
129 116 55
129 116 55
129 116 55
129 116 56
129 116 56
129 116 56
129 116 57
129 116 57
129 116 57
129 116 58
129 116 58
129 116 58
129 116 59
129 116 59
128 116 60
128 116 60
128 116 60
128 116 61
128 116 61
128 116 61
128 116 62
128 116 62
128 116 62
128 116 63
128 116 63
128 116 63
128 116 64
128 116 64
128 116 64
128 116 65
128 116 65
128 116 65
127 116 66
127 116 66
127 116 66
127 116 67
127 116 67
127 116 67
127 116 68
127 116 68
127 116 69
127 116 69
127 116 69
127 116 70
127 116 70
127 116 70
127 116 71
127 116 71
127 116 71
127 116 72
126 116 72
126 116 72
126 116 73
126 116 73
126 116 73
126 116 74
126 116 74
126 116 74
126 116 75
126 116 75
126 116 75
126 116 76
126 116 76
126 116 77
126 116 77
126 116 77
126 116 78
126 116 78
125 116 78
125 116 79
125 116 79
125 116 79
125 116 80
125 116 80
125 116 80
125 116 81
125 116 81
125 116 81
125 116 82
125 116 82
125 116 82
125 116 83
125 116 83
125 116 83
125 116 84
125 116 84
125 116 84
124 116 85
124 116 85
124 116 86
124 116 86
124 116 86
124 116 87
124 116 87
124 116 87
124 116 88
124 116 88
124 116 88
124 116 89
124 116 89
124 116 89
124 116 90
124 116 90
124 116 90
124 116 91
123 116 91
123 116 91
123 116 92
123 116 92
123 116 92
123 116 93
123 116 93
123 116 93
123 116 94
123 116 94
123 116 95
123 116 95
123 116 95
123 116 96
123 116 96
123 116 96
123 116 97
123 116 97
122 116 97
122 116 98
122 116 98
122 116 98
122 116 99
122 116 99
122 116 99
122 116 100
122 116 100
122 116 100
122 116 101
122 116 101
122 116 101
122 116 102
122 116 102
122 116 103
122 116 103
122 116 103
122 116 104
121 116 104
121 116 104
121 116 105
121 116 105
121 116 105
121 116 106
121 116 106
121 116 106
121 116 107
121 116 107
121 116 107
121 116 108
121 116 108
121 116 108
121 116 109
121 116 109
121 116 109
121 116 110
120 116 110
120 116 110
120 116 111
120 116 111
120 116 112
120 116 112
120 116 112
120 116 113
120 116 113
120 116 113
120 116 114
120 116 114
120 116 114
120 116 115
120 116 115
120 116 115
120 116 116
120 116 116
119 116 116
119 116 117
119 116 117
119 116 117
119 116 118
119 116 118
119 116 118
119 116 119
119 116 119
119 116 120
119 116 120
119 116 120
119 116 121
119 116 121
119 116 121
119 116 122
119 116 122
119 116 122
119 116 123
118 116 123
118 116 123
118 116 124
118 116 124
118 116 124
118 116 125
118 116 125
118 116 125
118 116 126
118 116 126
118 116 126
118 116 127
118 116 127
118 116 127
118 116 128
118 116 128
118 116 129
118 116 129
117 116 129
117 116 130
117 116 130
117 116 130
117 116 131
117 116 131
117 116 131
117 116 132
117 116 132
117 116 132
117 116 133
117 116 133
117 116 133
117 116 134
117 116 134
117 116 134
117 116 135
117 116 135
116 116 135
116 116 136
116 116 136
116 116 137
116 116 137
116 116 137
116 116 138
116 116 138
139 115 0
139 115 0
139 115 0
139 115 1
139 115 1
139 115 1
139 115 2
139 115 2
139 115 2
139 115 3
139 115 3
139 115 3
138 115 4
138 115 4
138 115 4
138 115 5
138 115 5
138 115 5
138 115 6
138 115 6
138 115 7
138 115 7
138 115 7
138 115 8
138 115 8
138 115 8
138 115 9
138 115 9
137 115 9
137 115 10
137 115 10
137 115 10
137 115 11
137 115 11
137 115 11
137 115 12
137 115 12
137 115 12
137 115 13
137 115 13
137 115 14
137 115 14
137 115 14
137 115 15
136 115 15
136 115 15
136 115 16
136 115 16
136 115 16
136 115 17
136 115 17
136 115 17
136 115 18
136 115 18
136 115 18
136 115 19
136 115 19
136 115 19
136 115 20
136 115 20
136 115 21
135 115 21
135 115 21
135 115 22
135 115 22
135 115 22
135 115 23
135 115 23
135 115 23
135 115 24
135 115 24
135 115 24
135 115 25
135 115 25
135 115 25
135 115 26
135 115 26
134 115 26
134 115 27
134 115 27
134 115 28
134 115 28
134 115 28
134 115 29
134 115 29
134 115 29
134 115 30
134 115 30
134 115 30
134 115 31
134 115 31
134 115 31
134 115 32
133 115 32
133 115 32
133 115 33
133 115 33
133 115 33
133 115 34
133 115 34
133 115 35
133 115 35
133 115 35
133 115 36
133 115 36
133 115 36
133 115 37
133 115 37
133 115 37
133 115 38
132 115 38
132 115 38
132 115 39
132 115 39
132 115 39
132 115 40
132 115 40
132 115 40
132 115 41
132 115 41
132 115 42
132 115 42
132 115 42
132 115 43
132 115 43
132 115 43
131 115 44
131 115 44
131 115 44
131 115 45
131 115 45
131 115 45
131 115 46
131 115 46
131 115 46
131 115 47
131 115 47
131 115 47
131 115 48
131 115 48
131 115 49
131 115 49
131 115 49
130 115 50
130 115 50
130 115 50
130 115 51
130 115 51
130 115 51
130 115 52
130 115 52
130 115 52
130 115 53
130 115 53
130 115 53
130 115 54
130 115 54
130 115 54
130 115 55
129 115 55
129 115 56
129 115 56
129 115 56
129 115 57
129 115 57
129 115 57
129 115 58
129 115 58
129 115 58
129 115 59
129 115 59
129 115 59
129 115 60
129 115 60
129 115 60
128 115 61
128 115 61
128 115 61
128 115 62
128 115 62
128 115 63
128 115 63
128 115 63
128 115 64
128 115 64
128 115 64
128 115 65
128 115 65
128 115 65
128 115 66
128 115 66
128 115 66
127 115 67
127 115 67
127 115 67
127 115 68
127 115 68
127 115 68
127 115 69
127 115 69
127 115 70
127 115 70
127 115 70
127 115 71
127 115 71
127 115 71
127 115 72
127 115 72
126 115 72
126 115 73
126 115 73
126 115 73
126 115 74
126 115 74
126 115 74
126 115 75
126 115 75
126 115 75
126 115 76
126 115 76
126 115 77
126 115 77
126 115 77
126 115 78
126 115 78
125 115 78
125 115 79
125 115 79
125 115 79
125 115 80
125 115 80
125 115 80
125 115 81
125 115 81
125 115 81
125 115 82
125 115 82
125 115 82
125 115 83
125 115 83
125 115 84
124 115 84
124 115 84
124 115 85
124 115 85
124 115 85
124 115 86
124 115 86
124 115 86
124 115 87
124 115 87
124 115 87
124 115 88
124 115 88
124 115 88
124 115 89
124 115 89
123 115 89
123 115 90
123 115 90
123 115 91
123 115 91
123 115 91
123 115 92
123 115 92
123 115 92
123 115 93
123 115 93
123 115 93
123 115 94
123 115 94
123 115 94
123 115 95
123 115 95
122 115 95
122 115 96
122 115 96
122 115 96
122 115 97
122 115 97
122 115 98
122 115 98
122 115 98
122 115 99
122 115 99
122 115 99
122 115 100
122 115 100
122 115 100
122 115 101
121 115 101
121 115 101
121 115 102
121 115 102
121 115 102
121 115 103
121 115 103
121 115 103
121 115 104
121 115 104
121 115 105
121 115 105
121 115 105
121 115 106
121 115 106
121 115 106
121 115 107
120 115 107
120 115 107
120 115 108
120 115 108
120 115 108
120 115 109
120 115 109
120 115 109
120 115 110
120 115 110
120 115 110
120 115 111
120 115 111
120 115 112
120 115 112
120 115 112
119 115 113
119 115 113
119 115 113
119 115 114
119 115 114
119 115 114
119 115 115
119 115 115
119 115 115
119 115 116
119 115 116
119 115 116
119 115 117
119 115 117
119 115 117
119 115 118
118 115 118
118 115 119
118 115 119
118 115 119
118 115 120
118 115 120
118 115 120
118 115 121
118 115 121
118 115 121
118 115 122
118 115 122
118 115 122
118 115 123
118 115 123
118 115 123
118 115 124
117 115 124
117 115 124
117 115 125
117 115 125
117 115 126
117 115 126
117 115 126
117 115 127
117 115 127
117 115 127
117 115 128
117 115 128
117 115 128
117 115 129
117 115 129
117 115 129
116 115 130
116 115 130
116 115 130
116 115 131
116 115 131
116 115 131
116 115 132
116 115 132
116 115 133
116 115 133
116 115 133
116 115 134
116 115 134
116 115 134
116 115 135
116 115 135
115 115 135
115 115 136
115 115 136
115 115 136
115 115 137
115 115 137
115 115 137
115 115 138
115 115 138
115 115 138
115 115 139
115 115 139
140 114 0
140 114 0
140 114 0
140 114 1
140 114 1
140 114 1
140 114 2
140 114 2
140 114 2
140 114 3
140 114 3
140 114 3
140 114 4
140 114 4
140 114 4
139 114 5
139 114 5
139 114 6
139 114 6
139 114 6
139 114 7
139 114 7
139 114 7
139 114 8
139 114 8
139 114 8
139 114 9
139 114 9
139 114 9
138 114 10
138 114 10
138 114 10
138 114 11
138 114 11
138 114 12
138 114 12
138 114 12
138 114 13
138 114 13
138 114 13
138 114 14
138 114 14
138 114 14
138 114 15
137 114 15
137 114 15
137 114 16
137 114 16
137 114 16
137 114 17
137 114 17
137 114 18
137 114 18
137 114 18
137 114 19
137 114 19
137 114 19
137 114 20
137 114 20
136 114 20
136 114 21
136 114 21
136 114 21
136 114 22
136 114 22
136 114 22
136 114 23
136 114 23
136 114 24
136 114 24
136 114 24
136 114 25
136 114 25
136 114 25
135 114 26
135 114 26
135 114 26
135 114 27
135 114 27
135 114 27
135 114 28
135 114 28
135 114 28
135 114 29
135 114 29
135 114 30
135 114 30
135 114 30
135 114 31
134 114 31
134 114 31
134 114 32
134 114 32
134 114 32
134 114 33
134 114 33
134 114 33
134 114 34
134 114 34
134 114 34
134 114 35
134 114 35
134 114 36
134 114 36
133 114 36
133 114 37
133 114 37
133 114 37
133 114 38
133 114 38
133 114 38
133 114 39
133 114 39
133 114 39
133 114 40
133 114 40
133 114 40
133 114 41
132 114 41
132 114 42
132 114 42
132 114 42
132 114 43
132 114 43
132 114 43
132 114 44
132 114 44
132 114 44
132 114 45
132 114 45
132 114 45
132 114 46
132 114 46
131 114 46
131 114 47
131 114 47
131 114 48
131 114 48
131 114 48
131 114 49
131 114 49
131 114 49
131 114 50
131 114 50
131 114 50
131 114 51
131 114 51
131 114 51
130 114 52
130 114 52
130 114 52
130 114 53
130 114 53
130 114 54
130 114 54
130 114 54
130 114 55
130 114 55
130 114 55
130 114 56
130 114 56
130 114 56
130 114 57
129 114 57
129 114 57
129 114 58
129 114 58
129 114 58
129 114 59
129 114 59
129 114 60
129 114 60
129 114 60
129 114 61
129 114 61
129 114 61
129 114 62
129 114 62
128 114 62
128 114 63
128 114 63
128 114 63
128 114 64
128 114 64
128 114 65
128 114 65
128 114 65
128 114 66
128 114 66
128 114 66
128 114 67
128 114 67
128 114 67
127 114 68
127 114 68
127 114 68
127 114 69
127 114 69
127 114 69
127 114 70
127 114 70
127 114 71
127 114 71
127 114 71
127 114 72
127 114 72
127 114 72
126 114 73
126 114 73
126 114 73
126 114 74
126 114 74
126 114 74
126 114 75
126 114 75
126 114 75
126 114 76
126 114 76
126 114 77
126 114 77
126 114 77
126 114 78
125 114 78
125 114 78
125 114 79
125 114 79
125 114 79
125 114 80
125 114 80
125 114 80
125 114 81
125 114 81
125 114 81
125 114 82
125 114 82
125 114 83
125 114 83
124 114 83
124 114 84
124 114 84
124 114 84
124 114 85
124 114 85
124 114 85
124 114 86
124 114 86
124 114 86
124 114 87
124 114 87
124 114 87
124 114 88
124 114 88
123 114 89
123 114 89
123 114 89
123 114 90
123 114 90
123 114 90
123 114 91
123 114 91
123 114 91
123 114 92
123 114 92
123 114 92
123 114 93
123 114 93
123 114 93
122 114 94
122 114 94
122 114 95
122 114 95
122 114 95
122 114 96
122 114 96
122 114 96
122 114 97
122 114 97
122 114 97
122 114 98
122 114 98
122 114 98
122 114 99
121 114 99
121 114 99
121 114 100
121 114 100
121 114 101
121 114 101
121 114 101
121 114 102
121 114 102
121 114 102
121 114 103
121 114 103
121 114 103
121 114 104
120 114 104
120 114 104
120 114 105
120 114 105
120 114 105
120 114 106
120 114 106
120 114 107
120 114 107
120 114 107
120 114 108
120 114 108
120 114 108
120 114 109
120 114 109
119 114 109
119 114 110
119 114 110
119 114 110
119 114 111
119 114 111
119 114 111
119 114 112
119 114 112
119 114 113
119 114 113
119 114 113
119 114 114
119 114 114
119 114 114
118 114 115
118 114 115
118 114 115
118 114 116
118 114 116
118 114 116
118 114 117
118 114 117
118 114 117
118 114 118
118 114 118
118 114 119
118 114 119
118 114 119
118 114 120
117 114 120
117 114 120
117 114 121
117 114 121
117 114 121
117 114 122
117 114 122
117 114 122
117 114 123
117 114 123
117 114 123
117 114 124
117 114 124
117 114 125
117 114 125
116 114 125
116 114 126
116 114 126
116 114 126
116 114 127
116 114 127
116 114 127
116 114 128
116 114 128
116 114 128
116 114 129
116 114 129
116 114 130
116 114 130
116 114 130
115 114 131
115 114 131
115 114 131
115 114 132
115 114 132
115 114 132
115 114 133
115 114 133
115 114 133
115 114 134
115 114 134
115 114 134
115 114 135
115 114 135
114 114 136
114 114 136
114 114 136
114 114 137
114 114 137
114 114 137
114 114 138
114 114 138
114 114 138
114 114 139
114 114 139
114 114 139
114 114 140
114 114 140
114 114 140
142 112 0
142 112 0
142 112 0
142 112 1
141 112 1
141 112 1
141 112 2
141 112 2
141 112 2
141 112 3
141 112 3
141 112 3
141 112 4
141 112 4
141 112 4
141 112 5
141 112 5
140 112 6
140 112 6
140 112 6
140 112 7
140 112 7
140 112 7
140 112 8
140 112 8
140 112 8
140 112 9
140 112 9
140 112 9
140 112 10
140 112 10
139 112 11
139 112 11
139 112 11
139 112 12
139 112 12
139 112 12
139 112 13
139 112 13
139 112 13
139 112 14
139 112 14
139 112 14
139 112 15
138 112 15
138 112 16
138 112 16
138 112 16
138 112 17
138 112 17
138 112 17
138 112 18
138 112 18
138 112 18
138 112 19
138 112 19
138 112 19
138 112 20
137 112 20
137 112 21
137 112 21
137 112 21
137 112 22
137 112 22
137 112 22
137 112 23
137 112 23
137 112 23
137 112 24
137 112 24
137 112 24
136 112 25
136 112 25
136 112 26
136 112 26
136 112 26
136 112 27
136 112 27
136 112 27
136 112 28
136 112 28
136 112 28
136 112 29
136 112 29
136 112 29
135 112 30
135 112 30
135 112 31
135 112 31
135 112 31
135 112 32
135 112 32
135 112 32
135 112 33
135 112 33
135 112 33
135 112 34
135 112 34
134 112 34
134 112 35
134 112 35
134 112 36
134 112 36
134 112 36
134 112 37
134 112 37
134 112 37
134 112 38
134 112 38
134 112 38
134 112 39
134 112 39
133 112 39
133 112 40
133 112 40
133 112 40
133 112 41
133 112 41
133 112 42
133 112 42
133 112 42
133 112 43
133 112 43
133 112 43
133 112 44
133 112 44
132 112 44
132 112 45
132 112 45
132 112 45
132 112 46
132 112 46
132 112 47
132 112 47
132 112 47
132 112 48
132 112 48
132 112 48
132 112 49
131 112 49
131 112 49
131 112 50
131 112 50
131 112 50
131 112 51
131 112 51
131 112 52
131 112 52
131 112 52
131 112 53
131 112 53
131 112 53
131 112 54
130 112 54
130 112 54
130 112 55
130 112 55
130 112 55
130 112 56
130 112 56
130 112 57
130 112 57
130 112 57
130 112 58
130 112 58
130 112 58
129 112 59
129 112 59
129 112 59
129 112 60
129 112 60
129 112 60
129 112 61
129 112 61
129 112 62
129 112 62
129 112 62
129 112 63
129 112 63
129 112 63
128 112 64
128 112 64
128 112 64
128 112 65
128 112 65
128 112 65
128 112 66
128 112 66
128 112 67
128 112 67
128 112 67
128 112 68
128 112 68
127 112 68
127 112 69
127 112 69
127 112 69
127 112 70
127 112 70
127 112 70
127 112 71
127 112 71
127 112 72
127 112 72
127 112 72
127 112 73
127 112 73
126 112 73
126 112 74
126 112 74
126 112 74
126 112 75
126 112 75
126 112 75
126 112 76
126 112 76
126 112 77
126 112 77
126 112 77
126 112 78
125 112 78
125 112 78
125 112 79
125 112 79
125 112 79
125 112 80
125 112 80
125 112 80
125 112 81
125 112 81
125 112 81
125 112 82
125 112 82
125 112 83
124 112 83
124 112 83
124 112 84
124 112 84
124 112 84
124 112 85
124 112 85
124 112 85
124 112 86
124 112 86
124 112 86
124 112 87
124 112 87
123 112 88
123 112 88
123 112 88
123 112 89
123 112 89
123 112 89
123 112 90
123 112 90
123 112 90
123 112 91
123 112 91
123 112 91
123 112 92
123 112 92
122 112 93
122 112 93
122 112 93
122 112 94
122 112 94
122 112 94
122 112 95
122 112 95
122 112 95
122 112 96
122 112 96
122 112 96
122 112 97
121 112 97
121 112 98
121 112 98
121 112 98
121 112 99
121 112 99
121 112 99
121 112 100
121 112 100
121 112 100
121 112 101
121 112 101
121 112 101
121 112 102
120 112 102
120 112 103
120 112 103
120 112 103
120 112 104
120 112 104
120 112 104
120 112 105
120 112 105
120 112 105
120 112 106
120 112 106
120 112 106
120 112 107
119 112 107
119 112 108
119 112 108
119 112 108
119 112 109
119 112 109
119 112 109
119 112 110
119 112 110
119 112 110
119 112 111
119 112 111
119 112 111
118 112 112
118 112 112
118 112 113
118 112 113
118 112 113
118 112 114
118 112 114
118 112 114
118 112 115
118 112 115
118 112 115
118 112 116
118 112 116
118 112 116
117 112 117
117 112 117
117 112 117
117 112 118
117 112 118
117 112 119
117 112 119
117 112 119
117 112 120
117 112 120
117 112 120
117 112 121
117 112 121
116 112 121
116 112 122
116 112 122
116 112 122
116 112 123
116 112 123
116 112 124
116 112 124
116 112 124
116 112 125
116 112 125
116 112 125
116 112 126
116 112 126
115 112 126
115 112 127
115 112 127
115 112 127
115 112 128
115 112 128
115 112 129
115 112 129
115 112 129
115 112 130
115 112 130
115 112 130
115 112 131
114 112 131
114 112 131
114 112 132
114 112 132
114 112 132
114 112 133
114 112 133
114 112 134
114 112 134
114 112 134
114 112 135
114 112 135
114 112 135
114 112 136
113 112 136
113 112 136
113 112 137
113 112 137
113 112 137
113 112 138
113 112 138
113 112 139
113 112 139
113 112 139
113 112 140
113 112 140
113 112 140
112 112 141
112 112 141
112 112 141
112 112 142
143 111 0
143 111 0
143 111 0
143 111 1
143 111 1
143 111 1
143 111 2
142 111 2
142 111 2
142 111 3
142 111 3
142 111 3
142 111 4
142 111 4
142 111 5
142 111 5
142 111 5
142 111 6
142 111 6
141 111 6
141 111 7
141 111 7
141 111 7
141 111 8
141 111 8
141 111 8
141 111 9
141 111 9
141 111 10
141 111 10
141 111 10
141 111 11
140 111 11
140 111 11
140 111 12
140 111 12
140 111 12
140 111 13
140 111 13
140 111 14
140 111 14
140 111 14
140 111 15
140 111 15
139 111 15
139 111 16
139 111 16
139 111 16
139 111 17
139 111 17
139 111 17
139 111 18
139 111 18
139 111 19
139 111 19
139 111 19
139 111 20
138 111 20
138 111 20
138 111 21
138 111 21
138 111 21
138 111 22
138 111 22
138 111 23
138 111 23
138 111 23
138 111 24
138 111 24
137 111 24
137 111 25
137 111 25
137 111 25
137 111 26
137 111 26
137 111 26
137 111 27
137 111 27
137 111 28
137 111 28
137 111 28
137 111 29
136 111 29
136 111 29
136 111 30
136 111 30
136 111 30
136 111 31
136 111 31
136 111 32
136 111 32
136 111 32
136 111 33
136 111 33
135 111 33
135 111 34
135 111 34
135 111 34
135 111 35
135 111 35
135 111 35
135 111 36
135 111 36
135 111 37
135 111 37
135 111 37
135 111 38
134 111 38
134 111 38
134 111 39
134 111 39
134 111 39
134 111 40
134 111 40
134 111 41
134 111 41
134 111 41
134 111 42
134 111 42
133 111 42
133 111 43
133 111 43
133 111 43
133 111 44
133 111 44
133 111 44
133 111 45
133 111 45
133 111 46
133 111 46
133 111 46
132 111 47
132 111 47
132 111 47
132 111 48
132 111 48
132 111 48
132 111 49
132 111 49
132 111 49
132 111 50
132 111 50
132 111 51
132 111 51
131 111 51
131 111 52
131 111 52
131 111 52
131 111 53
131 111 53
131 111 53
131 111 54
131 111 54
131 111 55
131 111 55
131 111 55
130 111 56
130 111 56
130 111 56
130 111 57
130 111 57
130 111 57
130 111 58
130 111 58
130 111 58
130 111 59
130 111 59
130 111 60
130 111 60
129 111 60
129 111 61
129 111 61
129 111 61
129 111 62
129 111 62
129 111 62
129 111 63
129 111 63
129 111 64
129 111 64
129 111 64
128 111 65
128 111 65
128 111 65
128 111 66
128 111 66
128 111 66
128 111 67
128 111 67
128 111 67
128 111 68
128 111 68
128 111 69
128 111 69
127 111 69
127 111 70
127 111 70
127 111 70
127 111 71
127 111 71
127 111 71
127 111 72
127 111 72
127 111 73
127 111 73
127 111 73
126 111 74
126 111 74
126 111 74
126 111 75
126 111 75
126 111 75
126 111 76
126 111 76
126 111 76
126 111 77
126 111 77
126 111 78
126 111 78
125 111 78
125 111 79
125 111 79
125 111 79
125 111 80
125 111 80
125 111 80
125 111 81
125 111 81
125 111 82
125 111 82
125 111 82
124 111 83
124 111 83
124 111 83
124 111 84
124 111 84
124 111 84
124 111 85
124 111 85
124 111 85
124 111 86
124 111 86
124 111 87
124 111 87
123 111 87
123 111 88
123 111 88
123 111 88
123 111 89
123 111 89
123 111 89
123 111 90
123 111 90
123 111 91
123 111 91
123 111 91
122 111 92
122 111 92
122 111 92
122 111 93
122 111 93
122 111 93
122 111 94
122 111 94
122 111 94
122 111 95
122 111 95
122 111 96
122 111 96
121 111 96
121 111 97
121 111 97
121 111 97
121 111 98
121 111 98
121 111 98
121 111 99
121 111 99
121 111 99
121 111 100
121 111 100
120 111 101
120 111 101
120 111 101
120 111 102
120 111 102
120 111 102
120 111 103
120 111 103
120 111 103
120 111 104
120 111 104
120 111 105
119 111 105
119 111 105
119 111 106
119 111 106
119 111 106
119 111 107
119 111 107
119 111 107
119 111 108
119 111 108
119 111 108
119 111 109
119 111 109
118 111 110
118 111 110
118 111 110
118 111 111
118 111 111
118 111 111
118 111 112
118 111 112
118 111 112
118 111 113
118 111 113
118 111 114
117 111 114
117 111 114
117 111 115
117 111 115
117 111 115
117 111 116
117 111 116
117 111 116
117 111 117
117 111 117
117 111 117
117 111 118
117 111 118
116 111 119
116 111 119
116 111 119
116 111 120
116 111 120
116 111 120
116 111 121
116 111 121
116 111 121
116 111 122
116 111 122
116 111 123
115 111 123
115 111 123
115 111 124
115 111 124
115 111 124
115 111 125
115 111 125
115 111 125
115 111 126
115 111 126
115 111 126
115 111 127
115 111 127
114 111 128
114 111 128
114 111 128
114 111 129
114 111 129
114 111 129
114 111 130
114 111 130
114 111 130
114 111 131
114 111 131
114 111 132
113 111 132
113 111 132
113 111 133
113 111 133
113 111 133
113 111 134
113 111 134
113 111 134
113 111 135
113 111 135
113 111 135
113 111 136
113 111 136
112 111 137
112 111 137
112 111 137
112 111 138
112 111 138
112 111 138
112 111 139
112 111 139
112 111 139
112 111 140
112 111 140
112 111 140
111 111 141
111 111 141
111 111 142
111 111 142
111 111 142
111 111 143
111 111 143
144 110 0
144 110 0
144 110 0
144 110 1
144 110 1
144 110 1
144 110 2
144 110 2
144 110 2
144 110 3
143 110 3
143 110 3
143 110 4
143 110 4
143 110 5
143 110 5
143 110 5
143 110 6
143 110 6
143 110 6
143 110 7
142 110 7
142 110 7
142 110 8
142 110 8
142 110 9
142 110 9
142 110 9
142 110 10
142 110 10
142 110 10
142 110 11
142 110 11
141 110 11
141 110 12
141 110 12
141 110 13
141 110 13
141 110 13
141 110 14
141 110 14
141 110 14
141 110 15
141 110 15
140 110 15
140 110 16
140 110 16
140 110 17
140 110 17
140 110 17
140 110 18
140 110 18
140 110 18
140 110 19
140 110 19
140 110 19
139 110 20
139 110 20
139 110 21
139 110 21
139 110 21
139 110 22
139 110 22
139 110 22
139 110 23
139 110 23
139 110 23
138 110 24
138 110 24
138 110 25
138 110 25
138 110 25
138 110 26
138 110 26
138 110 26
138 110 27
138 110 27
138 110 27
138 110 28
137 110 28
137 110 29
137 110 29
137 110 29
137 110 30
137 110 30
137 110 30
137 110 31
137 110 31
137 110 31
137 110 32
136 110 32
136 110 33
136 110 33
136 110 33
136 110 34
136 110 34
136 110 34
136 110 35
136 110 35
136 110 35
136 110 36
136 110 36
135 110 37
135 110 37
135 110 37
135 110 38
135 110 38
135 110 38
135 110 39
135 110 39
135 110 39
135 110 40
135 110 40
135 110 41
134 110 41
134 110 41
134 110 42
134 110 42
134 110 42
134 110 43
134 110 43
134 110 43
134 110 44
134 110 44
134 110 45
133 110 45
133 110 45
133 110 46
133 110 46
133 110 46
133 110 47
133 110 47
133 110 47
133 110 48
133 110 48
133 110 48
133 110 49
132 110 49
132 110 50
132 110 50
132 110 50
132 110 51
132 110 51
132 110 51
132 110 52
132 110 52
132 110 52
132 110 53
131 110 53
131 110 54
131 110 54
131 110 54
131 110 55
131 110 55
131 110 55
131 110 56
131 110 56
131 110 56
131 110 57
131 110 57
130 110 58
130 110 58
130 110 58
130 110 59
130 110 59
130 110 59
130 110 60
130 110 60
130 110 60
130 110 61
130 110 61
129 110 62
129 110 62
129 110 62
129 110 63
129 110 63
129 110 63
129 110 64
129 110 64
129 110 64
129 110 65
129 110 65
129 110 66
128 110 66
128 110 66
128 110 67
128 110 67
128 110 67
128 110 68
128 110 68
128 110 68
128 110 69
128 110 69
128 110 70
127 110 70
127 110 70
127 110 71
127 110 71
127 110 71
127 110 72
127 110 72
127 110 72
127 110 73
127 110 73
127 110 74
127 110 74
126 110 74
126 110 75
126 110 75
126 110 75
126 110 76
126 110 76
126 110 76
126 110 77
126 110 77
126 110 78
126 110 78
125 110 78
125 110 79
125 110 79
125 110 79
125 110 80
125 110 80
125 110 80
125 110 81
125 110 81
125 110 82
125 110 82
125 110 82
124 110 83
124 110 83
124 110 83
124 110 84
124 110 84
124 110 84
124 110 85
124 110 85
124 110 86
124 110 86
124 110 86
123 110 87
123 110 87
123 110 87
123 110 88
123 110 88
123 110 88
123 110 89
123 110 89
123 110 90
123 110 90
123 110 90
123 110 91
122 110 91
122 110 91
122 110 92
122 110 92
122 110 92
122 110 93
122 110 93
122 110 93
122 110 94
122 110 94
122 110 95
121 110 95
121 110 95
121 110 96
121 110 96
121 110 96
121 110 97
121 110 97
121 110 97
121 110 98
121 110 98
121 110 99
121 110 99
120 110 99
120 110 100
120 110 100
120 110 100
120 110 101
120 110 101
120 110 101
120 110 102
120 110 102
120 110 103
120 110 103
119 110 103
119 110 104
119 110 104
119 110 104
119 110 105
119 110 105
119 110 105
119 110 106
119 110 106
119 110 107
119 110 107
119 110 107
118 110 108
118 110 108
118 110 108
118 110 109
118 110 109
118 110 109
118 110 110
118 110 110
118 110 111
118 110 111
118 110 111
118 110 112
117 110 112
117 110 112
117 110 113
117 110 113
117 110 113
117 110 114
117 110 114
117 110 115
117 110 115
117 110 115
117 110 116
116 110 116
116 110 116
116 110 117
116 110 117
116 110 117
116 110 118
116 110 118
116 110 119
116 110 119
116 110 119
116 110 120
116 110 120
115 110 120
115 110 121
115 110 121
115 110 121
115 110 122
115 110 122
115 110 123
115 110 123
115 110 123
115 110 124
115 110 124
114 110 124
114 110 125
114 110 125
114 110 125
114 110 126
114 110 126
114 110 127
114 110 127
114 110 127
114 110 128
114 110 128
114 110 128
113 110 129
113 110 129
113 110 129
113 110 130
113 110 130
113 110 131
113 110 131
113 110 131
113 110 132
113 110 132
113 110 132
112 110 133
112 110 133
112 110 133
112 110 134
112 110 134
112 110 135
112 110 135
112 110 135
112 110 136
112 110 136
112 110 136
112 110 137
111 110 137
111 110 137
111 110 138
111 110 138
111 110 138
111 110 139
111 110 139
111 110 140
111 110 140
111 110 140
111 110 141
110 110 141
110 110 141
110 110 142
110 110 142
110 110 142
110 110 143
110 110 143
110 110 144
110 110 144
110 110 144
146 108 0
145 108 0
145 108 0
145 108 1
145 108 1
145 108 1
145 108 2
145 108 2
145 108 2
145 108 3
145 108 3
145 108 4
144 108 4
144 108 4
144 108 5
144 108 5
144 108 5
144 108 6
144 108 6
144 108 6
144 108 7
144 108 7
144 108 8
143 108 8
143 108 8
143 108 9
143 108 9
143 108 9
143 108 10
143 108 10
143 108 10
143 108 11
143 108 11
143 108 12
142 108 12
142 108 12
142 108 13
142 108 13
142 108 13
142 108 14
142 108 14
142 108 15
142 108 15
142 108 15
141 108 16
141 108 16
141 108 16
141 108 17
141 108 17
141 108 17
141 108 18
141 108 18
141 108 19
141 108 19
141 108 19
140 108 20
140 108 20
140 108 20
140 108 21
140 108 21
140 108 21
140 108 22
140 108 22
140 108 23
140 108 23
140 108 23
139 108 24
139 108 24
139 108 24
139 108 25
139 108 25
139 108 25
139 108 26
139 108 26
139 108 27
139 108 27
139 108 27
138 108 28
138 108 28
138 108 28
138 108 29
138 108 29
138 108 30
138 108 30
138 108 30
138 108 31
138 108 31
137 108 31
137 108 32
137 108 32
137 108 32
137 108 33
137 108 33
137 108 34
137 108 34
137 108 34
137 108 35
137 108 35
136 108 35
136 108 36
136 108 36
136 108 36
136 108 37
136 108 37
136 108 38
136 108 38
136 108 38
136 108 39
136 108 39
135 108 39
135 108 40
135 108 40
135 108 41
135 108 41
135 108 41
135 108 42
135 108 42
135 108 42
135 108 43
134 108 43
134 108 43
134 108 44
134 108 44
134 108 45
134 108 45
134 108 45
134 108 46
134 108 46
134 108 46
134 108 47
133 108 47
133 108 47
133 108 48
133 108 48
133 108 49
133 108 49
133 108 49
133 108 50
133 108 50
133 108 50
133 108 51
132 108 51
132 108 51
132 108 52
132 108 52
132 108 53
132 108 53
132 108 53
132 108 54
132 108 54
132 108 54
132 108 55
131 108 55
131 108 56
131 108 56
131 108 56
131 108 57
131 108 57
131 108 57
131 108 58
131 108 58
131 108 58
130 108 59
130 108 59
130 108 60
130 108 60
130 108 60
130 108 61
130 108 61
130 108 61
130 108 62
130 108 62
130 108 62
129 108 63
129 108 63
129 108 64
129 108 64
129 108 64
129 108 65
129 108 65
129 108 65
129 108 66
129 108 66
129 108 66
128 108 67
128 108 67
128 108 68
128 108 68
128 108 68
128 108 69
128 108 69
128 108 69
128 108 70
128 108 70
128 108 71
127 108 71
127 108 71
127 108 72
127 108 72
127 108 72
127 108 73
127 108 73
127 108 73
127 108 74
127 108 74
126 108 75
126 108 75
126 108 75
126 108 76
126 108 76
126 108 76
126 108 77
126 108 77
126 108 77
126 108 78
126 108 78
125 108 79
125 108 79
125 108 79
125 108 80
125 108 80
125 108 80
125 108 81
125 108 81
125 108 82
125 108 82
125 108 82
124 108 83
124 108 83
124 108 83
124 108 84
124 108 84
124 108 84
124 108 85
124 108 85
124 108 86
124 108 86
124 108 86
123 108 87
123 108 87
123 108 87
123 108 88
123 108 88
123 108 88
123 108 89
123 108 89
123 108 90
123 108 90
122 108 90
122 108 91
122 108 91
122 108 91
122 108 92
122 108 92
122 108 92
122 108 93
122 108 93
122 108 94
122 108 94
121 108 94
121 108 95
121 108 95
121 108 95
121 108 96
121 108 96
121 108 97
121 108 97
121 108 97
121 108 98
121 108 98
120 108 98
120 108 99
120 108 99
120 108 99
120 108 100
120 108 100
120 108 101
120 108 101
120 108 101
120 108 102
120 108 102
119 108 102
119 108 103
119 108 103
119 108 103
119 108 104
119 108 104
119 108 105
119 108 105
119 108 105
119 108 106
118 108 106
118 108 106
118 108 107
118 108 107
118 108 108
118 108 108
118 108 108
118 108 109
118 108 109
118 108 109
118 108 110
117 108 110
117 108 110
117 108 111
117 108 111
117 108 112
117 108 112
117 108 112
117 108 113
117 108 113
117 108 113
117 108 114
116 108 114
116 108 114
116 108 115
116 108 115
116 108 116
116 108 116
116 108 116
116 108 117
116 108 117
116 108 117
115 108 118
115 108 118
115 108 118
115 108 119
115 108 119
115 108 120
115 108 120
115 108 120
115 108 121
115 108 121
115 108 121
114 108 122
114 108 122
114 108 123
114 108 123
114 108 123
114 108 124
114 108 124
114 108 124
114 108 125
114 108 125
114 108 125
113 108 126
113 108 126
113 108 127
113 108 127
113 108 127
113 108 128
113 108 128
113 108 128
113 108 129
113 108 129
113 108 129
112 108 130
112 108 130
112 108 131
112 108 131
112 108 131
112 108 132
112 108 132
112 108 132
112 108 133
112 108 133
111 108 133
111 108 134
111 108 134
111 108 135
111 108 135
111 108 135
111 108 136
111 108 136
111 108 136
111 108 137
111 108 137
110 108 138
110 108 138
110 108 138
110 108 139
110 108 139
110 108 139
110 108 140
110 108 140
110 108 140
110 108 141
110 108 141
109 108 142
109 108 142
109 108 142
109 108 143
109 108 143
109 108 143
109 108 144
109 108 144
109 108 144
109 108 145
109 108 145
108 108 146
147 107 0
147 107 0
147 107 0
147 107 1
146 107 1
146 107 1
146 107 2
146 107 2
146 107 2
146 107 3
146 107 3
146 107 4
146 107 4
146 107 4
145 107 5
145 107 5
145 107 5
145 107 6
145 107 6
145 107 7
145 107 7
145 107 7
145 107 8
145 107 8
144 107 8
144 107 9
144 107 9
144 107 9
144 107 10
144 107 10
144 107 11
144 107 11
144 107 11
144 107 12
143 107 12
143 107 12
143 107 13
143 107 13
143 107 14
143 107 14
143 107 14
143 107 15
143 107 15
143 107 15
142 107 16
142 107 16
142 107 16
142 107 17
142 107 17
142 107 18
142 107 18
142 107 18
142 107 19
142 107 19
141 107 19
141 107 20
141 107 20
141 107 21
141 107 21
141 107 21
141 107 22
141 107 22
141 107 22
141 107 23
140 107 23
140 107 24
140 107 24
140 107 24
140 107 25
140 107 25
140 107 25
140 107 26
140 107 26
140 107 26
139 107 27
139 107 27
139 107 28
139 107 28
139 107 28
139 107 29
139 107 29
139 107 29
139 107 30
139 107 30
138 107 31
138 107 31
138 107 31
138 107 32
138 107 32
138 107 32
138 107 33
138 107 33
138 107 33
138 107 34
138 107 34
137 107 35
137 107 35
137 107 35
137 107 36
137 107 36
137 107 36
137 107 37
137 107 37
137 107 38
137 107 38
136 107 38
136 107 39
136 107 39
136 107 39
136 107 40
136 107 40
136 107 40
136 107 41
136 107 41
136 107 42
135 107 42
135 107 42
135 107 43
135 107 43
135 107 43
135 107 44
135 107 44
135 107 45
135 107 45
135 107 45
134 107 46
134 107 46
134 107 46
134 107 47
134 107 47
134 107 48
134 107 48
134 107 48
134 107 49
134 107 49
133 107 49
133 107 50
133 107 50
133 107 50
133 107 51
133 107 51
133 107 52
133 107 52
133 107 52
133 107 53
132 107 53
132 107 53
132 107 54
132 107 54
132 107 55
132 107 55
132 107 55
132 107 56
132 107 56
132 107 56
131 107 57
131 107 57
131 107 57
131 107 58
131 107 58
131 107 59
131 107 59
131 107 59
131 107 60
131 107 60
130 107 60
130 107 61
130 107 61
130 107 62
130 107 62
130 107 62
130 107 63
130 107 63
130 107 63
130 107 64
129 107 64
129 107 65
129 107 65
129 107 65
129 107 66
129 107 66
129 107 66
129 107 67
129 107 67
129 107 67
128 107 68
128 107 68
128 107 69
128 107 69
128 107 69
128 107 70
128 107 70
128 107 70
128 107 71
128 107 71
127 107 72
127 107 72
127 107 72
127 107 73
127 107 73
127 107 73
127 107 74
127 107 74
127 107 74
127 107 75
126 107 75
126 107 76
126 107 76
126 107 76
126 107 77
126 107 77
126 107 77
126 107 78
126 107 78
126 107 79
125 107 79
125 107 79
125 107 80
125 107 80
125 107 80
125 107 81
125 107 81
125 107 81
125 107 82
125 107 82
124 107 83
124 107 83
124 107 83
124 107 84
124 107 84
124 107 84
124 107 85
124 107 85
124 107 86
124 107 86
123 107 86
123 107 87
123 107 87
123 107 87
123 107 88
123 107 88
123 107 89
123 107 89
123 107 89
123 107 90
122 107 90
122 107 90
122 107 91
122 107 91
122 107 91
122 107 92
122 107 92
122 107 93
122 107 93
122 107 93
121 107 94
121 107 94
121 107 94
121 107 95
121 107 95
121 107 96
121 107 96
121 107 96
121 107 97
121 107 97
120 107 97
120 107 98
120 107 98
120 107 98
120 107 99
120 107 99
120 107 100
120 107 100
120 107 100
120 107 101
119 107 101
119 107 101
119 107 102
119 107 102
119 107 103
119 107 103
119 107 103
119 107 104
119 107 104
119 107 104
118 107 105
118 107 105
118 107 105
118 107 106
118 107 106
118 107 107
118 107 107
118 107 107
118 107 108
118 107 108
117 107 108
117 107 109
117 107 109
117 107 110
117 107 110
117 107 110
117 107 111
117 107 111
117 107 111
117 107 112
116 107 112
116 107 113
116 107 113
116 107 113
116 107 114
116 107 114
116 107 114
116 107 115
116 107 115
116 107 115
116 107 116
115 107 116
115 107 117
115 107 117
115 107 117
115 107 118
115 107 118
115 107 118
115 107 119
115 107 119
115 107 120
114 107 120
114 107 120
114 107 121
114 107 121
114 107 121
114 107 122
114 107 122
114 107 122
114 107 123
114 107 123
113 107 124
113 107 124
113 107 124
113 107 125
113 107 125
113 107 125
113 107 126
113 107 126
113 107 127
113 107 127
112 107 127
112 107 128
112 107 128
112 107 128
112 107 129
112 107 129
112 107 130
112 107 130
112 107 130
112 107 131
111 107 131
111 107 131
111 107 132
111 107 132
111 107 132
111 107 133
111 107 133
111 107 134
111 107 134
111 107 134
110 107 135
110 107 135
110 107 135
110 107 136
110 107 136
110 107 137
110 107 137
110 107 137
110 107 138
110 107 138
109 107 138
109 107 139
109 107 139
109 107 139
109 107 140
109 107 140
109 107 141
109 107 141
109 107 141
109 107 142
108 107 142
108 107 142
108 107 143
108 107 143
108 107 144
108 107 144
108 107 144
108 107 145
108 107 145
108 107 145
107 107 146
107 107 146
107 107 146
107 107 147
148 106 0
148 106 0
148 106 0
148 106 1
148 106 1
148 106 1
148 106 2
147 106 2
147 106 2
147 106 3
147 106 3
147 106 4
147 106 4
147 106 4
147 106 5
147 106 5
146 106 5
146 106 6
146 106 6
146 106 7
146 106 7
146 106 7
146 106 8
146 106 8
146 106 8
145 106 9
145 106 9
145 106 10
145 106 10
145 106 10
145 106 11
145 106 11
145 106 11
145 106 12
145 106 12
144 106 13
144 106 13
144 106 13
144 106 14
144 106 14
144 106 14
144 106 15
144 106 15
144 106 16
143 106 16
143 106 16
143 106 17
143 106 17
143 106 17
143 106 18
143 106 18
143 106 18
143 106 19
143 106 19
142 106 20
142 106 20
142 106 20
142 106 21
142 106 21
142 106 21
142 106 22
142 106 22
142 106 23
141 106 23
141 106 23
141 106 24
141 106 24
141 106 24
141 106 25
141 106 25
141 106 26
141 106 26
141 106 26
140 106 27
140 106 27
140 106 27
140 106 28
140 106 28
140 106 29
140 106 29
140 106 29
140 106 30
139 106 30
139 106 30
139 106 31
139 106 31
139 106 32
139 106 32
139 106 32
139 106 33
139 106 33
138 106 33
138 106 34
138 106 34
138 106 35
138 106 35
138 106 35
138 106 36
138 106 36
138 106 36
138 106 37
137 106 37
137 106 37
137 106 38
137 106 38
137 106 39
137 106 39
137 106 39
137 106 40
137 106 40
136 106 40
136 106 41
136 106 41
136 106 42
136 106 42
136 106 42
136 106 43
136 106 43
136 106 43
136 106 44
135 106 44
135 106 45
135 106 45
135 106 45
135 106 46
135 106 46
135 106 46
135 106 47
135 106 47
134 106 48
134 106 48
134 106 48
134 106 49
134 106 49
134 106 49
134 106 50
134 106 50
134 106 51
134 106 51
133 106 51
133 106 52
133 106 52
133 106 52
133 106 53
133 106 53
133 106 54
133 106 54
133 106 54
132 106 55
132 106 55
132 106 55
132 106 56
132 106 56
132 106 56
132 106 57
132 106 57
132 106 58
132 106 58
131 106 58
131 106 59
131 106 59
131 106 59
131 106 60
131 106 60
131 106 61
131 106 61
131 106 61
130 106 62
130 106 62
130 106 62
130 106 63
130 106 63
130 106 64
130 106 64
130 106 64
130 106 65
129 106 65
129 106 65
129 106 66
129 106 66
129 106 67
129 106 67
129 106 67
129 106 68
129 106 68
129 106 68
128 106 69
128 106 69
128 106 70
128 106 70
128 106 70
128 106 71
128 106 71
128 106 71
128 106 72
127 106 72
127 106 73
127 106 73
127 106 73
127 106 74
127 106 74
127 106 74
127 106 75
127 106 75
127 106 75
126 106 76
126 106 76
126 106 77
126 106 77
126 106 77
126 106 78
126 106 78
126 106 78
126 106 79
125 106 79
125 106 80
125 106 80
125 106 80
125 106 81
125 106 81
125 106 81
125 106 82
125 106 82
125 106 83
124 106 83
124 106 83
124 106 84
124 106 84
124 106 84
124 106 85
124 106 85
124 106 86
124 106 86
123 106 86
123 106 87
123 106 87
123 106 87
123 106 88
123 106 88
123 106 89
123 106 89
123 106 89
122 106 90
122 106 90
122 106 90
122 106 91
122 106 91
122 106 92
122 106 92
122 106 92
122 106 93
122 106 93
121 106 93
121 106 94
121 106 94
121 106 94
121 106 95
121 106 95
121 106 96
121 106 96
121 106 96
120 106 97
120 106 97
120 106 97
120 106 98
120 106 98
120 106 99
120 106 99
120 106 99
120 106 100
120 106 100
119 106 100
119 106 101
119 106 101
119 106 102
119 106 102
119 106 102
119 106 103
119 106 103
119 106 103
118 106 104
118 106 104
118 106 105
118 106 105
118 106 105
118 106 106
118 106 106
118 106 106
118 106 107
118 106 107
117 106 108
117 106 108
117 106 108
117 106 109
117 106 109
117 106 109
117 106 110
117 106 110
117 106 111
116 106 111
116 106 111
116 106 112
116 106 112
116 106 112
116 106 113
116 106 113
116 106 113
116 106 114
116 106 114
115 106 115
115 106 115
115 106 115
115 106 116
115 106 116
115 106 116
115 106 117
115 106 117
115 106 118
114 106 118
114 106 118
114 106 119
114 106 119
114 106 119
114 106 120
114 106 120
114 106 121
114 106 121
113 106 121
113 106 122
113 106 122
113 106 122
113 106 123
113 106 123
113 106 124
113 106 124
113 106 124
113 106 125
112 106 125
112 106 125
112 106 126
112 106 126
112 106 127
112 106 127
112 106 127
112 106 128
112 106 128
111 106 128
111 106 129
111 106 129
111 106 130
111 106 130
111 106 130
111 106 131
111 106 131
111 106 131
111 106 132
110 106 132
110 106 132
110 106 133
110 106 133
110 106 134
110 106 134
110 106 134
110 106 135
110 106 135
109 106 135
109 106 136
109 106 136
109 106 137
109 106 137
109 106 137
109 106 138
109 106 138
109 106 138
109 106 139
108 106 139
108 106 140
108 106 140
108 106 140
108 106 141
108 106 141
108 106 141
108 106 142
108 106 142
107 106 143
107 106 143
107 106 143
107 106 144
107 106 144
107 106 144
107 106 145
107 106 145
107 106 146
106 106 146
106 106 146
106 106 147
106 106 147
106 106 147
106 106 148
106 106 148
149 105 0
149 105 0
149 105 0
149 105 1
149 105 1
149 105 1
149 105 2
149 105 2
149 105 3
148 105 3
148 105 3
148 105 4
148 105 4
148 105 4
148 105 5
148 105 5
148 105 6
148 105 6
147 105 6
147 105 7
147 105 7
147 105 7
147 105 8
147 105 8
147 105 9
147 105 9
147 105 9
146 105 10
146 105 10
146 105 10
146 105 11
146 105 11
146 105 12
146 105 12
146 105 12
145 105 13
145 105 13
145 105 13
145 105 14
145 105 14
145 105 15
145 105 15
145 105 15
145 105 16
144 105 16
144 105 16
144 105 17
144 105 17
144 105 18
144 105 18
144 105 18
144 105 19
144 105 19
143 105 19
143 105 20
143 105 20
143 105 21
143 105 21
143 105 21
143 105 22
143 105 22
143 105 22
142 105 23
142 105 23
142 105 24
142 105 24
142 105 24
142 105 25
142 105 25
142 105 25
142 105 26
141 105 26
141 105 27
141 105 27
141 105 27
141 105 28
141 105 28
141 105 28
141 105 29
141 105 29
140 105 30
140 105 30
140 105 30
140 105 31
140 105 31
140 105 31
140 105 32
140 105 32
140 105 33
139 105 33
139 105 33
139 105 34
139 105 34
139 105 34
139 105 35
139 105 35
139 105 36
139 105 36
138 105 36
138 105 37
138 105 37
138 105 37
138 105 38
138 105 38
138 105 39
138 105 39
138 105 39
137 105 40
137 105 40
137 105 40
137 105 41
137 105 41
137 105 42
137 105 42
137 105 42
136 105 43
136 105 43
136 105 43
136 105 44
136 105 44
136 105 45
136 105 45
136 105 45
136 105 46
135 105 46
135 105 46
135 105 47
135 105 47
135 105 48
135 105 48
135 105 48
135 105 49
135 105 49
134 105 49
134 105 50
134 105 50
134 105 51
134 105 51
134 105 51
134 105 52
134 105 52
134 105 52
133 105 53
133 105 53
133 105 54
133 105 54
133 105 54
133 105 55
133 105 55
133 105 55
133 105 56
132 105 56
132 105 57
132 105 57
132 105 57
132 105 58
132 105 58
132 105 58
132 105 59
132 105 59
131 105 60
131 105 60
131 105 60
131 105 61
131 105 61
131 105 61
131 105 62
131 105 62
131 105 63
130 105 63
130 105 63
130 105 64
130 105 64
130 105 65
130 105 65
130 105 65
130 105 66
130 105 66
129 105 66
129 105 67
129 105 67
129 105 68
129 105 68
129 105 68
129 105 69
129 105 69
129 105 69
128 105 70
128 105 70
128 105 71
128 105 71
128 105 71
128 105 72
128 105 72
128 105 72
128 105 73
127 105 73
127 105 74
127 105 74
127 105 74
127 105 75
127 105 75
127 105 75
127 105 76
126 105 76
126 105 77
126 105 77
126 105 77
126 105 78
126 105 78
126 105 78
126 105 79
126 105 79
125 105 80
125 105 80
125 105 80
125 105 81
125 105 81
125 105 81
125 105 82
125 105 82
125 105 83
124 105 83
124 105 83
124 105 84
124 105 84
124 105 84
124 105 85
124 105 85
124 105 86
124 105 86
123 105 86
123 105 87
123 105 87
123 105 87
123 105 88
123 105 88
123 105 89
123 105 89
123 105 89
122 105 90
122 105 90
122 105 90
122 105 91
122 105 91
122 105 92
122 105 92
122 105 92
122 105 93
121 105 93
121 105 93
121 105 94
121 105 94
121 105 95
121 105 95
121 105 95
121 105 96
121 105 96
120 105 96
120 105 97
120 105 97
120 105 98
120 105 98
120 105 98
120 105 99
120 105 99
120 105 99
119 105 100
119 105 100
119 105 101
119 105 101
119 105 101
119 105 102
119 105 102
119 105 102
119 105 103
118 105 103
118 105 104
118 105 104
118 105 104
118 105 105
118 105 105
118 105 105
118 105 106
118 105 106
117 105 107
117 105 107
117 105 107
117 105 108
117 105 108
117 105 108
117 105 109
117 105 109
116 105 110
116 105 110
116 105 110
116 105 111
116 105 111
116 105 111
116 105 112
116 105 112
116 105 113
115 105 113
115 105 113
115 105 114
115 105 114
115 105 114
115 105 115
115 105 115
115 105 116
115 105 116
114 105 116
114 105 117
114 105 117
114 105 117
114 105 118
114 105 118
114 105 119
114 105 119
114 105 119
113 105 120
113 105 120
113 105 120
113 105 121
113 105 121
113 105 122
113 105 122
113 105 122
113 105 123
112 105 123
112 105 123
112 105 124
112 105 124
112 105 125
112 105 125
112 105 125
112 105 126
112 105 126
111 105 127
111 105 127
111 105 127
111 105 128
111 105 128
111 105 128
111 105 129
111 105 129
111 105 130
110 105 130
110 105 130
110 105 131
110 105 131
110 105 131
110 105 132
110 105 132
110 105 133
110 105 133
109 105 133
109 105 134
109 105 134
109 105 134
109 105 135
109 105 135
109 105 136
109 105 136
109 105 136
108 105 137
108 105 137
108 105 137
108 105 138
108 105 138
108 105 139
108 105 139
108 105 139
107 105 140
107 105 140
107 105 140
107 105 141
107 105 141
107 105 142
107 105 142
107 105 142
107 105 143
106 105 143
106 105 143
106 105 144
106 105 144
106 105 145
106 105 145
106 105 145
106 105 146
106 105 146
105 105 146
105 105 147
105 105 147
105 105 148
105 105 148
105 105 148
105 105 149
105 105 149
105 105 149
151 103 0
151 103 0
150 103 0
150 103 1
150 103 1
150 103 1
150 103 2
150 103 2
150 103 3
150 103 3
150 103 3
149 103 4
149 103 4
149 103 4
149 103 5
149 103 5
149 103 6
149 103 6
149 103 6
148 103 7
148 103 7
148 103 7
148 103 8
148 103 8
148 103 9
148 103 9
148 103 9
147 103 10
147 103 10
147 103 10
147 103 11
147 103 11
147 103 12
147 103 12
147 103 12
147 103 13
146 103 13
146 103 14
146 103 14
146 103 14
146 103 15
146 103 15
146 103 15
146 103 16
145 103 16
145 103 17
145 103 17
145 103 17
145 103 18
145 103 18
145 103 18
145 103 19
145 103 19
144 103 20
144 103 20
144 103 20
144 103 21
144 103 21
144 103 21
144 103 22
144 103 22
143 103 23
143 103 23
143 103 23
143 103 24
143 103 24
143 103 25
143 103 25
143 103 25
143 103 26
142 103 26
142 103 26
142 103 27
142 103 27
142 103 28
142 103 28
142 103 28
142 103 29
141 103 29
141 103 29
141 103 30
141 103 30
141 103 31
141 103 31
141 103 31
141 103 32
140 103 32
140 103 32
140 103 33
140 103 33
140 103 34
140 103 34
140 103 34
140 103 35
140 103 35
139 103 36
139 103 36
139 103 36
139 103 37
139 103 37
139 103 37
139 103 38
139 103 38
138 103 39
138 103 39
138 103 39
138 103 40
138 103 40
138 103 40
138 103 41
138 103 41
138 103 42
137 103 42
137 103 42
137 103 43
137 103 43
137 103 43
137 103 44
137 103 44
137 103 45
136 103 45
136 103 45
136 103 46
136 103 46
136 103 46
136 103 47
136 103 47
136 103 48
135 103 48
135 103 48
135 103 49
135 103 49
135 103 50
135 103 50
135 103 50
135 103 51
135 103 51
134 103 51
134 103 52
134 103 52
134 103 53
134 103 53
134 103 53
134 103 54
134 103 54
133 103 54
133 103 55
133 103 55
133 103 56
133 103 56
133 103 56
133 103 57
133 103 57
133 103 57
132 103 58
132 103 58
132 103 59
132 103 59
132 103 59
132 103 60
132 103 60
132 103 61
131 103 61
131 103 61
131 103 62
131 103 62
131 103 62
131 103 63
131 103 63
131 103 64
131 103 64
130 103 64
130 103 65
130 103 65
130 103 65
130 103 66
130 103 66
130 103 67
130 103 67
129 103 67
129 103 68
129 103 68
129 103 68
129 103 69
129 103 69
129 103 70
129 103 70
128 103 70
128 103 71
128 103 71
128 103 72
128 103 72
128 103 72
128 103 73
128 103 73
128 103 73
127 103 74
127 103 74
127 103 75
127 103 75
127 103 75
127 103 76
127 103 76
127 103 76
126 103 77
126 103 77
126 103 78
126 103 78
126 103 78
126 103 79
126 103 79
126 103 79
126 103 80
125 103 80
125 103 81
125 103 81
125 103 81
125 103 82
125 103 82
125 103 82
125 103 83
124 103 83
124 103 84
124 103 84
124 103 84
124 103 85
124 103 85
124 103 86
124 103 86
123 103 86
123 103 87
123 103 87
123 103 87
123 103 88
123 103 88
123 103 89
123 103 89
123 103 89
122 103 90
122 103 90
122 103 90
122 103 91
122 103 91
122 103 92
122 103 92
122 103 92
121 103 93
121 103 93
121 103 93
121 103 94
121 103 94
121 103 95
121 103 95
121 103 95
121 103 96
120 103 96
120 103 97
120 103 97
120 103 97
120 103 98
120 103 98
120 103 98
120 103 99
119 103 99
119 103 100
119 103 100
119 103 100
119 103 101
119 103 101
119 103 101
119 103 102
119 103 102
118 103 103
118 103 103
118 103 103
118 103 104
118 103 104
118 103 104
118 103 105
118 103 105
117 103 106
117 103 106
117 103 106
117 103 107
117 103 107
117 103 108
117 103 108
117 103 108
116 103 109
116 103 109
116 103 109
116 103 110
116 103 110
116 103 111
116 103 111
116 103 111
116 103 112
115 103 112
115 103 112
115 103 113
115 103 113
115 103 114
115 103 114
115 103 114
115 103 115
114 103 115
114 103 115
114 103 116
114 103 116
114 103 117
114 103 117
114 103 117
114 103 118
114 103 118
113 103 118
113 103 119
113 103 119
113 103 120
113 103 120
113 103 120
113 103 121
113 103 121
112 103 122
112 103 122
112 103 122
112 103 123
112 103 123
112 103 123
112 103 124
112 103 124
111 103 125
111 103 125
111 103 125
111 103 126
111 103 126
111 103 126
111 103 127
111 103 127
111 103 128
110 103 128
110 103 128
110 103 129
110 103 129
110 103 129
110 103 130
110 103 130
110 103 131
109 103 131
109 103 131
109 103 132
109 103 132
109 103 133
109 103 133
109 103 133
109 103 134
109 103 134
108 103 134
108 103 135
108 103 135
108 103 136
108 103 136
108 103 136
108 103 137
108 103 137
107 103 137
107 103 138
107 103 138
107 103 139
107 103 139
107 103 139
107 103 140
107 103 140
107 103 140
106 103 141
106 103 141
106 103 142
106 103 142
106 103 142
106 103 143
106 103 143
106 103 144
105 103 144
105 103 144
105 103 145
105 103 145
105 103 145
105 103 146
105 103 146
105 103 147
104 103 147
104 103 147
104 103 148
104 103 148
104 103 148
104 103 149
104 103 149
104 103 150
104 103 150
103 103 150
103 103 151
152 102 0
152 102 0
152 102 0
152 102 1
151 102 1
151 102 1
151 102 2
151 102 2
151 102 3
151 102 3
151 102 3
151 102 4
150 102 4
150 102 4
150 102 5
150 102 5
150 102 6
150 102 6
150 102 6
150 102 7
149 102 7
149 102 8
149 102 8
149 102 8
149 102 9
149 102 9
149 102 9
149 102 10
148 102 10
148 102 11
148 102 11
148 102 11
148 102 12
148 102 12
148 102 12
148 102 13
147 102 13
147 102 14
147 102 14
147 102 14
147 102 15
147 102 15
147 102 16
147 102 16
146 102 16
146 102 17
146 102 17
146 102 17
146 102 18
146 102 18
146 102 19
146 102 19
145 102 19
145 102 20
145 102 20
145 102 21
145 102 21
145 102 21
145 102 22
145 102 22
144 102 22
144 102 23
144 102 23
144 102 24
144 102 24
144 102 24
144 102 25
144 102 25
143 102 25
143 102 26
143 102 26
143 102 27
143 102 27
143 102 27
143 102 28
143 102 28
142 102 29
142 102 29
142 102 29
142 102 30
142 102 30
142 102 30
142 102 31
142 102 31
141 102 32
141 102 32
141 102 32
141 102 33
141 102 33
141 102 34
141 102 34
141 102 34
140 102 35
140 102 35
140 102 35
140 102 36
140 102 36
140 102 37
140 102 37
140 102 37
139 102 38
139 102 38
139 102 38
139 102 39
139 102 39
139 102 40
139 102 40
139 102 40
138 102 41
138 102 41
138 102 42
138 102 42
138 102 42
138 102 43
138 102 43
138 102 43
137 102 44
137 102 44
137 102 45
137 102 45
137 102 45
137 102 46
137 102 46
137 102 47
136 102 47
136 102 47
136 102 48
136 102 48
136 102 48
136 102 49
136 102 49
136 102 50
135 102 50
135 102 50
135 102 51
135 102 51
135 102 51
135 102 52
135 102 52
135 102 53
134 102 53
134 102 53
134 102 54
134 102 54
134 102 55
134 102 55
134 102 55
134 102 56
133 102 56
133 102 56
133 102 57
133 102 57
133 102 58
133 102 58
133 102 58
133 102 59
132 102 59
132 102 60
132 102 60
132 102 60
132 102 61
132 102 61
132 102 61
132 102 62
131 102 62
131 102 63
131 102 63
131 102 63
131 102 64
131 102 64
131 102 64
131 102 65
130 102 65
130 102 66
130 102 66
130 102 66
130 102 67
130 102 67
130 102 68
130 102 68
129 102 68
129 102 69
129 102 69
129 102 69
129 102 70
129 102 70
129 102 71
129 102 71
128 102 71
128 102 72
128 102 72
128 102 72
128 102 73
128 102 73
128 102 74
128 102 74
127 102 74
127 102 75
127 102 75
127 102 76
127 102 76
127 102 76
127 102 77
127 102 77
126 102 77
126 102 78
126 102 78
126 102 79
126 102 79
126 102 79
126 102 80
126 102 80
125 102 81
125 102 81
125 102 81
125 102 82
125 102 82
125 102 82
125 102 83
125 102 83
124 102 84
124 102 84
124 102 84
124 102 85
124 102 85
124 102 85
124 102 86
124 102 86
123 102 87
123 102 87
123 102 87
123 102 88
123 102 88
123 102 89
123 102 89
123 102 89
122 102 90
122 102 90
122 102 90
122 102 91
122 102 91
122 102 92
122 102 92
122 102 92
121 102 93
121 102 93
121 102 94
121 102 94
121 102 94
121 102 95
121 102 95
121 102 95
120 102 96
120 102 96
120 102 97
120 102 97
120 102 97
120 102 98
120 102 98
120 102 98
119 102 99
119 102 99
119 102 100
119 102 100
119 102 100
119 102 101
119 102 101
119 102 102
118 102 102
118 102 102
118 102 103
118 102 103
118 102 103
118 102 104
118 102 104
118 102 105
117 102 105
117 102 105
117 102 106
117 102 106
117 102 107
117 102 107
117 102 107
117 102 108
116 102 108
116 102 108
116 102 109
116 102 109
116 102 110
116 102 110
116 102 110
116 102 111
115 102 111
115 102 111
115 102 112
115 102 112
115 102 113
115 102 113
115 102 113
115 102 114
114 102 114
114 102 115
114 102 115
114 102 115
114 102 116
114 102 116
114 102 116
114 102 117
113 102 117
113 102 118
113 102 118
113 102 118
113 102 119
113 102 119
113 102 120
113 102 120
112 102 120
112 102 121
112 102 121
112 102 121
112 102 122
112 102 122
112 102 123
112 102 123
111 102 123
111 102 124
111 102 124
111 102 124
111 102 125
111 102 125
111 102 126
111 102 126
110 102 126
110 102 127
110 102 127
110 102 128
110 102 128
110 102 128
110 102 129
110 102 129
109 102 129
109 102 130
109 102 130
109 102 131
109 102 131
109 102 131
109 102 132
109 102 132
108 102 132
108 102 133
108 102 133
108 102 134
108 102 134
108 102 134
108 102 135
108 102 135
107 102 136
107 102 136
107 102 136
107 102 137
107 102 137
107 102 137
107 102 138
107 102 138
106 102 139
106 102 139
106 102 139
106 102 140
106 102 140
106 102 141
106 102 141
106 102 141
105 102 142
105 102 142
105 102 142
105 102 143
105 102 143
105 102 144
105 102 144
105 102 144
104 102 145
104 102 145
104 102 145
104 102 146
104 102 146
104 102 147
104 102 147
104 102 147
103 102 148
103 102 148
103 102 149
103 102 149
103 102 149
103 102 150
103 102 150
103 102 150
102 102 151
102 102 151
102 102 152
102 102 152
153 101 0
153 101 0
153 101 0
153 101 1
153 101 1
153 101 1
152 101 2
152 101 2
152 101 3
152 101 3
152 101 3
152 101 4
152 101 4
152 101 5
151 101 5
151 101 5
151 101 6
151 101 6
151 101 6
151 101 7
151 101 7
151 101 8
150 101 8
150 101 8
150 101 9
150 101 9
150 101 10
150 101 10
150 101 10
149 101 11
149 101 11
149 101 11
149 101 12
149 101 12
149 101 13
149 101 13
149 101 13
148 101 14
148 101 14
148 101 15
148 101 15
148 101 15
148 101 16
148 101 16
147 101 16
147 101 17
147 101 17
147 101 18
147 101 18
147 101 18
147 101 19
147 101 19
146 101 20
146 101 20
146 101 20
146 101 21
146 101 21
146 101 21
146 101 22
146 101 22
145 101 23
145 101 23
145 101 23
145 101 24
145 101 24
145 101 25
145 101 25
144 101 25
144 101 26
144 101 26
144 101 26
144 101 27
144 101 27
144 101 28
144 101 28
143 101 28
143 101 29
143 101 29
143 101 30
143 101 30
143 101 30
143 101 31
142 101 31
142 101 31
142 101 32
142 101 32
142 101 33
142 101 33
142 101 33
142 101 34
141 101 34
141 101 35
141 101 35
141 101 35
141 101 36
141 101 36
141 101 36
140 101 37
140 101 37
140 101 38
140 101 38
140 101 38
140 101 39
140 101 39
140 101 40
139 101 40
139 101 40
139 101 41
139 101 41
139 101 42
139 101 42
139 101 42
139 101 43
138 101 43
138 101 43
138 101 44
138 101 44
138 101 45
138 101 45
138 101 45
137 101 46
137 101 46
137 101 47
137 101 47
137 101 47
137 101 48
137 101 48
137 101 48
136 101 49
136 101 49
136 101 50
136 101 50
136 101 50
136 101 51
136 101 51
135 101 52
135 101 52
135 101 52
135 101 53
135 101 53
135 101 53
135 101 54
135 101 54
134 101 55
134 101 55
134 101 55
134 101 56
134 101 56
134 101 57
134 101 57
134 101 57
133 101 58
133 101 58
133 101 58
133 101 59
133 101 59
133 101 60
133 101 60
132 101 60
132 101 61
132 101 61
132 101 62
132 101 62
132 101 62
132 101 63
132 101 63
131 101 63
131 101 64
131 101 64
131 101 65
131 101 65
131 101 65
131 101 66
130 101 66
130 101 67
130 101 67
130 101 67
130 101 68
130 101 68
130 101 68
130 101 69
129 101 69
129 101 70
129 101 70
129 101 70
129 101 71
129 101 71
129 101 72
129 101 72
128 101 72
128 101 73
128 101 73
128 101 73
128 101 74
128 101 74
128 101 75
127 101 75
127 101 75
127 101 76
127 101 76
127 101 77
127 101 77
127 101 77
127 101 78
126 101 78
126 101 79
126 101 79
126 101 79
126 101 80
126 101 80
126 101 80
125 101 81
125 101 81
125 101 82
125 101 82
125 101 82
125 101 83
125 101 83
125 101 84
124 101 84
124 101 84
124 101 85
124 101 85
124 101 85
124 101 86
124 101 86
124 101 87
123 101 87
123 101 87
123 101 88
123 101 88
123 101 89
123 101 89
123 101 89
122 101 90
122 101 90
122 101 90
122 101 91
122 101 91
122 101 92
122 101 92
122 101 92
121 101 93
121 101 93
121 101 94
121 101 94
121 101 94
121 101 95
121 101 95
120 101 95
120 101 96
120 101 96
120 101 97
120 101 97
120 101 97
120 101 98
120 101 98
119 101 99
119 101 99
119 101 99
119 101 100
119 101 100
119 101 100
119 101 101
119 101 101
118 101 102
118 101 102
118 101 102
118 101 103
118 101 103
118 101 104
118 101 104
117 101 104
117 101 105
117 101 105
117 101 105
117 101 106
117 101 106
117 101 107
117 101 107
116 101 107
116 101 108
116 101 108
116 101 109
116 101 109
116 101 109
116 101 110
115 101 110
115 101 110
115 101 111
115 101 111
115 101 112
115 101 112
115 101 112
115 101 113
114 101 113
114 101 114
114 101 114
114 101 114
114 101 115
114 101 115
114 101 116
114 101 116
113 101 116
113 101 117
113 101 117
113 101 117
113 101 118
113 101 118
113 101 119
112 101 119
112 101 119
112 101 120
112 101 120
112 101 121
112 101 121
112 101 121
112 101 122
111 101 122
111 101 122
111 101 123
111 101 123
111 101 124
111 101 124
111 101 124
110 101 125
110 101 125
110 101 126
110 101 126
110 101 126
110 101 127
110 101 127
110 101 127
109 101 128
109 101 128
109 101 129
109 101 129
109 101 129
109 101 130
109 101 130
108 101 131
108 101 131
108 101 131
108 101 132
108 101 132
108 101 132
108 101 133
108 101 133
107 101 134
107 101 134
107 101 134
107 101 135
107 101 135
107 101 136
107 101 136
107 101 136
106 101 137
106 101 137
106 101 137
106 101 138
106 101 138
106 101 139
106 101 139
105 101 139
105 101 140
105 101 140
105 101 141
105 101 141
105 101 141
105 101 142
105 101 142
104 101 142
104 101 143
104 101 143
104 101 144
104 101 144
104 101 144
104 101 145
103 101 145
103 101 146
103 101 146
103 101 146
103 101 147
103 101 147
103 101 147
103 101 148
102 101 148
102 101 149
102 101 149
102 101 149
102 101 150
102 101 150
102 101 151
102 101 151
101 101 151
101 101 152
101 101 152
101 101 152
101 101 153
101 101 153
155 99 0
154 99 0
154 99 0
154 99 1
154 99 1
154 99 1
154 99 2
154 99 2
153 99 3
153 99 3
153 99 3
153 99 4
153 99 4
153 99 5
153 99 5
152 99 5
152 99 6
152 99 6
152 99 6
152 99 7
152 99 7
152 99 8
152 99 8
151 99 8
151 99 9
151 99 9
151 99 10
151 99 10
151 99 10
151 99 11
150 99 11
150 99 12
150 99 12
150 99 12
150 99 13
150 99 13
150 99 13
149 99 14
149 99 14
149 99 15
149 99 15
149 99 15
149 99 16
149 99 16
148 99 17
148 99 17
148 99 17
148 99 18
148 99 18
148 99 19
148 99 19
148 99 19
147 99 20
147 99 20
147 99 20
147 99 21
147 99 21
147 99 22
147 99 22
146 99 22
146 99 23
146 99 23
146 99 24
146 99 24
146 99 24
146 99 25
145 99 25
145 99 26
145 99 26
145 99 26
145 99 27
145 99 27
145 99 27
144 99 28
144 99 28
144 99 29
144 99 29
144 99 29
144 99 30
144 99 30
144 99 31
143 99 31
143 99 31
143 99 32
143 99 32
143 99 33
143 99 33
143 99 33
142 99 34
142 99 34
142 99 34
142 99 35
142 99 35
142 99 36
142 99 36
141 99 36
141 99 37
141 99 37
141 99 38
141 99 38
141 99 38
141 99 39
140 99 39
140 99 40
140 99 40
140 99 40
140 99 41
140 99 41
140 99 41
139 99 42
139 99 42
139 99 43
139 99 43
139 99 43
139 99 44
139 99 44
139 99 45
138 99 45
138 99 45
138 99 46
138 99 46
138 99 47
138 99 47
138 99 47
137 99 48
137 99 48
137 99 48
137 99 49
137 99 49
137 99 50
137 99 50
136 99 50
136 99 51
136 99 51
136 99 52
136 99 52
136 99 52
136 99 53
135 99 53
135 99 54
135 99 54
135 99 54
135 99 55
135 99 55
135 99 55
135 99 56
134 99 56
134 99 57
134 99 57
134 99 57
134 99 58
134 99 58
134 99 59
133 99 59
133 99 59
133 99 60
133 99 60
133 99 61
133 99 61
133 99 61
132 99 62
132 99 62
132 99 62
132 99 63
132 99 63
132 99 64
132 99 64
131 99 64
131 99 65
131 99 65
131 99 66
131 99 66
131 99 66
131 99 67
131 99 67
130 99 68
130 99 68
130 99 68
130 99 69
130 99 69
130 99 69
130 99 70
129 99 70
129 99 71
129 99 71
129 99 71
129 99 72
129 99 72
129 99 73
128 99 73
128 99 73
128 99 74
128 99 74
128 99 74
128 99 75
128 99 75
127 99 76
127 99 76
127 99 76
127 99 77
127 99 77
127 99 78
127 99 78
127 99 78
126 99 79
126 99 79
126 99 80
126 99 80
126 99 80
126 99 81
126 99 81
125 99 81
125 99 82
125 99 82
125 99 83
125 99 83
125 99 83
125 99 84
124 99 84
124 99 85
124 99 85
124 99 85
124 99 86
124 99 86
124 99 87
123 99 87
123 99 87
123 99 88
123 99 88
123 99 88
123 99 89
123 99 89
123 99 90
122 99 90
122 99 90
122 99 91
122 99 91
122 99 92
122 99 92
122 99 92
121 99 93
121 99 93
121 99 94
121 99 94
121 99 94
121 99 95
121 99 95
120 99 95
120 99 96
120 99 96
120 99 97
120 99 97
120 99 97
120 99 98
119 99 98
119 99 99
119 99 99
119 99 99
119 99 100
119 99 100
119 99 101
119 99 101
118 99 101
118 99 102
118 99 102
118 99 102
118 99 103
118 99 103
118 99 104
117 99 104
117 99 104
117 99 105
117 99 105
117 99 106
117 99 106
117 99 106
116 99 107
116 99 107
116 99 108
116 99 108
116 99 108
116 99 109
116 99 109
115 99 109
115 99 110
115 99 110
115 99 111
115 99 111
115 99 111
115 99 112
115 99 112
114 99 113
114 99 113
114 99 113
114 99 114
114 99 114
114 99 115
114 99 115
113 99 115
113 99 116
113 99 116
113 99 116
113 99 117
113 99 117
113 99 118
112 99 118
112 99 118
112 99 119
112 99 119
112 99 120
112 99 120
112 99 120
111 99 121
111 99 121
111 99 122
111 99 122
111 99 122
111 99 123
111 99 123
110 99 123
110 99 124
110 99 124
110 99 125
110 99 125
110 99 125
110 99 126
110 99 126
109 99 127
109 99 127
109 99 127
109 99 128
109 99 128
109 99 129
109 99 129
108 99 129
108 99 130
108 99 130
108 99 130
108 99 131
108 99 131
108 99 132
107 99 132
107 99 132
107 99 133
107 99 133
107 99 134
107 99 134
107 99 134
106 99 135
106 99 135
106 99 136
106 99 136
106 99 136
106 99 137
106 99 137
106 99 137
105 99 138
105 99 138
105 99 139
105 99 139
105 99 139
105 99 140
105 99 140
104 99 141
104 99 141
104 99 141
104 99 142
104 99 142
104 99 143
104 99 143
103 99 143
103 99 144
103 99 144
103 99 144
103 99 145
103 99 145
103 99 146
102 99 146
102 99 146
102 99 147
102 99 147
102 99 148
102 99 148
102 99 148
102 99 149
101 99 149
101 99 149
101 99 150
101 99 150
101 99 151
101 99 151
101 99 151
100 99 152
100 99 152
100 99 153
100 99 153
100 99 153
100 99 154
100 99 154
99 99 155
156 98 0
156 98 0
156 98 0
155 98 1
155 98 1
155 98 1
155 98 2
155 98 2
155 98 3
155 98 3
154 98 3
154 98 4
154 98 4
154 98 5
154 98 5
154 98 5
154 98 6
153 98 6
153 98 7
153 98 7
153 98 7
153 98 8
153 98 8
153 98 9
152 98 9
152 98 9
152 98 10
152 98 10
152 98 10
152 98 11
151 98 11
151 98 12
151 98 12
151 98 12
151 98 13
151 98 13
151 98 14
150 98 14
150 98 14
150 98 15
150 98 15
150 98 16
150 98 16
150 98 16
149 98 17
149 98 17
149 98 18
149 98 18
149 98 18
149 98 19
149 98 19
148 98 19
148 98 20
148 98 20
148 98 21
148 98 21
148 98 21
148 98 22
147 98 22
147 98 23
147 98 23
147 98 23
147 98 24
147 98 24
147 98 25
146 98 25
146 98 25
146 98 26
146 98 26
146 98 27
146 98 27
146 98 27
145 98 28
145 98 28
145 98 28
145 98 29
145 98 29
145 98 30
145 98 30
144 98 30
144 98 31
144 98 31
144 98 32
144 98 32
144 98 32
144 98 33
143 98 33
143 98 34
143 98 34
143 98 34
143 98 35
143 98 35
143 98 36
142 98 36
142 98 36
142 98 37
142 98 37
142 98 38
142 98 38
142 98 38
141 98 39
141 98 39
141 98 39
141 98 40
141 98 40
141 98 41
141 98 41
140 98 41
140 98 42
140 98 42
140 98 43
140 98 43
140 98 43
140 98 44
139 98 44
139 98 45
139 98 45
139 98 45
139 98 46
139 98 46
138 98 47
138 98 47
138 98 47
138 98 48
138 98 48
138 98 48
138 98 49
137 98 49
137 98 50
137 98 50
137 98 50
137 98 51
137 98 51
137 98 52
136 98 52
136 98 52
136 98 53
136 98 53
136 98 54
136 98 54
136 98 54
135 98 55
135 98 55
135 98 56
135 98 56
135 98 56
135 98 57
135 98 57
134 98 57
134 98 58
134 98 58
134 98 59
134 98 59
134 98 59
134 98 60
133 98 60
133 98 61
133 98 61
133 98 61
133 98 62
133 98 62
133 98 63
132 98 63
132 98 63
132 98 64
132 98 64
132 98 65
132 98 65
132 98 65
131 98 66
131 98 66
131 98 66
131 98 67
131 98 67
131 98 68
131 98 68
130 98 68
130 98 69
130 98 69
130 98 70
130 98 70
130 98 70
130 98 71
129 98 71
129 98 72
129 98 72
129 98 72
129 98 73
129 98 73
129 98 74
128 98 74
128 98 74
128 98 75
128 98 75
128 98 76
128 98 76
128 98 76
127 98 77
127 98 77
127 98 77
127 98 78
127 98 78
127 98 79
126 98 79
126 98 79
126 98 80
126 98 80
126 98 81
126 98 81
126 98 81
125 98 82
125 98 82
125 98 83
125 98 83
125 98 83
125 98 84
125 98 84
124 98 85
124 98 85
124 98 85
124 98 86
124 98 86
124 98 86
124 98 87
123 98 87
123 98 88
123 98 88
123 98 88
123 98 89
123 98 89
123 98 90
122 98 90
122 98 90
122 98 91
122 98 91
122 98 92
122 98 92
122 98 92
121 98 93
121 98 93
121 98 94
121 98 94
121 98 94
121 98 95
121 98 95
120 98 95
120 98 96
120 98 96
120 98 97
120 98 97
120 98 97
120 98 98
119 98 98
119 98 99
119 98 99
119 98 99
119 98 100
119 98 100
119 98 101
118 98 101
118 98 101
118 98 102
118 98 102
118 98 103
118 98 103
118 98 103
117 98 104
117 98 104
117 98 105
117 98 105
117 98 105
117 98 106
117 98 106
116 98 106
116 98 107
116 98 107
116 98 108
116 98 108
116 98 108
116 98 109
115 98 109
115 98 110
115 98 110
115 98 110
115 98 111
115 98 111
114 98 112
114 98 112
114 98 112
114 98 113
114 98 113
114 98 114
114 98 114
113 98 114
113 98 115
113 98 115
113 98 115
113 98 116
113 98 116
113 98 117
112 98 117
112 98 117
112 98 118
112 98 118
112 98 119
112 98 119
112 98 119
111 98 120
111 98 120
111 98 121
111 98 121
111 98 121
111 98 122
111 98 122
110 98 123
110 98 123
110 98 123
110 98 124
110 98 124
110 98 124
110 98 125
109 98 125
109 98 126
109 98 126
109 98 126
109 98 127
109 98 127
109 98 128
108 98 128
108 98 128
108 98 129
108 98 129
108 98 130
108 98 130
108 98 130
107 98 131
107 98 131
107 98 132
107 98 132
107 98 132
107 98 133
107 98 133
106 98 133
106 98 134
106 98 134
106 98 135
106 98 135
106 98 135
106 98 136
105 98 136
105 98 137
105 98 137
105 98 137
105 98 138
105 98 138
105 98 139
104 98 139
104 98 139
104 98 140
104 98 140
104 98 141
104 98 141
104 98 141
103 98 142
103 98 142
103 98 143
103 98 143
103 98 143
103 98 144
103 98 144
102 98 144
102 98 145
102 98 145
102 98 146
102 98 146
102 98 146
101 98 147
101 98 147
101 98 148
101 98 148
101 98 148
101 98 149
101 98 149
100 98 150
100 98 150
100 98 150
100 98 151
100 98 151
100 98 152
100 98 152
99 98 152
99 98 153
99 98 153
99 98 153
99 98 154
99 98 154
99 98 155
98 98 155
98 98 155
98 98 156
157 97 0
157 97 0
157 97 0
157 97 1
157 97 1
156 97 1
156 97 2
156 97 2
156 97 3
156 97 3
156 97 3
155 97 4
155 97 4
155 97 5
155 97 5
155 97 5
155 97 6
155 97 6
154 97 7
154 97 7
154 97 7
154 97 8
154 97 8
154 97 9
153 97 9
153 97 9
153 97 10
153 97 10
153 97 11
153 97 11
153 97 11
152 97 12
152 97 12
152 97 13
152 97 13
152 97 13
152 97 14
152 97 14
151 97 15
151 97 15
151 97 15
151 97 16
151 97 16
151 97 16
150 97 17
150 97 17
150 97 18
150 97 18
150 97 18
150 97 19
150 97 19
149 97 20
149 97 20
149 97 20
149 97 21
149 97 21
149 97 22
149 97 22
148 97 22
148 97 23
148 97 23
148 97 24
148 97 24
148 97 24
147 97 25
147 97 25
147 97 26
147 97 26
147 97 26
147 97 27
147 97 27
146 97 28
146 97 28
146 97 28
146 97 29
146 97 29
146 97 30
145 97 30
145 97 30
145 97 31
145 97 31
145 97 31
145 97 32
145 97 32
144 97 33
144 97 33
144 97 33
144 97 34
144 97 34
144 97 35
144 97 35
143 97 35
143 97 36
143 97 36
143 97 37
143 97 37
143 97 37
142 97 38
142 97 38
142 97 39
142 97 39
142 97 39
142 97 40
142 97 40
141 97 41
141 97 41
141 97 41
141 97 42
141 97 42
141 97 43
141 97 43
140 97 43
140 97 44
140 97 44
140 97 45
140 97 45
140 97 45
139 97 46
139 97 46
139 97 47
139 97 47
139 97 47
139 97 48
139 97 48
138 97 48
138 97 49
138 97 49
138 97 50
138 97 50
138 97 50
137 97 51
137 97 51
137 97 52
137 97 52
137 97 52
137 97 53
137 97 53
136 97 54
136 97 54
136 97 54
136 97 55
136 97 55
136 97 56
136 97 56
135 97 56
135 97 57
135 97 57
135 97 58
135 97 58
135 97 58
134 97 59
134 97 59
134 97 60
134 97 60
134 97 60
134 97 61
134 97 61
133 97 62
133 97 62
133 97 62
133 97 63
133 97 63
133 97 63
133 97 64
132 97 64
132 97 65
132 97 65
132 97 65
132 97 66
132 97 66
131 97 67
131 97 67
131 97 67
131 97 68
131 97 68
131 97 69
131 97 69
130 97 69
130 97 70
130 97 70
130 97 71
130 97 71
130 97 71
129 97 72
129 97 72
129 97 73
129 97 73
129 97 73
129 97 74
129 97 74
128 97 75
128 97 75
128 97 75
128 97 76
128 97 76
128 97 77
128 97 77
127 97 77
127 97 78
127 97 78
127 97 79
127 97 79
127 97 79
126 97 80
126 97 80
126 97 80
126 97 81
126 97 81
126 97 82
126 97 82
125 97 82
125 97 83
125 97 83
125 97 84
125 97 84
125 97 84
125 97 85
124 97 85
124 97 86
124 97 86
124 97 86
124 97 87
124 97 87
123 97 88
123 97 88
123 97 88
123 97 89
123 97 89
123 97 90
123 97 90
122 97 90
122 97 91
122 97 91
122 97 92
122 97 92
122 97 92
121 97 93
121 97 93
121 97 94
121 97 94
121 97 94
121 97 95
121 97 95
120 97 95
120 97 96
120 97 96
120 97 97
120 97 97
120 97 97
120 97 98
119 97 98
119 97 99
119 97 99
119 97 99
119 97 100
119 97 100
118 97 101
118 97 101
118 97 101
118 97 102
118 97 102
118 97 103
118 97 103
117 97 103
117 97 104
117 97 104
117 97 105
117 97 105
117 97 105
117 97 106
116 97 106
116 97 107
116 97 107
116 97 107
116 97 108
116 97 108
115 97 109
115 97 109
115 97 109
115 97 110
115 97 110
115 97 111
115 97 111
114 97 111
114 97 112
114 97 112
114 97 112
114 97 113
114 97 113
113 97 114
113 97 114
113 97 114
113 97 115
113 97 115
113 97 116
113 97 116
112 97 116
112 97 117
112 97 117
112 97 118
112 97 118
112 97 118
112 97 119
111 97 119
111 97 120
111 97 120
111 97 120
111 97 121
111 97 121
110 97 122
110 97 122
110 97 122
110 97 123
110 97 123
110 97 124
110 97 124
109 97 124
109 97 125
109 97 125
109 97 126
109 97 126
109 97 126
109 97 127
108 97 127
108 97 127
108 97 128
108 97 128
108 97 129
108 97 129
107 97 129
107 97 130
107 97 130
107 97 131
107 97 131
107 97 131
107 97 132
106 97 132
106 97 133
106 97 133
106 97 133
106 97 134
106 97 134
105 97 135
105 97 135
105 97 135
105 97 136
105 97 136
105 97 137
105 97 137
104 97 137
104 97 138
104 97 138
104 97 139
104 97 139
104 97 139
104 97 140
103 97 140
103 97 141
103 97 141
103 97 141
103 97 142
103 97 142
102 97 142
102 97 143
102 97 143
102 97 144
102 97 144
102 97 144
102 97 145
101 97 145
101 97 146
101 97 146
101 97 146
101 97 147
101 97 147
101 97 148
100 97 148
100 97 148
100 97 149
100 97 149
100 97 150
100 97 150
99 97 150
99 97 151
99 97 151
99 97 152
99 97 152
99 97 152
99 97 153
98 97 153
98 97 154
98 97 154
98 97 154
98 97 155
98 97 155
97 97 156
97 97 156
97 97 156
97 97 157
97 97 157
158 96 0
158 96 0
158 96 0
158 96 1
158 96 1
158 96 1
157 96 2
157 96 2
157 96 3
157 96 3
157 96 3
157 96 4
157 96 4
156 96 5
156 96 5
156 96 5
156 96 6
156 96 6
156 96 7
155 96 7
155 96 7
155 96 8
155 96 8
155 96 9
155 96 9
154 96 9
154 96 10
154 96 10
154 96 11
154 96 11
154 96 11
154 96 12
153 96 12
153 96 13
153 96 13
153 96 13
153 96 14
153 96 14
152 96 15
152 96 15
152 96 15
152 96 16
152 96 16
152 96 17
151 96 17
151 96 17
151 96 18
151 96 18
151 96 19
151 96 19
151 96 19
150 96 20
150 96 20
150 96 21
150 96 21
150 96 21
150 96 22
149 96 22
149 96 23
149 96 23
149 96 23
149 96 24
149 96 24
148 96 25
148 96 25
148 96 25
148 96 26
148 96 26
148 96 27
148 96 27
147 96 27
147 96 28
147 96 28
147 96 29
147 96 29
147 96 29
146 96 30
146 96 30
146 96 31
146 96 31
146 96 31
146 96 32
145 96 32
145 96 33
145 96 33
145 96 33
145 96 34
145 96 34
145 96 35
144 96 35
144 96 35
144 96 36
144 96 36
144 96 37
144 96 37
143 96 37
143 96 38
143 96 38
143 96 39
143 96 39
143 96 39
143 96 40
142 96 40
142 96 41
142 96 41
142 96 41
142 96 42
142 96 42
141 96 43
141 96 43
141 96 43
141 96 44
141 96 44
141 96 45
140 96 45
140 96 45
140 96 46
140 96 46
140 96 46
140 96 47
140 96 47
139 96 48
139 96 48
139 96 48
139 96 49
139 96 49
139 96 50
138 96 50
138 96 50
138 96 51
138 96 51
138 96 52
138 96 52
137 96 52
137 96 53
137 96 53
137 96 54
137 96 54
137 96 54
137 96 55
136 96 55
136 96 56
136 96 56
136 96 56
136 96 57
136 96 57
135 96 58
135 96 58
135 96 58
135 96 59
135 96 59
135 96 60
134 96 60
134 96 60
134 96 61
134 96 61
134 96 62
134 96 62
134 96 62
133 96 63
133 96 63
133 96 64
133 96 64
133 96 64
133 96 65
132 96 65
132 96 66
132 96 66
132 96 66
132 96 67
132 96 67
131 96 68
131 96 68
131 96 68
131 96 69
131 96 69
131 96 70
131 96 70
130 96 70
130 96 71
130 96 71
130 96 72
130 96 72
130 96 72
129 96 73
129 96 73
129 96 74
129 96 74
129 96 74
129 96 75
128 96 75
128 96 76
128 96 76
128 96 76
128 96 77
128 96 77
128 96 78
127 96 78
127 96 78
127 96 79
127 96 79
127 96 80
127 96 80
126 96 80
126 96 81
126 96 81
126 96 82
126 96 82
126 96 82
126 96 83
125 96 83
125 96 84
125 96 84
125 96 84
125 96 85
125 96 85
124 96 86
124 96 86
124 96 86
124 96 87
124 96 87
124 96 88
123 96 88
123 96 88
123 96 89
123 96 89
123 96 90
123 96 90
123 96 90
122 96 91
122 96 91
122 96 91
122 96 92
122 96 92
122 96 93
121 96 93
121 96 93
121 96 94
121 96 94
121 96 95
121 96 95
120 96 95
120 96 96
120 96 96
120 96 97
120 96 97
120 96 97
120 96 98
119 96 98
119 96 99
119 96 99
119 96 99
119 96 100
119 96 100
118 96 101
118 96 101
118 96 101
118 96 102
118 96 102
118 96 103
117 96 103
117 96 103
117 96 104
117 96 104
117 96 105
117 96 105
117 96 105
116 96 106
116 96 106
116 96 107
116 96 107
116 96 107
116 96 108
115 96 108
115 96 109
115 96 109
115 96 109
115 96 110
115 96 110
114 96 111
114 96 111
114 96 111
114 96 112
114 96 112
114 96 113
114 96 113
113 96 113
113 96 114
113 96 114
113 96 115
113 96 115
113 96 115
112 96 116
112 96 116
112 96 117
112 96 117
112 96 117
112 96 118
111 96 118
111 96 119
111 96 119
111 96 119
111 96 120
111 96 120
111 96 121
110 96 121
110 96 121
110 96 122
110 96 122
110 96 123
110 96 123
109 96 123
109 96 124
109 96 124
109 96 125
109 96 125
109 96 125
109 96 126
108 96 126
108 96 127
108 96 127
108 96 127
108 96 128
108 96 128
107 96 129
107 96 129
107 96 129
107 96 130
107 96 130
107 96 131
106 96 131
106 96 131
106 96 132
106 96 132
106 96 133
106 96 133
106 96 133
105 96 134
105 96 134
105 96 135
105 96 135
105 96 135
105 96 136
104 96 136
104 96 136
104 96 137
104 96 137
104 96 138
104 96 138
103 96 138
103 96 139
103 96 139
103 96 140
103 96 140
103 96 140
103 96 141
102 96 141
102 96 142
102 96 142
102 96 142
102 96 143
102 96 143
101 96 144
101 96 144
101 96 144
101 96 145
101 96 145
101 96 146
100 96 146
100 96 146
100 96 147
100 96 147
100 96 148
100 96 148
100 96 148
99 96 149
99 96 149
99 96 150
99 96 150
99 96 150
99 96 151
98 96 151
98 96 152
98 96 152
98 96 152
98 96 153
98 96 153
97 96 154
97 96 154
97 96 154
97 96 155
97 96 155
97 96 156
97 96 156
96 96 156
96 96 157
96 96 157
96 96 158
96 96 158
96 96 158
160 94 0
160 94 0
159 94 0
159 94 1
159 94 1
159 94 2
159 94 2
159 94 2
158 94 3
158 94 3
158 94 4
158 94 4
158 94 4
158 94 5
157 94 5
157 94 6
157 94 6
157 94 6
157 94 7
157 94 7
156 94 8
156 94 8
156 94 8
156 94 9
156 94 9
156 94 10
155 94 10
155 94 10
155 94 11
155 94 11
155 94 12
155 94 12
154 94 12
154 94 13
154 94 13
154 94 14
154 94 14
154 94 14
153 94 15
153 94 15
153 94 16
153 94 16
153 94 16
153 94 17
152 94 17
152 94 18
152 94 18
152 94 18
152 94 19
152 94 19
151 94 20
151 94 20
151 94 20
151 94 21
151 94 21
151 94 22
151 94 22
150 94 22
150 94 23
150 94 23
150 94 24
150 94 24
150 94 24
149 94 25
149 94 25
149 94 26
149 94 26
149 94 26
149 94 27
148 94 27
148 94 28
148 94 28
148 94 28
148 94 29
148 94 29
147 94 30
147 94 30
147 94 30
147 94 31
147 94 31
147 94 32
146 94 32
146 94 32
146 94 33
146 94 33
146 94 34
146 94 34
145 94 34
145 94 35
145 94 35
145 94 36
145 94 36
145 94 36
144 94 37
144 94 37
144 94 38
144 94 38
144 94 38
144 94 39
143 94 39
143 94 40
143 94 40
143 94 40
143 94 41
143 94 41
142 94 42
142 94 42
142 94 42
142 94 43
142 94 43
142 94 44
141 94 44
141 94 44
141 94 45
141 94 45
141 94 46
141 94 46
141 94 46
140 94 47
140 94 47
140 94 48
140 94 48
140 94 48
140 94 49
139 94 49
139 94 50
139 94 50
139 94 50
139 94 51
139 94 51
138 94 52
138 94 52
138 94 52
138 94 53
138 94 53
138 94 54
137 94 54
137 94 54
137 94 55
137 94 55
137 94 56
137 94 56
136 94 57
136 94 57
136 94 57
136 94 58
136 94 58
136 94 59
135 94 59
135 94 59
135 94 60
135 94 60
135 94 61
135 94 61
134 94 61
134 94 62
134 94 62
134 94 63
134 94 63
134 94 63
133 94 64
133 94 64
133 94 65
133 94 65
133 94 65
133 94 66
132 94 66
132 94 67
132 94 67
132 94 67
132 94 68
132 94 68
132 94 69
131 94 69
131 94 69
131 94 70
131 94 70
131 94 71
131 94 71
130 94 71
130 94 72
130 94 72
130 94 73
130 94 73
130 94 73
129 94 74
129 94 74
129 94 75
129 94 75
129 94 75
129 94 76
128 94 76
128 94 77
128 94 77
128 94 77
128 94 78
128 94 78
127 94 79
127 94 79
127 94 79
127 94 80
127 94 80
127 94 81
126 94 81
126 94 81
126 94 82
126 94 82
126 94 83
126 94 83
125 94 83
125 94 84
125 94 84
125 94 85
125 94 85
125 94 85
124 94 86
124 94 86
124 94 87
124 94 87
124 94 87
124 94 88
123 94 88
123 94 89
123 94 89
123 94 89
123 94 90
123 94 90
122 94 91
122 94 91
122 94 91
122 94 92
122 94 92
122 94 93
122 94 93
121 94 93
121 94 94
121 94 94
121 94 95
121 94 95
121 94 95
120 94 96
120 94 96
120 94 97
120 94 97
120 94 97
120 94 98
119 94 98
119 94 99
119 94 99
119 94 99
119 94 100
119 94 100
118 94 101
118 94 101
118 94 101
118 94 102
118 94 102
118 94 103
117 94 103
117 94 103
117 94 104
117 94 104
117 94 105
117 94 105
116 94 105
116 94 106
116 94 106
116 94 107
116 94 107
116 94 107
115 94 108
115 94 108
115 94 109
115 94 109
115 94 109
115 94 110
114 94 110
114 94 111
114 94 111
114 94 112
114 94 112
114 94 112
113 94 113
113 94 113
113 94 114
113 94 114
113 94 114
113 94 115
113 94 115
112 94 116
112 94 116
112 94 116
112 94 117
112 94 117
112 94 118
111 94 118
111 94 118
111 94 119
111 94 119
111 94 120
111 94 120
110 94 120
110 94 121
110 94 121
110 94 122
110 94 122
110 94 122
109 94 123
109 94 123
109 94 124
109 94 124
109 94 124
109 94 125
108 94 125
108 94 126
108 94 126
108 94 126
108 94 127
108 94 127
107 94 128
107 94 128
107 94 128
107 94 129
107 94 129
107 94 130
106 94 130
106 94 130
106 94 131
106 94 131
106 94 132
106 94 132
105 94 132
105 94 133
105 94 133
105 94 134
105 94 134
105 94 134
104 94 135
104 94 135
104 94 136
104 94 136
104 94 136
104 94 137
103 94 137
103 94 138
103 94 138
103 94 138
103 94 139
103 94 139
103 94 140
102 94 140
102 94 140
102 94 141
102 94 141
102 94 142
102 94 142
101 94 142
101 94 143
101 94 143
101 94 144
101 94 144
101 94 144
100 94 145
100 94 145
100 94 146
100 94 146
100 94 146
100 94 147
99 94 147
99 94 148
99 94 148
99 94 148
99 94 149
99 94 149
98 94 150
98 94 150
98 94 150
98 94 151
98 94 151
98 94 152
97 94 152
97 94 152
97 94 153
97 94 153
97 94 154
97 94 154
96 94 154
96 94 155
96 94 155
96 94 156
96 94 156
96 94 156
95 94 157
95 94 157
95 94 158
95 94 158
95 94 158
95 94 159
94 94 159
94 94 160
161 93 0
161 93 0
161 93 0
160 93 1
160 93 1
160 93 2
160 93 2
160 93 2
160 93 3
159 93 3
159 93 4
159 93 4
159 93 4
159 93 5
159 93 5
158 93 6
158 93 6
158 93 6
158 93 7
158 93 7
158 93 8
157 93 8
157 93 8
157 93 9
157 93 9
157 93 10
157 93 10
156 93 10
156 93 11
156 93 11
156 93 12
156 93 12
156 93 12
155 93 13
155 93 13
155 93 14
155 93 14
155 93 14
154 93 15
154 93 15
154 93 16
154 93 16
154 93 16
154 93 17
153 93 17
153 93 18
153 93 18
153 93 19
153 93 19
153 93 19
152 93 20
152 93 20
152 93 21
152 93 21
152 93 21
152 93 22
151 93 22
151 93 23
151 93 23
151 93 23
151 93 24
151 93 24
150 93 25
150 93 25
150 93 25
150 93 26
150 93 26
150 93 27
149 93 27
149 93 27
149 93 28
149 93 28
149 93 29
149 93 29
148 93 29
148 93 30
148 93 30
148 93 31
148 93 31
148 93 31
147 93 32
147 93 32
147 93 33
147 93 33
147 93 33
146 93 34
146 93 34
146 93 35
146 93 35
146 93 36
146 93 36
145 93 36
145 93 37
145 93 37
145 93 38
145 93 38
145 93 38
144 93 39
144 93 39
144 93 40
144 93 40
144 93 40
144 93 41
143 93 41
143 93 42
143 93 42
143 93 42
143 93 43
143 93 43
142 93 44
142 93 44
142 93 44
142 93 45
142 93 45
142 93 46
141 93 46
141 93 46
141 93 47
141 93 47
141 93 48
141 93 48
140 93 48
140 93 49
140 93 49
140 93 50
140 93 50
140 93 50
139 93 51
139 93 51
139 93 52
139 93 52
139 93 53
138 93 53
138 93 53
138 93 54
138 93 54
138 93 55
138 93 55
137 93 55
137 93 56
137 93 56
137 93 57
137 93 57
137 93 57
136 93 58
136 93 58
136 93 59
136 93 59
136 93 59
136 93 60
135 93 60
135 93 61
135 93 61
135 93 61
135 93 62
135 93 62
134 93 63
134 93 63
134 93 63
134 93 64
134 93 64
134 93 65
133 93 65
133 93 65
133 93 66
133 93 66
133 93 67
133 93 67
132 93 67
132 93 68
132 93 68
132 93 69
132 93 69
132 93 70
131 93 70
131 93 70
131 93 71
131 93 71
131 93 72
130 93 72
130 93 72
130 93 73
130 93 73
130 93 74
130 93 74
129 93 74
129 93 75
129 93 75
129 93 76
129 93 76
129 93 76
128 93 77
128 93 77
128 93 78
128 93 78
128 93 78
128 93 79
127 93 79
127 93 80
127 93 80
127 93 80
127 93 81
127 93 81
126 93 82
126 93 82
126 93 82
126 93 83
126 93 83
126 93 84
125 93 84
125 93 84
125 93 85
125 93 85
125 93 86
125 93 86
124 93 87
124 93 87
124 93 87
124 93 88
124 93 88
124 93 89
123 93 89
123 93 89
123 93 90
123 93 90
123 93 91
122 93 91
122 93 91
122 93 92
122 93 92
122 93 93
122 93 93
121 93 93
121 93 94
121 93 94
121 93 95
121 93 95
121 93 95
120 93 96
120 93 96
120 93 97
120 93 97
120 93 97
120 93 98
119 93 98
119 93 99
119 93 99
119 93 99
119 93 100
119 93 100
118 93 101
118 93 101
118 93 101
118 93 102
118 93 102
118 93 103
117 93 103
117 93 103
117 93 104
117 93 104
117 93 105
117 93 105
116 93 106
116 93 106
116 93 106
116 93 107
116 93 107
116 93 108
115 93 108
115 93 108
115 93 109
115 93 109
115 93 110
114 93 110
114 93 110
114 93 111
114 93 111
114 93 112
114 93 112
113 93 112
113 93 113
113 93 113
113 93 114
113 93 114
113 93 114
112 93 115
112 93 115
112 93 116
112 93 116
112 93 116
112 93 117
111 93 117
111 93 118
111 93 118
111 93 118
111 93 119
111 93 119
110 93 120
110 93 120
110 93 120
110 93 121
110 93 121
110 93 122
109 93 122
109 93 123
109 93 123
109 93 123
109 93 124
109 93 124
108 93 125
108 93 125
108 93 125
108 93 126
108 93 126
108 93 127
107 93 127
107 93 127
107 93 128
107 93 128
107 93 129
106 93 129
106 93 129
106 93 130
106 93 130
106 93 131
106 93 131
105 93 131
105 93 132
105 93 132
105 93 133
105 93 133
105 93 133
104 93 134
104 93 134
104 93 135
104 93 135
104 93 135
104 93 136
103 93 136
103 93 137
103 93 137
103 93 137
103 93 138
103 93 138
102 93 139
102 93 139
102 93 140
102 93 140
102 93 140
102 93 141
101 93 141
101 93 142
101 93 142
101 93 142
101 93 143
101 93 143
100 93 144
100 93 144
100 93 144
100 93 145
100 93 145
100 93 146
99 93 146
99 93 146
99 93 147
99 93 147
99 93 148
98 93 148
98 93 148
98 93 149
98 93 149
98 93 150
98 93 150
97 93 150
97 93 151
97 93 151
97 93 152
97 93 152
97 93 152
96 93 153
96 93 153
96 93 154
96 93 154
96 93 154
96 93 155
95 93 155
95 93 156
95 93 156
95 93 157
95 93 157
95 93 157
94 93 158
94 93 158
94 93 159
94 93 159
94 93 159
94 93 160
93 93 160
93 93 161
93 93 161
162 92 0
162 92 0
162 92 0
162 92 1
162 92 1
161 92 2
161 92 2
161 92 2
161 92 3
161 92 3
160 92 4
160 92 4
160 92 4
160 92 5
160 92 5
160 92 6
159 92 6
159 92 6
159 92 7
159 92 7
159 92 8
159 92 8
158 92 8
158 92 9
158 92 9
158 92 10
158 92 10
157 92 11
157 92 11
157 92 11
157 92 12
157 92 12
157 92 13
156 92 13
156 92 13
156 92 14
156 92 14
156 92 15
156 92 15
155 92 15
155 92 16
155 92 16
155 92 17
155 92 17
154 92 17
154 92 18
154 92 18
154 92 19
154 92 19
154 92 19
153 92 20
153 92 20
153 92 21
153 92 21
153 92 22
153 92 22
152 92 22
152 92 23
152 92 23
152 92 24
152 92 24
151 92 24
151 92 25
151 92 25
151 92 26
151 92 26
151 92 26
150 92 27
150 92 27
150 92 28
150 92 28
150 92 28
150 92 29
149 92 29
149 92 30
149 92 30
149 92 30
149 92 31
148 92 31
148 92 32
148 92 32
148 92 33
148 92 33
148 92 33
147 92 34
147 92 34
147 92 35
147 92 35
147 92 35
147 92 36
146 92 36
146 92 37
146 92 37
146 92 37
146 92 38
145 92 38
145 92 39
145 92 39
145 92 39
145 92 40
145 92 40
144 92 41
144 92 41
144 92 42
144 92 42
144 92 42
144 92 43
143 92 43
143 92 44
143 92 44
143 92 44
143 92 45
142 92 45
142 92 46
142 92 46
142 92 46
142 92 47
142 92 47
141 92 48
141 92 48
141 92 48
141 92 49
141 92 49
141 92 50
140 92 50
140 92 50
140 92 51
140 92 51
140 92 52
139 92 52
139 92 53
139 92 53
139 92 53
139 92 54
139 92 54
138 92 55
138 92 55
138 92 55
138 92 56
138 92 56
138 92 57
137 92 57
137 92 57
137 92 58
137 92 58
137 92 59
136 92 59
136 92 59
136 92 60
136 92 60
136 92 61
136 92 61
135 92 61
135 92 62
135 92 62
135 92 63
135 92 63
135 92 64
134 92 64
134 92 64
134 92 65
134 92 65
134 92 66
133 92 66
133 92 66
133 92 67
133 92 67
133 92 68
133 92 68
132 92 68
132 92 69
132 92 69
132 92 70
132 92 70
132 92 70
131 92 71
131 92 71
131 92 72
131 92 72
131 92 73
130 92 73
130 92 73
130 92 74
130 92 74
130 92 75
130 92 75
129 92 75
129 92 76
129 92 76
129 92 77
129 92 77
129 92 77
128 92 78
128 92 78
128 92 79
128 92 79
128 92 79
127 92 80
127 92 80
127 92 81
127 92 81
127 92 81
127 92 82
126 92 82
126 92 83
126 92 83
126 92 84
126 92 84
125 92 84
125 92 85
125 92 85
125 92 86
125 92 86
125 92 86
124 92 87
124 92 87
124 92 88
124 92 88
124 92 88
124 92 89
123 92 89
123 92 90
123 92 90
123 92 90
123 92 91
122 92 91
122 92 92
122 92 92
122 92 92
122 92 93
122 92 93
121 92 94
121 92 94
121 92 95
121 92 95
121 92 95
121 92 96
120 92 96
120 92 97
120 92 97
120 92 97
120 92 98
119 92 98
119 92 99
119 92 99
119 92 99
119 92 100
119 92 100
118 92 101
118 92 101
118 92 101
118 92 102
118 92 102
118 92 103
117 92 103
117 92 104
117 92 104
117 92 104
117 92 105
116 92 105
116 92 106
116 92 106
116 92 106
116 92 107
116 92 107
115 92 108
115 92 108
115 92 108
115 92 109
115 92 109
115 92 110
114 92 110
114 92 110
114 92 111
114 92 111
114 92 112
113 92 112
113 92 112
113 92 113
113 92 113
113 92 114
113 92 114
112 92 115
112 92 115
112 92 115
112 92 116
112 92 116
112 92 117
111 92 117
111 92 117
111 92 118
111 92 118
111 92 119
110 92 119
110 92 119
110 92 120
110 92 120
110 92 121
110 92 121
109 92 121
109 92 122
109 92 122
109 92 123
109 92 123
109 92 123
108 92 124
108 92 124
108 92 125
108 92 125
108 92 126
107 92 126
107 92 126
107 92 127
107 92 127
107 92 128
107 92 128
106 92 128
106 92 129
106 92 129
106 92 130
106 92 130
106 92 130
105 92 131
105 92 131
105 92 132
105 92 132
105 92 132
104 92 133
104 92 133
104 92 134
104 92 134
104 92 135
104 92 135
103 92 135
103 92 136
103 92 136
103 92 137
103 92 137
103 92 137
102 92 138
102 92 138
102 92 139
102 92 139
102 92 139
101 92 140
101 92 140
101 92 141
101 92 141
101 92 141
101 92 142
100 92 142
100 92 143
100 92 143
100 92 143
100 92 144
100 92 144
99 92 145
99 92 145
99 92 146
99 92 146
99 92 146
98 92 147
98 92 147
98 92 148
98 92 148
98 92 148
98 92 149
97 92 149
97 92 150
97 92 150
97 92 150
97 92 151
97 92 151
96 92 152
96 92 152
96 92 152
96 92 153
96 92 153
95 92 154
95 92 154
95 92 154
95 92 155
95 92 155
95 92 156
94 92 156
94 92 157
94 92 157
94 92 157
94 92 158
94 92 158
93 92 159
93 92 159
93 92 159
93 92 160
93 92 160
92 92 161
92 92 161
92 92 161
92 92 162
92 92 162
164 90 0
163 90 0
163 90 0
163 90 1
163 90 1
163 90 2
162 90 2
162 90 2
162 90 3
162 90 3
162 90 4
162 90 4
161 90 4
161 90 5
161 90 5
161 90 6
161 90 6
160 90 6
160 90 7
160 90 7
160 90 8
160 90 8
159 90 9
159 90 9
159 90 9
159 90 10
159 90 10
159 90 11
158 90 11
158 90 11
158 90 12
158 90 12
158 90 13
157 90 13
157 90 13
157 90 14
157 90 14
157 90 15
157 90 15
156 90 16
156 90 16
156 90 16
156 90 17
156 90 17
155 90 18
155 90 18
155 90 18
155 90 19
155 90 19
155 90 20
154 90 20
154 90 20
154 90 21
154 90 21
154 90 22
153 90 22
153 90 23
153 90 23
153 90 23
153 90 24
153 90 24
152 90 25
152 90 25
152 90 25
152 90 26
152 90 26
151 90 27
151 90 27
151 90 27
151 90 28
151 90 28
151 90 29
150 90 29
150 90 30
150 90 30
150 90 30
150 90 31
149 90 31
149 90 32
149 90 32
149 90 32
149 90 33
149 90 33
148 90 34
148 90 34
148 90 34
148 90 35
148 90 35
147 90 36
147 90 36
147 90 36
147 90 37
147 90 37
146 90 38
146 90 38
146 90 39
146 90 39
146 90 39
146 90 40
145 90 40
145 90 41
145 90 41
145 90 41
145 90 42
144 90 42
144 90 43
144 90 43
144 90 43
144 90 44
144 90 44
143 90 45
143 90 45
143 90 46
143 90 46
143 90 46
142 90 47
142 90 47
142 90 48
142 90 48
142 90 48
142 90 49
141 90 49
141 90 50
141 90 50
141 90 50
141 90 51
140 90 51
140 90 52
140 90 52
140 90 53
140 90 53
140 90 53
139 90 54
139 90 54
139 90 55
139 90 55
139 90 55
138 90 56
138 90 56
138 90 57
138 90 57
138 90 57
138 90 58
137 90 58
137 90 59
137 90 59
137 90 60
137 90 60
136 90 60
136 90 61
136 90 61
136 90 62
136 90 62
136 90 62
135 90 63
135 90 63
135 90 64
135 90 64
135 90 64
134 90 65
134 90 65
134 90 66
134 90 66
134 90 67
133 90 67
133 90 67
133 90 68
133 90 68
133 90 69
133 90 69
132 90 69
132 90 70
132 90 70
132 90 71
132 90 71
131 90 71
131 90 72
131 90 72
131 90 73
131 90 73
131 90 73
130 90 74
130 90 74
130 90 75
130 90 75
130 90 76
129 90 76
129 90 76
129 90 77
129 90 77
129 90 78
129 90 78
128 90 78
128 90 79
128 90 79
128 90 80
128 90 80
127 90 80
127 90 81
127 90 81
127 90 82
127 90 82
127 90 83
126 90 83
126 90 83
126 90 84
126 90 84
126 90 85
125 90 85
125 90 85
125 90 86
125 90 86
125 90 87
125 90 87
124 90 87
124 90 88
124 90 88
124 90 89
124 90 89
123 90 90
123 90 90
123 90 90
123 90 91
123 90 91
123 90 92
122 90 92
122 90 92
122 90 93
122 90 93
122 90 94
121 90 94
121 90 94
121 90 95
121 90 95
121 90 96
121 90 96
120 90 97
120 90 97
120 90 97
120 90 98
120 90 98
119 90 99
119 90 99
119 90 99
119 90 100
119 90 100
118 90 101
118 90 101
118 90 101
118 90 102
118 90 102
118 90 103
117 90 103
117 90 104
117 90 104
117 90 104
117 90 105
116 90 105
116 90 106
116 90 106
116 90 106
116 90 107
116 90 107
115 90 108
115 90 108
115 90 108
115 90 109
115 90 109
114 90 110
114 90 110
114 90 110
114 90 111
114 90 111
114 90 112
113 90 112
113 90 113
113 90 113
113 90 113
113 90 114
112 90 114
112 90 115
112 90 115
112 90 115
112 90 116
112 90 116
111 90 117
111 90 117
111 90 117
111 90 118
111 90 118
110 90 119
110 90 119
110 90 120
110 90 120
110 90 120
110 90 121
109 90 121
109 90 122
109 90 122
109 90 122
109 90 123
108 90 123
108 90 124
108 90 124
108 90 124
108 90 125
108 90 125
107 90 126
107 90 126
107 90 127
107 90 127
107 90 127
106 90 128
106 90 128
106 90 129
106 90 129
106 90 129
105 90 130
105 90 130
105 90 131
105 90 131
105 90 131
105 90 132
104 90 132
104 90 133
104 90 133
104 90 134
104 90 134
103 90 134
103 90 135
103 90 135
103 90 136
103 90 136
103 90 136
102 90 137
102 90 137
102 90 138
102 90 138
102 90 138
101 90 139
101 90 139
101 90 140
101 90 140
101 90 140
101 90 141
100 90 141
100 90 142
100 90 142
100 90 143
100 90 143
99 90 143
99 90 144
99 90 144
99 90 145
99 90 145
99 90 145
98 90 146
98 90 146
98 90 147
98 90 147
98 90 147
97 90 148
97 90 148
97 90 149
97 90 149
97 90 150
97 90 150
96 90 150
96 90 151
96 90 151
96 90 152
96 90 152
95 90 152
95 90 153
95 90 153
95 90 154
95 90 154
95 90 154
94 90 155
94 90 155
94 90 156
94 90 156
94 90 157
93 90 157
93 90 157
93 90 158
93 90 158
93 90 159
92 90 159
92 90 159
92 90 160
92 90 160
92 90 161
92 90 161
91 90 161
91 90 162
91 90 162
91 90 163
91 90 163
90 90 164
165 89 0
165 89 0
164 89 0
164 89 1
164 89 1
164 89 2
164 89 2
163 89 2
163 89 3
163 89 3
163 89 4
163 89 4
163 89 4
162 89 5
162 89 5
162 89 6
162 89 6
162 89 7
161 89 7
161 89 7
161 89 8
161 89 8
161 89 9
160 89 9
160 89 9
160 89 10
160 89 10
160 89 11
159 89 11
159 89 12
159 89 12
159 89 12
159 89 13
159 89 13
158 89 14
158 89 14
158 89 14
158 89 15
158 89 15
157 89 16
157 89 16
157 89 16
157 89 17
157 89 17
156 89 18
156 89 18
156 89 19
156 89 19
156 89 19
156 89 20
155 89 20
155 89 21
155 89 21
155 89 21
155 89 22
154 89 22
154 89 23
154 89 23
154 89 24
154 89 24
153 89 24
153 89 25
153 89 25
153 89 26
153 89 26
152 89 26
152 89 27
152 89 27
152 89 28
152 89 28
152 89 29
151 89 29
151 89 29
151 89 30
151 89 30
151 89 31
150 89 31
150 89 31
150 89 32
150 89 32
150 89 33
149 89 33
149 89 33
149 89 34
149 89 34
149 89 35
149 89 35
148 89 36
148 89 36
148 89 36
148 89 37
148 89 37
147 89 38
147 89 38
147 89 38
147 89 39
147 89 39
146 89 40
146 89 40
146 89 41
146 89 41
146 89 41
145 89 42
145 89 42
145 89 43
145 89 43
145 89 43
145 89 44
144 89 44
144 89 45
144 89 45
144 89 45
144 89 46
143 89 46
143 89 47
143 89 47
143 89 48
143 89 48
142 89 48
142 89 49
142 89 49
142 89 50
142 89 50
141 89 50
141 89 51
141 89 51
141 89 52
141 89 52
141 89 53
140 89 53
140 89 53
140 89 54
140 89 54
140 89 55
139 89 55
139 89 55
139 89 56
139 89 56
139 89 57
138 89 57
138 89 58
138 89 58
138 89 58
138 89 59
138 89 59
137 89 60
137 89 60
137 89 60
137 89 61
137 89 61
136 89 62
136 89 62
136 89 62
136 89 63
136 89 63
135 89 64
135 89 64
135 89 65
135 89 65
135 89 65
134 89 66
134 89 66
134 89 67
134 89 67
134 89 67
134 89 68
133 89 68
133 89 69
133 89 69
133 89 70
133 89 70
132 89 70
132 89 71
132 89 71
132 89 72
132 89 72
131 89 72
131 89 73
131 89 73
131 89 74
131 89 74
131 89 74
130 89 75
130 89 75
130 89 76
130 89 76
130 89 77
129 89 77
129 89 77
129 89 78
129 89 78
129 89 79
128 89 79
128 89 79
128 89 80
128 89 80
128 89 81
127 89 81
127 89 82
127 89 82
127 89 82
127 89 83
127 89 83
126 89 84
126 89 84
126 89 84
126 89 85
126 89 85
125 89 86
125 89 86
125 89 87
125 89 87
125 89 87
124 89 88
124 89 88
124 89 89
124 89 89
124 89 89
123 89 90
123 89 90
123 89 91
123 89 91
123 89 91
123 89 92
122 89 92
122 89 93
122 89 93
122 89 94
122 89 94
121 89 94
121 89 95
121 89 95
121 89 96
121 89 96
120 89 96
120 89 97
120 89 97
120 89 98
120 89 98
120 89 99
119 89 99
119 89 99
119 89 100
119 89 100
119 89 101
118 89 101
118 89 101
118 89 102
118 89 102
118 89 103
117 89 103
117 89 103
117 89 104
117 89 104
117 89 105
116 89 105
116 89 106
116 89 106
116 89 106
116 89 107
116 89 107
115 89 108
115 89 108
115 89 108
115 89 109
115 89 109
114 89 110
114 89 110
114 89 111
114 89 111
114 89 111
113 89 112
113 89 112
113 89 113
113 89 113
113 89 113
113 89 114
112 89 114
112 89 115
112 89 115
112 89 116
112 89 116
111 89 116
111 89 117
111 89 117
111 89 118
111 89 118
110 89 118
110 89 119
110 89 119
110 89 120
110 89 120
109 89 120
109 89 121
109 89 121
109 89 122
109 89 122
109 89 123
108 89 123
108 89 123
108 89 124
108 89 124
108 89 125
107 89 125
107 89 125
107 89 126
107 89 126
107 89 127
106 89 127
106 89 128
106 89 128
106 89 128
106 89 129
105 89 129
105 89 130
105 89 130
105 89 130
105 89 131
105 89 131
104 89 132
104 89 132
104 89 132
104 89 133
104 89 133
103 89 134
103 89 134
103 89 135
103 89 135
103 89 135
102 89 136
102 89 136
102 89 137
102 89 137
102 89 137
102 89 138
101 89 138
101 89 139
101 89 139
101 89 140
101 89 140
100 89 140
100 89 141
100 89 141
100 89 142
100 89 142
99 89 142
99 89 143
99 89 143
99 89 144
99 89 144
98 89 145
98 89 145
98 89 145
98 89 146
98 89 146
98 89 147
97 89 147
97 89 147
97 89 148
97 89 148
97 89 149
96 89 149
96 89 149
96 89 150
96 89 150
96 89 151
95 89 151
95 89 152
95 89 152
95 89 152
95 89 153
95 89 153
94 89 154
94 89 154
94 89 154
94 89 155
94 89 155
93 89 156
93 89 156
93 89 157
93 89 157
93 89 157
92 89 158
92 89 158
92 89 159
92 89 159
92 89 159
91 89 160
91 89 160
91 89 161
91 89 161
91 89 161
91 89 162
90 89 162
90 89 163
90 89 163
90 89 164
90 89 164
89 89 164
89 89 165
166 88 0
166 88 0
166 88 0
165 88 1
165 88 1
165 88 2
165 88 2
165 88 2
165 88 3
164 88 3
164 88 4
164 88 4
164 88 5
164 88 5
163 88 5
163 88 6
163 88 6
163 88 7
163 88 7
162 88 7
162 88 8
162 88 8
162 88 9
162 88 9
161 88 10
161 88 10
161 88 10
161 88 11
161 88 11
160 88 12
160 88 12
160 88 12
160 88 13
160 88 13
159 88 14
159 88 14
159 88 15
159 88 15
159 88 15
158 88 16
158 88 16
158 88 17
158 88 17
158 88 17
157 88 18
157 88 18
157 88 19
157 88 19
157 88 20
156 88 20
156 88 20
156 88 21
156 88 21
156 88 22
156 88 22
155 88 22
155 88 23
155 88 23
155 88 24
155 88 24
154 88 25
154 88 25
154 88 25
154 88 26
154 88 26
153 88 27
153 88 27
153 88 27
153 88 28
153 88 28
152 88 29
152 88 29
152 88 30
152 88 30
152 88 30
151 88 31
151 88 31
151 88 32
151 88 32
151 88 32
150 88 33
150 88 33
150 88 34
150 88 34
150 88 35
149 88 35
149 88 35
149 88 36
149 88 36
149 88 37
148 88 37
148 88 37
148 88 38
148 88 38
148 88 39
147 88 39
147 88 40
147 88 40
147 88 40
147 88 41
146 88 41
146 88 42
146 88 42
146 88 43
146 88 43
146 88 43
145 88 44
145 88 44
145 88 45
145 88 45
145 88 45
144 88 46
144 88 46
144 88 47
144 88 47
144 88 48
143 88 48
143 88 48
143 88 49
143 88 49
143 88 50
142 88 50
142 88 50
142 88 51
142 88 51
142 88 52
141 88 52
141 88 53
141 88 53
141 88 53
141 88 54
140 88 54
140 88 55
140 88 55
140 88 55
140 88 56
139 88 56
139 88 57
139 88 57
139 88 58
139 88 58
138 88 58
138 88 59
138 88 59
138 88 60
138 88 60
137 88 60
137 88 61
137 88 61
137 88 62
137 88 62
137 88 63
136 88 63
136 88 63
136 88 64
136 88 64
136 88 65
135 88 65
135 88 65
135 88 66
135 88 66
135 88 67
134 88 67
134 88 68
134 88 68
134 88 68
134 88 69
133 88 69
133 88 70
133 88 70
133 88 70
133 88 71
132 88 71
132 88 72
132 88 72
132 88 73
132 88 73
131 88 73
131 88 74
131 88 74
131 88 75
131 88 75
130 88 75
130 88 76
130 88 76
130 88 77
130 88 77
129 88 78
129 88 78
129 88 78
129 88 79
129 88 79
128 88 80
128 88 80
128 88 80
128 88 81
128 88 81
127 88 82
127 88 82
127 88 83
127 88 83
127 88 83
127 88 84
126 88 84
126 88 85
126 88 85
126 88 86
126 88 86
125 88 86
125 88 87
125 88 87
125 88 88
125 88 88
124 88 88
124 88 89
124 88 89
124 88 90
124 88 90
123 88 91
123 88 91
123 88 91
123 88 92
123 88 92
122 88 93
122 88 93
122 88 93
122 88 94
122 88 94
121 88 95
121 88 95
121 88 96
121 88 96
121 88 96
120 88 97
120 88 97
120 88 98
120 88 98
120 88 98
119 88 99
119 88 99
119 88 100
119 88 100
119 88 101
118 88 101
118 88 101
118 88 102
118 88 102
118 88 103
117 88 103
117 88 103
117 88 104
117 88 104
117 88 105
117 88 105
116 88 106
116 88 106
116 88 106
116 88 107
116 88 107
115 88 108
115 88 108
115 88 108
115 88 109
115 88 109
114 88 110
114 88 110
114 88 111
114 88 111
114 88 111
113 88 112
113 88 112
113 88 113
113 88 113
113 88 113
112 88 114
112 88 114
112 88 115
112 88 115
112 88 116
111 88 116
111 88 116
111 88 117
111 88 117
111 88 118
110 88 118
110 88 118
110 88 119
110 88 119
110 88 120
109 88 120
109 88 121
109 88 121
109 88 121
109 88 122
108 88 122
108 88 123
108 88 123
108 88 123
108 88 124
108 88 124
107 88 125
107 88 125
107 88 126
107 88 126
107 88 126
106 88 127
106 88 127
106 88 128
106 88 128
106 88 129
105 88 129
105 88 129
105 88 130
105 88 130
105 88 131
104 88 131
104 88 131
104 88 132
104 88 132
104 88 133
103 88 133
103 88 134
103 88 134
103 88 134
103 88 135
102 88 135
102 88 136
102 88 136
102 88 136
102 88 137
101 88 137
101 88 138
101 88 138
101 88 139
101 88 139
100 88 139
100 88 140
100 88 140
100 88 141
100 88 141
99 88 141
99 88 142
99 88 142
99 88 143
99 88 143
98 88 144
98 88 144
98 88 144
98 88 145
98 88 145
98 88 146
97 88 146
97 88 146
97 88 147
97 88 147
97 88 148
96 88 148
96 88 149
96 88 149
96 88 149
96 88 150
95 88 150
95 88 151
95 88 151
95 88 151
95 88 152
94 88 152
94 88 153
94 88 153
94 88 154
94 88 154
93 88 154
93 88 155
93 88 155
93 88 156
93 88 156
92 88 156
92 88 157
92 88 157
92 88 158
92 88 158
91 88 159
91 88 159
91 88 159
91 88 160
91 88 160
90 88 161
90 88 161
90 88 161
90 88 162
90 88 162
89 88 163
89 88 163
89 88 164
89 88 164
89 88 164
89 88 165
88 88 165
88 88 166
88 88 166
167 87 0
167 87 0
167 87 0
167 87 1
167 87 1
166 87 2
166 87 2
166 87 2
166 87 3
166 87 3
165 87 4
165 87 4
165 87 5
165 87 5
165 87 5
164 87 6
164 87 6
164 87 7
164 87 7
164 87 7
163 87 8
163 87 8
163 87 9
163 87 9
163 87 10
162 87 10
162 87 10
162 87 11
162 87 11
161 87 12
161 87 12
161 87 13
161 87 13
161 87 13
160 87 14
160 87 14
160 87 15
160 87 15
160 87 15
159 87 16
159 87 16
159 87 17
159 87 17
159 87 18
158 87 18
158 87 18
158 87 19
158 87 19
158 87 20
157 87 20
157 87 21
157 87 21
157 87 21
157 87 22
156 87 22
156 87 23
156 87 23
156 87 23
156 87 24
155 87 24
155 87 25
155 87 25
155 87 26
155 87 26
154 87 26
154 87 27
154 87 27
154 87 28
154 87 28
153 87 29
153 87 29
153 87 29
153 87 30
153 87 30
152 87 31
152 87 31
152 87 31
152 87 32
152 87 32
151 87 33
151 87 33
151 87 34
151 87 34
151 87 34
150 87 35
150 87 35
150 87 36
150 87 36
150 87 37
149 87 37
149 87 37
149 87 38
149 87 38
149 87 39
148 87 39
148 87 39
148 87 40
148 87 40
148 87 41
147 87 41
147 87 42
147 87 42
147 87 42
147 87 43
146 87 43
146 87 44
146 87 44
146 87 45
146 87 45
145 87 45
145 87 46
145 87 46
145 87 47
145 87 47
144 87 47
144 87 48
144 87 48
144 87 49
143 87 49
143 87 50
143 87 50
143 87 50
143 87 51
142 87 51
142 87 52
142 87 52
142 87 53
142 87 53
141 87 53
141 87 54
141 87 54
141 87 55
141 87 55
140 87 55
140 87 56
140 87 56
140 87 57
140 87 57
139 87 58
139 87 58
139 87 58
139 87 59
139 87 59
138 87 60
138 87 60
138 87 61
138 87 61
138 87 61
137 87 62
137 87 62
137 87 63
137 87 63
137 87 63
136 87 64
136 87 64
136 87 65
136 87 65
136 87 66
135 87 66
135 87 66
135 87 67
135 87 67
135 87 68
134 87 68
134 87 68
134 87 69
134 87 69
134 87 70
133 87 70
133 87 71
133 87 71
133 87 71
133 87 72
132 87 72
132 87 73
132 87 73
132 87 74
132 87 74
131 87 74
131 87 75
131 87 75
131 87 76
131 87 76
130 87 76
130 87 77
130 87 77
130 87 78
130 87 78
129 87 79
129 87 79
129 87 79
129 87 80
129 87 80
128 87 81
128 87 81
128 87 82
128 87 82
128 87 82
127 87 83
127 87 83
127 87 84
127 87 84
126 87 84
126 87 85
126 87 85
126 87 86
126 87 86
125 87 87
125 87 87
125 87 87
125 87 88
125 87 88
124 87 89
124 87 89
124 87 90
124 87 90
124 87 90
123 87 91
123 87 91
123 87 92
123 87 92
123 87 92
122 87 93
122 87 93
122 87 94
122 87 94
122 87 95
121 87 95
121 87 95
121 87 96
121 87 96
121 87 97
120 87 97
120 87 98
120 87 98
120 87 98
120 87 99
119 87 99
119 87 100
119 87 100
119 87 100
119 87 101
118 87 101
118 87 102
118 87 102
118 87 103
118 87 103
117 87 103
117 87 104
117 87 104
117 87 105
117 87 105
116 87 106
116 87 106
116 87 106
116 87 107
116 87 107
115 87 108
115 87 108
115 87 108
115 87 109
115 87 109
114 87 110
114 87 110
114 87 111
114 87 111
114 87 111
113 87 112
113 87 112
113 87 113
113 87 113
113 87 114
112 87 114
112 87 114
112 87 115
112 87 115
112 87 116
111 87 116
111 87 116
111 87 117
111 87 117
111 87 118
110 87 118
110 87 119
110 87 119
110 87 119
109 87 120
109 87 120
109 87 121
109 87 121
109 87 122
108 87 122
108 87 122
108 87 123
108 87 123
108 87 124
107 87 124
107 87 124
107 87 125
107 87 125
107 87 126
106 87 126
106 87 127
106 87 127
106 87 127
106 87 128
105 87 128
105 87 129
105 87 129
105 87 130
105 87 130
104 87 130
104 87 131
104 87 131
104 87 132
104 87 132
103 87 132
103 87 133
103 87 133
103 87 134
103 87 134
102 87 135
102 87 135
102 87 135
102 87 136
102 87 136
101 87 137
101 87 137
101 87 137
101 87 138
101 87 138
100 87 139
100 87 139
100 87 140
100 87 140
100 87 140
99 87 141
99 87 141
99 87 142
99 87 142
99 87 143
98 87 143
98 87 143
98 87 144
98 87 144
98 87 145
97 87 145
97 87 145
97 87 146
97 87 146
97 87 147
96 87 147
96 87 148
96 87 148
96 87 148
96 87 149
95 87 149
95 87 150
95 87 150
95 87 151
95 87 151
94 87 151
94 87 152
94 87 152
94 87 153
94 87 153
93 87 153
93 87 154
93 87 154
93 87 155
93 87 155
92 87 156
92 87 156
92 87 156
92 87 157
91 87 157
91 87 158
91 87 158
91 87 159
91 87 159
90 87 159
90 87 160
90 87 160
90 87 161
90 87 161
89 87 161
89 87 162
89 87 162
89 87 163
89 87 163
88 87 164
88 87 164
88 87 164
88 87 165
88 87 165
87 87 166
87 87 166
87 87 167
87 87 167
87 87 167
169 85 0
168 85 0
168 85 0
168 85 1
168 85 1
168 85 2
167 85 2
167 85 2
167 85 3
167 85 3
167 85 4
166 85 4
166 85 5
166 85 5
166 85 5
166 85 6
165 85 6
165 85 7
165 85 7
165 85 8
164 85 8
164 85 8
164 85 9
164 85 9
164 85 10
163 85 10
163 85 11
163 85 11
163 85 11
163 85 12
162 85 12
162 85 13
162 85 13
162 85 13
162 85 14
161 85 14
161 85 15
161 85 15
161 85 16
161 85 16
160 85 16
160 85 17
160 85 17
160 85 18
159 85 18
159 85 19
159 85 19
159 85 19
159 85 20
158 85 20
158 85 21
158 85 21
158 85 22
158 85 22
157 85 22
157 85 23
157 85 23
157 85 24
157 85 24
156 85 25
156 85 25
156 85 25
156 85 26
155 85 26
155 85 27
155 85 27
155 85 27
155 85 28
154 85 28
154 85 29
154 85 29
154 85 30
154 85 30
153 85 30
153 85 31
153 85 31
153 85 32
153 85 32
152 85 33
152 85 33
152 85 33
152 85 34
152 85 34
151 85 35
151 85 35
151 85 36
151 85 36
150 85 36
150 85 37
150 85 37
150 85 38
150 85 38
149 85 39
149 85 39
149 85 39
149 85 40
149 85 40
148 85 41
148 85 41
148 85 41
148 85 42
148 85 42
147 85 43
147 85 43
147 85 44
147 85 44
147 85 44
146 85 45
146 85 45
146 85 46
146 85 46
145 85 47
145 85 47
145 85 47
145 85 48
145 85 48
144 85 49
144 85 49
144 85 50
144 85 50
144 85 50
143 85 51
143 85 51
143 85 52
143 85 52
143 85 52
142 85 53
142 85 53
142 85 54
142 85 54
142 85 55
141 85 55
141 85 55
141 85 56
141 85 56
140 85 57
140 85 57
140 85 58
140 85 58
140 85 58
139 85 59
139 85 59
139 85 60
139 85 60
139 85 61
138 85 61
138 85 61
138 85 62
138 85 62
138 85 63
137 85 63
137 85 64
137 85 64
137 85 64
136 85 65
136 85 65
136 85 66
136 85 66
136 85 66
135 85 67
135 85 67
135 85 68
135 85 68
135 85 69
134 85 69
134 85 69
134 85 70
134 85 70
134 85 71
133 85 71
133 85 72
133 85 72
133 85 72
133 85 73
132 85 73
132 85 74
132 85 74
132 85 75
131 85 75
131 85 75
131 85 76
131 85 76
131 85 77
130 85 77
130 85 78
130 85 78
130 85 78
130 85 79
129 85 79
129 85 80
129 85 80
129 85 80
129 85 81
128 85 81
128 85 82
128 85 82
128 85 83
128 85 83
127 85 83
127 85 84
127 85 84
127 85 85
126 85 85
126 85 86
126 85 86
126 85 86
126 85 87
125 85 87
125 85 88
125 85 88
125 85 89
125 85 89
124 85 89
124 85 90
124 85 90
124 85 91
124 85 91
123 85 91
123 85 92
123 85 92
123 85 93
123 85 93
122 85 94
122 85 94
122 85 94
122 85 95
121 85 95
121 85 96
121 85 96
121 85 97
121 85 97
120 85 97
120 85 98
120 85 98
120 85 99
120 85 99
119 85 100
119 85 100
119 85 100
119 85 101
119 85 101
118 85 102
118 85 102
118 85 103
118 85 103
118 85 103
117 85 104
117 85 104
117 85 105
117 85 105
116 85 105
116 85 106
116 85 106
116 85 107
116 85 107
115 85 108
115 85 108
115 85 108
115 85 109
115 85 109
114 85 110
114 85 110
114 85 111
114 85 111
114 85 111
113 85 112
113 85 112
113 85 113
113 85 113
112 85 114
112 85 114
112 85 114
112 85 115
112 85 115
111 85 116
111 85 116
111 85 117
111 85 117
111 85 117
110 85 118
110 85 118
110 85 119
110 85 119
110 85 119
109 85 120
109 85 120
109 85 121
109 85 121
109 85 122
108 85 122
108 85 122
108 85 123
108 85 123
107 85 124
107 85 124
107 85 125
107 85 125
107 85 125
106 85 126
106 85 126
106 85 127
106 85 127
106 85 128
105 85 128
105 85 128
105 85 129
105 85 129
105 85 130
104 85 130
104 85 130
104 85 131
104 85 131
104 85 132
103 85 132
103 85 133
103 85 133
103 85 133
102 85 134
102 85 134
102 85 135
102 85 135
102 85 136
101 85 136
101 85 136
101 85 137
101 85 137
101 85 138
100 85 138
100 85 139
100 85 139
100 85 139
100 85 140
99 85 140
99 85 141
99 85 141
99 85 142
99 85 142
98 85 142
98 85 143
98 85 143
98 85 144
97 85 144
97 85 144
97 85 145
97 85 145
97 85 146
96 85 146
96 85 147
96 85 147
96 85 147
96 85 148
95 85 148
95 85 149
95 85 149
95 85 150
95 85 150
94 85 150
94 85 151
94 85 151
94 85 152
93 85 152
93 85 153
93 85 153
93 85 153
93 85 154
92 85 154
92 85 155
92 85 155
92 85 156
92 85 156
91 85 156
91 85 157
91 85 157
91 85 158
91 85 158
90 85 158
90 85 159
90 85 159
90 85 160
90 85 160
89 85 161
89 85 161
89 85 161
89 85 162
88 85 162
88 85 163
88 85 163
88 85 164
88 85 164
87 85 164
87 85 165
87 85 165
87 85 166
87 85 166
86 85 167
86 85 167
86 85 167
86 85 168
86 85 168
85 85 169
170 84 0
170 84 0
169 84 0
169 84 1
169 84 1
169 84 2
169 84 2
168 84 2
168 84 3
168 84 3
168 84 4
168 84 4
167 84 5
167 84 5
167 84 5
167 84 6
166 84 6
166 84 7
166 84 7
166 84 8
166 84 8
165 84 8
165 84 9
165 84 9
165 84 10
165 84 10
164 84 11
164 84 11
164 84 11
164 84 12
163 84 12
163 84 13
163 84 13
163 84 14
163 84 14
162 84 14
162 84 15
162 84 15
162 84 16
162 84 16
161 84 17
161 84 17
161 84 17
161 84 18
160 84 18
160 84 19
160 84 19
160 84 20
160 84 20
159 84 20
159 84 21
159 84 21
159 84 22
159 84 22
158 84 23
158 84 23
158 84 23
158 84 24
157 84 24
157 84 25
157 84 25
157 84 26
157 84 26
156 84 26
156 84 27
156 84 27
156 84 28
156 84 28
155 84 29
155 84 29
155 84 29
155 84 30
154 84 30
154 84 31
154 84 31
154 84 32
154 84 32
153 84 32
153 84 33
153 84 33
153 84 34
152 84 34
152 84 35
152 84 35
152 84 35
152 84 36
151 84 36
151 84 37
151 84 37
151 84 38
151 84 38
150 84 38
150 84 39
150 84 39
150 84 40
149 84 40
149 84 41
149 84 41
149 84 41
149 84 42
148 84 42
148 84 43
148 84 43
148 84 43
148 84 44
147 84 44
147 84 45
147 84 45
147 84 46
146 84 46
146 84 46
146 84 47
146 84 47
146 84 48
145 84 48
145 84 49
145 84 49
145 84 49
145 84 50
144 84 50
144 84 51
144 84 51
144 84 52
143 84 52
143 84 52
143 84 53
143 84 53
143 84 54
142 84 54
142 84 55
142 84 55
142 84 55
142 84 56
141 84 56
141 84 57
141 84 57
141 84 58
140 84 58
140 84 58
140 84 59
140 84 59
140 84 60
139 84 60
139 84 61
139 84 61
139 84 61
139 84 62
138 84 62
138 84 63
138 84 63
138 84 64
137 84 64
137 84 64
137 84 65
137 84 65
137 84 66
136 84 66
136 84 67
136 84 67
136 84 67
135 84 68
135 84 68
135 84 69
135 84 69
135 84 70
134 84 70
134 84 70
134 84 71
134 84 71
134 84 72
133 84 72
133 84 73
133 84 73
133 84 73
132 84 74
132 84 74
132 84 75
132 84 75
132 84 76
131 84 76
131 84 76
131 84 77
131 84 77
131 84 78
130 84 78
130 84 79
130 84 79
130 84 79
129 84 80
129 84 80
129 84 81
129 84 81
129 84 82
128 84 82
128 84 82
128 84 83
128 84 83
128 84 84
127 84 84
127 84 85
127 84 85
127 84 85
126 84 86
126 84 86
126 84 87
126 84 87
126 84 87
125 84 88
125 84 88
125 84 89
125 84 89
125 84 90
124 84 90
124 84 90
124 84 91
124 84 91
123 84 92
123 84 92
123 84 93
123 84 93
123 84 93
122 84 94
122 84 94
122 84 95
122 84 95
122 84 96
121 84 96
121 84 96
121 84 97
121 84 97
120 84 98
120 84 98
120 84 99
120 84 99
120 84 99
119 84 100
119 84 100
119 84 101
119 84 101
119 84 102
118 84 102
118 84 102
118 84 103
118 84 103
117 84 104
117 84 104
117 84 105
117 84 105
117 84 105
116 84 106
116 84 106
116 84 107
116 84 107
115 84 108
115 84 108
115 84 108
115 84 109
115 84 109
114 84 110
114 84 110
114 84 111
114 84 111
114 84 111
113 84 112
113 84 112
113 84 113
113 84 113
112 84 114
112 84 114
112 84 114
112 84 115
112 84 115
111 84 116
111 84 116
111 84 117
111 84 117
111 84 117
110 84 118
110 84 118
110 84 119
110 84 119
109 84 120
109 84 120
109 84 120
109 84 121
109 84 121
108 84 122
108 84 122
108 84 123
108 84 123
108 84 123
107 84 124
107 84 124
107 84 125
107 84 125
106 84 126
106 84 126
106 84 126
106 84 127
106 84 127
105 84 128
105 84 128
105 84 128
105 84 129
105 84 129
104 84 130
104 84 130
104 84 131
104 84 131
103 84 131
103 84 132
103 84 132
103 84 133
103 84 133
102 84 134
102 84 134
102 84 134
102 84 135
102 84 135
101 84 136
101 84 136
101 84 137
101 84 137
100 84 137
100 84 138
100 84 138
100 84 139
100 84 139
99 84 140
99 84 140
99 84 140
99 84 141
98 84 141
98 84 142
98 84 142
98 84 143
98 84 143
97 84 143
97 84 144
97 84 144
97 84 145
97 84 145
96 84 146
96 84 146
96 84 146
96 84 147
95 84 147
95 84 148
95 84 148
95 84 149
95 84 149
94 84 149
94 84 150
94 84 150
94 84 151
94 84 151
93 84 152
93 84 152
93 84 152
93 84 153
92 84 153
92 84 154
92 84 154
92 84 155
92 84 155
91 84 155
91 84 156
91 84 156
91 84 157
91 84 157
90 84 158
90 84 158
90 84 158
90 84 159
89 84 159
89 84 160
89 84 160
89 84 161
89 84 161
88 84 161
88 84 162
88 84 162
88 84 163
88 84 163
87 84 164
87 84 164
87 84 164
87 84 165
86 84 165
86 84 166
86 84 166
86 84 167
86 84 167
85 84 167
85 84 168
85 84 168
85 84 169
85 84 169
84 84 170
84 84 170
171 83 0
171 83 0
171 83 0
171 83 1
170 83 1
170 83 2
170 83 2
170 83 3
169 83 3
169 83 3
169 83 4
169 83 4
169 83 5
168 83 5
168 83 6
168 83 6
168 83 6
167 83 7
167 83 7
167 83 8
167 83 8
167 83 9
166 83 9
166 83 9
166 83 10
166 83 10
165 83 11
165 83 11
165 83 12
165 83 12
165 83 12
164 83 13
164 83 13
164 83 14
164 83 14
163 83 15
163 83 15
163 83 15
163 83 16
163 83 16
162 83 17
162 83 17
162 83 18
162 83 18
161 83 18
161 83 19
161 83 19
161 83 20
161 83 20
160 83 21
160 83 21
160 83 21
160 83 22
159 83 22
159 83 23
159 83 23
159 83 24
159 83 24
158 83 24
158 83 25
158 83 25
158 83 26
157 83 26
157 83 27
157 83 27
157 83 27
157 83 28
156 83 28
156 83 29
156 83 29
156 83 30
155 83 30
155 83 30
155 83 31
155 83 31
155 83 32
154 83 32
154 83 33
154 83 33
154 83 33
153 83 34
153 83 34
153 83 35
153 83 35
153 83 36
152 83 36
152 83 37
152 83 37
152 83 37
151 83 38
151 83 38
151 83 39
151 83 39
151 83 40
150 83 40
150 83 40
150 83 41
150 83 41
149 83 42
149 83 42
149 83 43
149 83 43
149 83 43
148 83 44
148 83 44
148 83 45
148 83 45
147 83 46
147 83 46
147 83 46
147 83 47
147 83 47
146 83 48
146 83 48
146 83 49
146 83 49
146 83 49
145 83 50
145 83 50
145 83 51
145 83 51
144 83 52
144 83 52
144 83 52
144 83 53
144 83 53
143 83 54
143 83 54
143 83 55
143 83 55
142 83 55
142 83 56
142 83 56
142 83 57
142 83 57
141 83 58
141 83 58
141 83 58
141 83 59
140 83 59
140 83 60
140 83 60
140 83 61
140 83 61
139 83 61
139 83 62
139 83 62
139 83 63
138 83 63
138 83 64
138 83 64
138 83 64
138 83 65
137 83 65
137 83 66
137 83 66
137 83 67
136 83 67
136 83 67
136 83 68
136 83 68
136 83 69
135 83 69
135 83 70
135 83 70
135 83 71
134 83 71
134 83 71
134 83 72
134 83 72
134 83 73
133 83 73
133 83 74
133 83 74
133 83 74
132 83 75
132 83 75
132 83 76
132 83 76
132 83 77
131 83 77
131 83 77
131 83 78
131 83 78
130 83 79
130 83 79
130 83 80
130 83 80
130 83 80
129 83 81
129 83 81
129 83 82
129 83 82
128 83 83
128 83 83
128 83 83
128 83 84
128 83 84
127 83 85
127 83 85
127 83 86
127 83 86
126 83 86
126 83 87
126 83 87
126 83 88
126 83 88
125 83 89
125 83 89
125 83 89
125 83 90
124 83 90
124 83 91
124 83 91
124 83 92
124 83 92
123 83 92
123 83 93
123 83 93
123 83 94
122 83 94
122 83 95
122 83 95
122 83 95
122 83 96
121 83 96
121 83 97
121 83 97
121 83 98
120 83 98
120 83 98
120 83 99
120 83 99
120 83 100
119 83 100
119 83 101
119 83 101
119 83 101
118 83 102
118 83 102
118 83 103
118 83 103
118 83 104
117 83 104
117 83 105
117 83 105
117 83 105
116 83 106
116 83 106
116 83 107
116 83 107
116 83 108
115 83 108
115 83 108
115 83 109
115 83 109
114 83 110
114 83 110
114 83 111
114 83 111
114 83 111
113 83 112
113 83 112
113 83 113
113 83 113
112 83 114
112 83 114
112 83 114
112 83 115
112 83 115
111 83 116
111 83 116
111 83 117
111 83 117
110 83 117
110 83 118
110 83 118
110 83 119
110 83 119
109 83 120
109 83 120
109 83 120
109 83 121
108 83 121
108 83 122
108 83 122
108 83 123
108 83 123
107 83 123
107 83 124
107 83 124
107 83 125
107 83 125
106 83 126
106 83 126
106 83 126
106 83 127
105 83 127
105 83 128
105 83 128
105 83 129
105 83 129
104 83 129
104 83 130
104 83 130
104 83 131
103 83 131
103 83 132
103 83 132
103 83 132
103 83 133
102 83 133
102 83 134
102 83 134
102 83 135
101 83 135
101 83 135
101 83 136
101 83 136
101 83 137
100 83 137
100 83 138
100 83 138
100 83 139
99 83 139
99 83 139
99 83 140
99 83 140
99 83 141
98 83 141
98 83 142
98 83 142
98 83 142
97 83 143
97 83 143
97 83 144
97 83 144
97 83 145
96 83 145
96 83 145
96 83 146
96 83 146
95 83 147
95 83 147
95 83 148
95 83 148
95 83 148
94 83 149
94 83 149
94 83 150
94 83 150
93 83 151
93 83 151
93 83 151
93 83 152
93 83 152
92 83 153
92 83 153
92 83 154
92 83 154
91 83 154
91 83 155
91 83 155
91 83 156
91 83 156
90 83 157
90 83 157
90 83 157
90 83 158
89 83 158
89 83 159
89 83 159
89 83 160
89 83 160
88 83 160
88 83 161
88 83 161
88 83 162
87 83 162
87 83 163
87 83 163
87 83 163
87 83 164
86 83 164
86 83 165
86 83 165
86 83 166
85 83 166
85 83 166
85 83 167
85 83 167
85 83 168
84 83 168
84 83 169
84 83 169
84 83 169
83 83 170
83 83 170
83 83 171
83 83 171
172 82 0
172 82 0
172 82 0
172 82 1
172 82 1
171 82 2
171 82 2
171 82 3
171 82 3
170 82 3
170 82 4
170 82 4
170 82 5
170 82 5
169 82 6
169 82 6
169 82 6
169 82 7
168 82 7
168 82 8
168 82 8
168 82 9
167 82 9
167 82 9
167 82 10
167 82 10
167 82 11
166 82 11
166 82 12
166 82 12
166 82 13
165 82 13
165 82 13
165 82 14
165 82 14
165 82 15
164 82 15
164 82 16
164 82 16
164 82 16
163 82 17
163 82 17
163 82 18
163 82 18
162 82 19
162 82 19
162 82 19
162 82 20
162 82 20
161 82 21
161 82 21
161 82 22
161 82 22
160 82 22
160 82 23
160 82 23
160 82 24
159 82 24
159 82 25
159 82 25
159 82 26
159 82 26
158 82 26
158 82 27
158 82 27
158 82 28
157 82 28
157 82 29
157 82 29
157 82 29
157 82 30
156 82 30
156 82 31
156 82 31
156 82 32
155 82 32
155 82 32
155 82 33
155 82 33
154 82 34
154 82 34
154 82 35
154 82 35
154 82 35
153 82 36
153 82 36
153 82 37
153 82 37
152 82 38
152 82 38
152 82 39
152 82 39
152 82 39
151 82 40
151 82 40
151 82 41
151 82 41
150 82 42
150 82 42
150 82 42
150 82 43
149 82 43
149 82 44
149 82 44
149 82 45
149 82 45
148 82 45
148 82 46
148 82 46
148 82 47
147 82 47
147 82 48
147 82 48
147 82 48
146 82 49
146 82 49
146 82 50
146 82 50
146 82 51
145 82 51
145 82 52
145 82 52
145 82 52
144 82 53
144 82 53
144 82 54
144 82 54
144 82 55
143 82 55
143 82 55
143 82 56
143 82 56
142 82 57
142 82 57
142 82 58
142 82 58
141 82 58
141 82 59
141 82 59
141 82 60
141 82 60
140 82 61
140 82 61
140 82 61
140 82 62
139 82 62
139 82 63
139 82 63
139 82 64
139 82 64
138 82 65
138 82 65
138 82 65
138 82 66
137 82 66
137 82 67
137 82 67
137 82 68
136 82 68
136 82 68
136 82 69
136 82 69
136 82 70
135 82 70
135 82 71
135 82 71
135 82 71
134 82 72
134 82 72
134 82 73
134 82 73
133 82 74
133 82 74
133 82 75
133 82 75
133 82 75
132 82 76
132 82 76
132 82 77
132 82 77
131 82 78
131 82 78
131 82 78
131 82 79
131 82 79
130 82 80
130 82 80
130 82 81
130 82 81
129 82 81
129 82 82
129 82 82
129 82 83
128 82 83
128 82 84
128 82 84
128 82 84
128 82 85
127 82 85
127 82 86
127 82 86
127 82 87
126 82 87
126 82 88
126 82 88
126 82 88
126 82 89
125 82 89
125 82 90
125 82 90
125 82 91
124 82 91
124 82 91
124 82 92
124 82 92
123 82 93
123 82 93
123 82 94
123 82 94
123 82 94
122 82 95
122 82 95
122 82 96
122 82 96
121 82 97
121 82 97
121 82 97
121 82 98
121 82 98
120 82 99
120 82 99
120 82 100
120 82 100
119 82 101
119 82 101
119 82 101
119 82 102
118 82 102
118 82 103
118 82 103
118 82 104
118 82 104
117 82 104
117 82 105
117 82 105
117 82 106
116 82 106
116 82 107
116 82 107
116 82 107
115 82 108
115 82 108
115 82 109
115 82 109
115 82 110
114 82 110
114 82 110
114 82 111
114 82 111
113 82 112
113 82 112
113 82 113
113 82 113
113 82 114
112 82 114
112 82 114
112 82 115
112 82 115
111 82 116
111 82 116
111 82 117
111 82 117
110 82 117
110 82 118
110 82 118
110 82 119
110 82 119
109 82 120
109 82 120
109 82 120
109 82 121
108 82 121
108 82 122
108 82 122
108 82 123
108 82 123
107 82 123
107 82 124
107 82 124
107 82 125
106 82 125
106 82 126
106 82 126
106 82 127
105 82 127
105 82 127
105 82 128
105 82 128
105 82 129
104 82 129
104 82 130
104 82 130
104 82 130
103 82 131
103 82 131
103 82 132
103 82 132
102 82 133
102 82 133
102 82 133
102 82 134
102 82 134
101 82 135
101 82 135
101 82 136
101 82 136
100 82 137
100 82 137
100 82 137
100 82 138
100 82 138
99 82 139
99 82 139
99 82 140
99 82 140
98 82 140
98 82 141
98 82 141
98 82 142
97 82 142
97 82 143
97 82 143
97 82 143
97 82 144
96 82 144
96 82 145
96 82 145
96 82 146
95 82 146
95 82 146
95 82 147
95 82 147
95 82 148
94 82 148
94 82 149
94 82 149
94 82 150
93 82 150
93 82 150
93 82 151
93 82 151
92 82 152
92 82 152
92 82 153
92 82 153
92 82 153
91 82 154
91 82 154
91 82 155
91 82 155
90 82 156
90 82 156
90 82 156
90 82 157
89 82 157
89 82 158
89 82 158
89 82 159
89 82 159
88 82 159
88 82 160
88 82 160
88 82 161
87 82 161
87 82 162
87 82 162
87 82 163
87 82 163
86 82 163
86 82 164
86 82 164
86 82 165
85 82 165
85 82 166
85 82 166
85 82 166
84 82 167
84 82 167
84 82 168
84 82 168
84 82 169
83 82 169
83 82 169
83 82 170
83 82 170
82 82 171
82 82 171
82 82 172
82 82 172
82 82 172
174 80 0
174 80 0
173 80 0
173 80 1
173 80 1
173 80 2
172 80 2
172 80 3
172 80 3
172 80 3
171 80 4
171 80 4
171 80 5
171 80 5
170 80 6
170 80 6
170 80 6
170 80 7
170 80 7
169 80 8
169 80 8
169 80 9
169 80 9
168 80 10
168 80 10
168 80 10
168 80 11
167 80 11
167 80 12
167 80 12
167 80 13
167 80 13
166 80 13
166 80 14
166 80 14
166 80 15
165 80 15
165 80 16
165 80 16
165 80 17
164 80 17
164 80 17
164 80 18
164 80 18
163 80 19
163 80 19
163 80 20
163 80 20
163 80 20
162 80 21
162 80 21
162 80 22
162 80 22
161 80 23
161 80 23
161 80 24
161 80 24
160 80 24
160 80 25
160 80 25
160 80 26
159 80 26
159 80 27
159 80 27
159 80 27
159 80 28
158 80 28
158 80 29
158 80 29
158 80 30
157 80 30
157 80 31
157 80 31
157 80 31
156 80 32
156 80 32
156 80 33
156 80 33
155 80 34
155 80 34
155 80 34
155 80 35
155 80 35
154 80 36
154 80 36
154 80 37
154 80 37
153 80 37
153 80 38
153 80 38
153 80 39
152 80 39
152 80 40
152 80 40
152 80 41
151 80 41
151 80 41
151 80 42
151 80 42
151 80 43
150 80 43
150 80 44
150 80 44
150 80 44
149 80 45
149 80 45
149 80 46
149 80 46
148 80 47
148 80 47
148 80 48
148 80 48
148 80 48
147 80 49
147 80 49
147 80 50
147 80 50
146 80 51
146 80 51
146 80 51
146 80 52
145 80 52
145 80 53
145 80 53
145 80 54
144 80 54
144 80 55
144 80 55
144 80 55
144 80 56
143 80 56
143 80 57
143 80 57
143 80 58
142 80 58
142 80 58
142 80 59
142 80 59
141 80 60
141 80 60
141 80 61
141 80 61
140 80 62
140 80 62
140 80 62
140 80 63
140 80 63
139 80 64
139 80 64
139 80 65
139 80 65
138 80 65
138 80 66
138 80 66
138 80 67
137 80 67
137 80 68
137 80 68
137 80 69
136 80 69
136 80 69
136 80 70
136 80 70
136 80 71
135 80 71
135 80 72
135 80 72
135 80 72
134 80 73
134 80 73
134 80 74
134 80 74
133 80 75
133 80 75
133 80 75
133 80 76
133 80 76
132 80 77
132 80 77
132 80 78
132 80 78
131 80 79
131 80 79
131 80 79
131 80 80
130 80 80
130 80 81
130 80 81
130 80 82
129 80 82
129 80 82
129 80 83
129 80 83
129 80 84
128 80 84
128 80 85
128 80 85
128 80 86
127 80 86
127 80 86
127 80 87
127 80 87
126 80 88
126 80 88
126 80 89
126 80 89
125 80 89
125 80 90
125 80 90
125 80 91
125 80 91
124 80 92
124 80 92
124 80 93
124 80 93
123 80 93
123 80 94
123 80 94
123 80 95
122 80 95
122 80 96
122 80 96
122 80 96
121 80 97
121 80 97
121 80 98
121 80 98
121 80 99
120 80 99
120 80 100
120 80 100
120 80 100
119 80 101
119 80 101
119 80 102
119 80 102
118 80 103
118 80 103
118 80 103
118 80 104
118 80 104
117 80 105
117 80 105
117 80 106
117 80 106
116 80 107
116 80 107
116 80 107
116 80 108
115 80 108
115 80 109
115 80 109
115 80 110
114 80 110
114 80 110
114 80 111
114 80 111
114 80 112
113 80 112
113 80 113
113 80 113
113 80 113
112 80 114
112 80 114
112 80 115
112 80 115
111 80 116
111 80 116
111 80 117
111 80 117
110 80 117
110 80 118
110 80 118
110 80 119
110 80 119
109 80 120
109 80 120
109 80 120
109 80 121
108 80 121
108 80 122
108 80 122
108 80 123
107 80 123
107 80 124
107 80 124
107 80 124
106 80 125
106 80 125
106 80 126
106 80 126
106 80 127
105 80 127
105 80 127
105 80 128
105 80 128
104 80 129
104 80 129
104 80 130
104 80 130
103 80 131
103 80 131
103 80 131
103 80 132
103 80 132
102 80 133
102 80 133
102 80 134
102 80 134
101 80 134
101 80 135
101 80 135
101 80 136
100 80 136
100 80 137
100 80 137
100 80 138
99 80 138
99 80 138
99 80 139
99 80 139
99 80 140
98 80 140
98 80 141
98 80 141
98 80 141
97 80 142
97 80 142
97 80 143
97 80 143
96 80 144
96 80 144
96 80 145
96 80 145
95 80 145
95 80 146
95 80 146
95 80 147
95 80 147
94 80 148
94 80 148
94 80 148
94 80 149
93 80 149
93 80 150
93 80 150
93 80 151
92 80 151
92 80 151
92 80 152
92 80 152
91 80 153
91 80 153
91 80 154
91 80 154
91 80 155
90 80 155
90 80 155
90 80 156
90 80 156
89 80 157
89 80 157
89 80 158
89 80 158
88 80 158
88 80 159
88 80 159
88 80 160
87 80 160
87 80 161
87 80 161
87 80 162
87 80 162
86 80 162
86 80 163
86 80 163
86 80 164
85 80 164
85 80 165
85 80 165
85 80 165
84 80 166
84 80 166
84 80 167
84 80 167
84 80 168
83 80 168
83 80 169
83 80 169
83 80 169
82 80 170
82 80 170
82 80 171
82 80 171
81 80 172
81 80 172
81 80 172
81 80 173
80 80 173
80 80 174
175 79 0
175 79 0
175 79 0
174 79 1
174 79 1
174 79 2
174 79 2
173 79 3
173 79 3
173 79 3
173 79 4
172 79 4
172 79 5
172 79 5
172 79 6
171 79 6
171 79 7
171 79 7
171 79 7
170 79 8
170 79 8
170 79 9
170 79 9
170 79 10
169 79 10
169 79 10
169 79 11
169 79 11
168 79 12
168 79 12
168 79 13
168 79 13
167 79 14
167 79 14
167 79 14
167 79 15
166 79 15
166 79 16
166 79 16
166 79 17
165 79 17
165 79 18
165 79 18
165 79 18
164 79 19
164 79 19
164 79 20
164 79 20
163 79 21
163 79 21
163 79 21
163 79 22
163 79 22
162 79 23
162 79 23
162 79 24
162 79 24
161 79 25
161 79 25
161 79 25
161 79 26
160 79 26
160 79 27
160 79 27
160 79 28
159 79 28
159 79 29
159 79 29
159 79 29
158 79 30
158 79 30
158 79 31
158 79 31
157 79 32
157 79 32
157 79 32
157 79 33
157 79 33
156 79 34
156 79 34
156 79 35
156 79 35
155 79 36
155 79 36
155 79 36
155 79 37
154 79 37
154 79 38
154 79 38
154 79 39
153 79 39
153 79 40
153 79 40
153 79 40
152 79 41
152 79 41
152 79 42
152 79 42
151 79 43
151 79 43
151 79 43
151 79 44
150 79 44
150 79 45
150 79 45
150 79 46
150 79 46
149 79 47
149 79 47
149 79 47
149 79 48
148 79 48
148 79 49
148 79 49
148 79 50
147 79 50
147 79 51
147 79 51
147 79 51
146 79 52
146 79 52
146 79 53
146 79 53
145 79 54
145 79 54
145 79 54
145 79 55
144 79 55
144 79 56
144 79 56
144 79 57
143 79 57
143 79 58
143 79 58
143 79 58
143 79 59
142 79 59
142 79 60
142 79 60
142 79 61
141 79 61
141 79 62
141 79 62
141 79 62
140 79 63
140 79 63
140 79 64
140 79 64
139 79 65
139 79 65
139 79 65
139 79 66
138 79 66
138 79 67
138 79 67
138 79 68
137 79 68
137 79 69
137 79 69
137 79 69
137 79 70
136 79 70
136 79 71
136 79 71
136 79 72
135 79 72
135 79 73
135 79 73
135 79 73
134 79 74
134 79 74
134 79 75
134 79 75
133 79 76
133 79 76
133 79 76
133 79 77
132 79 77
132 79 78
132 79 78
132 79 79
131 79 79
131 79 80
131 79 80
131 79 80
130 79 81
130 79 81
130 79 82
130 79 82
130 79 83
129 79 83
129 79 84
129 79 84
129 79 84
128 79 85
128 79 85
128 79 86
128 79 86
127 79 87
127 79 87
127 79 87
127 79 88
126 79 88
126 79 89
126 79 89
126 79 90
125 79 90
125 79 91
125 79 91
125 79 91
124 79 92
124 79 92
124 79 93
124 79 93
124 79 94
123 79 94
123 79 95
123 79 95
123 79 95
122 79 96
122 79 96
122 79 97
122 79 97
121 79 98
121 79 98
121 79 98
121 79 99
120 79 99
120 79 100
120 79 100
120 79 101
119 79 101
119 79 102
119 79 102
119 79 102
118 79 103
118 79 103
118 79 104
118 79 104
117 79 105
117 79 105
117 79 106
117 79 106
117 79 106
116 79 107
116 79 107
116 79 108
116 79 108
115 79 109
115 79 109
115 79 109
115 79 110
114 79 110
114 79 111
114 79 111
114 79 112
113 79 112
113 79 113
113 79 113
113 79 113
112 79 114
112 79 114
112 79 115
112 79 115
111 79 116
111 79 116
111 79 117
111 79 117
111 79 117
110 79 118
110 79 118
110 79 119
110 79 119
109 79 120
109 79 120
109 79 120
109 79 121
108 79 121
108 79 122
108 79 122
108 79 123
107 79 123
107 79 124
107 79 124
107 79 124
106 79 125
106 79 125
106 79 126
106 79 126
105 79 127
105 79 127
105 79 128
105 79 128
104 79 128
104 79 129
104 79 129
104 79 130
104 79 130
103 79 131
103 79 131
103 79 131
103 79 132
102 79 132
102 79 133
102 79 133
102 79 134
101 79 134
101 79 135
101 79 135
101 79 135
100 79 136
100 79 136
100 79 137
100 79 137
99 79 138
99 79 138
99 79 139
99 79 139
98 79 139
98 79 140
98 79 140
98 79 141
97 79 141
97 79 142
97 79 142
97 79 142
97 79 143
96 79 143
96 79 144
96 79 144
96 79 145
95 79 145
95 79 146
95 79 146
95 79 146
94 79 147
94 79 147
94 79 148
94 79 148
93 79 149
93 79 149
93 79 150
93 79 150
92 79 150
92 79 151
92 79 151
92 79 152
91 79 152
91 79 153
91 79 153
91 79 153
91 79 154
90 79 154
90 79 155
90 79 155
90 79 156
89 79 156
89 79 157
89 79 157
89 79 157
88 79 158
88 79 158
88 79 159
88 79 159
87 79 160
87 79 160
87 79 161
87 79 161
86 79 161
86 79 162
86 79 162
86 79 163
85 79 163
85 79 164
85 79 164
85 79 164
84 79 165
84 79 165
84 79 166
84 79 166
84 79 167
83 79 167
83 79 168
83 79 168
83 79 168
82 79 169
82 79 169
82 79 170
82 79 170
81 79 171
81 79 171
81 79 172
81 79 172
80 79 172
80 79 173
80 79 173
80 79 174
79 79 174
79 79 175
79 79 175
176 78 0
176 78 0
176 78 0
176 78 1
175 78 1
175 78 2
175 78 2
175 78 3
174 78 3
174 78 3
174 78 4
174 78 4
173 78 5
173 78 5
173 78 6
173 78 6
172 78 7
172 78 7
172 78 7
172 78 8
171 78 8
171 78 9
171 78 9
171 78 10
170 78 10
170 78 11
170 78 11
170 78 11
169 78 12
169 78 12
169 78 13
169 78 13
168 78 14
168 78 14
168 78 15
168 78 15
167 78 15
167 78 16
167 78 16
167 78 17
166 78 17
166 78 18
166 78 18
166 78 19
165 78 19
165 78 19
165 78 20
165 78 20
164 78 21
164 78 21
164 78 22
164 78 22
163 78 23
163 78 23
163 78 23
163 78 24
162 78 24
162 78 25
162 78 25
162 78 26
161 78 26
161 78 27
161 78 27
161 78 27
161 78 28
160 78 28
160 78 29
160 78 29
160 78 30
159 78 30
159 78 31
159 78 31
159 78 31
158 78 32
158 78 32
158 78 33
158 78 33
157 78 34
157 78 34
157 78 35
157 78 35
156 78 35
156 78 36
156 78 36
156 78 37
155 78 37
155 78 38
155 78 38
155 78 39
154 78 39
154 78 39
154 78 40
154 78 40
153 78 41
153 78 41
153 78 42
153 78 42
152 78 42
152 78 43
152 78 43
152 78 44
151 78 44
151 78 45
151 78 45
151 78 46
150 78 46
150 78 46
150 78 47
150 78 47
149 78 48
149 78 48
149 78 49
149 78 49
148 78 50
148 78 50
148 78 50
148 78 51
147 78 51
147 78 52
147 78 52
147 78 53
146 78 53
146 78 54
146 78 54
146 78 54
145 78 55
145 78 55
145 78 56
145 78 56
144 78 57
144 78 57
144 78 58
144 78 58
143 78 58
143 78 59
143 78 59
143 78 60
142 78 60
142 78 61
142 78 61
142 78 62
141 78 62
141 78 62
141 78 63
141 78 63
140 78 64
140 78 64
140 78 65
140 78 65
139 78 66
139 78 66
139 78 66
139 78 67
138 78 67
138 78 68
138 78 68
138 78 69
138 78 69
137 78 70
137 78 70
137 78 70
137 78 71
136 78 71
136 78 72
136 78 72
136 78 73
135 78 73
135 78 74
135 78 74
135 78 74
134 78 75
134 78 75
134 78 76
134 78 76
133 78 77
133 78 77
133 78 78
133 78 78
132 78 78
132 78 79
132 78 79
132 78 80
131 78 80
131 78 81
131 78 81
131 78 81
130 78 82
130 78 82
130 78 83
130 78 83
129 78 84
129 78 84
129 78 85
129 78 85
128 78 85
128 78 86
128 78 86
128 78 87
127 78 87
127 78 88
127 78 88
127 78 89
126 78 89
126 78 89
126 78 90
126 78 90
125 78 91
125 78 91
125 78 92
125 78 92
124 78 93
124 78 93
124 78 93
124 78 94
123 78 94
123 78 95
123 78 95
123 78 96
122 78 96
122 78 97
122 78 97
122 78 97
121 78 98
121 78 98
121 78 99
121 78 99
120 78 100
120 78 100
120 78 101
120 78 101
119 78 101
119 78 102
119 78 102
119 78 103
118 78 103
118 78 104
118 78 104
118 78 105
117 78 105
117 78 105
117 78 106
117 78 106
116 78 107
116 78 107
116 78 108
116 78 108
116 78 109
115 78 109
115 78 109
115 78 110
115 78 110
114 78 111
114 78 111
114 78 112
114 78 112
113 78 113
113 78 113
113 78 113
113 78 114
112 78 114
112 78 115
112 78 115
112 78 116
111 78 116
111 78 117
111 78 117
111 78 117
110 78 118
110 78 118
110 78 119
110 78 119
109 78 120
109 78 120
109 78 120
109 78 121
108 78 121
108 78 122
108 78 122
108 78 123
107 78 123
107 78 124
107 78 124
107 78 124
106 78 125
106 78 125
106 78 126
106 78 126
105 78 127
105 78 127
105 78 128
105 78 128
104 78 128
104 78 129
104 78 129
104 78 130
103 78 130
103 78 131
103 78 131
103 78 132
102 78 132
102 78 132
102 78 133
102 78 133
101 78 134
101 78 134
101 78 135
101 78 135
100 78 136
100 78 136
100 78 136
100 78 137
99 78 137
99 78 138
99 78 138
99 78 139
98 78 139
98 78 140
98 78 140
98 78 140
97 78 141
97 78 141
97 78 142
97 78 142
96 78 143
96 78 143
96 78 144
96 78 144
95 78 144
95 78 145
95 78 145
95 78 146
94 78 146
94 78 147
94 78 147
94 78 148
93 78 148
93 78 148
93 78 149
93 78 149
93 78 150
92 78 150
92 78 151
92 78 151
92 78 152
91 78 152
91 78 152
91 78 153
91 78 153
90 78 154
90 78 154
90 78 155
90 78 155
89 78 156
89 78 156
89 78 156
89 78 157
88 78 157
88 78 158
88 78 158
88 78 159
87 78 159
87 78 159
87 78 160
87 78 160
86 78 161
86 78 161
86 78 162
86 78 162
85 78 163
85 78 163
85 78 163
85 78 164
84 78 164
84 78 165
84 78 165
84 78 166
83 78 166
83 78 167
83 78 167
83 78 167
82 78 168
82 78 168
82 78 169
82 78 169
81 78 170
81 78 170
81 78 171
81 78 171
80 78 171
80 78 172
80 78 172
80 78 173
79 78 173
79 78 174
79 78 174
79 78 175
78 78 175
78 78 175
78 78 176
78 78 176
178 76 0
177 76 0
177 76 0
177 76 1
177 76 1
176 76 2
176 76 2
176 76 3
176 76 3
175 76 4
175 76 4
175 76 4
175 76 5
174 76 5
174 76 6
174 76 6
174 76 7
173 76 7
173 76 8
173 76 8
173 76 8
172 76 9
172 76 9
172 76 10
172 76 10
171 76 11
171 76 11
171 76 12
171 76 12
170 76 12
170 76 13
170 76 13
169 76 14
169 76 14
169 76 15
169 76 15
168 76 16
168 76 16
168 76 16
168 76 17
167 76 17
167 76 18
167 76 18
167 76 19
166 76 19
166 76 20
166 76 20
166 76 20
165 76 21
165 76 21
165 76 22
165 76 22
164 76 23
164 76 23
164 76 24
164 76 24
163 76 24
163 76 25
163 76 25
163 76 26
162 76 26
162 76 27
162 76 27
162 76 28
161 76 28
161 76 29
161 76 29
161 76 29
160 76 30
160 76 30
160 76 31
160 76 31
159 76 32
159 76 32
159 76 33
159 76 33
158 76 33
158 76 34
158 76 34
158 76 35
157 76 35
157 76 36
157 76 36
157 76 37
156 76 37
156 76 37
156 76 38
156 76 38
155 76 39
155 76 39
155 76 40
155 76 40
154 76 41
154 76 41
154 76 41
154 76 42
153 76 42
153 76 43
153 76 43
152 76 44
152 76 44
152 76 45
152 76 45
151 76 45
151 76 46
151 76 46
151 76 47
150 76 47
150 76 48
150 76 48
150 76 49
149 76 49
149 76 49
149 76 50
149 76 50
148 76 51
148 76 51
148 76 52
148 76 52
147 76 53
147 76 53
147 76 54
147 76 54
146 76 54
146 76 55
146 76 55
146 76 56
145 76 56
145 76 57
145 76 57
145 76 58
144 76 58
144 76 58
144 76 59
144 76 59
143 76 60
143 76 60
143 76 61
143 76 61
142 76 62
142 76 62
142 76 62
142 76 63
141 76 63
141 76 64
141 76 64
141 76 65
140 76 65
140 76 66
140 76 66
140 76 66
139 76 67
139 76 67
139 76 68
139 76 68
138 76 69
138 76 69
138 76 70
138 76 70
137 76 70
137 76 71
137 76 71
137 76 72
136 76 72
136 76 73
136 76 73
135 76 74
135 76 74
135 76 74
135 76 75
134 76 75
134 76 76
134 76 76
134 76 77
133 76 77
133 76 78
133 76 78
133 76 79
132 76 79
132 76 79
132 76 80
132 76 80
131 76 81
131 76 81
131 76 82
131 76 82
130 76 83
130 76 83
130 76 83
130 76 84
129 76 84
129 76 85
129 76 85
129 76 86
128 76 86
128 76 87
128 76 87
128 76 87
127 76 88
127 76 88
127 76 89
127 76 89
126 76 90
126 76 90
126 76 91
126 76 91
125 76 91
125 76 92
125 76 92
125 76 93
124 76 93
124 76 94
124 76 94
124 76 95
123 76 95
123 76 95
123 76 96
123 76 96
122 76 97
122 76 97
122 76 98
122 76 98
121 76 99
121 76 99
121 76 99
121 76 100
120 76 100
120 76 101
120 76 101
120 76 102
119 76 102
119 76 103
119 76 103
119 76 104
118 76 104
118 76 104
118 76 105
117 76 105
117 76 106
117 76 106
117 76 107
116 76 107
116 76 108
116 76 108
116 76 108
115 76 109
115 76 109
115 76 110
115 76 110
114 76 111
114 76 111
114 76 112
114 76 112
113 76 112
113 76 113
113 76 113
113 76 114
112 76 114
112 76 115
112 76 115
112 76 116
111 76 116
111 76 116
111 76 117
111 76 117
110 76 118
110 76 118
110 76 119
110 76 119
109 76 120
109 76 120
109 76 120
109 76 121
108 76 121
108 76 122
108 76 122
108 76 123
107 76 123
107 76 124
107 76 124
107 76 124
106 76 125
106 76 125
106 76 126
106 76 126
105 76 127
105 76 127
105 76 128
105 76 128
104 76 129
104 76 129
104 76 129
104 76 130
103 76 130
103 76 131
103 76 131
103 76 132
102 76 132
102 76 133
102 76 133
102 76 133
101 76 134
101 76 134
101 76 135
100 76 135
100 76 136
100 76 136
100 76 137
99 76 137
99 76 137
99 76 138
99 76 138
98 76 139
98 76 139
98 76 140
98 76 140
97 76 141
97 76 141
97 76 141
97 76 142
96 76 142
96 76 143
96 76 143
96 76 144
95 76 144
95 76 145
95 76 145
95 76 145
94 76 146
94 76 146
94 76 147
94 76 147
93 76 148
93 76 148
93 76 149
93 76 149
92 76 149
92 76 150
92 76 150
92 76 151
91 76 151
91 76 152
91 76 152
91 76 153
90 76 153
90 76 154
90 76 154
90 76 154
89 76 155
89 76 155
89 76 156
89 76 156
88 76 157
88 76 157
88 76 158
88 76 158
87 76 158
87 76 159
87 76 159
87 76 160
86 76 160
86 76 161
86 76 161
86 76 162
85 76 162
85 76 162
85 76 163
85 76 163
84 76 164
84 76 164
84 76 165
83 76 165
83 76 166
83 76 166
83 76 166
82 76 167
82 76 167
82 76 168
82 76 168
81 76 169
81 76 169
81 76 170
81 76 170
80 76 170
80 76 171
80 76 171
80 76 172
79 76 172
79 76 173
79 76 173
79 76 174
78 76 174
78 76 174
78 76 175
78 76 175
77 76 176
77 76 176
77 76 177
77 76 177
76 76 178
179 75 0
179 75 0
178 75 0
178 75 1
178 75 1
178 75 2
177 75 2
177 75 3
177 75 3
177 75 4
176 75 4
176 75 4
176 75 5
176 75 5
175 75 6
175 75 6
175 75 7
174 75 7
174 75 8
174 75 8
174 75 8
173 75 9
173 75 9
173 75 10
173 75 10
172 75 11
172 75 11
172 75 12
172 75 12
171 75 13
171 75 13
171 75 13
171 75 14
170 75 14
170 75 15
170 75 15
170 75 16
169 75 16
169 75 17
169 75 17
168 75 17
168 75 18
168 75 18
168 75 19
167 75 19
167 75 20
167 75 20
167 75 21
166 75 21
166 75 22
166 75 22
166 75 22
165 75 23
165 75 23
165 75 24
165 75 24
164 75 25
164 75 25
164 75 26
164 75 26
163 75 26
163 75 27
163 75 27
163 75 28
162 75 28
162 75 29
162 75 29
161 75 30
161 75 30
161 75 31
161 75 31
160 75 31
160 75 32
160 75 32
160 75 33
159 75 33
159 75 34
159 75 34
159 75 35
158 75 35
158 75 35
158 75 36
158 75 36
157 75 37
157 75 37
157 75 38
157 75 38
156 75 39
156 75 39
156 75 40
155 75 40
155 75 40
155 75 41
155 75 41
154 75 42
154 75 42
154 75 43
154 75 43
153 75 44
153 75 44
153 75 44
153 75 45
152 75 45
152 75 46
152 75 46
152 75 47
151 75 47
151 75 48
151 75 48
151 75 49
150 75 49
150 75 49
150 75 50
150 75 50
149 75 51
149 75 51
149 75 52
148 75 52
148 75 53
148 75 53
148 75 53
147 75 54
147 75 54
147 75 55
147 75 55
146 75 56
146 75 56
146 75 57
146 75 57
145 75 58
145 75 58
145 75 58
145 75 59
144 75 59
144 75 60
144 75 60
144 75 61
143 75 61
143 75 62
143 75 62
142 75 62
142 75 63
142 75 63
142 75 64
141 75 64
141 75 65
141 75 65
141 75 66
140 75 66
140 75 66
140 75 67
140 75 67
139 75 68
139 75 68
139 75 69
139 75 69
138 75 70
138 75 70
138 75 71
138 75 71
137 75 71
137 75 72
137 75 72
136 75 73
136 75 73
136 75 74
136 75 74
135 75 75
135 75 75
135 75 75
135 75 76
134 75 76
134 75 77
134 75 77
134 75 78
133 75 78
133 75 79
133 75 79
133 75 80
132 75 80
132 75 80
132 75 81
132 75 81
131 75 82
131 75 82
131 75 83
131 75 83
130 75 84
130 75 84
130 75 84
129 75 85
129 75 85
129 75 86
129 75 86
128 75 87
128 75 87
128 75 88
128 75 88
127 75 89
127 75 89
127 75 89
127 75 90
126 75 90
126 75 91
126 75 91
126 75 92
125 75 92
125 75 93
125 75 93
125 75 93
124 75 94
124 75 94
124 75 95
123 75 95
123 75 96
123 75 96
123 75 97
122 75 97
122 75 98
122 75 98
122 75 98
121 75 99
121 75 99
121 75 100
121 75 100
120 75 101
120 75 101
120 75 102
120 75 102
119 75 102
119 75 103
119 75 103
119 75 104
118 75 104
118 75 105
118 75 105
118 75 106
117 75 106
117 75 107
117 75 107
116 75 107
116 75 108
116 75 108
116 75 109
115 75 109
115 75 110
115 75 110
115 75 111
114 75 111
114 75 111
114 75 112
114 75 112
113 75 113
113 75 113
113 75 114
113 75 114
112 75 115
112 75 115
112 75 116
112 75 116
111 75 116
111 75 117
111 75 117
110 75 118
110 75 118
110 75 119
110 75 119
109 75 120
109 75 120
109 75 120
109 75 121
108 75 121
108 75 122
108 75 122
108 75 123
107 75 123
107 75 124
107 75 124
107 75 124
106 75 125
106 75 125
106 75 126
106 75 126
105 75 127
105 75 127
105 75 128
104 75 128
104 75 129
104 75 129
104 75 129
103 75 130
103 75 130
103 75 131
103 75 131
102 75 132
102 75 132
102 75 133
102 75 133
101 75 133
101 75 134
101 75 134
101 75 135
100 75 135
100 75 136
100 75 136
100 75 137
99 75 137
99 75 138
99 75 138
99 75 138
98 75 139
98 75 139
98 75 140
97 75 140
97 75 141
97 75 141
97 75 142
96 75 142
96 75 142
96 75 143
96 75 143
95 75 144
95 75 144
95 75 145
95 75 145
94 75 146
94 75 146
94 75 147
94 75 147
93 75 147
93 75 148
93 75 148
93 75 149
92 75 149
92 75 150
92 75 150
91 75 151
91 75 151
91 75 151
91 75 152
90 75 152
90 75 153
90 75 153
90 75 154
89 75 154
89 75 155
89 75 155
89 75 156
88 75 156
88 75 156
88 75 157
88 75 157
87 75 158
87 75 158
87 75 159
87 75 159
86 75 160
86 75 160
86 75 160
86 75 161
85 75 161
85 75 162
85 75 162
84 75 163
84 75 163
84 75 164
84 75 164
83 75 165
83 75 165
83 75 165
83 75 166
82 75 166
82 75 167
82 75 167
82 75 168
81 75 168
81 75 169
81 75 169
81 75 169
80 75 170
80 75 170
80 75 171
80 75 171
79 75 172
79 75 172
79 75 173
78 75 173
78 75 174
78 75 174
78 75 174
77 75 175
77 75 175
77 75 176
77 75 176
76 75 177
76 75 177
76 75 178
76 75 178
75 75 178
75 75 179
180 74 0
180 74 0
180 74 0
179 74 1
179 74 1
179 74 2
179 74 2
178 74 3
178 74 3
178 74 4
178 74 4
177 74 4
177 74 5
177 74 5
176 74 6
176 74 6
176 74 7
176 74 7
175 74 8
175 74 8
175 74 9
175 74 9
174 74 9
174 74 10
174 74 10
174 74 11
173 74 11
173 74 12
173 74 12
172 74 13
172 74 13
172 74 14
172 74 14
171 74 14
171 74 15
171 74 15
171 74 16
170 74 16
170 74 17
170 74 17
170 74 18
169 74 18
169 74 19
169 74 19
168 74 19
168 74 20
168 74 20
168 74 21
167 74 21
167 74 22
167 74 22
167 74 23
166 74 23
166 74 23
166 74 24
166 74 24
165 74 25
165 74 25
165 74 26
164 74 26
164 74 27
164 74 27
164 74 28
163 74 28
163 74 28
163 74 29
163 74 29
162 74 30
162 74 30
162 74 31
162 74 31
161 74 32
161 74 32
161 74 33
160 74 33
160 74 33
160 74 34
160 74 34
159 74 35
159 74 35
159 74 36
159 74 36
158 74 37
158 74 37
158 74 38
158 74 38
157 74 38
157 74 39
157 74 39
156 74 40
156 74 40
156 74 41
156 74 41
155 74 42
155 74 42
155 74 43
155 74 43
154 74 43
154 74 44
154 74 44
154 74 45
153 74 45
153 74 46
153 74 46
152 74 47
152 74 47
152 74 47
152 74 48
151 74 48
151 74 49
151 74 49
151 74 50
150 74 50
150 74 51
150 74 51
150 74 52
149 74 52
149 74 52
149 74 53
148 74 53
148 74 54
148 74 54
148 74 55
147 74 55
147 74 56
147 74 56
147 74 57
146 74 57
146 74 57
146 74 58
146 74 58
145 74 59
145 74 59
145 74 60
144 74 60
144 74 61
144 74 61
144 74 62
143 74 62
143 74 62
143 74 63
143 74 63
142 74 64
142 74 64
142 74 65
142 74 65
141 74 66
141 74 66
141 74 67
140 74 67
140 74 67
140 74 68
140 74 68
139 74 69
139 74 69
139 74 70
139 74 70
138 74 71
138 74 71
138 74 71
138 74 72
137 74 72
137 74 73
137 74 73
136 74 74
136 74 74
136 74 75
136 74 75
135 74 76
135 74 76
135 74 76
135 74 77
134 74 77
134 74 78
134 74 78
134 74 79
133 74 79
133 74 80
133 74 80
132 74 81
132 74 81
132 74 81
132 74 82
131 74 82
131 74 83
131 74 83
131 74 84
130 74 84
130 74 85
130 74 85
130 74 86
129 74 86
129 74 86
129 74 87
128 74 87
128 74 88
128 74 88
128 74 89
127 74 89
127 74 90
127 74 90
127 74 91
126 74 91
126 74 91
126 74 92
126 74 92
125 74 93
125 74 93
125 74 94
124 74 94
124 74 95
124 74 95
124 74 95
123 74 96
123 74 96
123 74 97
123 74 97
122 74 98
122 74 98
122 74 99
122 74 99
121 74 100
121 74 100
121 74 100
120 74 101
120 74 101
120 74 102
120 74 102
119 74 103
119 74 103
119 74 104
119 74 104
118 74 105
118 74 105
118 74 105
118 74 106
117 74 106
117 74 107
117 74 107
116 74 108
116 74 108
116 74 109
116 74 109
115 74 110
115 74 110
115 74 110
115 74 111
114 74 111
114 74 112
114 74 112
114 74 113
113 74 113
113 74 114
113 74 114
112 74 115
112 74 115
112 74 115
112 74 116
111 74 116
111 74 117
111 74 117
111 74 118
110 74 118
110 74 119
110 74 119
110 74 119
109 74 120
109 74 120
109 74 121
108 74 121
108 74 122
108 74 122
108 74 123
107 74 123
107 74 124
107 74 124
107 74 124
106 74 125
106 74 125
106 74 126
106 74 126
105 74 127
105 74 127
105 74 128
104 74 128
104 74 129
104 74 129
104 74 129
103 74 130
103 74 130
103 74 131
103 74 131
102 74 132
102 74 132
102 74 133
102 74 133
101 74 134
101 74 134
101 74 134
100 74 135
100 74 135
100 74 136
100 74 136
99 74 137
99 74 137
99 74 138
99 74 138
98 74 139
98 74 139
98 74 139
98 74 140
97 74 140
97 74 141
97 74 141
96 74 142
96 74 142
96 74 143
96 74 143
95 74 143
95 74 144
95 74 144
95 74 145
94 74 145
94 74 146
94 74 146
94 74 147
93 74 147
93 74 148
93 74 148
92 74 148
92 74 149
92 74 149
92 74 150
91 74 150
91 74 151
91 74 151
91 74 152
90 74 152
90 74 153
90 74 153
90 74 153
89 74 154
89 74 154
89 74 155
88 74 155
88 74 156
88 74 156
88 74 157
87 74 157
87 74 158
87 74 158
87 74 158
86 74 159
86 74 159
86 74 160
86 74 160
85 74 161
85 74 161
85 74 162
84 74 162
84 74 163
84 74 163
84 74 163
83 74 164
83 74 164
83 74 165
83 74 165
82 74 166
82 74 166
82 74 167
82 74 167
81 74 167
81 74 168
81 74 168
80 74 169
80 74 169
80 74 170
80 74 170
79 74 171
79 74 171
79 74 172
79 74 172
78 74 172
78 74 173
78 74 173
78 74 174
77 74 174
77 74 175
77 74 175
76 74 176
76 74 176
76 74 177
76 74 177
75 74 177
75 74 178
75 74 178
75 74 179
74 74 179
74 74 180
74 74 180
181 73 0
181 73 0
181 73 0
181 73 1
180 73 1
180 73 2
180 73 2
180 73 3
179 73 3
179 73 4
179 73 4
178 73 5
178 73 5
178 73 5
178 73 6
177 73 6
177 73 7
177 73 7
177 73 8
176 73 8
176 73 9
176 73 9
175 73 10
175 73 10
175 73 10
175 73 11
174 73 11
174 73 12
174 73 12
174 73 13
173 73 13
173 73 14
173 73 14
172 73 15
172 73 15
172 73 15
172 73 16
171 73 16
171 73 17
171 73 17
171 73 18
170 73 18
170 73 19
170 73 19
169 73 20
169 73 20
169 73 20
169 73 21
168 73 21
168 73 22
168 73 22
168 73 23
167 73 23
167 73 24
167 73 24
166 73 25
166 73 25
166 73 25
166 73 26
165 73 26
165 73 27
165 73 27
165 73 28
164 73 28
164 73 29
164 73 29
163 73 30
163 73 30
163 73 31
163 73 31
162 73 31
162 73 32
162 73 32
162 73 33
161 73 33
161 73 34
161 73 34
160 73 35
160 73 35
160 73 36
160 73 36
159 73 36
159 73 37
159 73 37
159 73 38
158 73 38
158 73 39
158 73 39
157 73 40
157 73 40
157 73 41
157 73 41
156 73 41
156 73 42
156 73 42
156 73 43
155 73 43
155 73 44
155 73 44
154 73 45
154 73 45
154 73 46
154 73 46
153 73 46
153 73 47
153 73 47
153 73 48
152 73 48
152 73 49
152 73 49
151 73 50
151 73 50
151 73 51
151 73 51
150 73 51
150 73 52
150 73 52
150 73 53
149 73 53
149 73 54
149 73 54
148 73 55
148 73 55
148 73 56
148 73 56
147 73 57
147 73 57
147 73 57
147 73 58
146 73 58
146 73 59
146 73 59
145 73 60
145 73 60
145 73 61
145 73 61
144 73 62
144 73 62
144 73 62
144 73 63
143 73 63
143 73 64
143 73 64
142 73 65
142 73 65
142 73 66
142 73 66
141 73 67
141 73 67
141 73 67
141 73 68
140 73 68
140 73 69
140 73 69
139 73 70
139 73 70
139 73 71
139 73 71
138 73 72
138 73 72
138 73 72
138 73 73
137 73 73
137 73 74
137 73 74
136 73 75
136 73 75
136 73 76
136 73 76
135 73 77
135 73 77
135 73 77
135 73 78
134 73 78
134 73 79
134 73 79
133 73 80
133 73 80
133 73 81
133 73 81
132 73 82
132 73 82
132 73 82
132 73 83
131 73 83
131 73 84
131 73 84
130 73 85
130 73 85
130 73 86
130 73 86
129 73 87
129 73 87
129 73 88
129 73 88
128 73 88
128 73 89
128 73 89
127 73 90
127 73 90
127 73 91
127 73 91
126 73 92
126 73 92
126 73 93
125 73 93
125 73 93
125 73 94
125 73 94
124 73 95
124 73 95
124 73 96
124 73 96
123 73 97
123 73 97
123 73 98
122 73 98
122 73 98
122 73 99
122 73 99
121 73 100
121 73 100
121 73 101
121 73 101
120 73 102
120 73 102
120 73 103
119 73 103
119 73 103
119 73 104
119 73 104
118 73 105
118 73 105
118 73 106
118 73 106
117 73 107
117 73 107
117 73 108
116 73 108
116 73 108
116 73 109
116 73 109
115 73 110
115 73 110
115 73 111
115 73 111
114 73 112
114 73 112
114 73 113
113 73 113
113 73 114
113 73 114
113 73 114
112 73 115
112 73 115
112 73 116
112 73 116
111 73 117
111 73 117
111 73 118
110 73 118
110 73 119
110 73 119
110 73 119
109 73 120
109 73 120
109 73 121
109 73 121
108 73 122
108 73 122
108 73 123
107 73 123
107 73 124
107 73 124
107 73 124
106 73 125
106 73 125
106 73 126
106 73 126
105 73 127
105 73 127
105 73 128
104 73 128
104 73 129
104 73 129
104 73 129
103 73 130
103 73 130
103 73 131
103 73 131
102 73 132
102 73 132
102 73 133
101 73 133
101 73 134
101 73 134
101 73 134
100 73 135
100 73 135
100 73 136
100 73 136
99 73 137
99 73 137
99 73 138
98 73 138
98 73 139
98 73 139
98 73 140
97 73 140
97 73 140
97 73 141
97 73 141
96 73 142
96 73 142
96 73 143
95 73 143
95 73 144
95 73 144
95 73 145
94 73 145
94 73 145
94 73 146
94 73 146
93 73 147
93 73 147
93 73 148
92 73 148
92 73 149
92 73 149
92 73 150
91 73 150
91 73 150
91 73 151
91 73 151
90 73 152
90 73 152
90 73 153
89 73 153
89 73 154
89 73 154
89 73 155
88 73 155
88 73 155
88 73 156
88 73 156
87 73 157
87 73 157
87 73 158
86 73 158
86 73 159
86 73 159
86 73 160
85 73 160
85 73 160
85 73 161
85 73 161
84 73 162
84 73 162
84 73 163
83 73 163
83 73 164
83 73 164
83 73 165
82 73 165
82 73 165
82 73 166
82 73 166
81 73 167
81 73 167
81 73 168
80 73 168
80 73 169
80 73 169
80 73 170
79 73 170
79 73 171
79 73 171
79 73 171
78 73 172
78 73 172
78 73 173
77 73 173
77 73 174
77 73 174
77 73 175
76 73 175
76 73 176
76 73 176
76 73 176
75 73 177
75 73 177
75 73 178
74 73 178
74 73 179
74 73 179
74 73 180
73 73 180
73 73 181
73 73 181
73 73 181
183 71 0
182 71 0
182 71 0
182 71 1
182 71 1
181 71 2
181 71 2
181 71 3
181 71 3
180 71 4
180 71 4
180 71 5
179 71 5
179 71 5
179 71 6
179 71 6
178 71 7
178 71 7
178 71 8
177 71 8
177 71 9
177 71 9
177 71 10
176 71 10
176 71 11
176 71 11
175 71 11
175 71 12
175 71 12
175 71 13
174 71 13
174 71 14
174 71 14
174 71 15
173 71 15
173 71 16
173 71 16
172 71 16
172 71 17
172 71 17
172 71 18
171 71 18
171 71 19
171 71 19
170 71 20
170 71 20
170 71 21
170 71 21
169 71 22
169 71 22
169 71 22
168 71 23
168 71 23
168 71 24
168 71 24
167 71 25
167 71 25
167 71 26
167 71 26
166 71 27
166 71 27
166 71 28
165 71 28
165 71 28
165 71 29
165 71 29
164 71 30
164 71 30
164 71 31
163 71 31
163 71 32
163 71 32
163 71 33
162 71 33
162 71 33
162 71 34
162 71 34
161 71 35
161 71 35
161 71 36
160 71 36
160 71 37
160 71 37
160 71 38
159 71 38
159 71 39
159 71 39
158 71 39
158 71 40
158 71 40
158 71 41
157 71 41
157 71 42
157 71 42
156 71 43
156 71 43
156 71 44
156 71 44
155 71 45
155 71 45
155 71 45
155 71 46
154 71 46
154 71 47
154 71 47
153 71 48
153 71 48
153 71 49
153 71 49
152 71 50
152 71 50
152 71 50
151 71 51
151 71 51
151 71 52
151 71 52
150 71 53
150 71 53
150 71 54
149 71 54
149 71 55
149 71 55
149 71 56
148 71 56
148 71 56
148 71 57
148 71 57
147 71 58
147 71 58
147 71 59
146 71 59
146 71 60
146 71 60
146 71 61
145 71 61
145 71 61
145 71 62
144 71 62
144 71 63
144 71 63
144 71 64
143 71 64
143 71 65
143 71 65
143 71 66
142 71 66
142 71 67
142 71 67
141 71 67
141 71 68
141 71 68
141 71 69
140 71 69
140 71 70
140 71 70
139 71 71
139 71 71
139 71 72
139 71 72
138 71 73
138 71 73
138 71 73
137 71 74
137 71 74
137 71 75
137 71 75
136 71 76
136 71 76
136 71 77
136 71 77
135 71 78
135 71 78
135 71 78
134 71 79
134 71 79
134 71 80
134 71 80
133 71 81
133 71 81
133 71 82
132 71 82
132 71 83
132 71 83
132 71 84
131 71 84
131 71 84
131 71 85
130 71 85
130 71 86
130 71 86
130 71 87
129 71 87
129 71 88
129 71 88
129 71 89
128 71 89
128 71 90
128 71 90
127 71 90
127 71 91
127 71 91
127 71 92
126 71 92
126 71 93
126 71 93
125 71 94
125 71 94
125 71 95
125 71 95
124 71 95
124 71 96
124 71 96
124 71 97
123 71 97
123 71 98
123 71 98
122 71 99
122 71 99
122 71 100
122 71 100
121 71 101
121 71 101
121 71 101
120 71 102
120 71 102
120 71 103
120 71 103
119 71 104
119 71 104
119 71 105
118 71 105
118 71 106
118 71 106
118 71 107
117 71 107
117 71 107
117 71 108
117 71 108
116 71 109
116 71 109
116 71 110
115 71 110
115 71 111
115 71 111
115 71 112
114 71 112
114 71 112
114 71 113
113 71 113
113 71 114
113 71 114
113 71 115
112 71 115
112 71 116
112 71 116
111 71 117
111 71 117
111 71 118
111 71 118
110 71 118
110 71 119
110 71 119
110 71 120
109 71 120
109 71 121
109 71 121
108 71 122
108 71 122
108 71 123
108 71 123
107 71 123
107 71 124
107 71 124
106 71 125
106 71 125
106 71 126
106 71 126
105 71 127
105 71 127
105 71 128
105 71 128
104 71 129
104 71 129
104 71 129
103 71 130
103 71 130
103 71 131
103 71 131
102 71 132
102 71 132
102 71 133
101 71 133
101 71 134
101 71 134
101 71 135
100 71 135
100 71 135
100 71 136
99 71 136
99 71 137
99 71 137
99 71 138
98 71 138
98 71 139
98 71 139
98 71 140
97 71 140
97 71 140
97 71 141
96 71 141
96 71 142
96 71 142
96 71 143
95 71 143
95 71 144
95 71 144
94 71 145
94 71 145
94 71 146
94 71 146
93 71 146
93 71 147
93 71 147
92 71 148
92 71 148
92 71 149
92 71 149
91 71 150
91 71 150
91 71 151
91 71 151
90 71 152
90 71 152
90 71 152
89 71 153
89 71 153
89 71 154
89 71 154
88 71 155
88 71 155
88 71 156
87 71 156
87 71 157
87 71 157
87 71 157
86 71 158
86 71 158
86 71 159
86 71 159
85 71 160
85 71 160
85 71 161
84 71 161
84 71 162
84 71 162
84 71 163
83 71 163
83 71 163
83 71 164
82 71 164
82 71 165
82 71 165
82 71 166
81 71 166
81 71 167
81 71 167
80 71 168
80 71 168
80 71 169
80 71 169
79 71 169
79 71 170
79 71 170
79 71 171
78 71 171
78 71 172
78 71 172
77 71 173
77 71 173
77 71 174
77 71 174
76 71 174
76 71 175
76 71 175
75 71 176
75 71 176
75 71 177
75 71 177
74 71 178
74 71 178
74 71 179
73 71 179
73 71 180
73 71 180
73 71 180
72 71 181
72 71 181
72 71 182
72 71 182
71 71 183
184 70 0
184 70 0
183 70 0
183 70 1
183 70 1
183 70 2
182 70 2
182 70 3
182 70 3
181 70 4
181 70 4
181 70 5
181 70 5
180 70 6
180 70 6
180 70 6
179 70 7
179 70 7
179 70 8
179 70 8
178 70 9
178 70 9
178 70 10
177 70 10
177 70 11
177 70 11
177 70 12
176 70 12
176 70 12
176 70 13
175 70 13
175 70 14
175 70 14
175 70 15
174 70 15
174 70 16
174 70 16
173 70 17
173 70 17
173 70 18
173 70 18
172 70 18
172 70 19
172 70 19
171 70 20
171 70 20
171 70 21
171 70 21
170 70 22
170 70 22
170 70 23
169 70 23
169 70 24
169 70 24
169 70 24
168 70 25
168 70 25
168 70 26
167 70 26
167 70 27
167 70 27
167 70 28
166 70 28
166 70 29
166 70 29
165 70 30
165 70 30
165 70 30
165 70 31
164 70 31
164 70 32
164 70 32
163 70 33
163 70 33
163 70 34
163 70 34
162 70 35
162 70 35
162 70 36
161 70 36
161 70 36
161 70 37
161 70 37
160 70 38
160 70 38
160 70 39
159 70 39
159 70 40
159 70 40
159 70 41
158 70 41
158 70 42
158 70 42
157 70 43
157 70 43
157 70 43
157 70 44
156 70 44
156 70 45
156 70 45
155 70 46
155 70 46
155 70 47
155 70 47
154 70 48
154 70 48
154 70 49
153 70 49
153 70 49
153 70 50
153 70 50
152 70 51
152 70 51
152 70 52
151 70 52
151 70 53
151 70 53
151 70 54
150 70 54
150 70 55
150 70 55
149 70 55
149 70 56
149 70 56
149 70 57
148 70 57
148 70 58
148 70 58
147 70 59
147 70 59
147 70 60
147 70 60
146 70 61
146 70 61
146 70 61
145 70 62
145 70 62
145 70 63
145 70 63
144 70 64
144 70 64
144 70 65
143 70 65
143 70 66
143 70 66
143 70 67
142 70 67
142 70 67
142 70 68
141 70 68
141 70 69
141 70 69
141 70 70
140 70 70
140 70 71
140 70 71
139 70 72
139 70 72
139 70 73
139 70 73
138 70 73
138 70 74
138 70 74
137 70 75
137 70 75
137 70 76
137 70 76
136 70 77
136 70 77
136 70 78
135 70 78
135 70 79
135 70 79
135 70 80
134 70 80
134 70 80
134 70 81
133 70 81
133 70 82
133 70 82
133 70 83
132 70 83
132 70 84
132 70 84
131 70 85
131 70 85
131 70 86
131 70 86
130 70 86
130 70 87
130 70 87
129 70 88
129 70 88
129 70 89
129 70 89
128 70 90
128 70 90
128 70 91
127 70 91
127 70 92
127 70 92
127 70 92
126 70 93
126 70 93
126 70 94
125 70 94
125 70 95
125 70 95
125 70 96
124 70 96
124 70 97
124 70 97
123 70 98
123 70 98
123 70 98
123 70 99
122 70 99
122 70 100
122 70 100
121 70 101
121 70 101
121 70 102
121 70 102
120 70 103
120 70 103
120 70 104
119 70 104
119 70 104
119 70 105
119 70 105
118 70 106
118 70 106
118 70 107
117 70 107
117 70 108
117 70 108
117 70 109
116 70 109
116 70 110
116 70 110
115 70 110
115 70 111
115 70 111
115 70 112
114 70 112
114 70 113
114 70 113
113 70 114
113 70 114
113 70 115
113 70 115
112 70 116
112 70 116
112 70 117
111 70 117
111 70 117
111 70 118
111 70 118
110 70 119
110 70 119
110 70 120
109 70 120
109 70 121
109 70 121
109 70 122
108 70 122
108 70 123
108 70 123
107 70 123
107 70 124
107 70 124
107 70 125
106 70 125
106 70 126
106 70 126
105 70 127
105 70 127
105 70 128
105 70 128
104 70 129
104 70 129
104 70 129
103 70 130
103 70 130
103 70 131
103 70 131
102 70 132
102 70 132
102 70 133
101 70 133
101 70 134
101 70 134
101 70 135
100 70 135
100 70 135
100 70 136
99 70 136
99 70 137
99 70 137
99 70 138
98 70 138
98 70 139
98 70 139
97 70 140
97 70 140
97 70 141
97 70 141
96 70 141
96 70 142
96 70 142
95 70 143
95 70 143
95 70 144
95 70 144
94 70 145
94 70 145
94 70 146
93 70 146
93 70 147
93 70 147
93 70 147
92 70 148
92 70 148
92 70 149
91 70 149
91 70 150
91 70 150
91 70 151
90 70 151
90 70 152
90 70 152
89 70 153
89 70 153
89 70 154
89 70 154
88 70 154
88 70 155
88 70 155
87 70 156
87 70 156
87 70 157
87 70 157
86 70 158
86 70 158
86 70 159
85 70 159
85 70 160
85 70 160
85 70 160
84 70 161
84 70 161
84 70 162
83 70 162
83 70 163
83 70 163
83 70 164
82 70 164
82 70 165
82 70 165
81 70 166
81 70 166
81 70 166
81 70 167
80 70 167
80 70 168
80 70 168
79 70 169
79 70 169
79 70 170
79 70 170
78 70 171
78 70 171
78 70 172
77 70 172
77 70 172
77 70 173
77 70 173
76 70 174
76 70 174
76 70 175
75 70 175
75 70 176
75 70 176
75 70 177
74 70 177
74 70 178
74 70 178
73 70 178
73 70 179
73 70 179
73 70 180
72 70 180
72 70 181
72 70 181
71 70 182
71 70 182
71 70 183
71 70 183
70 70 184
70 70 184
185 69 0
185 69 0
185 69 0
184 69 1
184 69 1
184 69 2
184 69 2
183 69 3
183 69 3
183 69 4
182 69 4
182 69 5
182 69 5
182 69 6
181 69 6
181 69 6
181 69 7
180 69 7
180 69 8
180 69 8
179 69 9
179 69 9
179 69 10
179 69 10
178 69 11
178 69 11
178 69 12
177 69 12
177 69 13
177 69 13
177 69 13
176 69 14
176 69 14
176 69 15
175 69 15
175 69 16
175 69 16
174 69 17
174 69 17
174 69 18
174 69 18
173 69 19
173 69 19
173 69 20
172 69 20
172 69 20
172 69 21
172 69 21
171 69 22
171 69 22
171 69 23
170 69 23
170 69 24
170 69 24
170 69 25
169 69 25
169 69 26
169 69 26
168 69 27
168 69 27
168 69 27
167 69 28
167 69 28
167 69 29
167 69 29
166 69 30
166 69 30
166 69 31
165 69 31
165 69 32
165 69 32
165 69 33
164 69 33
164 69 33
164 69 34
163 69 34
163 69 35
163 69 35
163 69 36
162 69 36
162 69 37
162 69 37
161 69 38
161 69 38
161 69 39
160 69 39
160 69 40
160 69 40
160 69 40
159 69 41
159 69 41
159 69 42
158 69 42
158 69 43
158 69 43
158 69 44
157 69 44
157 69 45
157 69 45
156 69 46
156 69 46
156 69 47
155 69 47
155 69 47
155 69 48
155 69 48
154 69 49
154 69 49
154 69 50
153 69 50
153 69 51
153 69 51
153 69 52
152 69 52
152 69 53
152 69 53
151 69 54
151 69 54
151 69 54
151 69 55
150 69 55
150 69 56
150 69 56
149 69 57
149 69 57
149 69 58
148 69 58
148 69 59
148 69 59
148 69 60
147 69 60
147 69 61
147 69 61
146 69 61
146 69 62
146 69 62
146 69 63
145 69 63
145 69 64
145 69 64
144 69 65
144 69 65
144 69 66
144 69 66
143 69 67
143 69 67
143 69 67
142 69 68
142 69 68
142 69 69
141 69 69
141 69 70
141 69 70
141 69 71
140 69 71
140 69 72
140 69 72
139 69 73
139 69 73
139 69 74
139 69 74
138 69 74
138 69 75
138 69 75
137 69 76
137 69 76
137 69 77
136 69 77
136 69 78
136 69 78
136 69 79
135 69 79
135 69 80
135 69 80
134 69 81
134 69 81
134 69 81
134 69 82
133 69 82
133 69 83
133 69 83
132 69 84
132 69 84
132 69 85
132 69 85
131 69 86
131 69 86
131 69 87
130 69 87
130 69 88
130 69 88
129 69 88
129 69 89
129 69 89
129 69 90
128 69 90
128 69 91
128 69 91
127 69 92
127 69 92
127 69 93
127 69 93
126 69 94
126 69 94
126 69 94
125 69 95
125 69 95
125 69 96
125 69 96
124 69 97
124 69 97
124 69 98
123 69 98
123 69 99
123 69 99
122 69 100
122 69 100
122 69 101
122 69 101
121 69 101
121 69 102
121 69 102
120 69 103
120 69 103
120 69 104
120 69 104
119 69 105
119 69 105
119 69 106
118 69 106
118 69 107
118 69 107
118 69 108
117 69 108
117 69 108
117 69 109
116 69 109
116 69 110
116 69 110
115 69 111
115 69 111
115 69 112
115 69 112
114 69 113
114 69 113
114 69 114
113 69 114
113 69 115
113 69 115
113 69 115
112 69 116
112 69 116
112 69 117
111 69 117
111 69 118
111 69 118
110 69 119
110 69 119
110 69 120
110 69 120
109 69 121
109 69 121
109 69 122
108 69 122
108 69 122
108 69 123
108 69 123
107 69 124
107 69 124
107 69 125
106 69 125
106 69 126
106 69 126
106 69 127
105 69 127
105 69 128
105 69 128
104 69 128
104 69 129
104 69 129
103 69 130
103 69 130
103 69 131
103 69 131
102 69 132
102 69 132
102 69 133
101 69 133
101 69 134
101 69 134
101 69 135
100 69 135
100 69 135
100 69 136
99 69 136
99 69 137
99 69 137
99 69 138
98 69 138
98 69 139
98 69 139
97 69 140
97 69 140
97 69 141
96 69 141
96 69 142
96 69 142
96 69 142
95 69 143
95 69 143
95 69 144
94 69 144
94 69 145
94 69 145
94 69 146
93 69 146
93 69 147
93 69 147
92 69 148
92 69 148
92 69 149
91 69 149
91 69 149
91 69 150
91 69 150
90 69 151
90 69 151
90 69 152
89 69 152
89 69 153
89 69 153
89 69 154
88 69 154
88 69 155
88 69 155
87 69 156
87 69 156
87 69 156
87 69 157
86 69 157
86 69 158
86 69 158
85 69 159
85 69 159
85 69 160
84 69 160
84 69 161
84 69 161
84 69 162
83 69 162
83 69 162
83 69 163
82 69 163
82 69 164
82 69 164
82 69 165
81 69 165
81 69 166
81 69 166
80 69 167
80 69 167
80 69 168
80 69 168
79 69 169
79 69 169
79 69 169
78 69 170
78 69 170
78 69 171
77 69 171
77 69 172
77 69 172
77 69 173
76 69 173
76 69 174
76 69 174
75 69 175
75 69 175
75 69 176
75 69 176
74 69 176
74 69 177
74 69 177
73 69 178
73 69 178
73 69 179
72 69 179
72 69 180
72 69 180
72 69 181
71 69 181
71 69 182
71 69 182
70 69 183
70 69 183
70 69 183
70 69 184
69 69 184
69 69 185
69 69 185
187 67 0
186 67 0
186 67 0
186 67 1
185 67 1
185 67 2
185 67 2
184 67 3
184 67 3
184 67 4
184 67 4
183 67 5
183 67 5
183 67 6
182 67 6
182 67 7
182 67 7
182 67 7
181 67 8
181 67 8
181 67 9
180 67 9
180 67 10
180 67 10
179 67 11
179 67 11
179 67 12
179 67 12
178 67 13
178 67 13
178 67 14
177 67 14
177 67 15
177 67 15
176 67 15
176 67 16
176 67 16
176 67 17
175 67 17
175 67 18
175 67 18
174 67 19
174 67 19
174 67 20
173 67 20
173 67 21
173 67 21
173 67 22
172 67 22
172 67 22
172 67 23
171 67 23
171 67 24
171 67 24
170 67 25
170 67 25
170 67 26
170 67 26
169 67 27
169 67 27
169 67 28
168 67 28
168 67 29
168 67 29
167 67 30
167 67 30
167 67 30
167 67 31
166 67 31
166 67 32
166 67 32
165 67 33
165 67 33
165 67 34
164 67 34
164 67 35
164 67 35
164 67 36
163 67 36
163 67 37
163 67 37
162 67 37
162 67 38
162 67 38
161 67 39
161 67 39
161 67 40
161 67 40
160 67 41
160 67 41
160 67 42
159 67 42
159 67 43
159 67 43
159 67 44
158 67 44
158 67 45
158 67 45
157 67 45
157 67 46
157 67 46
156 67 47
156 67 47
156 67 48
156 67 48
155 67 49
155 67 49
155 67 50
154 67 50
154 67 51
154 67 51
153 67 52
153 67 52
153 67 52
153 67 53
152 67 53
152 67 54
152 67 54
151 67 55
151 67 55
151 67 56
150 67 56
150 67 57
150 67 57
150 67 58
149 67 58
149 67 59
149 67 59
148 67 60
148 67 60
148 67 60
147 67 61
147 67 61
147 67 62
147 67 62
146 67 63
146 67 63
146 67 64
145 67 64
145 67 65
145 67 65
144 67 66
144 67 66
144 67 67
144 67 67
143 67 67
143 67 68
143 67 68
142 67 69
142 67 69
142 67 70
141 67 70
141 67 71
141 67 71
141 67 72
140 67 72
140 67 73
140 67 73
139 67 74
139 67 74
139 67 75
138 67 75
138 67 75
138 67 76
138 67 76
137 67 77
137 67 77
137 67 78
136 67 78
136 67 79
136 67 79
136 67 80
135 67 80
135 67 81
135 67 81
134 67 82
134 67 82
134 67 82
133 67 83
133 67 83
133 67 84
133 67 84
132 67 85
132 67 85
132 67 86
131 67 86
131 67 87
131 67 87
130 67 88
130 67 88
130 67 89
130 67 89
129 67 90
129 67 90
129 67 90
128 67 91
128 67 91
128 67 92
127 67 92
127 67 93
127 67 93
127 67 94
126 67 94
126 67 95
126 67 95
125 67 96
125 67 96
125 67 97
124 67 97
124 67 97
124 67 98
124 67 98
123 67 99
123 67 99
123 67 100
122 67 100
122 67 101
122 67 101
121 67 102
121 67 102
121 67 103
121 67 103
120 67 104
120 67 104
120 67 105
119 67 105
119 67 105
119 67 106
118 67 106
118 67 107
118 67 107
118 67 108
117 67 108
117 67 109
117 67 109
116 67 110
116 67 110
116 67 111
116 67 111
115 67 112
115 67 112
115 67 113
114 67 113
114 67 113
114 67 114
113 67 114
113 67 115
113 67 115
113 67 116
112 67 116
112 67 117
112 67 117
111 67 118
111 67 118
111 67 119
110 67 119
110 67 120
110 67 120
110 67 120
109 67 121
109 67 121
109 67 122
108 67 122
108 67 123
108 67 123
107 67 124
107 67 124
107 67 125
107 67 125
106 67 126
106 67 126
106 67 127
105 67 127
105 67 128
105 67 128
104 67 128
104 67 129
104 67 129
104 67 130
103 67 130
103 67 131
103 67 131
102 67 132
102 67 132
102 67 133
101 67 133
101 67 134
101 67 134
101 67 135
100 67 135
100 67 135
100 67 136
99 67 136
99 67 137
99 67 137
98 67 138
98 67 138
98 67 139
98 67 139
97 67 140
97 67 140
97 67 141
96 67 141
96 67 142
96 67 142
95 67 143
95 67 143
95 67 143
95 67 144
94 67 144
94 67 145
94 67 145
93 67 146
93 67 146
93 67 147
93 67 147
92 67 148
92 67 148
92 67 149
91 67 149
91 67 150
91 67 150
90 67 150
90 67 151
90 67 151
90 67 152
89 67 152
89 67 153
89 67 153
88 67 154
88 67 154
88 67 155
87 67 155
87 67 156
87 67 156
87 67 157
86 67 157
86 67 158
86 67 158
85 67 158
85 67 159
85 67 159
84 67 160
84 67 160
84 67 161
84 67 161
83 67 162
83 67 162
83 67 163
82 67 163
82 67 164
82 67 164
81 67 165
81 67 165
81 67 165
81 67 166
80 67 166
80 67 167
80 67 167
79 67 168
79 67 168
79 67 169
78 67 169
78 67 170
78 67 170
78 67 171
77 67 171
77 67 172
77 67 172
76 67 173
76 67 173
76 67 173
75 67 174
75 67 174
75 67 175
75 67 175
74 67 176
74 67 176
74 67 177
73 67 177
73 67 178
73 67 178
72 67 179
72 67 179
72 67 180
72 67 180
71 67 180
71 67 181
71 67 181
70 67 182
70 67 182
70 67 183
70 67 183
69 67 184
69 67 184
69 67 185
68 67 185
68 67 186
68 67 186
67 67 187
188 66 0
188 66 0
187 66 0
187 66 1
187 66 1
186 66 2
186 66 2
186 66 3
185 66 3
185 66 4
185 66 4
185 66 5
184 66 5
184 66 6
184 66 6
183 66 7
183 66 7
183 66 8
182 66 8
182 66 8
182 66 9
181 66 9
181 66 10
181 66 10
181 66 11
180 66 11
180 66 12
180 66 12
179 66 13
179 66 13
179 66 14
178 66 14
178 66 15
178 66 15
177 66 16
177 66 16
177 66 16
177 66 17
176 66 17
176 66 18
176 66 18
175 66 19
175 66 19
175 66 20
174 66 20
174 66 21
174 66 21
174 66 22
173 66 22
173 66 23
173 66 23
172 66 24
172 66 24
172 66 25
171 66 25
171 66 25
171 66 26
170 66 26
170 66 27
170 66 27
170 66 28
169 66 28
169 66 29
169 66 29
168 66 30
168 66 30
168 66 31
167 66 31
167 66 32
167 66 32
167 66 33
166 66 33
166 66 33
166 66 34
165 66 34
165 66 35
165 66 35
164 66 36
164 66 36
164 66 37
163 66 37
163 66 38
163 66 38
163 66 39
162 66 39
162 66 40
162 66 40
161 66 41
161 66 41
161 66 42
160 66 42
160 66 42
160 66 43
159 66 43
159 66 44
159 66 44
159 66 45
158 66 45
158 66 46
158 66 46
157 66 47
157 66 47
157 66 48
156 66 48
156 66 49
156 66 49
156 66 50
155 66 50
155 66 50
155 66 51
154 66 51
154 66 52
154 66 52
153 66 53
153 66 53
153 66 54
152 66 54
152 66 55
152 66 55
152 66 56
151 66 56
151 66 57
151 66 57
150 66 58
150 66 58
150 66 59
149 66 59
149 66 59
149 66 60
149 66 60
148 66 61
148 66 61
148 66 62
147 66 62
147 66 63
147 66 63
146 66 64
146 66 64
146 66 65
145 66 65
145 66 66
145 66 66
145 66 67
144 66 67
144 66 67
144 66 68
143 66 68
143 66 69
143 66 69
142 66 70
142 66 70
142 66 71
141 66 71
141 66 72
141 66 72
141 66 73
140 66 73
140 66 74
140 66 74
139 66 75
139 66 75
139 66 76
138 66 76
138 66 76
138 66 77
138 66 77
137 66 78
137 66 78
137 66 79
136 66 79
136 66 80
136 66 80
135 66 81
135 66 81
135 66 82
134 66 82
134 66 83
134 66 83
134 66 84
133 66 84
133 66 84
133 66 85
132 66 85
132 66 86
132 66 86
131 66 87
131 66 87
131 66 88
131 66 88
130 66 89
130 66 89
130 66 90
129 66 90
129 66 91
129 66 91
128 66 92
128 66 92
128 66 93
127 66 93
127 66 93
127 66 94
127 66 94
126 66 95
126 66 95
126 66 96
125 66 96
125 66 97
125 66 97
124 66 98
124 66 98
124 66 99
123 66 99
123 66 100
123 66 100
123 66 101
122 66 101
122 66 101
122 66 102
121 66 102
121 66 103
121 66 103
120 66 104
120 66 104
120 66 105
120 66 105
119 66 106
119 66 106
119 66 107
118 66 107
118 66 108
118 66 108
117 66 109
117 66 109
117 66 109
116 66 110
116 66 110
116 66 111
116 66 111
115 66 112
115 66 112
115 66 113
114 66 113
114 66 114
114 66 114
113 66 115
113 66 115
113 66 116
113 66 116
112 66 117
112 66 117
112 66 118
111 66 118
111 66 118
111 66 119
110 66 119
110 66 120
110 66 120
109 66 121
109 66 121
109 66 122
109 66 122
108 66 123
108 66 123
108 66 124
107 66 124
107 66 125
107 66 125
106 66 126
106 66 126
106 66 126
105 66 127
105 66 127
105 66 128
105 66 128
104 66 129
104 66 129
104 66 130
103 66 130
103 66 131
103 66 131
102 66 132
102 66 132
102 66 133
102 66 133
101 66 134
101 66 134
101 66 135
100 66 135
100 66 135
100 66 136
99 66 136
99 66 137
99 66 137
98 66 138
98 66 138
98 66 139
98 66 139
97 66 140
97 66 140
97 66 141
96 66 141
96 66 142
96 66 142
95 66 143
95 66 143
95 66 143
95 66 144
94 66 144
94 66 145
94 66 145
93 66 146
93 66 146
93 66 147
92 66 147
92 66 148
92 66 148
91 66 149
91 66 149
91 66 150
91 66 150
90 66 151
90 66 151
90 66 152
89 66 152
89 66 152
89 66 153
88 66 153
88 66 154
88 66 154
87 66 155
87 66 155
87 66 156
87 66 156
86 66 157
86 66 157
86 66 158
85 66 158
85 66 159
85 66 159
84 66 160
84 66 160
84 66 160
84 66 161
83 66 161
83 66 162
83 66 162
82 66 163
82 66 163
82 66 164
81 66 164
81 66 165
81 66 165
80 66 166
80 66 166
80 66 167
80 66 167
79 66 168
79 66 168
79 66 169
78 66 169
78 66 169
78 66 170
77 66 170
77 66 171
77 66 171
77 66 172
76 66 172
76 66 173
76 66 173
75 66 174
75 66 174
75 66 175
74 66 175
74 66 176
74 66 176
73 66 177
73 66 177
73 66 177
73 66 178
72 66 178
72 66 179
72 66 179
71 66 180
71 66 180
71 66 181
70 66 181
70 66 182
70 66 182
69 66 183
69 66 183
69 66 184
69 66 184
68 66 185
68 66 185
68 66 186
67 66 186
67 66 186
67 66 187
66 66 187
66 66 188
189 65 0
189 65 0
189 65 0
188 65 1
188 65 1
188 65 2
187 65 2
187 65 3
187 65 3
186 65 4
186 65 4
186 65 5
185 65 5
185 65 6
185 65 6
184 65 7
184 65 7
184 65 8
184 65 8
183 65 9
183 65 9
183 65 9
182 65 10
182 65 10
182 65 11
181 65 11
181 65 12
181 65 12
180 65 13
180 65 13
180 65 14
179 65 14
179 65 15
179 65 15
179 65 16
178 65 16
178 65 17
178 65 17
177 65 18
177 65 18
177 65 19
176 65 19
176 65 19
176 65 20
175 65 20
175 65 21
175 65 21
175 65 22
174 65 22
174 65 23
174 65 23
173 65 24
173 65 24
173 65 25
172 65 25
172 65 26
172 65 26
171 65 27
171 65 27
171 65 28
170 65 28
170 65 28
170 65 29
170 65 29
169 65 30
169 65 30
169 65 31
168 65 31
168 65 32
168 65 32
167 65 33
167 65 33
167 65 34
166 65 34
166 65 35
166 65 35
165 65 36
165 65 36
165 65 37
165 65 37
164 65 38
164 65 38
164 65 38
163 65 39
163 65 39
163 65 40
162 65 40
162 65 41
162 65 41
161 65 42
161 65 42
161 65 43
160 65 43
160 65 44
160 65 44
160 65 45
159 65 45
159 65 46
159 65 46
158 65 47
158 65 47
158 65 48
157 65 48
157 65 48
157 65 49
156 65 49
156 65 50
156 65 50
156 65 51
155 65 51
155 65 52
155 65 52
154 65 53
154 65 53
154 65 54
153 65 54
153 65 55
153 65 55
152 65 56
152 65 56
152 65 57
151 65 57
151 65 57
151 65 58
151 65 58
150 65 59
150 65 59
150 65 60
149 65 60
149 65 61
149 65 61
148 65 62
148 65 62
148 65 63
147 65 63
147 65 64
147 65 64
146 65 65
146 65 65
146 65 66
146 65 66
145 65 67
145 65 67
145 65 67
144 65 68
144 65 68
144 65 69
143 65 69
143 65 70
143 65 70
142 65 71
142 65 71
142 65 72
141 65 72
141 65 73
141 65 73
141 65 74
140 65 74
140 65 75
140 65 75
139 65 76
139 65 76
139 65 77
138 65 77
138 65 77
138 65 78
137 65 78
137 65 79
137 65 79
137 65 80
136 65 80
136 65 81
136 65 81
135 65 82
135 65 82
135 65 83
134 65 83
134 65 84
134 65 84
133 65 85
133 65 85
133 65 86
132 65 86
132 65 86
132 65 87
132 65 87
131 65 88
131 65 88
131 65 89
130 65 89
130 65 90
130 65 90
129 65 91
129 65 91
129 65 92
128 65 92
128 65 93
128 65 93
127 65 94
127 65 94
127 65 95
127 65 95
126 65 96
126 65 96
126 65 96
125 65 97
125 65 97
125 65 98
124 65 98
124 65 99
124 65 99
123 65 100
123 65 100
123 65 101
122 65 101
122 65 102
122 65 102
122 65 103
121 65 103
121 65 104
121 65 104
120 65 105
120 65 105
120 65 105
119 65 106
119 65 106
119 65 107
118 65 107
118 65 108
118 65 108
117 65 109
117 65 109
117 65 110
117 65 110
116 65 111
116 65 111
116 65 112
115 65 112
115 65 113
115 65 113
114 65 114
114 65 114
114 65 115
113 65 115
113 65 115
113 65 116
113 65 116
112 65 117
112 65 117
112 65 118
111 65 118
111 65 119
111 65 119
110 65 120
110 65 120
110 65 121
109 65 121
109 65 122
109 65 122
108 65 123
108 65 123
108 65 124
108 65 124
107 65 125
107 65 125
107 65 125
106 65 126
106 65 126
106 65 127
105 65 127
105 65 128
105 65 128
104 65 129
104 65 129
104 65 130
103 65 130
103 65 131
103 65 131
103 65 132
102 65 132
102 65 133
102 65 133
101 65 134
101 65 134
101 65 134
100 65 135
100 65 135
100 65 136
99 65 136
99 65 137
99 65 137
98 65 138
98 65 138
98 65 139
98 65 139
97 65 140
97 65 140
97 65 141
96 65 141
96 65 142
96 65 142
95 65 143
95 65 143
95 65 144
94 65 144
94 65 144
94 65 145
94 65 145
93 65 146
93 65 146
93 65 147
92 65 147
92 65 148
92 65 148
91 65 149
91 65 149
91 65 150
90 65 150
90 65 151
90 65 151
89 65 152
89 65 152
89 65 153
89 65 153
88 65 154
88 65 154
88 65 154
87 65 155
87 65 155
87 65 156
86 65 156
86 65 157
86 65 157
85 65 158
85 65 158
85 65 159
84 65 159
84 65 160
84 65 160
84 65 161
83 65 161
83 65 162
83 65 162
82 65 163
82 65 163
82 65 163
81 65 164
81 65 164
81 65 165
80 65 165
80 65 166
80 65 166
79 65 167
79 65 167
79 65 168
79 65 168
78 65 169
78 65 169
78 65 170
77 65 170
77 65 171
77 65 171
76 65 172
76 65 172
76 65 173
75 65 173
75 65 173
75 65 174
75 65 174
74 65 175
74 65 175
74 65 176
73 65 176
73 65 177
73 65 177
72 65 178
72 65 178
72 65 179
71 65 179
71 65 180
71 65 180
70 65 181
70 65 181
70 65 182
70 65 182
69 65 182
69 65 183
69 65 183
68 65 184
68 65 184
68 65 185
67 65 185
67 65 186
67 65 186
66 65 187
66 65 187
66 65 188
65 65 188
65 65 189
65 65 189
190 64 0
190 64 0
190 64 0
189 64 1
189 64 1
189 64 2
189 64 2
188 64 3
188 64 3
188 64 4
187 64 4
187 64 5
187 64 5
186 64 6
186 64 6
186 64 7
185 64 7
185 64 8
185 64 8
184 64 9
184 64 9
184 64 10
183 64 10
183 64 11
183 64 11
182 64 11
182 64 12
182 64 12
182 64 13
181 64 13
181 64 14
181 64 14
180 64 15
180 64 15
180 64 16
179 64 16
179 64 17
179 64 17
178 64 18
178 64 18
178 64 19
177 64 19
177 64 20
177 64 20
176 64 21
176 64 21
176 64 22
175 64 22
175 64 22
175 64 23
175 64 23
174 64 24
174 64 24
174 64 25
173 64 25
173 64 26
173 64 26
172 64 27
172 64 27
172 64 28
171 64 28
171 64 29
171 64 29
170 64 30
170 64 30
170 64 31
169 64 31
169 64 32
169 64 32
168 64 33
168 64 33
168 64 33
168 64 34
167 64 34
167 64 35
167 64 35
166 64 36
166 64 36
166 64 37
165 64 37
165 64 38
165 64 38
164 64 39
164 64 39
164 64 40
163 64 40
163 64 41
163 64 41
162 64 42
162 64 42
162 64 43
161 64 43
161 64 44
161 64 44
161 64 44
160 64 45
160 64 45
160 64 46
159 64 46
159 64 47
159 64 47
158 64 48
158 64 48
158 64 49
157 64 49
157 64 50
157 64 50
156 64 51
156 64 51
156 64 52
155 64 52
155 64 53
155 64 53
155 64 54
154 64 54
154 64 55
154 64 55
153 64 55
153 64 56
153 64 56
152 64 57
152 64 57
152 64 58
151 64 58
151 64 59
151 64 59
150 64 60
150 64 60
150 64 61
149 64 61
149 64 62
149 64 62
148 64 63
148 64 63
148 64 64
148 64 64
147 64 65
147 64 65
147 64 66
146 64 66
146 64 66
146 64 67
145 64 67
145 64 68
145 64 68
144 64 69
144 64 69
144 64 70
143 64 70
143 64 71
143 64 71
142 64 72
142 64 72
142 64 73
141 64 73
141 64 74
141 64 74
141 64 75
140 64 75
140 64 76
140 64 76
139 64 77
139 64 77
139 64 77
138 64 78
138 64 78
138 64 79
137 64 79
137 64 80
137 64 80
136 64 81
136 64 81
136 64 82
135 64 82
135 64 83
135 64 83
134 64 84
134 64 84
134 64 85
134 64 85
133 64 86
133 64 86
133 64 87
132 64 87
132 64 88
132 64 88
131 64 89
131 64 89
131 64 89
130 64 90
130 64 90
130 64 91
129 64 91
129 64 92
129 64 92
128 64 93
128 64 93
128 64 94
127 64 94
127 64 95
127 64 95
127 64 96
126 64 96
126 64 97
126 64 97
125 64 98
125 64 98
125 64 99
124 64 99
124 64 100
124 64 100
123 64 100
123 64 101
123 64 101
122 64 102
122 64 102
122 64 103
121 64 103
121 64 104
121 64 104
120 64 105
120 64 105
120 64 106
120 64 106
119 64 107
119 64 107
119 64 108
118 64 108
118 64 109
118 64 109
117 64 110
117 64 110
117 64 111
116 64 111
116 64 111
116 64 112
115 64 112
115 64 113
115 64 113
114 64 114
114 64 114
114 64 115
113 64 115
113 64 116
113 64 116
113 64 117
112 64 117
112 64 118
112 64 118
111 64 119
111 64 119
111 64 120
110 64 120
110 64 121
110 64 121
109 64 122
109 64 122
109 64 122
108 64 123
108 64 123
108 64 124
107 64 124
107 64 125
107 64 125
106 64 126
106 64 126
106 64 127
106 64 127
105 64 128
105 64 128
105 64 129
104 64 129
104 64 130
104 64 130
103 64 131
103 64 131
103 64 132
102 64 132
102 64 133
102 64 133
101 64 133
101 64 134
101 64 134
100 64 135
100 64 135
100 64 136
99 64 136
99 64 137
99 64 137
99 64 138
98 64 138
98 64 139
98 64 139
97 64 140
97 64 140
97 64 141
96 64 141
96 64 142
96 64 142
95 64 143
95 64 143
95 64 144
94 64 144
94 64 144
94 64 145
93 64 145
93 64 146
93 64 146
93 64 147
92 64 147
92 64 148
92 64 148
91 64 149
91 64 149
91 64 150
90 64 150
90 64 151
90 64 151
89 64 152
89 64 152
89 64 153
88 64 153
88 64 154
88 64 154
87 64 155
87 64 155
87 64 155
86 64 156
86 64 156
86 64 157
86 64 157
85 64 158
85 64 158
85 64 159
84 64 159
84 64 160
84 64 160
83 64 161
83 64 161
83 64 162
82 64 162
82 64 163
82 64 163
81 64 164
81 64 164
81 64 165
80 64 165
80 64 166
80 64 166
79 64 167
79 64 167
79 64 167
79 64 168
78 64 168
78 64 169
78 64 169
77 64 170
77 64 170
77 64 171
76 64 171
76 64 172
76 64 172
75 64 173
75 64 173
75 64 174
74 64 174
74 64 175
74 64 175
73 64 176
73 64 176
73 64 177
72 64 177
72 64 178
72 64 178
72 64 178
71 64 179
71 64 179
71 64 180
70 64 180
70 64 181
70 64 181
69 64 182
69 64 182
69 64 183
68 64 183
68 64 184
68 64 184
67 64 185
67 64 185
67 64 186
66 64 186
66 64 187
66 64 187
65 64 188
65 64 188
65 64 189
65 64 189
64 64 189
64 64 190
64 64 190
192 62 0
191 62 0
191 62 0
191 62 1
190 62 1
190 62 2
190 62 2
189 62 3
189 62 3
189 62 4
188 62 4
188 62 5
188 62 5
187 62 6
187 62 6
187 62 7
187 62 7
186 62 8
186 62 8
186 62 9
185 62 9
185 62 10
185 62 10
184 62 11
184 62 11
184 62 12
183 62 12
183 62 13
183 62 13
182 62 13
182 62 14
182 62 14
181 62 15
181 62 15
181 62 16
180 62 16
180 62 17
180 62 17
179 62 18
179 62 18
179 62 19
178 62 19
178 62 20
178 62 20
177 62 21
177 62 21
177 62 22
176 62 22
176 62 23
176 62 23
175 62 24
175 62 24
175 62 25
175 62 25
174 62 26
174 62 26
174 62 26
173 62 27
173 62 27
173 62 28
172 62 28
172 62 29
172 62 29
171 62 30
171 62 30
171 62 31
170 62 31
170 62 32
170 62 32
169 62 33
169 62 33
169 62 34
168 62 34
168 62 35
168 62 35
167 62 36
167 62 36
167 62 37
166 62 37
166 62 38
166 62 38
165 62 39
165 62 39
165 62 39
164 62 40
164 62 40
164 62 41
163 62 41
163 62 42
163 62 42
163 62 43
162 62 43
162 62 44
162 62 44
161 62 45
161 62 45
161 62 46
160 62 46
160 62 47
160 62 47
159 62 48
159 62 48
159 62 49
158 62 49
158 62 50
158 62 50
157 62 51
157 62 51
157 62 52
156 62 52
156 62 52
156 62 53
155 62 53
155 62 54
155 62 54
154 62 55
154 62 55
154 62 56
153 62 56
153 62 57
153 62 57
152 62 58
152 62 58
152 62 59
151 62 59
151 62 60
151 62 60
151 62 61
150 62 61
150 62 62
150 62 62
149 62 63
149 62 63
149 62 64
148 62 64
148 62 65
148 62 65
147 62 65
147 62 66
147 62 66
146 62 67
146 62 67
146 62 68
145 62 68
145 62 69
145 62 69
144 62 70
144 62 70
144 62 71
143 62 71
143 62 72
143 62 72
142 62 73
142 62 73
142 62 74
141 62 74
141 62 75
141 62 75
140 62 76
140 62 76
140 62 77
139 62 77
139 62 78
139 62 78
139 62 79
138 62 79
138 62 79
138 62 80
137 62 80
137 62 81
137 62 81
136 62 82
136 62 82
136 62 83
135 62 83
135 62 84
135 62 84
134 62 85
134 62 85
134 62 86
133 62 86
133 62 87
133 62 87
132 62 88
132 62 88
132 62 89
131 62 89
131 62 90
131 62 90
130 62 91
130 62 91
130 62 92
129 62 92
129 62 92
129 62 93
128 62 93
128 62 94
128 62 94
127 62 95
127 62 95
127 62 96
127 62 96
126 62 97
126 62 97
126 62 98
125 62 98
125 62 99
125 62 99
124 62 100
124 62 100
124 62 101
123 62 101
123 62 102
123 62 102
122 62 103
122 62 103
122 62 104
121 62 104
121 62 105
121 62 105
120 62 105
120 62 106
120 62 106
119 62 107
119 62 107
119 62 108
118 62 108
118 62 109
118 62 109
117 62 110
117 62 110
117 62 111
116 62 111
116 62 112
116 62 112
115 62 113
115 62 113
115 62 114
115 62 114
114 62 115
114 62 115
114 62 116
113 62 116
113 62 117
113 62 117
112 62 118
112 62 118
112 62 118
111 62 119
111 62 119
111 62 120
110 62 120
110 62 121
110 62 121
109 62 122
109 62 122
109 62 123
108 62 123
108 62 124
108 62 124
107 62 125
107 62 125
107 62 126
106 62 126
106 62 127
106 62 127
105 62 128
105 62 128
105 62 129
104 62 129
104 62 130
104 62 130
103 62 131
103 62 131
103 62 131
103 62 132
102 62 132
102 62 133
102 62 133
101 62 134
101 62 134
101 62 135
100 62 135
100 62 136
100 62 136
99 62 137
99 62 137
99 62 138
98 62 138
98 62 139
98 62 139
97 62 140
97 62 140
97 62 141
96 62 141
96 62 142
96 62 142
95 62 143
95 62 143
95 62 144
94 62 144
94 62 145
94 62 145
93 62 145
93 62 146
93 62 146
92 62 147
92 62 147
92 62 148
91 62 148
91 62 149
91 62 149
91 62 150
90 62 150
90 62 151
90 62 151
89 62 152
89 62 152
89 62 153
88 62 153
88 62 154
88 62 154
87 62 155
87 62 155
87 62 156
86 62 156
86 62 157
86 62 157
85 62 158
85 62 158
85 62 158
84 62 159
84 62 159
84 62 160
83 62 160
83 62 161
83 62 161
82 62 162
82 62 162
82 62 163
81 62 163
81 62 164
81 62 164
80 62 165
80 62 165
80 62 166
79 62 166
79 62 167
79 62 167
79 62 168
78 62 168
78 62 169
78 62 169
77 62 170
77 62 170
77 62 171
76 62 171
76 62 171
76 62 172
75 62 172
75 62 173
75 62 173
74 62 174
74 62 174
74 62 175
73 62 175
73 62 176
73 62 176
72 62 177
72 62 177
72 62 178
71 62 178
71 62 179
71 62 179
70 62 180
70 62 180
70 62 181
69 62 181
69 62 182
69 62 182
68 62 183
68 62 183
68 62 184
67 62 184
67 62 184
67 62 185
67 62 185
66 62 186
66 62 186
66 62 187
65 62 187
65 62 188
65 62 188
64 62 189
64 62 189
64 62 190
63 62 190
63 62 191
63 62 191
62 62 192
193 61 0
193 61 0
192 61 0
192 61 1
192 61 1
191 61 2
191 61 2
191 61 3
190 61 3
190 61 4
190 61 4
189 61 5
189 61 5
189 61 6
188 61 6
188 61 7
188 61 7
187 61 8
187 61 8
187 61 9
186 61 9
186 61 10
186 61 10
185 61 11
185 61 11
185 61 12
184 61 12
184 61 13
184 61 13
183 61 14
183 61 14
183 61 15
182 61 15
182 61 16
182 61 16
181 61 16
181 61 17
181 61 17
180 61 18
180 61 18
180 61 19
179 61 19
179 61 20
179 61 20
178 61 21
178 61 21
178 61 22
177 61 22
177 61 23
177 61 23
176 61 24
176 61 24
176 61 25
175 61 25
175 61 26
175 61 26
174 61 27
174 61 27
174 61 28
173 61 28
173 61 29
173 61 29
172 61 30
172 61 30
172 61 31
171 61 31
171 61 32
171 61 32
170 61 32
170 61 33
170 61 33
170 61 34
169 61 34
169 61 35
169 61 35
168 61 36
168 61 36
168 61 37
167 61 37
167 61 38
167 61 38
166 61 39
166 61 39
166 61 40
165 61 40
165 61 41
165 61 41
164 61 42
164 61 42
164 61 43
163 61 43
163 61 44
163 61 44
162 61 45
162 61 45
162 61 46
161 61 46
161 61 47
161 61 47
160 61 48
160 61 48
160 61 48
159 61 49
159 61 49
159 61 50
158 61 50
158 61 51
158 61 51
157 61 52
157 61 52
157 61 53
156 61 53
156 61 54
156 61 54
155 61 55
155 61 55
155 61 56
154 61 56
154 61 57
154 61 57
153 61 58
153 61 58
153 61 59
152 61 59
152 61 60
152 61 60
151 61 61
151 61 61
151 61 62
150 61 62
150 61 63
150 61 63
149 61 64
149 61 64
149 61 64
148 61 65
148 61 65
148 61 66
147 61 66
147 61 67
147 61 67
146 61 68
146 61 68
146 61 69
145 61 69
145 61 70
145 61 70
144 61 71
144 61 71
144 61 72
143 61 72
143 61 73
143 61 73
142 61 74
142 61 74
142 61 75
141 61 75
141 61 76
141 61 76
140 61 77
140 61 77
140 61 78
139 61 78
139 61 79
139 61 79
138 61 80
138 61 80
138 61 80
137 61 81
137 61 81
137 61 82
136 61 82
136 61 83
136 61 83
135 61 84
135 61 84
135 61 85
134 61 85
134 61 86
134 61 86
133 61 87
133 61 87
133 61 88
132 61 88
132 61 89
132 61 89
131 61 90
131 61 90
131 61 91
130 61 91
130 61 92
130 61 92
129 61 93
129 61 93
129 61 94
128 61 94
128 61 95
128 61 95
127 61 96
127 61 96
127 61 96
127 61 97
126 61 97
126 61 98
126 61 98
125 61 99
125 61 99
125 61 100
124 61 100
124 61 101
124 61 101
123 61 102
123 61 102
123 61 103
122 61 103
122 61 104
122 61 104
121 61 105
121 61 105
121 61 106
120 61 106
120 61 107
120 61 107
119 61 108
119 61 108
119 61 109
118 61 109
118 61 110
118 61 110
117 61 111
117 61 111
117 61 112
116 61 112
116 61 112
116 61 113
115 61 113
115 61 114
115 61 114
114 61 115
114 61 115
114 61 116
113 61 116
113 61 117
113 61 117
112 61 118
112 61 118
112 61 119
111 61 119
111 61 120
111 61 120
110 61 121
110 61 121
110 61 122
109 61 122
109 61 123
109 61 123
108 61 124
108 61 124
108 61 125
107 61 125
107 61 126
107 61 126
106 61 127
106 61 127
106 61 128
105 61 128
105 61 128
105 61 129
104 61 129
104 61 130
104 61 130
103 61 131
103 61 131
103 61 132
102 61 132
102 61 133
102 61 133
101 61 134
101 61 134
101 61 135
100 61 135
100 61 136
100 61 136
99 61 137
99 61 137
99 61 138
98 61 138
98 61 139
98 61 139
97 61 140
97 61 140
97 61 141
96 61 141
96 61 142
96 61 142
95 61 143
95 61 143
95 61 144
94 61 144
94 61 144
94 61 145
93 61 145
93 61 146
93 61 146
92 61 147
92 61 147
92 61 148
91 61 148
91 61 149
91 61 149
90 61 150
90 61 150
90 61 151
89 61 151
89 61 152
89 61 152
88 61 153
88 61 153
88 61 154
87 61 154
87 61 155
87 61 155
86 61 156
86 61 156
86 61 157
85 61 157
85 61 158
85 61 158
84 61 159
84 61 159
84 61 160
84 61 160
83 61 161
83 61 161
83 61 161
82 61 162
82 61 162
82 61 163
81 61 163
81 61 164
81 61 164
80 61 165
80 61 165
80 61 166
79 61 166
79 61 167
79 61 167
78 61 168
78 61 168
78 61 169
77 61 169
77 61 170
77 61 170
76 61 171
76 61 171
76 61 172
75 61 172
75 61 173
75 61 173
74 61 174
74 61 174
74 61 175
73 61 175
73 61 176
73 61 176
72 61 177
72 61 177
72 61 177
71 61 178
71 61 178
71 61 179
70 61 179
70 61 180
70 61 180
69 61 181
69 61 181
69 61 182
68 61 182
68 61 183
68 61 183
67 61 184
67 61 184
67 61 185
66 61 185
66 61 186
66 61 186
65 61 187
65 61 187
65 61 188
64 61 188
64 61 189
64 61 189
63 61 190
63 61 190
63 61 191
62 61 191
62 61 192
62 61 192
61 61 193
61 61 193
194 60 0
194 60 0
194 60 0
193 60 1
193 60 1
193 60 2
192 60 2
192 60 3
192 60 3
191 60 4
191 60 4
191 60 5
190 60 5
190 60 6
190 60 6
189 60 7
189 60 7
189 60 8
188 60 8
188 60 9
188 60 9
187 60 10
187 60 10
187 60 11
186 60 11
186 60 12
186 60 12
185 60 13
185 60 13
184 60 14
184 60 14
184 60 15
183 60 15
183 60 16
183 60 16
182 60 17
182 60 17
182 60 18
181 60 18
181 60 19
181 60 19
180 60 20
180 60 20
180 60 20
179 60 21
179 60 21
179 60 22
178 60 22
178 60 23
178 60 23
177 60 24
177 60 24
177 60 25
176 60 25
176 60 26
176 60 26
175 60 27
175 60 27
175 60 28
174 60 28
174 60 29
174 60 29
173 60 30
173 60 30
173 60 31
172 60 31
172 60 32
172 60 32
171 60 33
171 60 33
171 60 34
170 60 34
170 60 35
170 60 35
169 60 36
169 60 36
169 60 37
168 60 37
168 60 38
168 60 38
167 60 39
167 60 39
167 60 40
166 60 40
166 60 41
166 60 41
165 60 41
165 60 42
165 60 42
164 60 43
164 60 43
164 60 44
163 60 44
163 60 45
163 60 45
162 60 46
162 60 46
162 60 47
161 60 47
161 60 48
161 60 48
160 60 49
160 60 49
160 60 50
159 60 50
159 60 51
159 60 51
158 60 52
158 60 52
158 60 53
157 60 53
157 60 54
157 60 54
156 60 55
156 60 55
155 60 56
155 60 56
155 60 57
154 60 57
154 60 58
154 60 58
153 60 59
153 60 59
153 60 60
152 60 60
152 60 61
152 60 61
151 60 61
151 60 62
151 60 62
150 60 63
150 60 63
150 60 64
149 60 64
149 60 65
149 60 65
148 60 66
148 60 66
148 60 67
147 60 67
147 60 68
147 60 68
146 60 69
146 60 69
146 60 70
145 60 70
145 60 71
145 60 71
144 60 72
144 60 72
144 60 73
143 60 73
143 60 74
143 60 74
142 60 75
142 60 75
142 60 76
141 60 76
141 60 77
141 60 77
140 60 78
140 60 78
140 60 79
139 60 79
139 60 80
139 60 80
138 60 81
138 60 81
138 60 82
137 60 82
137 60 82
137 60 83
136 60 83
136 60 84
136 60 84
135 60 85
135 60 85
135 60 86
134 60 86
134 60 87
134 60 87
133 60 88
133 60 88
133 60 89
132 60 89
132 60 90
132 60 90
131 60 91
131 60 91
131 60 92
130 60 92
130 60 93
130 60 93
129 60 94
129 60 94
129 60 95
128 60 95
128 60 96
128 60 96
127 60 97
127 60 97
126 60 98
126 60 98
126 60 99
125 60 99
125 60 100
125 60 100
124 60 101
124 60 101
124 60 102
123 60 102
123 60 103
123 60 103
122 60 103
122 60 104
122 60 104
121 60 105
121 60 105
121 60 106
120 60 106
120 60 107
120 60 107
119 60 108
119 60 108
119 60 109
118 60 109
118 60 110
118 60 110
117 60 111
117 60 111
117 60 112
116 60 112
116 60 113
116 60 113
115 60 114
115 60 114
115 60 115
114 60 115
114 60 116
114 60 116
113 60 117
113 60 117
113 60 118
112 60 118
112 60 119
112 60 119
111 60 120
111 60 120
111 60 121
110 60 121
110 60 122
110 60 122
109 60 123
109 60 123
109 60 123
108 60 124
108 60 124
108 60 125
107 60 125
107 60 126
107 60 126
106 60 127
106 60 127
106 60 128
105 60 128
105 60 129
105 60 129
104 60 130
104 60 130
104 60 131
103 60 131
103 60 132
103 60 132
102 60 133
102 60 133
102 60 134
101 60 134
101 60 135
101 60 135
100 60 136
100 60 136
100 60 137
99 60 137
99 60 138
99 60 138
98 60 139
98 60 139
97 60 140
97 60 140
97 60 141
96 60 141
96 60 142
96 60 142
95 60 143
95 60 143
95 60 144
94 60 144
94 60 144
94 60 145
93 60 145
93 60 146
93 60 146
92 60 147
92 60 147
92 60 148
91 60 148
91 60 149
91 60 149
90 60 150
90 60 150
90 60 151
89 60 151
89 60 152
89 60 152
88 60 153
88 60 153
88 60 154
87 60 154
87 60 155
87 60 155
86 60 156
86 60 156
86 60 157
85 60 157
85 60 158
85 60 158
84 60 159
84 60 159
84 60 160
83 60 160
83 60 161
83 60 161
82 60 162
82 60 162
82 60 163
81 60 163
81 60 164
81 60 164
80 60 164
80 60 165
80 60 165
79 60 166
79 60 166
79 60 167
78 60 167
78 60 168
78 60 168
77 60 169
77 60 169
77 60 170
76 60 170
76 60 171
76 60 171
75 60 172
75 60 172
75 60 173
74 60 173
74 60 174
74 60 174
73 60 175
73 60 175
73 60 176
72 60 176
72 60 177
72 60 177
71 60 178
71 60 178
71 60 179
70 60 179
70 60 180
70 60 180
69 60 181
69 60 181
68 60 182
68 60 182
68 60 183
67 60 183
67 60 184
67 60 184
66 60 185
66 60 185
66 60 185
65 60 186
65 60 186
65 60 187
64 60 187
64 60 188
64 60 188
63 60 189
63 60 189
63 60 190
62 60 190
62 60 191
62 60 191
61 60 192
61 60 192
61 60 193
60 60 193
60 60 194
60 60 194
196 58 0
195 58 0
195 58 0
195 58 1
194 58 1
194 58 2
193 58 2
193 58 3
193 58 3
192 58 4
192 58 4
192 58 5
191 58 5
191 58 6
191 58 6
190 58 7
190 58 7
190 58 8
189 58 8
189 58 9
189 58 9
188 58 10
188 58 10
188 58 11
187 58 11
187 58 12
187 58 12
186 58 13
186 58 13
186 58 14
185 58 14
185 58 15
185 58 15
184 58 16
184 58 16
184 58 17
183 58 17
183 58 18
182 58 18
182 58 19
182 58 19
181 58 20
181 58 20
181 58 21
180 58 21
180 58 22
180 58 22
179 58 23
179 58 23
179 58 24
178 58 24
178 58 25
178 58 25
177 58 26
177 58 26
177 58 27
176 58 27
176 58 28
176 58 28
175 58 28
175 58 29
175 58 29
174 58 30
174 58 30
174 58 31
173 58 31
173 58 32
173 58 32
172 58 33
172 58 33
172 58 34
171 58 34
171 58 35
170 58 35
170 58 36
170 58 36
169 58 37
169 58 37
169 58 38
168 58 38
168 58 39
168 58 39
167 58 40
167 58 40
167 58 41
166 58 41
166 58 42
166 58 42
165 58 43
165 58 43
165 58 44
164 58 44
164 58 45
164 58 45
163 58 46
163 58 46
163 58 47
162 58 47
162 58 48
162 58 48
161 58 49
161 58 49
161 58 50
160 58 50
160 58 51
159 58 51
159 58 52
159 58 52
158 58 53
158 58 53
158 58 54
157 58 54
157 58 55
157 58 55
156 58 56
156 58 56
156 58 56
155 58 57
155 58 57
155 58 58
154 58 58
154 58 59
154 58 59
153 58 60
153 58 60
153 58 61
152 58 61
152 58 62
152 58 62
151 58 63
151 58 63
151 58 64
150 58 64
150 58 65
150 58 65
149 58 66
149 58 66
148 58 67
148 58 67
148 58 68
147 58 68
147 58 69
147 58 69
146 58 70
146 58 70
146 58 71
145 58 71
145 58 72
145 58 72
144 58 73
144 58 73
144 58 74
143 58 74
143 58 75
143 58 75
142 58 76
142 58 76
142 58 77
141 58 77
141 58 78
141 58 78
140 58 79
140 58 79
140 58 80
139 58 80
139 58 81
139 58 81
138 58 82
138 58 82
137 58 83
137 58 83
137 58 84
136 58 84
136 58 85
136 58 85
135 58 85
135 58 86
135 58 86
134 58 87
134 58 87
134 58 88
133 58 88
133 58 89
133 58 89
132 58 90
132 58 90
132 58 91
131 58 91
131 58 92
131 58 92
130 58 93
130 58 93
130 58 94
129 58 94
129 58 95
129 58 95
128 58 96
128 58 96
128 58 97
127 58 97
127 58 98
126 58 98
126 58 99
126 58 99
125 58 100
125 58 100
125 58 101
124 58 101
124 58 102
124 58 102
123 58 103
123 58 103
123 58 104
122 58 104
122 58 105
122 58 105
121 58 106
121 58 106
121 58 107
120 58 107
120 58 108
120 58 108
119 58 109
119 58 109
119 58 110
118 58 110
118 58 111
118 58 111
117 58 112
117 58 112
117 58 113
116 58 113
116 58 113
115 58 114
115 58 114
115 58 115
114 58 115
114 58 116
114 58 116
113 58 117
113 58 117
113 58 118
112 58 118
112 58 119
112 58 119
111 58 120
111 58 120
111 58 121
110 58 121
110 58 122
110 58 122
109 58 123
109 58 123
109 58 124
108 58 124
108 58 125
108 58 125
107 58 126
107 58 126
107 58 127
106 58 127
106 58 128
106 58 128
105 58 129
105 58 129
104 58 130
104 58 130
104 58 131
103 58 131
103 58 132
103 58 132
102 58 133
102 58 133
102 58 134
101 58 134
101 58 135
101 58 135
100 58 136
100 58 136
100 58 137
99 58 137
99 58 138
99 58 138
98 58 139
98 58 139
98 58 140
97 58 140
97 58 141
97 58 141
96 58 142
96 58 142
96 58 142
95 58 143
95 58 143
95 58 144
94 58 144
94 58 145
93 58 145
93 58 146
93 58 146
92 58 147
92 58 147
92 58 148
91 58 148
91 58 149
91 58 149
90 58 150
90 58 150
90 58 151
89 58 151
89 58 152
89 58 152
88 58 153
88 58 153
88 58 154
87 58 154
87 58 155
87 58 155
86 58 156
86 58 156
86 58 157
85 58 157
85 58 158
85 58 158
84 58 159
84 58 159
84 58 160
83 58 160
83 58 161
82 58 161
82 58 162
82 58 162
81 58 163
81 58 163
81 58 164
80 58 164
80 58 165
80 58 165
79 58 166
79 58 166
79 58 167
78 58 167
78 58 168
78 58 168
77 58 169
77 58 169
77 58 170
76 58 170
76 58 170
76 58 171
75 58 171
75 58 172
75 58 172
74 58 173
74 58 173
74 58 174
73 58 174
73 58 175
73 58 175
72 58 176
72 58 176
72 58 177
71 58 177
71 58 178
70 58 178
70 58 179
70 58 179
69 58 180
69 58 180
69 58 181
68 58 181
68 58 182
68 58 182
67 58 183
67 58 183
67 58 184
66 58 184
66 58 185
66 58 185
65 58 186
65 58 186
65 58 187
64 58 187
64 58 188
64 58 188
63 58 189
63 58 189
63 58 190
62 58 190
62 58 191
62 58 191
61 58 192
61 58 192
61 58 193
60 58 193
60 58 194
59 58 194
59 58 195
59 58 195
58 58 196
197 57 0
196 57 0
196 57 0
196 57 1
195 57 1
195 57 2
195 57 2
194 57 3
194 57 3
194 57 4
193 57 4
193 57 5
193 57 5
192 57 6
192 57 6
192 57 7
191 57 7
191 57 8
191 57 8
190 57 9
190 57 9
189 57 10
189 57 10
189 57 11
188 57 11
188 57 12
188 57 12
187 57 13
187 57 13
187 57 14
186 57 14
186 57 15
186 57 15
185 57 16
185 57 16
185 57 17
184 57 17
184 57 18
184 57 18
183 57 19
183 57 19
182 57 20
182 57 20
182 57 21
181 57 21
181 57 22
181 57 22
180 57 23
180 57 23
180 57 24
179 57 24
179 57 25
179 57 25
178 57 26
178 57 26
178 57 27
177 57 27
177 57 28
177 57 28
176 57 29
176 57 29
175 57 30
175 57 30
175 57 31
174 57 31
174 57 32
174 57 32
173 57 33
173 57 33
173 57 34
172 57 34
172 57 35
172 57 35
171 57 36
171 57 36
171 57 37
170 57 37
170 57 38
170 57 38
169 57 39
169 57 39
168 57 40
168 57 40
168 57 41
167 57 41
167 57 42
167 57 42
166 57 43
166 57 43
166 57 44
165 57 44
165 57 45
165 57 45
164 57 45
164 57 46
164 57 46
163 57 47
163 57 47
163 57 48
162 57 48
162 57 49
161 57 49
161 57 50
161 57 50
160 57 51
160 57 51
160 57 52
159 57 52
159 57 53
159 57 53
158 57 54
158 57 54
158 57 55
157 57 55
157 57 56
157 57 56
156 57 57
156 57 57
156 57 58
155 57 58
155 57 59
154 57 59
154 57 60
154 57 60
153 57 61
153 57 61
153 57 62
152 57 62
152 57 63
152 57 63
151 57 64
151 57 64
151 57 65
150 57 65
150 57 66
150 57 66
149 57 67
149 57 67
149 57 68
148 57 68
148 57 69
147 57 69
147 57 70
147 57 70
146 57 71
146 57 71
146 57 72
145 57 72
145 57 73
145 57 73
144 57 74
144 57 74
144 57 75
143 57 75
143 57 76
143 57 76
142 57 77
142 57 77
142 57 78
141 57 78
141 57 79
140 57 79
140 57 80
140 57 80
139 57 81
139 57 81
139 57 82
138 57 82
138 57 83
138 57 83
137 57 84
137 57 84
137 57 85
136 57 85
136 57 86
136 57 86
135 57 87
135 57 87
135 57 88
134 57 88
134 57 89
133 57 89
133 57 90
133 57 90
132 57 91
132 57 91
132 57 91
131 57 92
131 57 92
131 57 93
130 57 93
130 57 94
130 57 94
129 57 95
129 57 95
129 57 96
128 57 96
128 57 97
128 57 97
127 57 98
127 57 98
126 57 99
126 57 99
126 57 100
125 57 100
125 57 101
125 57 101
124 57 102
124 57 102
124 57 103
123 57 103
123 57 104
123 57 104
122 57 105
122 57 105
122 57 106
121 57 106
121 57 107
121 57 107
120 57 108
120 57 108
119 57 109
119 57 109
119 57 110
118 57 110
118 57 111
118 57 111
117 57 112
117 57 112
117 57 113
116 57 113
116 57 114
116 57 114
115 57 115
115 57 115
115 57 116
114 57 116
114 57 117
114 57 117
113 57 118
113 57 118
112 57 119
112 57 119
112 57 120
111 57 120
111 57 121
111 57 121
110 57 122
110 57 122
110 57 123
109 57 123
109 57 124
109 57 124
108 57 125
108 57 125
108 57 126
107 57 126
107 57 127
107 57 127
106 57 128
106 57 128
105 57 129
105 57 129
105 57 130
104 57 130
104 57 131
104 57 131
103 57 132
103 57 132
103 57 133
102 57 133
102 57 134
102 57 134
101 57 135
101 57 135
101 57 136
100 57 136
100 57 136
100 57 137
99 57 137
99 57 138
98 57 138
98 57 139
98 57 139
97 57 140
97 57 140
97 57 141
96 57 141
96 57 142
96 57 142
95 57 143
95 57 143
95 57 144
94 57 144
94 57 145
94 57 145
93 57 146
93 57 146
93 57 147
92 57 147
92 57 148
91 57 148
91 57 149
91 57 149
90 57 150
90 57 150
90 57 151
89 57 151
89 57 152
89 57 152
88 57 153
88 57 153
88 57 154
87 57 154
87 57 155
87 57 155
86 57 156
86 57 156
86 57 157
85 57 157
85 57 158
84 57 158
84 57 159
84 57 159
83 57 160
83 57 160
83 57 161
82 57 161
82 57 162
82 57 162
81 57 163
81 57 163
81 57 164
80 57 164
80 57 165
80 57 165
79 57 166
79 57 166
79 57 167
78 57 167
78 57 168
77 57 168
77 57 169
77 57 169
76 57 170
76 57 170
76 57 171
75 57 171
75 57 172
75 57 172
74 57 173
74 57 173
74 57 174
73 57 174
73 57 175
73 57 175
72 57 176
72 57 176
72 57 177
71 57 177
71 57 178
70 57 178
70 57 179
70 57 179
69 57 180
69 57 180
69 57 181
68 57 181
68 57 182
68 57 182
67 57 182
67 57 183
67 57 183
66 57 184
66 57 184
66 57 185
65 57 185
65 57 186
65 57 186
64 57 187
64 57 187
63 57 188
63 57 188
63 57 189
62 57 189
62 57 190
62 57 190
61 57 191
61 57 191
61 57 192
60 57 192
60 57 193
60 57 193
59 57 194
59 57 194
59 57 195
58 57 195
58 57 196
58 57 196
57 57 197
198 56 0
198 56 0
197 56 0
197 56 1
197 56 1
196 56 2
196 56 2
196 56 3
195 56 3
195 56 4
195 56 4
194 56 5
194 56 5
193 56 6
193 56 6
193 56 7
192 56 7
192 56 8
192 56 8
191 56 9
191 56 9
191 56 10
190 56 10
190 56 11
190 56 11
189 56 12
189 56 12
188 56 13
188 56 13
188 56 14
187 56 14
187 56 15
187 56 15
186 56 16
186 56 16
186 56 17
185 56 17
185 56 18
185 56 18
184 56 19
184 56 19
184 56 20
183 56 20
183 56 21
182 56 21
182 56 22
182 56 22
181 56 23
181 56 23
181 56 24
180 56 24
180 56 25
180 56 25
179 56 26
179 56 26
179 56 27
178 56 27
178 56 28
177 56 28
177 56 29
177 56 29
176 56 30
176 56 30
176 56 31
175 56 31
175 56 32
175 56 32
174 56 33
174 56 33
174 56 34
173 56 34
173 56 35
172 56 35
172 56 36
172 56 36
171 56 37
171 56 37
171 56 38
170 56 38
170 56 39
170 56 39
169 56 40
169 56 40
169 56 41
168 56 41
168 56 42
167 56 42
167 56 43
167 56 43
166 56 44
166 56 44
166 56 45
165 56 45
165 56 46
165 56 46
164 56 47
164 56 47
164 56 48
163 56 48
163 56 49
162 56 49
162 56 50
162 56 50
161 56 51
161 56 51
161 56 52
160 56 52
160 56 53
160 56 53
159 56 54
159 56 54
159 56 55
158 56 55
158 56 56
157 56 56
157 56 57
157 56 57
156 56 58
156 56 58
156 56 59
155 56 59
155 56 60
155 56 60
154 56 61
154 56 61
154 56 62
153 56 62
153 56 63
152 56 63
152 56 64
152 56 64
151 56 65
151 56 65
151 56 66
150 56 66
150 56 67
150 56 67
149 56 68
149 56 68
149 56 69
148 56 69
148 56 70
147 56 70
147 56 71
147 56 71
146 56 72
146 56 72
146 56 73
145 56 73
145 56 74
145 56 74
144 56 75
144 56 75
144 56 76
143 56 76
143 56 77
143 56 77
142 56 78
142 56 78
141 56 79
141 56 79
141 56 80
140 56 80
140 56 81
140 56 81
139 56 82
139 56 82
139 56 83
138 56 83
138 56 84
138 56 84
137 56 85
137 56 85
136 56 86
136 56 86
136 56 87
135 56 87
135 56 88
135 56 88
134 56 89
134 56 89
134 56 90
133 56 90
133 56 91
133 56 91
132 56 92
132 56 92
131 56 93
131 56 93
131 56 94
130 56 94
130 56 95
130 56 95
129 56 96
129 56 96
129 56 97
128 56 97
128 56 98
128 56 98
127 56 99
127 56 99
126 56 100
126 56 100
126 56 101
125 56 101
125 56 102
125 56 102
124 56 103
124 56 103
124 56 104
123 56 104
123 56 105
123 56 105
122 56 106
122 56 106
121 56 107
121 56 107
121 56 108
120 56 108
120 56 109
120 56 109
119 56 110
119 56 110
119 56 111
118 56 111
118 56 112
118 56 112
117 56 112
117 56 113
116 56 113
116 56 114
116 56 114
115 56 115
115 56 115
115 56 116
114 56 116
114 56 117
114 56 117
113 56 118
113 56 118
113 56 119
112 56 119
112 56 120
111 56 120
111 56 121
111 56 121
110 56 122
110 56 122
110 56 123
109 56 123
109 56 124
109 56 124
108 56 125
108 56 125
108 56 126
107 56 126
107 56 127
107 56 127
106 56 128
106 56 128
105 56 129
105 56 129
105 56 130
104 56 130
104 56 131
104 56 131
103 56 132
103 56 132
103 56 133
102 56 133
102 56 134
102 56 134
101 56 135
101 56 135
100 56 136
100 56 136
100 56 137
99 56 137
99 56 138
99 56 138
98 56 139
98 56 139
98 56 140
97 56 140
97 56 141
97 56 141
96 56 142
96 56 142
95 56 143
95 56 143
95 56 144
94 56 144
94 56 145
94 56 145
93 56 146
93 56 146
93 56 147
92 56 147
92 56 148
92 56 148
91 56 149
91 56 149
90 56 150
90 56 150
90 56 151
89 56 151
89 56 152
89 56 152
88 56 153
88 56 153
88 56 154
87 56 154
87 56 155
87 56 155
86 56 156
86 56 156
85 56 157
85 56 157
85 56 158
84 56 158
84 56 159
84 56 159
83 56 160
83 56 160
83 56 161
82 56 161
82 56 162
82 56 162
81 56 163
81 56 163
80 56 164
80 56 164
80 56 165
79 56 165
79 56 166
79 56 166
78 56 167
78 56 167
78 56 168
77 56 168
77 56 169
77 56 169
76 56 170
76 56 170
75 56 171
75 56 171
75 56 172
74 56 172
74 56 173
74 56 173
73 56 174
73 56 174
73 56 175
72 56 175
72 56 176
72 56 176
71 56 177
71 56 177
70 56 178
70 56 178
70 56 179
69 56 179
69 56 180
69 56 180
68 56 181
68 56 181
68 56 182
67 56 182
67 56 183
67 56 183
66 56 184
66 56 184
66 56 185
65 56 185
65 56 186
64 56 186
64 56 187
64 56 187
63 56 188
63 56 188
63 56 189
62 56 189
62 56 190
62 56 190
61 56 191
61 56 191
61 56 192
60 56 192
60 56 193
59 56 193
59 56 194
59 56 194
58 56 195
58 56 195
58 56 196
57 56 196
57 56 197
57 56 197
56 56 198
56 56 198
199 55 0
199 55 0
199 55 1
198 55 1
198 55 2
198 55 2
197 55 3
197 55 3
196 55 4
196 55 4
196 55 5
195 55 5
195 55 6
195 55 6
194 55 7
194 55 7
194 55 8
193 55 8
193 55 9
193 55 9
192 55 10
192 55 10
191 55 11
191 55 11
191 55 12
190 55 12
190 55 13
190 55 13
189 55 14
189 55 14
189 55 15
188 55 15
188 55 16
187 55 16
187 55 17
187 55 17
186 55 18
186 55 18
186 55 19
185 55 19
185 55 20
185 55 20
184 55 21
184 55 21
183 55 22
183 55 22
183 55 23
182 55 23
182 55 24
182 55 24
181 55 25
181 55 25
181 55 26
180 55 26
180 55 27
179 55 27
179 55 28
179 55 28
178 55 29
178 55 29
178 55 30
177 55 30
177 55 31
177 55 31
176 55 32
176 55 32
175 55 33
175 55 33
175 55 34
174 55 34
174 55 35
174 55 35
173 55 36
173 55 36
173 55 37
172 55 37
172 55 38
171 55 38
171 55 39
171 55 39
170 55 40
170 55 40
170 55 41
169 55 41
169 55 42
169 55 42
168 55 43
168 55 43
167 55 44
167 55 44
167 55 45
166 55 45
166 55 46
166 55 46
165 55 47
165 55 47
165 55 48
164 55 48
164 55 49
163 55 49
163 55 50
163 55 50
162 55 51
162 55 51
162 55 52
161 55 52
161 55 53
161 55 53
160 55 54
160 55 54
159 55 55
159 55 55
159 55 56
158 55 56
158 55 57
158 55 57
157 55 58
157 55 58
157 55 59
156 55 59
156 55 60
155 55 60
155 55 61
155 55 61
154 55 62
154 55 62
154 55 63
153 55 63
153 55 64
153 55 64
152 55 65
152 55 65
151 55 66
151 55 66
151 55 67
150 55 67
150 55 68
150 55 68
149 55 69
149 55 69
149 55 70
148 55 70
148 55 71
148 55 71
147 55 72
147 55 72
146 55 73
146 55 73
146 55 74
145 55 74
145 55 75
145 55 75
144 55 76
144 55 76
144 55 77
143 55 77
143 55 78
142 55 78
142 55 79
142 55 79
141 55 80
141 55 80
141 55 81
140 55 81
140 55 82
140 55 82
139 55 83
139 55 83
138 55 84
138 55 84
138 55 85
137 55 85
137 55 86
137 55 86
136 55 87
136 55 87
136 55 88
135 55 88
135 55 89
134 55 89
134 55 90
134 55 90
133 55 91
133 55 91
133 55 92
132 55 92
132 55 93
132 55 93
131 55 94
131 55 94
130 55 95
130 55 95
130 55 96
129 55 96
129 55 97
129 55 97
128 55 98
128 55 98
128 55 99
127 55 99
127 55 100
126 55 100
126 55 101
126 55 101
125 55 102
125 55 102
125 55 103
124 55 103
124 55 104
124 55 104
123 55 105
123 55 105
122 55 106
122 55 106
122 55 107
121 55 107
121 55 108
121 55 108
120 55 109
120 55 109
120 55 110
119 55 110
119 55 111
118 55 111
118 55 112
118 55 112
117 55 113
117 55 113
117 55 114
116 55 114
116 55 115
116 55 115
115 55 116
115 55 116
114 55 117
114 55 117
114 55 118
113 55 118
113 55 119
113 55 119
112 55 120
112 55 120
112 55 121
111 55 121
111 55 122
110 55 122
110 55 123
110 55 123
109 55 124
109 55 124
109 55 125
108 55 125
108 55 126
108 55 126
107 55 127
107 55 127
106 55 128
106 55 128
106 55 129
105 55 129
105 55 130
105 55 130
104 55 131
104 55 131
104 55 132
103 55 132
103 55 133
103 55 133
102 55 134
102 55 134
101 55 135
101 55 135
101 55 136
100 55 136
100 55 137
100 55 137
99 55 138
99 55 138
99 55 139
98 55 139
98 55 140
97 55 140
97 55 141
97 55 141
96 55 142
96 55 142
96 55 143
95 55 143
95 55 144
95 55 144
94 55 145
94 55 145
93 55 146
93 55 146
93 55 147
92 55 147
92 55 148
92 55 148
91 55 149
91 55 149
91 55 150
90 55 150
90 55 151
89 55 151
89 55 152
89 55 152
88 55 153
88 55 153
88 55 154
87 55 154
87 55 155
87 55 155
86 55 156
86 55 156
85 55 157
85 55 157
85 55 158
84 55 158
84 55 159
84 55 159
83 55 160
83 55 160
83 55 161
82 55 161
82 55 162
81 55 162
81 55 163
81 55 163
80 55 164
80 55 164
80 55 165
79 55 165
79 55 166
79 55 166
78 55 167
78 55 167
77 55 168
77 55 168
77 55 169
76 55 169
76 55 170
76 55 170
75 55 171
75 55 171
75 55 172
74 55 172
74 55 173
73 55 173
73 55 174
73 55 174
72 55 175
72 55 175
72 55 176
71 55 176
71 55 177
71 55 177
70 55 178
70 55 178
69 55 179
69 55 179
69 55 180
68 55 180
68 55 181
68 55 181
67 55 182
67 55 182
67 55 183
66 55 183
66 55 184
65 55 184
65 55 185
65 55 185
64 55 186
64 55 186
64 55 187
63 55 187
63 55 188
63 55 188
62 55 189
62 55 189
61 55 190
61 55 190
61 55 191
60 55 191
60 55 192
60 55 192
59 55 193
59 55 193
59 55 194
58 55 194
58 55 195
58 55 195
57 55 196
57 55 196
56 55 197
56 55 197
56 55 198
55 55 198
55 55 199
55 55 199
201 53 0
200 53 0
200 53 1
200 53 1
199 53 2
199 53 2
198 53 3
198 53 3
198 53 4
197 53 4
197 53 5
197 53 5
196 53 6
196 53 6
196 53 7
195 53 7
195 53 8
194 53 8
194 53 9
194 53 9
193 53 10
193 53 10
193 53 11
192 53 11
192 53 12
191 53 12
191 53 13
191 53 13
190 53 14
190 53 14
190 53 15
189 53 15
189 53 16
188 53 16
188 53 17
188 53 17
187 53 18
187 53 18
187 53 19
186 53 19
186 53 20
186 53 20
185 53 21
185 53 21
184 53 22
184 53 22
184 53 23
183 53 23
183 53 24
183 53 24
182 53 25
182 53 25
181 53 26
181 53 26
181 53 27
180 53 27
180 53 28
180 53 28
179 53 29
179 53 29
179 53 30
178 53 30
178 53 31
177 53 31
177 53 32
177 53 32
176 53 33
176 53 33
176 53 34
175 53 34
175 53 35
174 53 35
174 53 36
174 53 36
173 53 37
173 53 37
173 53 38
172 53 38
172 53 39
172 53 39
171 53 40
171 53 40
170 53 41
170 53 41
170 53 42
169 53 42
169 53 43
169 53 43
168 53 44
168 53 44
167 53 45
167 53 45
167 53 46
166 53 46
166 53 47
166 53 47
165 53 48
165 53 48
164 53 49
164 53 49
164 53 50
163 53 50
163 53 51
163 53 51
162 53 52
162 53 52
162 53 53
161 53 53
161 53 54
160 53 54
160 53 55
160 53 55
159 53 56
159 53 56
159 53 57
158 53 57
158 53 58
157 53 58
157 53 59
157 53 60
156 53 60
156 53 61
156 53 61
155 53 62
155 53 62
155 53 63
154 53 63
154 53 64
153 53 64
153 53 65
153 53 65
152 53 66
152 53 66
152 53 67
151 53 67
151 53 68
150 53 68
150 53 69
150 53 69
149 53 70
149 53 70
149 53 71
148 53 71
148 53 72
147 53 72
147 53 73
147 53 73
146 53 74
146 53 74
146 53 75
145 53 75
145 53 76
145 53 76
144 53 77
144 53 77
143 53 78
143 53 78
143 53 79
142 53 79
142 53 80
142 53 80
141 53 81
141 53 81
140 53 82
140 53 82
140 53 83
139 53 83
139 53 84
139 53 84
138 53 85
138 53 85
138 53 86
137 53 86
137 53 87
136 53 87
136 53 88
136 53 88
135 53 89
135 53 89
135 53 90
134 53 90
134 53 91
133 53 91
133 53 92
133 53 92
132 53 93
132 53 93
132 53 94
131 53 94
131 53 95
131 53 95
130 53 96
130 53 96
129 53 97
129 53 97
129 53 98
128 53 98
128 53 99
128 53 99
127 53 100
127 53 100
126 53 101
126 53 101
126 53 102
125 53 102
125 53 103
125 53 103
124 53 104
124 53 104
123 53 105
123 53 105
123 53 106
122 53 106
122 53 107
122 53 107
121 53 108
121 53 108
121 53 109
120 53 109
120 53 110
119 53 110
119 53 111
119 53 111
118 53 112
118 53 112
118 53 113
117 53 113
117 53 114
116 53 114
116 53 115
116 53 115
115 53 116
115 53 116
115 53 117
114 53 117
114 53 118
114 53 118
113 53 119
113 53 120
112 53 120
112 53 121
112 53 121
111 53 122
111 53 122
111 53 123
110 53 123
110 53 124
109 53 124
109 53 125
109 53 125
108 53 126
108 53 126
108 53 127
107 53 127
107 53 128
107 53 128
106 53 129
106 53 129
105 53 130
105 53 130
105 53 131
104 53 131
104 53 132
104 53 132
103 53 133
103 53 133
102 53 134
102 53 134
102 53 135
101 53 135
101 53 136
101 53 136
100 53 137
100 53 137
99 53 138
99 53 138
99 53 139
98 53 139
98 53 140
98 53 140
97 53 141
97 53 141
97 53 142
96 53 142
96 53 143
95 53 143
95 53 144
95 53 144
94 53 145
94 53 145
94 53 146
93 53 146
93 53 147
92 53 147
92 53 148
92 53 148
91 53 149
91 53 149
91 53 150
90 53 150
90 53 151
90 53 151
89 53 152
89 53 152
88 53 153
88 53 153
88 53 154
87 53 154
87 53 155
87 53 155
86 53 156
86 53 156
85 53 157
85 53 157
85 53 158
84 53 158
84 53 159
84 53 159
83 53 160
83 53 160
82 53 161
82 53 161
82 53 162
81 53 162
81 53 163
81 53 163
80 53 164
80 53 164
80 53 165
79 53 165
79 53 166
78 53 166
78 53 167
78 53 167
77 53 168
77 53 168
77 53 169
76 53 169
76 53 170
75 53 170
75 53 171
75 53 171
74 53 172
74 53 172
74 53 173
73 53 173
73 53 174
73 53 174
72 53 175
72 53 175
71 53 176
71 53 176
71 53 177
70 53 177
70 53 178
70 53 178
69 53 179
69 53 180
68 53 180
68 53 181
68 53 181
67 53 182
67 53 182
67 53 183
66 53 183
66 53 184
66 53 184
65 53 185
65 53 185
64 53 186
64 53 186
64 53 187
63 53 187
63 53 188
63 53 188
62 53 189
62 53 189
61 53 190
61 53 190
61 53 191
60 53 191
60 53 192
60 53 192
59 53 193
59 53 193
58 53 194
58 53 194
58 53 195
57 53 195
57 53 196
57 53 196
56 53 197
56 53 197
56 53 198
55 53 198
55 53 199
54 53 199
54 53 200
54 53 200
53 53 201
202 52 0
202 52 0
201 52 1
201 52 1
200 52 2
200 52 2
200 52 3
199 52 3
199 52 4
199 52 4
198 52 5
198 52 5
197 52 6
197 52 6
197 52 7
196 52 7
196 52 8
196 52 8
195 52 9
195 52 9
194 52 10
194 52 10
194 52 11
193 52 11
193 52 12
193 52 12
192 52 13
192 52 13
191 52 14
191 52 14
191 52 15
190 52 15
190 52 16
190 52 16
189 52 17
189 52 17
188 52 18
188 52 18
188 52 19
187 52 19
187 52 20
187 52 20
186 52 21
186 52 21
185 52 22
185 52 22
185 52 23
184 52 23
184 52 24
184 52 24
183 52 25
183 52 25
182 52 26
182 52 26
182 52 27
181 52 27
181 52 28
181 52 28
180 52 29
180 52 29
179 52 30
179 52 30
179 52 31
178 52 31
178 52 32
178 52 32
177 52 33
177 52 33
176 52 34
176 52 35
176 52 35
175 52 36
175 52 36
175 52 37
174 52 37
174 52 38
173 52 38
173 52 39
173 52 39
172 52 40
172 52 40
172 52 41
171 52 41
171 52 42
170 52 42
170 52 43
170 52 43
169 52 44
169 52 44
169 52 45
168 52 45
168 52 46
167 52 46
167 52 47
167 52 47
166 52 48
166 52 48
166 52 49
165 52 49
165 52 50
164 52 50
164 52 51
164 52 51
163 52 52
163 52 52
163 52 53
162 52 53
162 52 54
161 52 54
161 52 55
161 52 55
160 52 56
160 52 56
160 52 57
159 52 57
159 52 58
158 52 58
158 52 59
158 52 59
157 52 60
157 52 60
156 52 61
156 52 61
156 52 62
155 52 62
155 52 63
155 52 63
154 52 64
154 52 64
153 52 65
153 52 65
153 52 66
152 52 66
152 52 67
152 52 67
151 52 68
151 52 69
150 52 69
150 52 70
150 52 70
149 52 71
149 52 71
149 52 72
148 52 72
148 52 73
147 52 73
147 52 74
147 52 74
146 52 75
146 52 75
146 52 76
145 52 76
145 52 77
144 52 77
144 52 78
144 52 78
143 52 79
143 52 79
143 52 80
142 52 80
142 52 81
141 52 81
141 52 82
141 52 82
140 52 83
140 52 83
140 52 84
139 52 84
139 52 85
138 52 85
138 52 86
138 52 86
137 52 87
137 52 87
137 52 88
136 52 88
136 52 89
135 52 89
135 52 90
135 52 90
134 52 91
134 52 91
134 52 92
133 52 92
133 52 93
132 52 93
132 52 94
132 52 94
131 52 95
131 52 95
131 52 96
130 52 96
130 52 97
129 52 97
129 52 98
129 52 98
128 52 99
128 52 99
128 52 100
127 52 100
127 52 101
126 52 101
126 52 102
126 52 103
125 52 103
125 52 104
125 52 104
124 52 105
124 52 105
123 52 106
123 52 106
123 52 107
122 52 107
122 52 108
122 52 108
121 52 109
121 52 109
120 52 110
120 52 110
120 52 111
119 52 111
119 52 112
119 52 112
118 52 113
118 52 113
117 52 114
117 52 114
117 52 115
116 52 115
116 52 116
116 52 116
115 52 117
115 52 117
114 52 118
114 52 118
114 52 119
113 52 119
113 52 120
113 52 120
112 52 121
112 52 121
111 52 122
111 52 122
111 52 123
110 52 123
110 52 124
110 52 124
109 52 125
109 52 125
108 52 126
108 52 126
108 52 127
107 52 127
107 52 128
107 52 128
106 52 129
106 52 129
105 52 130
105 52 130
105 52 131
104 52 131
104 52 132
104 52 132
103 52 133
103 52 133
102 52 134
102 52 134
102 52 135
101 52 135
101 52 136
101 52 137
100 52 137
100 52 138
99 52 138
99 52 139
99 52 139
98 52 140
98 52 140
98 52 141
97 52 141
97 52 142
96 52 142
96 52 143
96 52 143
95 52 144
95 52 144
94 52 145
94 52 145
94 52 146
93 52 146
93 52 147
93 52 147
92 52 148
92 52 148
91 52 149
91 52 149
91 52 150
90 52 150
90 52 151
90 52 151
89 52 152
89 52 152
88 52 153
88 52 153
88 52 154
87 52 154
87 52 155
87 52 155
86 52 156
86 52 156
85 52 157
85 52 157
85 52 158
84 52 158
84 52 159
84 52 159
83 52 160
83 52 160
82 52 161
82 52 161
82 52 162
81 52 162
81 52 163
81 52 163
80 52 164
80 52 164
79 52 165
79 52 165
79 52 166
78 52 166
78 52 167
78 52 167
77 52 168
77 52 168
76 52 169
76 52 169
76 52 170
75 52 171
75 52 171
75 52 172
74 52 172
74 52 173
73 52 173
73 52 174
73 52 174
72 52 175
72 52 175
72 52 176
71 52 176
71 52 177
70 52 177
70 52 178
70 52 178
69 52 179
69 52 179
69 52 180
68 52 180
68 52 181
67 52 181
67 52 182
67 52 182
66 52 183
66 52 183
66 52 184
65 52 184
65 52 185
64 52 185
64 52 186
64 52 186
63 52 187
63 52 187
63 52 188
62 52 188
62 52 189
61 52 189
61 52 190
61 52 190
60 52 191
60 52 191
60 52 192
59 52 192
59 52 193
58 52 193
58 52 194
58 52 194
57 52 195
57 52 195
57 52 196
56 52 196
56 52 197
55 52 197
55 52 198
55 52 198
54 52 199
54 52 199
54 52 200
53 52 200
53 52 201
52 52 201
52 52 202
203 51 0
203 51 0
202 51 1
202 51 1
202 51 2
201 51 2
201 51 3
201 51 3
200 51 4
200 51 4
199 51 5
199 51 5
199 51 6
198 51 6
198 51 7
198 51 7
197 51 8
197 51 8
196 51 9
196 51 9
196 51 10
195 51 10
195 51 11
194 51 11
194 51 12
194 51 12
193 51 13
193 51 13
193 51 14
192 51 14
192 51 15
191 51 15
191 51 16
191 51 16
190 51 17
190 51 17
189 51 18
189 51 18
189 51 19
188 51 19
188 51 20
188 51 20
187 51 21
187 51 21
186 51 22
186 51 22
186 51 23
185 51 23
185 51 24
185 51 25
184 51 25
184 51 26
183 51 26
183 51 27
183 51 27
182 51 28
182 51 28
181 51 29
181 51 29
181 51 30
180 51 30
180 51 31
180 51 31
179 51 32
179 51 32
178 51 33
178 51 33
178 51 34
177 51 34
177 51 35
176 51 35
176 51 36
176 51 36
175 51 37
175 51 37
175 51 38
174 51 38
174 51 39
173 51 39
173 51 40
173 51 40
172 51 41
172 51 41
172 51 42
171 51 42
171 51 43
170 51 43
170 51 44
170 51 44
169 51 45
169 51 45
168 51 46
168 51 46
168 51 47
167 51 47
167 51 48
167 51 49
166 51 49
166 51 50
165 51 50
165 51 51
165 51 51
164 51 52
164 51 52
163 51 53
163 51 53
163 51 54
162 51 54
162 51 55
162 51 55
161 51 56
161 51 56
160 51 57
160 51 57
160 51 58
159 51 58
159 51 59
159 51 59
158 51 60
158 51 60
157 51 61
157 51 61
157 51 62
156 51 62
156 51 63
155 51 63
155 51 64
155 51 64
154 51 65
154 51 65
154 51 66
153 51 66
153 51 67
152 51 67
152 51 68
152 51 68
151 51 69
151 51 69
151 51 70
150 51 70
150 51 71
149 51 71
149 51 72
149 51 73
148 51 73
148 51 74
147 51 74
147 51 75
147 51 75
146 51 76
146 51 76
146 51 77
145 51 77
145 51 78
144 51 78
144 51 79
144 51 79
143 51 80
143 51 80
142 51 81
142 51 81
142 51 82
141 51 82
141 51 83
141 51 83
140 51 84
140 51 84
139 51 85
139 51 85
139 51 86
138 51 86
138 51 87
138 51 87
137 51 88
137 51 88
136 51 89
136 51 89
136 51 90
135 51 90
135 51 91
134 51 91
134 51 92
134 51 92
133 51 93
133 51 93
133 51 94
132 51 94
132 51 95
131 51 95
131 51 96
131 51 97
130 51 97
130 51 98
129 51 98
129 51 99
129 51 99
128 51 100
128 51 100
128 51 101
127 51 101
127 51 102
126 51 102
126 51 103
126 51 103
125 51 104
125 51 104
125 51 105
124 51 105
124 51 106
123 51 106
123 51 107
123 51 107
122 51 108
122 51 108
121 51 109
121 51 109
121 51 110
120 51 110
120 51 111
120 51 111
119 51 112
119 51 112
118 51 113
118 51 113
118 51 114
117 51 114
117 51 115
116 51 115
116 51 116
116 51 116
115 51 117
115 51 117
115 51 118
114 51 118
114 51 119
113 51 119
113 51 120
113 51 121
112 51 121
112 51 122
112 51 122
111 51 123
111 51 123
110 51 124
110 51 124
110 51 125
109 51 125
109 51 126
108 51 126
108 51 127
108 51 127
107 51 128
107 51 128
107 51 129
106 51 129
106 51 130
105 51 130
105 51 131
105 51 131
104 51 132
104 51 132
103 51 133
103 51 133
103 51 134
102 51 134
102 51 135
102 51 135
101 51 136
101 51 136
100 51 137
100 51 137
100 51 138
99 51 138
99 51 139
99 51 139
98 51 140
98 51 140
97 51 141
97 51 141
97 51 142
96 51 142
96 51 143
95 51 143
95 51 144
95 51 145
94 51 145
94 51 146
94 51 146
93 51 147
93 51 147
92 51 148
92 51 148
92 51 149
91 51 149
91 51 150
91 51 150
90 51 151
90 51 151
89 51 152
89 51 152
89 51 153
88 51 153
88 51 154
87 51 154
87 51 155
87 51 155
86 51 156
86 51 156
86 51 157
85 51 157
85 51 158
84 51 158
84 51 159
84 51 159
83 51 160
83 51 160
82 51 161
82 51 161
82 51 162
81 51 162
81 51 163
81 51 163
80 51 164
80 51 164
79 51 165
79 51 165
79 51 166
78 51 166
78 51 167
78 51 167
77 51 168
77 51 169
76 51 169
76 51 170
76 51 170
75 51 171
75 51 171
74 51 172
74 51 172
74 51 173
73 51 173
73 51 174
73 51 174
72 51 175
72 51 175
71 51 176
71 51 176
71 51 177
70 51 177
70 51 178
69 51 178
69 51 179
69 51 179
68 51 180
68 51 180
68 51 181
67 51 181
67 51 182
66 51 182
66 51 183
66 51 183
65 51 184
65 51 184
65 51 185
64 51 185
64 51 186
63 51 186
63 51 187
63 51 187
62 51 188
62 51 188
61 51 189
61 51 189
61 51 190
60 51 190
60 51 191
60 51 191
59 51 192
59 51 193
58 51 193
58 51 194
58 51 194
57 51 195
57 51 195
56 51 196
56 51 196
56 51 197
55 51 197
55 51 198
55 51 198
54 51 199
54 51 199
53 51 200
53 51 200
53 51 201
52 51 201
52 51 202
52 51 202
51 51 203
51 51 203
205 49 0
204 49 0
204 49 1
203 49 1
203 49 2
203 49 2
202 49 3
202 49 3
201 49 4
201 49 4
201 49 5
200 49 5
200 49 6
199 49 6
199 49 7
199 49 7
198 49 8
198 49 8
198 49 9
197 49 9
197 49 10
196 49 10
196 49 11
196 49 11
195 49 12
195 49 12
194 49 13
194 49 13
194 49 14
193 49 14
193 49 15
192 49 15
192 49 16
192 49 16
191 49 17
191 49 17
191 49 18
190 49 19
190 49 19
189 49 20
189 49 20
189 49 21
188 49 21
188 49 22
187 49 22
187 49 23
187 49 23
186 49 24
186 49 24
185 49 25
185 49 25
185 49 26
184 49 26
184 49 27
184 49 27
183 49 28
183 49 28
182 49 29
182 49 29
182 49 30
181 49 30
181 49 31
180 49 31
180 49 32
180 49 32
179 49 33
179 49 33
178 49 34
178 49 34
178 49 35
177 49 35
177 49 36
177 49 36
176 49 37
176 49 38
175 49 38
175 49 39
175 49 39
174 49 40
174 49 40
173 49 41
173 49 41
173 49 42
172 49 42
172 49 43
171 49 43
171 49 44
171 49 44
170 49 45
170 49 45
170 49 46
169 49 46
169 49 47
168 49 47
168 49 48
168 49 48
167 49 49
167 49 49
166 49 50
166 49 50
166 49 51
165 49 51
165 49 52
164 49 52
164 49 53
164 49 53
163 49 54
163 49 54
163 49 55
162 49 56
162 49 56
161 49 57
161 49 57
161 49 58
160 49 58
160 49 59
159 49 59
159 49 60
159 49 60
158 49 61
158 49 61
158 49 62
157 49 62
157 49 63
156 49 63
156 49 64
156 49 64
155 49 65
155 49 65
154 49 66
154 49 66
154 49 67
153 49 67
153 49 68
152 49 68
152 49 69
152 49 69
151 49 70
151 49 70
151 49 71
150 49 71
150 49 72
149 49 72
149 49 73
149 49 73
148 49 74
148 49 75
147 49 75
147 49 76
147 49 76
146 49 77
146 49 77
145 49 78
145 49 78
145 49 79
144 49 79
144 49 80
144 49 80
143 49 81
143 49 81
142 49 82
142 49 82
142 49 83
141 49 83
141 49 84
140 49 84
140 49 85
140 49 85
139 49 86
139 49 86
138 49 87
138 49 87
138 49 88
137 49 88
137 49 89
137 49 89
136 49 90
136 49 90
135 49 91
135 49 91
135 49 92
134 49 93
134 49 93
133 49 94
133 49 94
133 49 95
132 49 95
132 49 96
131 49 96
131 49 97
131 49 97
130 49 98
130 49 98
130 49 99
129 49 99
129 49 100
128 49 100
128 49 101
128 49 101
127 49 102
127 49 102
126 49 103
126 49 103
126 49 104
125 49 104
125 49 105
124 49 105
124 49 106
124 49 106
123 49 107
123 49 107
123 49 108
122 49 108
122 49 109
121 49 109
121 49 110
121 49 110
120 49 111
120 49 112
119 49 112
119 49 113
119 49 113
118 49 114
118 49 114
117 49 115
117 49 115
117 49 116
116 49 116
116 49 117
116 49 117
115 49 118
115 49 118
114 49 119
114 49 119
114 49 120
113 49 120
113 49 121
112 49 121
112 49 122
112 49 122
111 49 123
111 49 123
110 49 124
110 49 124
110 49 125
109 49 125
109 49 126
109 49 126
108 49 127
108 49 127
107 49 128
107 49 128
107 49 129
106 49 130
106 49 130
105 49 131
105 49 131
105 49 132
104 49 132
104 49 133
103 49 133
103 49 134
103 49 134
102 49 135
102 49 135
102 49 136
101 49 136
101 49 137
100 49 137
100 49 138
100 49 138
99 49 139
99 49 139
98 49 140
98 49 140
98 49 141
97 49 141
97 49 142
96 49 142
96 49 143
96 49 143
95 49 144
95 49 144
95 49 145
94 49 145
94 49 146
93 49 146
93 49 147
93 49 147
92 49 148
92 49 149
91 49 149
91 49 150
91 49 150
90 49 151
90 49 151
90 49 152
89 49 152
89 49 153
88 49 153
88 49 154
88 49 154
87 49 155
87 49 155
86 49 156
86 49 156
86 49 157
85 49 157
85 49 158
84 49 158
84 49 159
84 49 159
83 49 160
83 49 160
83 49 161
82 49 161
82 49 162
81 49 162
81 49 163
81 49 163
80 49 164
80 49 164
79 49 165
79 49 165
79 49 166
78 49 167
78 49 167
77 49 168
77 49 168
77 49 169
76 49 169
76 49 170
76 49 170
75 49 171
75 49 171
74 49 172
74 49 172
74 49 173
73 49 173
73 49 174
72 49 174
72 49 175
72 49 175
71 49 176
71 49 176
70 49 177
70 49 177
70 49 178
69 49 178
69 49 179
69 49 179
68 49 180
68 49 180
67 49 181
67 49 181
67 49 182
66 49 182
66 49 183
65 49 183
65 49 184
65 49 184
64 49 185
64 49 186
63 49 186
63 49 187
63 49 187
62 49 188
62 49 188
62 49 189
61 49 189
61 49 190
60 49 190
60 49 191
60 49 191
59 49 192
59 49 192
58 49 193
58 49 193
58 49 194
57 49 194
57 49 195
56 49 195
56 49 196
56 49 196
55 49 197
55 49 197
55 49 198
54 49 198
54 49 199
53 49 199
53 49 200
53 49 200
52 49 201
52 49 201
51 49 202
51 49 202
51 49 203
50 49 203
50 49 204
49 49 205
206 48 0
205 48 0
205 48 1
205 48 1
204 48 2
204 48 2
203 48 3
203 48 3
203 48 4
202 48 4
202 48 5
201 48 5
201 48 6
201 48 6
200 48 7
200 48 7
199 48 8
199 48 8
199 48 9
198 48 9
198 48 10
198 48 10
197 48 11
197 48 11
196 48 12
196 48 12
196 48 13
195 48 13
195 48 14
194 48 14
194 48 15
194 48 16
193 48 16
193 48 17
192 48 17
192 48 18
192 48 18
191 48 19
191 48 19
190 48 20
190 48 20
190 48 21
189 48 21
189 48 22
188 48 22
188 48 23
188 48 23
187 48 24
187 48 24
186 48 25
186 48 25
186 48 26
185 48 26
185 48 27
184 48 27
184 48 28
184 48 28
183 48 29
183 48 29
183 48 30
182 48 31
182 48 31
181 48 32
181 48 32
181 48 33
180 48 33
180 48 34
179 48 34
179 48 35
179 48 35
178 48 36
178 48 36
177 48 37
177 48 37
177 48 38
176 48 38
176 48 39
175 48 39
175 48 40
175 48 40
174 48 41
174 48 41
173 48 42
173 48 42
173 48 43
172 48 43
172 48 44
171 48 44
171 48 45
171 48 46
170 48 46
170 48 47
169 48 47
169 48 48
169 48 48
168 48 49
168 48 49
167 48 50
167 48 50
167 48 51
166 48 51
166 48 52
166 48 52
165 48 53
165 48 53
164 48 54
164 48 54
164 48 55
163 48 55
163 48 56
162 48 56
162 48 57
162 48 57
161 48 58
161 48 58
160 48 59
160 48 59
160 48 60
159 48 61
159 48 61
158 48 62
158 48 62
158 48 63
157 48 63
157 48 64
156 48 64
156 48 65
156 48 65
155 48 66
155 48 66
154 48 67
154 48 67
154 48 68
153 48 68
153 48 69
152 48 69
152 48 70
152 48 70
151 48 71
151 48 71
151 48 72
150 48 72
150 48 73
149 48 73
149 48 74
149 48 74
148 48 75
148 48 76
147 48 76
147 48 77
147 48 77
146 48 78
146 48 78
145 48 79
145 48 79
145 48 80
144 48 80
144 48 81
143 48 81
143 48 82
143 48 82
142 48 83
142 48 83
141 48 84
141 48 84
141 48 85
140 48 85
140 48 86
139 48 86
139 48 87
139 48 87
138 48 88
138 48 88
137 48 89
137 48 89
137 48 90
136 48 91
136 48 91
135 48 92
135 48 92
135 48 93
134 48 93
134 48 94
134 48 94
133 48 95
133 48 95
132 48 96
132 48 96
132 48 97
131 48 97
131 48 98
130 48 98
130 48 99
130 48 99
129 48 100
129 48 100
128 48 101
128 48 101
128 48 102
127 48 102
127 48 103
126 48 103
126 48 104
126 48 104
125 48 105
125 48 105
124 48 106
124 48 107
124 48 107
123 48 108
123 48 108
122 48 109
122 48 109
122 48 110
121 48 110
121 48 111
120 48 111
120 48 112
120 48 112
119 48 113
119 48 113
119 48 114
118 48 114
118 48 115
117 48 115
117 48 116
117 48 116
116 48 117
116 48 117
115 48 118
115 48 118
115 48 119
114 48 119
114 48 120
113 48 120
113 48 121
113 48 122
112 48 122
112 48 123
111 48 123
111 48 124
111 48 124
110 48 125
110 48 125
109 48 126
109 48 126
109 48 127
108 48 127
108 48 128
107 48 128
107 48 129
107 48 129
106 48 130
106 48 130
105 48 131
105 48 131
105 48 132
104 48 132
104 48 133
103 48 133
103 48 134
103 48 134
102 48 135
102 48 135
102 48 136
101 48 137
101 48 137
100 48 138
100 48 138
100 48 139
99 48 139
99 48 140
98 48 140
98 48 141
98 48 141
97 48 142
97 48 142
96 48 143
96 48 143
96 48 144
95 48 144
95 48 145
94 48 145
94 48 146
94 48 146
93 48 147
93 48 147
92 48 148
92 48 148
92 48 149
91 48 149
91 48 150
90 48 150
90 48 151
90 48 152
89 48 152
89 48 153
88 48 153
88 48 154
88 48 154
87 48 155
87 48 155
87 48 156
86 48 156
86 48 157
85 48 157
85 48 158
85 48 158
84 48 159
84 48 159
83 48 160
83 48 160
83 48 161
82 48 161
82 48 162
81 48 162
81 48 163
81 48 163
80 48 164
80 48 164
79 48 165
79 48 165
79 48 166
78 48 167
78 48 167
77 48 168
77 48 168
77 48 169
76 48 169
76 48 170
75 48 170
75 48 171
75 48 171
74 48 172
74 48 172
73 48 173
73 48 173
73 48 174
72 48 174
72 48 175
71 48 175
71 48 176
71 48 176
70 48 177
70 48 177
70 48 178
69 48 178
69 48 179
68 48 179
68 48 180
68 48 180
67 48 181
67 48 182
66 48 182
66 48 183
66 48 183
65 48 184
65 48 184
64 48 185
64 48 185
64 48 186
63 48 186
63 48 187
62 48 187
62 48 188
62 48 188
61 48 189
61 48 189
60 48 190
60 48 190
60 48 191
59 48 191
59 48 192
58 48 192
58 48 193
58 48 193
57 48 194
57 48 194
56 48 195
56 48 195
56 48 196
55 48 196
55 48 197
55 48 198
54 48 198
54 48 199
53 48 199
53 48 200
53 48 200
52 48 201
52 48 201
51 48 202
51 48 202
51 48 203
50 48 203
50 48 204
49 48 204
49 48 205
49 48 205
48 48 206
207 47 0
207 47 0
206 47 1
206 47 1
205 47 2
205 47 2
205 47 3
204 47 3
204 47 4
203 47 4
203 47 5
203 47 5
202 47 6
202 47 6
201 47 7
201 47 7
201 47 8
200 47 8
200 47 9
199 47 9
199 47 10
199 47 10
198 47 11
198 47 11
197 47 12
197 47 13
197 47 13
196 47 14
196 47 14
195 47 15
195 47 15
195 47 16
194 47 16
194 47 17
193 47 17
193 47 18
193 47 18
192 47 19
192 47 19
191 47 20
191 47 20
191 47 21
190 47 21
190 47 22
189 47 22
189 47 23
189 47 23
188 47 24
188 47 24
187 47 25
187 47 26
187 47 26
186 47 27
186 47 27
185 47 28
185 47 28
185 47 29
184 47 29
184 47 30
183 47 30
183 47 31
183 47 31
182 47 32
182 47 32
181 47 33
181 47 33
181 47 34
180 47 34
180 47 35
179 47 35
179 47 36
179 47 36
178 47 37
178 47 37
177 47 38
177 47 39
177 47 39
176 47 40
176 47 40
175 47 41
175 47 41
175 47 42
174 47 42
174 47 43
173 47 43
173 47 44
173 47 44
172 47 45
172 47 45
171 47 46
171 47 46
171 47 47
170 47 47
170 47 48
169 47 48
169 47 49
169 47 49
168 47 50
168 47 50
167 47 51
167 47 52
167 47 52
166 47 53
166 47 53
165 47 54
165 47 54
165 47 55
164 47 55
164 47 56
163 47 56
163 47 57
163 47 57
162 47 58
162 47 58
161 47 59
161 47 59
161 47 60
160 47 60
160 47 61
159 47 61
159 47 62
159 47 62
158 47 63
158 47 63
157 47 64
157 47 65
157 47 65
156 47 66
156 47 66
155 47 67
155 47 67
154 47 68
154 47 68
154 47 69
153 47 69
153 47 70
152 47 70
152 47 71
152 47 71
151 47 72
151 47 72
150 47 73
150 47 73
150 47 74
149 47 74
149 47 75
148 47 75
148 47 76
148 47 77
147 47 77
147 47 78
146 47 78
146 47 79
146 47 79
145 47 80
145 47 80
144 47 81
144 47 81
144 47 82
143 47 82
143 47 83
142 47 83
142 47 84
142 47 84
141 47 85
141 47 85
140 47 86
140 47 86
140 47 87
139 47 87
139 47 88
138 47 88
138 47 89
138 47 90
137 47 90
137 47 91
136 47 91
136 47 92
136 47 92
135 47 93
135 47 93
134 47 94
134 47 94
134 47 95
133 47 95
133 47 96
132 47 96
132 47 97
132 47 97
131 47 98
131 47 98
130 47 99
130 47 99
130 47 100
129 47 100
129 47 101
128 47 101
128 47 102
128 47 103
127 47 103
127 47 104
126 47 104
126 47 105
126 47 105
125 47 106
125 47 106
124 47 107
124 47 107
124 47 108
123 47 108
123 47 109
122 47 109
122 47 110
122 47 110
121 47 111
121 47 111
120 47 112
120 47 112
120 47 113
119 47 113
119 47 114
118 47 114
118 47 115
118 47 116
117 47 116
117 47 117
116 47 117
116 47 118
116 47 118
115 47 119
115 47 119
114 47 120
114 47 120
114 47 121
113 47 121
113 47 122
112 47 122
112 47 123
112 47 123
111 47 124
111 47 124
110 47 125
110 47 125
110 47 126
109 47 126
109 47 127
108 47 127
108 47 128
108 47 129
107 47 129
107 47 130
106 47 130
106 47 131
106 47 131
105 47 132
105 47 132
104 47 133
104 47 133
104 47 134
103 47 134
103 47 135
102 47 135
102 47 136
102 47 136
101 47 137
101 47 137
100 47 138
100 47 138
100 47 139
99 47 139
99 47 140
98 47 140
98 47 141
97 47 142
97 47 142
97 47 143
96 47 143
96 47 144
95 47 144
95 47 145
95 47 145
94 47 146
94 47 146
93 47 147
93 47 147
93 47 148
92 47 148
92 47 149
91 47 149
91 47 150
91 47 150
90 47 151
90 47 151
89 47 152
89 47 152
89 47 153
88 47 154
88 47 154
87 47 155
87 47 155
87 47 156
86 47 156
86 47 157
85 47 157
85 47 158
85 47 158
84 47 159
84 47 159
83 47 160
83 47 160
83 47 161
82 47 161
82 47 162
81 47 162
81 47 163
81 47 163
80 47 164
80 47 164
79 47 165
79 47 165
79 47 166
78 47 167
78 47 167
77 47 168
77 47 168
77 47 169
76 47 169
76 47 170
75 47 170
75 47 171
75 47 171
74 47 172
74 47 172
73 47 173
73 47 173
73 47 174
72 47 174
72 47 175
71 47 175
71 47 176
71 47 176
70 47 177
70 47 177
69 47 178
69 47 178
69 47 179
68 47 180
68 47 180
67 47 181
67 47 181
67 47 182
66 47 182
66 47 183
65 47 183
65 47 184
65 47 184
64 47 185
64 47 185
63 47 186
63 47 186
63 47 187
62 47 187
62 47 188
61 47 188
61 47 189
61 47 189
60 47 190
60 47 190
59 47 191
59 47 191
59 47 192
58 47 193
58 47 193
57 47 194
57 47 194
57 47 195
56 47 195
56 47 196
55 47 196
55 47 197
55 47 197
54 47 198
54 47 198
53 47 199
53 47 199
53 47 200
52 47 200
52 47 201
51 47 201
51 47 202
51 47 202
50 47 203
50 47 203
49 47 204
49 47 204
49 47 205
48 47 206
48 47 206
47 47 207
47 47 207
208 46 0
208 46 0
208 46 1
207 46 1
207 46 2
206 46 2
206 46 3
206 46 3
205 46 4
205 46 4
204 46 5
204 46 5
203 46 6
203 46 6
203 46 7
202 46 7
202 46 8
201 46 8
201 46 9
201 46 9
200 46 10
200 46 10
199 46 11
199 46 12
199 46 12
198 46 13
198 46 13
197 46 14
197 46 14
197 46 15
196 46 15
196 46 16
195 46 16
195 46 17
195 46 17
194 46 18
194 46 18
193 46 19
193 46 19
192 46 20
192 46 20
192 46 21
191 46 21
191 46 22
190 46 23
190 46 23
190 46 24
189 46 24
189 46 25
188 46 25
188 46 26
188 46 26
187 46 27
187 46 27
186 46 28
186 46 28
186 46 29
185 46 29
185 46 30
184 46 30
184 46 31
183 46 31
183 46 32
183 46 32
182 46 33
182 46 34
181 46 34
181 46 35
181 46 35
180 46 36
180 46 36
179 46 37
179 46 37
179 46 38
178 46 38
178 46 39
177 46 39
177 46 40
177 46 40
176 46 41
176 46 41
175 46 42
175 46 42
175 46 43
174 46 43
174 46 44
173 46 45
173 46 45
172 46 46
172 46 46
172 46 47
171 46 47
171 46 48
170 46 48
170 46 49
170 46 49
169 46 50
169 46 50
168 46 51
168 46 51
168 46 52
167 46 52
167 46 53
166 46 53
166 46 54
166 46 54
165 46 55
165 46 56
164 46 56
164 46 57
164 46 57
163 46 58
163 46 58
162 46 59
162 46 59
161 46 60
161 46 60
161 46 61
160 46 61
160 46 62
159 46 62
159 46 63
159 46 63
158 46 64
158 46 64
157 46 65
157 46 65
157 46 66
156 46 67
156 46 67
155 46 68
155 46 68
155 46 69
154 46 69
154 46 70
153 46 70
153 46 71
152 46 71
152 46 72
152 46 72
151 46 73
151 46 73
150 46 74
150 46 74
150 46 75
149 46 75
149 46 76
148 46 76
148 46 77
148 46 77
147 46 78
147 46 79
146 46 79
146 46 80
146 46 80
145 46 81
145 46 81
144 46 82
144 46 82
144 46 83
143 46 83
143 46 84
142 46 84
142 46 85
141 46 85
141 46 86
141 46 86
140 46 87
140 46 87
139 46 88
139 46 88
139 46 89
138 46 90
138 46 90
137 46 91
137 46 91
137 46 92
136 46 92
136 46 93
135 46 93
135 46 94
135 46 94
134 46 95
134 46 95
133 46 96
133 46 96
133 46 97
132 46 97
132 46 98
131 46 98
131 46 99
130 46 99
130 46 100
130 46 101
129 46 101
129 46 102
128 46 102
128 46 103
128 46 103
127 46 104
127 46 104
126 46 105
126 46 105
126 46 106
125 46 106
125 46 107
124 46 107
124 46 108
124 46 108
123 46 109
123 46 109
122 46 110
122 46 110
121 46 111
121 46 112
121 46 112
120 46 113
120 46 113
119 46 114
119 46 114
119 46 115
118 46 115
118 46 116
117 46 116
117 46 117
117 46 117
116 46 118
116 46 118
115 46 119
115 46 119
115 46 120
114 46 120
114 46 121
113 46 121
113 46 122
113 46 123
112 46 123
112 46 124
111 46 124
111 46 125
110 46 125
110 46 126
110 46 126
109 46 127
109 46 127
108 46 128
108 46 128
108 46 129
107 46 129
107 46 130
106 46 130
106 46 131
106 46 131
105 46 132
105 46 132
104 46 133
104 46 134
104 46 134
103 46 135
103 46 135
102 46 136
102 46 136
102 46 137
101 46 137
101 46 138
100 46 138
100 46 139
99 46 139
99 46 140
99 46 140
98 46 141
98 46 141
97 46 142
97 46 142
97 46 143
96 46 143
96 46 144
95 46 145
95 46 145
95 46 146
94 46 146
94 46 147
93 46 147
93 46 148
93 46 148
92 46 149
92 46 149
91 46 150
91 46 150
90 46 151
90 46 151
90 46 152
89 46 152
89 46 153
88 46 153
88 46 154
88 46 154
87 46 155
87 46 155
86 46 156
86 46 157
86 46 157
85 46 158
85 46 158
84 46 159
84 46 159
84 46 160
83 46 160
83 46 161
82 46 161
82 46 162
82 46 162
81 46 163
81 46 163
80 46 164
80 46 164
79 46 165
79 46 165
79 46 166
78 46 166
78 46 167
77 46 168
77 46 168
77 46 169
76 46 169
76 46 170
75 46 170
75 46 171
75 46 171
74 46 172
74 46 172
73 46 173
73 46 173
73 46 174
72 46 174
72 46 175
71 46 175
71 46 176
71 46 176
70 46 177
70 46 177
69 46 178
69 46 179
68 46 179
68 46 180
68 46 180
67 46 181
67 46 181
66 46 182
66 46 182
66 46 183
65 46 183
65 46 184
64 46 184
64 46 185
64 46 185
63 46 186
63 46 186
62 46 187
62 46 187
62 46 188
61 46 188
61 46 189
60 46 190
60 46 190
59 46 191
59 46 191
59 46 192
58 46 192
58 46 193
57 46 193
57 46 194
57 46 194
56 46 195
56 46 195
55 46 196
55 46 196
55 46 197
54 46 197
54 46 198
53 46 198
53 46 199
53 46 199
52 46 200
52 46 201
51 46 201
51 46 202
51 46 202
50 46 203
50 46 203
49 46 204
49 46 204
48 46 205
48 46 205
48 46 206
47 46 206
47 46 207
46 46 207
46 46 208
46 46 208
210 44 0
209 44 0
209 44 1
208 44 1
208 44 2
208 44 2
207 44 3
207 44 3
206 44 4
206 44 4
206 44 5
205 44 5
205 44 6
204 44 6
204 44 7
203 44 7
203 44 8
203 44 8
202 44 9
202 44 10
201 44 10
201 44 11
201 44 11
200 44 12
200 44 12
199 44 13
199 44 13
198 44 14
198 44 14
198 44 15
197 44 15
197 44 16
196 44 16
196 44 17
196 44 17
195 44 18
195 44 18
194 44 19
194 44 20
193 44 20
193 44 21
193 44 21
192 44 22
192 44 22
191 44 23
191 44 23
191 44 24
190 44 24
190 44 25
189 44 25
189 44 26
189 44 26
188 44 27
188 44 27
187 44 28
187 44 28
186 44 29
186 44 30
186 44 30
185 44 31
185 44 31
184 44 32
184 44 32
184 44 33
183 44 33
183 44 34
182 44 34
182 44 35
181 44 35
181 44 36
181 44 36
180 44 37
180 44 37
179 44 38
179 44 38
179 44 39
178 44 40
178 44 40
177 44 41
177 44 41
177 44 42
176 44 42
176 44 43
175 44 43
175 44 44
174 44 44
174 44 45
174 44 45
173 44 46
173 44 46
172 44 47
172 44 47
172 44 48
171 44 48
171 44 49
170 44 50
170 44 50
169 44 51
169 44 51
169 44 52
168 44 52
168 44 53
167 44 53
167 44 54
167 44 54
166 44 55
166 44 55
165 44 56
165 44 56
164 44 57
164 44 57
164 44 58
163 44 58
163 44 59
162 44 60
162 44 60
162 44 61
161 44 61
161 44 62
160 44 62
160 44 63
160 44 63
159 44 64
159 44 64
158 44 65
158 44 65
157 44 66
157 44 66
157 44 67
156 44 67
156 44 68
155 44 68
155 44 69
155 44 70
154 44 70
154 44 71
153 44 71
153 44 72
152 44 72
152 44 73
152 44 73
151 44 74
151 44 74
150 44 75
150 44 75
150 44 76
149 44 76
149 44 77
148 44 77
148 44 78
148 44 79
147 44 79
147 44 80
146 44 80
146 44 81
145 44 81
145 44 82
145 44 82
144 44 83
144 44 83
143 44 84
143 44 84
143 44 85
142 44 85
142 44 86
141 44 86
141 44 87
140 44 87
140 44 88
140 44 89
139 44 89
139 44 90
138 44 90
138 44 91
138 44 91
137 44 92
137 44 92
136 44 93
136 44 93
135 44 94
135 44 94
135 44 95
134 44 95
134 44 96
133 44 96
133 44 97
133 44 97
132 44 98
132 44 99
131 44 99
131 44 100
131 44 100
130 44 101
130 44 101
129 44 102
129 44 102
128 44 103
128 44 103
128 44 104
127 44 104
127 44 105
126 44 105
126 44 106
126 44 106
125 44 107
125 44 107
124 44 108
124 44 109
123 44 109
123 44 110
123 44 110
122 44 111
122 44 111
121 44 112
121 44 112
121 44 113
120 44 113
120 44 114
119 44 114
119 44 115
119 44 115
118 44 116
118 44 116
117 44 117
117 44 117
116 44 118
116 44 119
116 44 119
115 44 120
115 44 120
114 44 121
114 44 121
114 44 122
113 44 122
113 44 123
112 44 123
112 44 124
111 44 124
111 44 125
111 44 125
110 44 126
110 44 126
109 44 127
109 44 127
109 44 128
108 44 129
108 44 129
107 44 130
107 44 130
106 44 131
106 44 131
106 44 132
105 44 132
105 44 133
104 44 133
104 44 134
104 44 134
103 44 135
103 44 135
102 44 136
102 44 136
102 44 137
101 44 137
101 44 138
100 44 139
100 44 139
99 44 140
99 44 140
99 44 141
98 44 141
98 44 142
97 44 142
97 44 143
97 44 143
96 44 144
96 44 144
95 44 145
95 44 145
94 44 146
94 44 146
94 44 147
93 44 148
93 44 148
92 44 149
92 44 149
92 44 150
91 44 150
91 44 151
90 44 151
90 44 152
90 44 152
89 44 153
89 44 153
88 44 154
88 44 154
87 44 155
87 44 155
87 44 156
86 44 156
86 44 157
85 44 158
85 44 158
85 44 159
84 44 159
84 44 160
83 44 160
83 44 161
82 44 161
82 44 162
82 44 162
81 44 163
81 44 163
80 44 164
80 44 164
80 44 165
79 44 165
79 44 166
78 44 166
78 44 167
77 44 168
77 44 168
77 44 169
76 44 169
76 44 170
75 44 170
75 44 171
75 44 171
74 44 172
74 44 172
73 44 173
73 44 173
73 44 174
72 44 174
72 44 175
71 44 175
71 44 176
70 44 176
70 44 177
70 44 178
69 44 178
69 44 179
68 44 179
68 44 180
68 44 180
67 44 181
67 44 181
66 44 182
66 44 182
65 44 183
65 44 183
65 44 184
64 44 184
64 44 185
63 44 185
63 44 186
63 44 186
62 44 187
62 44 188
61 44 188
61 44 189
61 44 189
60 44 190
60 44 190
59 44 191
59 44 191
58 44 192
58 44 192
58 44 193
57 44 193
57 44 194
56 44 194
56 44 195
56 44 195
55 44 196
55 44 196
54 44 197
54 44 198
53 44 198
53 44 199
53 44 199
52 44 200
52 44 200
51 44 201
51 44 201
51 44 202
50 44 202
50 44 203
49 44 203
49 44 204
48 44 204
48 44 205
48 44 205
47 44 206
47 44 206
46 44 207
46 44 208
46 44 208
45 44 209
45 44 209
44 44 210
211 43 0
211 43 0
210 43 1
210 43 1
209 43 2
209 43 2
208 43 3
208 43 3
208 43 4
207 43 4
207 43 5
206 43 5
206 43 6
205 43 6
205 43 7
205 43 7
204 43 8
204 43 9
203 43 9
203 43 10
203 43 10
202 43 11
202 43 11
201 43 12
201 43 12
200 43 13
200 43 13
200 43 14
199 43 14
199 43 15
198 43 15
198 43 16
197 43 16
197 43 17
197 43 18
196 43 18
196 43 19
195 43 19
195 43 20
195 43 20
194 43 21
194 43 21
193 43 22
193 43 22
192 43 23
192 43 23
192 43 24
191 43 24
191 43 25
190 43 25
190 43 26
189 43 27
189 43 27
189 43 28
188 43 28
188 43 29
187 43 29
187 43 30
187 43 30
186 43 31
186 43 31
185 43 32
185 43 32
184 43 33
184 43 33
184 43 34
183 43 34
183 43 35
182 43 36
182 43 36
181 43 37
181 43 37
181 43 38
180 43 38
180 43 39
179 43 39
179 43 40
179 43 40
178 43 41
178 43 41
177 43 42
177 43 42
176 43 43
176 43 43
176 43 44
175 43 45
175 43 45
174 43 46
174 43 46
173 43 47
173 43 47
173 43 48
172 43 48
172 43 49
171 43 49
171 43 50
171 43 50
170 43 51
170 43 51
169 43 52
169 43 52
168 43 53
168 43 54
168 43 54
167 43 55
167 43 55
166 43 56
166 43 56
165 43 57
165 43 57
165 43 58
164 43 58
164 43 59
163 43 59
163 43 60
163 43 60
162 43 61
162 43 61
161 43 62
161 43 63
160 43 63
160 43 64
160 43 64
159 43 65
159 43 65
158 43 66
158 43 66
158 43 67
157 43 67
157 43 68
156 43 68
156 43 69
155 43 69
155 43 70
155 43 71
154 43 71
154 43 72
153 43 72
153 43 73
152 43 73
152 43 74
152 43 74
151 43 75
151 43 75
150 43 76
150 43 76
150 43 77
149 43 77
149 43 78
148 43 78
148 43 79
147 43 80
147 43 80
147 43 81
146 43 81
146 43 82
145 43 82
145 43 83
144 43 83
144 43 84
144 43 84
143 43 85
143 43 85
142 43 86
142 43 86
142 43 87
141 43 87
141 43 88
140 43 89
140 43 89
139 43 90
139 43 90
139 43 91
138 43 91
138 43 92
137 43 92
137 43 93
136 43 93
136 43 94
136 43 94
135 43 95
135 43 95
134 43 96
134 43 96
134 43 97
133 43 98
133 43 98
132 43 99
132 43 99
131 43 100
131 43 100
131 43 101
130 43 101
130 43 102
129 43 102
129 43 103
128 43 103
128 43 104
128 43 104
127 43 105
127 43 105
126 43 106
126 43 107
126 43 107
125 43 108
125 43 108
124 43 109
124 43 109
123 43 110
123 43 110
123 43 111
122 43 111
122 43 112
121 43 112
121 43 113
120 43 113
120 43 114
120 43 114
119 43 115
119 43 116
118 43 116
118 43 117
118 43 117
117 43 118
117 43 118
116 43 119
116 43 119
115 43 120
115 43 120
115 43 121
114 43 121
114 43 122
113 43 122
113 43 123
112 43 123
112 43 124
112 43 125
111 43 125
111 43 126
110 43 126
110 43 127
110 43 127
109 43 128
109 43 128
108 43 129
108 43 129
107 43 130
107 43 130
107 43 131
106 43 131
106 43 132
105 43 133
105 43 133
104 43 134
104 43 134
104 43 135
103 43 135
103 43 136
102 43 136
102 43 137
102 43 137
101 43 138
101 43 138
100 43 139
100 43 139
99 43 140
99 43 140
99 43 141
98 43 142
98 43 142
97 43 143
97 43 143
96 43 144
96 43 144
96 43 145
95 43 145
95 43 146
94 43 146
94 43 147
94 43 147
93 43 148
93 43 148
92 43 149
92 43 149
91 43 150
91 43 151
91 43 151
90 43 152
90 43 152
89 43 153
89 43 153
89 43 154
88 43 154
88 43 155
87 43 155
87 43 156
86 43 156
86 43 157
86 43 157
85 43 158
85 43 158
84 43 159
84 43 160
83 43 160
83 43 161
83 43 161
82 43 162
82 43 162
81 43 163
81 43 163
81 43 164
80 43 164
80 43 165
79 43 165
79 43 166
78 43 166
78 43 167
78 43 167
77 43 168
77 43 169
76 43 169
76 43 170
75 43 170
75 43 171
75 43 171
74 43 172
74 43 172
73 43 173
73 43 173
73 43 174
72 43 174
72 43 175
71 43 175
71 43 176
70 43 176
70 43 177
70 43 178
69 43 178
69 43 179
68 43 179
68 43 180
67 43 180
67 43 181
67 43 181
66 43 182
66 43 182
65 43 183
65 43 183
65 43 184
64 43 184
64 43 185
63 43 185
63 43 186
62 43 187
62 43 187
62 43 188
61 43 188
61 43 189
60 43 189
60 43 190
59 43 190
59 43 191
59 43 191
58 43 192
58 43 192
57 43 193
57 43 193
57 43 194
56 43 195
56 43 195
55 43 196
55 43 196
54 43 197
54 43 197
54 43 198
53 43 198
53 43 199
52 43 199
52 43 200
51 43 200
51 43 201
51 43 201
50 43 202
50 43 202
49 43 203
49 43 204
49 43 204
48 43 205
48 43 205
47 43 206
47 43 206
46 43 207
46 43 207
46 43 208
45 43 208
45 43 209
44 43 209
44 43 210
43 43 210
43 43 211
212 42 0
212 42 0
211 42 1
211 42 1
211 42 2
210 42 2
210 42 3
209 42 3
209 42 4
208 42 4
208 42 5
208 42 5
207 42 6
207 42 6
206 42 7
206 42 7
205 42 8
205 42 9
205 42 9
204 42 10
204 42 10
203 42 11
203 42 11
202 42 12
202 42 12
202 42 13
201 42 13
201 42 14
200 42 14
200 42 15
199 42 15
199 42 16
199 42 17
198 42 17
198 42 18
197 42 18
197 42 19
196 42 19
196 42 20
196 42 20
195 42 21
195 42 21
194 42 22
194 42 22
193 42 23
193 42 23
193 42 24
192 42 25
192 42 25
191 42 26
191 42 26
190 42 27
190 42 27
190 42 28
189 42 28
189 42 29
188 42 29
188 42 30
187 42 30
187 42 31
187 42 31
186 42 32
186 42 33
185 42 33
185 42 34
184 42 34
184 42 35
184 42 35
183 42 36
183 42 36
182 42 37
182 42 37
181 42 38
181 42 38
181 42 39
180 42 39
180 42 40
179 42 41
179 42 41
178 42 42
178 42 42
178 42 43
177 42 43
177 42 44
176 42 44
176 42 45
175 42 45
175 42 46
175 42 46
174 42 47
174 42 47
173 42 48
173 42 49
172 42 49
172 42 50
172 42 50
171 42 51
171 42 51
170 42 52
170 42 52
170 42 53
169 42 53
169 42 54
168 42 54
168 42 55
167 42 55
167 42 56
167 42 57
166 42 57
166 42 58
165 42 58
165 42 59
164 42 59
164 42 60
164 42 60
163 42 61
163 42 61
162 42 62
162 42 62
161 42 63
161 42 63
161 42 64
160 42 65
160 42 65
159 42 66
159 42 66
158 42 67
158 42 67
158 42 68
157 42 68
157 42 69
156 42 69
156 42 70
155 42 70
155 42 71
155 42 71
154 42 72
154 42 73
153 42 73
153 42 74
152 42 74
152 42 75
152 42 75
151 42 76
151 42 76
150 42 77
150 42 77
149 42 78
149 42 78
149 42 79
148 42 79
148 42 80
147 42 81
147 42 81
146 42 82
146 42 82
146 42 83
145 42 83
145 42 84
144 42 84
144 42 85
143 42 85
143 42 86
143 42 86
142 42 87
142 42 87
141 42 88
141 42 89
140 42 89
140 42 90
140 42 90
139 42 91
139 42 91
138 42 92
138 42 92
137 42 93
137 42 93
137 42 94
136 42 94
136 42 95
135 42 95
135 42 96
134 42 97
134 42 97
134 42 98
133 42 98
133 42 99
132 42 99
132 42 100
131 42 100
131 42 101
131 42 101
130 42 102
130 42 102
129 42 103
129 42 103
128 42 104
128 42 105
128 42 105
127 42 106
127 42 106
126 42 107
126 42 107
126 42 108
125 42 108
125 42 109
124 42 109
124 42 110
123 42 110
123 42 111
123 42 111
122 42 112
122 42 113
121 42 113
121 42 114
120 42 114
120 42 115
120 42 115
119 42 116
119 42 116
118 42 117
118 42 117
117 42 118
117 42 118
117 42 119
116 42 119
116 42 120
115 42 121
115 42 121
114 42 122
114 42 122
114 42 123
113 42 123
113 42 124
112 42 124
112 42 125
111 42 125
111 42 126
111 42 126
110 42 127
110 42 127
109 42 128
109 42 129
108 42 129
108 42 130
108 42 130
107 42 131
107 42 131
106 42 132
106 42 132
105 42 133
105 42 133
105 42 134
104 42 134
104 42 135
103 42 135
103 42 136
102 42 137
102 42 137
102 42 138
101 42 138
101 42 139
100 42 139
100 42 140
99 42 140
99 42 141
99 42 141
98 42 142
98 42 142
97 42 143
97 42 143
96 42 144
96 42 145
96 42 145
95 42 146
95 42 146
94 42 147
94 42 147
93 42 148
93 42 148
93 42 149
92 42 149
92 42 150
91 42 150
91 42 151
90 42 151
90 42 152
90 42 153
89 42 153
89 42 154
88 42 154
88 42 155
87 42 155
87 42 156
87 42 156
86 42 157
86 42 157
85 42 158
85 42 158
85 42 159
84 42 159
84 42 160
83 42 161
83 42 161
82 42 162
82 42 162
82 42 163
81 42 163
81 42 164
80 42 164
80 42 165
79 42 165
79 42 166
79 42 166
78 42 167
78 42 167
77 42 168
77 42 168
76 42 169
76 42 170
76 42 170
75 42 171
75 42 171
74 42 172
74 42 172
73 42 173
73 42 173
73 42 174
72 42 174
72 42 175
71 42 175
71 42 176
70 42 176
70 42 177
70 42 178
69 42 178
69 42 179
68 42 179
68 42 180
67 42 180
67 42 181
67 42 181
66 42 182
66 42 182
65 42 183
65 42 183
64 42 184
64 42 184
64 42 185
63 42 186
63 42 186
62 42 187
62 42 187
61 42 188
61 42 188
61 42 189
60 42 189
60 42 190
59 42 190
59 42 191
58 42 191
58 42 192
58 42 192
57 42 193
57 42 194
56 42 194
56 42 195
55 42 195
55 42 196
55 42 196
54 42 197
54 42 197
53 42 198
53 42 198
52 42 199
52 42 199
52 42 200
51 42 200
51 42 201
50 42 202
50 42 202
49 42 203
49 42 203
49 42 204
48 42 204
48 42 205
47 42 205
47 42 206
46 42 206
46 42 207
46 42 207
45 42 208
45 42 208
44 42 209
44 42 210
43 42 210
43 42 211
43 42 211
42 42 212
42 42 212
213 41 0
213 41 0
213 41 1
212 41 1
212 41 2
211 41 2
211 41 3
210 41 3
210 41 4
210 41 4
209 41 5
209 41 5
208 41 6
208 41 6
207 41 7
207 41 8
207 41 8
206 41 9
206 41 9
205 41 10
205 41 10
204 41 11
204 41 11
204 41 12
203 41 12
203 41 13
202 41 13
202 41 14
201 41 15
201 41 15
200 41 16
200 41 16
200 41 17
199 41 17
199 41 18
198 41 18
198 41 19
197 41 19
197 41 20
197 41 20
196 41 21
196 41 21
195 41 22
195 41 23
194 41 23
194 41 24
194 41 24
193 41 25
193 41 25
192 41 26
192 41 26
191 41 27
191 41 27
191 41 28
190 41 28
190 41 29
189 41 30
189 41 30
188 41 31
188 41 31
187 41 32
187 41 32
187 41 33
186 41 33
186 41 34
185 41 34
185 41 35
184 41 35
184 41 36
184 41 37
183 41 37
183 41 38
182 41 38
182 41 39
181 41 39
181 41 40
181 41 40
180 41 41
180 41 41
179 41 42
179 41 42
178 41 43
178 41 43
178 41 44
177 41 45
177 41 45
176 41 46
176 41 46
175 41 47
175 41 47
174 41 48
174 41 48
174 41 49
173 41 49
173 41 50
172 41 50
172 41 51
171 41 52
171 41 52
171 41 53
170 41 53
170 41 54
169 41 54
169 41 55
168 41 55
168 41 56
168 41 56
167 41 57
167 41 57
166 41 58
166 41 58
165 41 59
165 41 60
165 41 60
164 41 61
164 41 61
163 41 62
163 41 62
162 41 63
162 41 63
161 41 64
161 41 64
161 41 65
160 41 65
160 41 66
159 41 67
159 41 67
158 41 68
158 41 68
158 41 69
157 41 69
157 41 70
156 41 70
156 41 71
155 41 71
155 41 72
155 41 72
154 41 73
154 41 74
153 41 74
153 41 75
152 41 75
152 41 76
151 41 76
151 41 77
151 41 77
150 41 78
150 41 78
149 41 79
149 41 79
148 41 80
148 41 80
148 41 81
147 41 82
147 41 82
146 41 83
146 41 83
145 41 84
145 41 84
145 41 85
144 41 85
144 41 86
143 41 86
143 41 87
142 41 87
142 41 88
142 41 89
141 41 89
141 41 90
140 41 90
140 41 91
139 41 91
139 41 92
138 41 92
138 41 93
138 41 93
137 41 94
137 41 94
136 41 95
136 41 96
135 41 96
135 41 97
135 41 97
134 41 98
134 41 98
133 41 99
133 41 99
132 41 100
132 41 100
132 41 101
131 41 101
131 41 102
130 41 102
130 41 103
129 41 104
129 41 104
129 41 105
128 41 105
128 41 106
127 41 106
127 41 107
126 41 107
126 41 108
125 41 108
125 41 109
125 41 109
124 41 110
124 41 111
123 41 111
123 41 112
122 41 112
122 41 113
122 41 113
121 41 114
121 41 114
120 41 115
120 41 115
119 41 116
119 41 116
119 41 117
118 41 117
118 41 118
117 41 119
117 41 119
116 41 120
116 41 120
116 41 121
115 41 121
115 41 122
114 41 122
114 41 123
113 41 123
113 41 124
112 41 124
112 41 125
112 41 126
111 41 126
111 41 127
110 41 127
110 41 128
109 41 128
109 41 129
109 41 129
108 41 130
108 41 130
107 41 131
107 41 131
106 41 132
106 41 133
106 41 133
105 41 134
105 41 134
104 41 135
104 41 135
103 41 136
103 41 136
103 41 137
102 41 137
102 41 138
101 41 138
101 41 139
100 41 139
100 41 140
99 41 141
99 41 141
99 41 142
98 41 142
98 41 143
97 41 143
97 41 144
96 41 144
96 41 145
96 41 145
95 41 146
95 41 146
94 41 147
94 41 148
93 41 148
93 41 149
93 41 149
92 41 150
92 41 150
91 41 151
91 41 151
90 41 152
90 41 152
89 41 153
89 41 153
89 41 154
88 41 154
88 41 155
87 41 156
87 41 156
86 41 157
86 41 157
86 41 158
85 41 158
85 41 159
84 41 159
84 41 160
83 41 160
83 41 161
83 41 161
82 41 162
82 41 163
81 41 163
81 41 164
80 41 164
80 41 165
80 41 165
79 41 166
79 41 166
78 41 167
78 41 167
77 41 168
77 41 168
76 41 169
76 41 170
76 41 170
75 41 171
75 41 171
74 41 172
74 41 172
73 41 173
73 41 173
73 41 174
72 41 174
72 41 175
71 41 175
71 41 176
70 41 176
70 41 177
70 41 178
69 41 178
69 41 179
68 41 179
68 41 180
67 41 180
67 41 181
67 41 181
66 41 182
66 41 182
65 41 183
65 41 183
64 41 184
64 41 185
63 41 185
63 41 186
63 41 186
62 41 187
62 41 187
61 41 188
61 41 188
60 41 189
60 41 189
60 41 190
59 41 190
59 41 191
58 41 192
58 41 192
57 41 193
57 41 193
57 41 194
56 41 194
56 41 195
55 41 195
55 41 196
54 41 196
54 41 197
54 41 197
53 41 198
53 41 198
52 41 199
52 41 200
51 41 200
51 41 201
50 41 201
50 41 202
50 41 202
49 41 203
49 41 203
48 41 204
48 41 204
47 41 205
47 41 205
47 41 206
46 41 207
46 41 207
45 41 208
45 41 208
44 41 209
44 41 209
44 41 210
43 41 210
43 41 211
42 41 211
42 41 212
41 41 212
41 41 213
41 41 213
215 39 0
214 39 0
214 39 1
213 39 1
213 39 2
213 39 2
212 39 3
212 39 3
211 39 4
211 39 4
210 39 5
210 39 5
209 39 6
209 39 7
209 39 7
208 39 8
208 39 8
207 39 9
207 39 9
206 39 10
206 39 10
206 39 11
205 39 11
205 39 12
204 39 12
204 39 13
203 39 14
203 39 14
202 39 15
202 39 15
202 39 16
201 39 16
201 39 17
200 39 17
200 39 18
199 39 18
199 39 19
198 39 19
198 39 20
198 39 21
197 39 21
197 39 22
196 39 22
196 39 23
195 39 23
195 39 24
195 39 24
194 39 25
194 39 25
193 39 26
193 39 26
192 39 27
192 39 28
191 39 28
191 39 29
191 39 29
190 39 30
190 39 30
189 39 31
189 39 31
188 39 32
188 39 32
187 39 33
187 39 33
187 39 34
186 39 35
186 39 35
185 39 36
185 39 36
184 39 37
184 39 37
184 39 38
183 39 38
183 39 39
182 39 39
182 39 40
181 39 41
181 39 41
180 39 42
180 39 42
180 39 43
179 39 43
179 39 44
178 39 44
178 39 45
177 39 45
177 39 46
176 39 46
176 39 47
176 39 48
175 39 48
175 39 49
174 39 49
174 39 50
173 39 50
173 39 51
173 39 51
172 39 52
172 39 52
171 39 53
171 39 53
170 39 54
170 39 55
169 39 55
169 39 56
169 39 56
168 39 57
168 39 57
167 39 58
167 39 58
166 39 59
166 39 59
165 39 60
165 39 60
165 39 61
164 39 62
164 39 62
163 39 63
163 39 63
162 39 64
162 39 64
162 39 65
161 39 65
161 39 66
160 39 66
160 39 67
159 39 67
159 39 68
158 39 69
158 39 69
158 39 70
157 39 70
157 39 71
156 39 71
156 39 72
155 39 72
155 39 73
154 39 73
154 39 74
154 39 74
153 39 75
153 39 76
152 39 76
152 39 77
151 39 77
151 39 78
151 39 78
150 39 79
150 39 79
149 39 80
149 39 80
148 39 81
148 39 82
147 39 82
147 39 83
147 39 83
146 39 84
146 39 84
145 39 85
145 39 85
144 39 86
144 39 86
143 39 87
143 39 87
143 39 88
142 39 89
142 39 89
141 39 90
141 39 90
140 39 91
140 39 91
140 39 92
139 39 92
139 39 93
138 39 93
138 39 94
137 39 94
137 39 95
136 39 96
136 39 96
136 39 97
135 39 97
135 39 98
134 39 98
134 39 99
133 39 99
133 39 100
132 39 100
132 39 101
132 39 101
131 39 102
131 39 103
130 39 103
130 39 104
129 39 104
129 39 105
129 39 105
128 39 106
128 39 106
127 39 107
127 39 107
126 39 108
126 39 108
125 39 109
125 39 110
125 39 110
124 39 111
124 39 111
123 39 112
123 39 112
122 39 113
122 39 113
122 39 114
121 39 114
121 39 115
120 39 116
120 39 116
119 39 117
119 39 117
118 39 118
118 39 118
118 39 119
117 39 119
117 39 120
116 39 120
116 39 121
115 39 121
115 39 122
114 39 123
114 39 123
114 39 124
113 39 124
113 39 125
112 39 125
112 39 126
111 39 126
111 39 127
111 39 127
110 39 128
110 39 128
109 39 129
109 39 130
108 39 130
108 39 131
107 39 131
107 39 132
107 39 132
106 39 133
106 39 133
105 39 134
105 39 134
104 39 135
104 39 135
103 39 136
103 39 137
103 39 137
102 39 138
102 39 138
101 39 139
101 39 139
100 39 140
100 39 140
100 39 141
99 39 141
99 39 142
98 39 142
98 39 143
97 39 144
97 39 144
96 39 145
96 39 145
96 39 146
95 39 146
95 39 147
94 39 147
94 39 148
93 39 148
93 39 149
92 39 149
92 39 150
92 39 151
91 39 151
91 39 152
90 39 152
90 39 153
89 39 153
89 39 154
89 39 154
88 39 155
88 39 155
87 39 156
87 39 157
86 39 157
86 39 158
85 39 158
85 39 159
85 39 159
84 39 160
84 39 160
83 39 161
83 39 161
82 39 162
82 39 162
81 39 163
81 39 164
81 39 164
80 39 165
80 39 165
79 39 166
79 39 166
78 39 167
78 39 167
78 39 168
77 39 168
77 39 169
76 39 169
76 39 170
75 39 171
75 39 171
74 39 172
74 39 172
74 39 173
73 39 173
73 39 174
72 39 174
72 39 175
71 39 175
71 39 176
70 39 176
70 39 177
70 39 178
69 39 178
69 39 179
68 39 179
68 39 180
67 39 180
67 39 181
67 39 181
66 39 182
66 39 182
65 39 183
65 39 183
64 39 184
64 39 185
63 39 185
63 39 186
63 39 186
62 39 187
62 39 187
61 39 188
61 39 188
60 39 189
60 39 189
59 39 190
59 39 190
59 39 191
58 39 192
58 39 192
57 39 193
57 39 193
56 39 194
56 39 194
56 39 195
55 39 195
55 39 196
54 39 196
54 39 197
53 39 198
53 39 198
52 39 199
52 39 199
52 39 200
51 39 200
51 39 201
50 39 201
50 39 202
49 39 202
49 39 203
48 39 203
48 39 204
48 39 205
47 39 205
47 39 206
46 39 206
46 39 207
45 39 207
45 39 208
45 39 208
44 39 209
44 39 209
43 39 210
43 39 210
42 39 211
42 39 212
41 39 212
41 39 213
41 39 213
40 39 214
40 39 214
39 39 215
216 38 0
216 38 0
215 38 1
215 38 1
214 38 2
214 38 2
213 38 3
213 38 3
212 38 4
212 38 4
212 38 5
211 38 5
211 38 6
210 38 7
210 38 7
209 38 8
209 38 8
208 38 9
208 38 9
208 38 10
207 38 10
207 38 11
206 38 11
206 38 12
205 38 13
205 38 13
204 38 14
204 38 14
204 38 15
203 38 15
203 38 16
202 38 16
202 38 17
201 38 17
201 38 18
200 38 18
200 38 19
200 38 20
199 38 20
199 38 21
198 38 21
198 38 22
197 38 22
197 38 23
196 38 23
196 38 24
196 38 24
195 38 25
195 38 26
194 38 26
194 38 27
193 38 27
193 38 28
192 38 28
192 38 29
192 38 29
191 38 30
191 38 30
190 38 31
190 38 32
189 38 32
189 38 33
188 38 33
188 38 34
187 38 34
187 38 35
187 38 35
186 38 36
186 38 36
185 38 37
185 38 37
184 38 38
184 38 39
183 38 39
183 38 40
183 38 40
182 38 41
182 38 41
181 38 42
181 38 42
180 38 43
180 38 43
179 38 44
179 38 45
179 38 45
178 38 46
178 38 46
177 38 47
177 38 47
176 38 48
176 38 48
175 38 49
175 38 49
175 38 50
174 38 51
174 38 51
173 38 52
173 38 52
172 38 53
172 38 53
171 38 54
171 38 54
171 38 55
170 38 55
170 38 56
169 38 56
169 38 57
168 38 58
168 38 58
167 38 59
167 38 59
167 38 60
166 38 60
166 38 61
165 38 61
165 38 62
164 38 62
164 38 63
163 38 64
163 38 64
162 38 65
162 38 65
162 38 66
161 38 66
161 38 67
160 38 67
160 38 68
159 38 68
159 38 69
158 38 70
158 38 70
158 38 71
157 38 71
157 38 72
156 38 72
156 38 73
155 38 73
155 38 74
154 38 74
154 38 75
154 38 75
153 38 76
153 38 77
152 38 77
152 38 78
151 38 78
151 38 79
150 38 79
150 38 80
150 38 80
149 38 81
149 38 81
148 38 82
148 38 83
147 38 83
147 38 84
146 38 84
146 38 85
146 38 85
145 38 86
145 38 86
144 38 87
144 38 87
143 38 88
143 38 89
142 38 89
142 38 90
142 38 90
141 38 91
141 38 91
140 38 92
140 38 92
139 38 93
139 38 93
138 38 94
138 38 94
137 38 95
137 38 96
137 38 96
136 38 97
136 38 97
135 38 98
135 38 98
134 38 99
134 38 99
133 38 100
133 38 100
133 38 101
132 38 102
132 38 102
131 38 103
131 38 103
130 38 104
130 38 104
129 38 105
129 38 105
129 38 106
128 38 106
128 38 107
127 38 108
127 38 108
126 38 109
126 38 109
125 38 110
125 38 110
125 38 111
124 38 111
124 38 112
123 38 112
123 38 113
122 38 113
122 38 114
121 38 115
121 38 115
121 38 116
120 38 116
120 38 117
119 38 117
119 38 118
118 38 118
118 38 119
117 38 119
117 38 120
117 38 121
116 38 121
116 38 122
115 38 122
115 38 123
114 38 123
114 38 124
113 38 124
113 38 125
112 38 125
112 38 126
112 38 127
111 38 127
111 38 128
110 38 128
110 38 129
109 38 129
109 38 130
108 38 130
108 38 131
108 38 131
107 38 132
107 38 132
106 38 133
106 38 134
105 38 134
105 38 135
104 38 135
104 38 136
104 38 136
103 38 137
103 38 137
102 38 138
102 38 138
101 38 139
101 38 140
100 38 140
100 38 141
100 38 141
99 38 142
99 38 142
98 38 143
98 38 143
97 38 144
97 38 144
96 38 145
96 38 146
96 38 146
95 38 147
95 38 147
94 38 148
94 38 148
93 38 149
93 38 149
92 38 150
92 38 150
92 38 151
91 38 151
91 38 152
90 38 153
90 38 153
89 38 154
89 38 154
88 38 155
88 38 155
87 38 156
87 38 156
87 38 157
86 38 157
86 38 158
85 38 159
85 38 159
84 38 160
84 38 160
83 38 161
83 38 161
83 38 162
82 38 162
82 38 163
81 38 163
81 38 164
80 38 164
80 38 165
79 38 166
79 38 166
79 38 167
78 38 167
78 38 168
77 38 168
77 38 169
76 38 169
76 38 170
75 38 170
75 38 171
75 38 172
74 38 172
74 38 173
73 38 173
73 38 174
72 38 174
72 38 175
71 38 175
71 38 176
71 38 176
70 38 177
70 38 178
69 38 178
69 38 179
68 38 179
68 38 180
67 38 180
67 38 181
67 38 181
66 38 182
66 38 182
65 38 183
65 38 183
64 38 184
64 38 185
63 38 185
63 38 186
62 38 186
62 38 187
62 38 187
61 38 188
61 38 188
60 38 189
60 38 189
59 38 190
59 38 191
58 38 191
58 38 192
58 38 192
57 38 193
57 38 193
56 38 194
56 38 194
55 38 195
55 38 195
54 38 196
54 38 197
54 38 197
53 38 198
53 38 198
52 38 199
52 38 199
51 38 200
51 38 200
50 38 201
50 38 201
50 38 202
49 38 202
49 38 203
48 38 204
48 38 204
47 38 205
47 38 205
46 38 206
46 38 206
46 38 207
45 38 207
45 38 208
44 38 208
44 38 209
43 38 210
43 38 210
42 38 211
42 38 211
42 38 212
41 38 212
41 38 213
40 38 213
40 38 214
39 38 214
39 38 215
38 38 216
38 38 216
217 37 0
217 37 0
216 37 1
216 37 1
216 37 2
215 37 2
215 37 3
214 37 3
214 37 4
213 37 4
213 37 5
212 37 6
212 37 6
211 37 7
211 37 7
211 37 8
210 37 8
210 37 9
209 37 9
209 37 10
208 37 10
208 37 11
207 37 12
207 37 12
206 37 13
206 37 13
206 37 14
205 37 14
205 37 15
204 37 15
204 37 16
203 37 16
203 37 17
202 37 18
202 37 18
201 37 19
201 37 19
201 37 20
200 37 20
200 37 21
199 37 21
199 37 22
198 37 22
198 37 23
197 37 24
197 37 24
197 37 25
196 37 25
196 37 26
195 37 26
195 37 27
194 37 27
194 37 28
193 37 28
193 37 29
192 37 30
192 37 30
192 37 31
191 37 31
191 37 32
190 37 32
190 37 33
189 37 33
189 37 34
188 37 34
188 37 35
187 37 36
187 37 36
187 37 37
186 37 37
186 37 38
185 37 38
185 37 39
184 37 39
184 37 40
183 37 40
183 37 41
182 37 42
182 37 42
182 37 43
181 37 43
181 37 44
180 37 44
180 37 45
179 37 45
179 37 46
178 37 46
178 37 47
177 37 48
177 37 48
177 37 49
176 37 49
176 37 50
175 37 50
175 37 51
174 37 51
174 37 52
173 37 52
173 37 53
173 37 54
172 37 54
172 37 55
171 37 55
171 37 56
170 37 56
170 37 57
169 37 57
169 37 58
168 37 58
168 37 59
168 37 60
167 37 60
167 37 61
166 37 61
166 37 62
165 37 62
165 37 63
164 37 63
164 37 64
163 37 64
163 37 65
163 37 66
162 37 66
162 37 67
161 37 67
161 37 68
160 37 68
160 37 69
159 37 69
159 37 70
158 37 70
158 37 71
158 37 72
157 37 72
157 37 73
156 37 73
156 37 74
155 37 74
155 37 75
154 37 75
154 37 76
153 37 76
153 37 77
153 37 78
152 37 78
152 37 79
151 37 79
151 37 80
150 37 80
150 37 81
149 37 81
149 37 82
149 37 82
148 37 83
148 37 84
147 37 84
147 37 85
146 37 85
146 37 86
145 37 86
145 37 87
144 37 87
144 37 88
144 37 88
143 37 89
143 37 90
142 37 90
142 37 91
141 37 91
141 37 92
140 37 92
140 37 93
139 37 93
139 37 94
139 37 94
138 37 95
138 37 96
137 37 96
137 37 97
136 37 97
136 37 98
135 37 98
135 37 99
134 37 99
134 37 100
134 37 101
133 37 101
133 37 102
132 37 102
132 37 103
131 37 103
131 37 104
130 37 104
130 37 105
129 37 105
129 37 106
129 37 107
128 37 107
128 37 108
127 37 108
127 37 109
126 37 109
126 37 110
125 37 110
125 37 111
125 37 111
124 37 112
124 37 113
123 37 113
123 37 114
122 37 114
122 37 115
121 37 115
121 37 116
120 37 116
120 37 117
120 37 117
119 37 118
119 37 119
118 37 119
118 37 120
117 37 120
117 37 121
116 37 121
116 37 122
115 37 122
115 37 123
115 37 123
114 37 124
114 37 125
113 37 125
113 37 126
112 37 126
112 37 127
111 37 127
111 37 128
110 37 128
110 37 129
110 37 129
109 37 130
109 37 131
108 37 131
108 37 132
107 37 132
107 37 133
106 37 133
106 37 134
105 37 134
105 37 135
105 37 135
104 37 136
104 37 137
103 37 137
103 37 138
102 37 138
102 37 139
101 37 139
101 37 140
101 37 140
100 37 141
100 37 141
99 37 142
99 37 143
98 37 143
98 37 144
97 37 144
97 37 145
96 37 145
96 37 146
96 37 146
95 37 147
95 37 147
94 37 148
94 37 149
93 37 149
93 37 150
92 37 150
92 37 151
91 37 151
91 37 152
91 37 152
90 37 153
90 37 153
89 37 154
89 37 155
88 37 155
88 37 156
87 37 156
87 37 157
86 37 157
86 37 158
86 37 158
85 37 159
85 37 159
84 37 160
84 37 161
83 37 161
83 37 162
82 37 162
82 37 163
81 37 163
81 37 164
81 37 164
80 37 165
80 37 165
79 37 166
79 37 167
78 37 167
78 37 168
77 37 168
77 37 169
77 37 169
76 37 170
76 37 170
75 37 171
75 37 171
74 37 172
74 37 173
73 37 173
73 37 174
72 37 174
72 37 175
72 37 175
71 37 176
71 37 176
70 37 177
70 37 177
69 37 178
69 37 179
68 37 179
68 37 180
67 37 180
67 37 181
67 37 181
66 37 182
66 37 182
65 37 183
65 37 183
64 37 184
64 37 185
63 37 185
63 37 186
62 37 186
62 37 187
62 37 187
61 37 188
61 37 188
60 37 189
60 37 189
59 37 190
59 37 191
58 37 191
58 37 192
57 37 192
57 37 193
57 37 193
56 37 194
56 37 194
55 37 195
55 37 196
54 37 196
54 37 197
53 37 197
53 37 198
53 37 198
52 37 199
52 37 199
51 37 200
51 37 200
50 37 201
50 37 202
49 37 202
49 37 203
48 37 203
48 37 204
48 37 204
47 37 205
47 37 205
46 37 206
46 37 206
45 37 207
45 37 208
44 37 208
44 37 209
43 37 209
43 37 210
43 37 210
42 37 211
42 37 211
41 37 212
41 37 212
40 37 213
40 37 214
39 37 214
39 37 215
38 37 215
38 37 216
38 37 216
37 37 217
37 37 217
219 35 0
218 35 0
218 35 1
217 35 1
217 35 2
216 35 2
216 35 3
215 35 3
215 35 4
214 35 4
214 35 5
214 35 6
213 35 6
213 35 7
212 35 7
212 35 8
211 35 8
211 35 9
210 35 9
210 35 10
209 35 10
209 35 11
209 35 12
208 35 12
208 35 13
207 35 13
207 35 14
206 35 14
206 35 15
205 35 15
205 35 16
204 35 17
204 35 17
203 35 18
203 35 18
203 35 19
202 35 19
202 35 20
201 35 20
201 35 21
200 35 21
200 35 22
199 35 23
199 35 23
198 35 24
198 35 24
197 35 25
197 35 25
197 35 26
196 35 26
196 35 27
195 35 28
195 35 28
194 35 29
194 35 29
193 35 30
193 35 30
192 35 31
192 35 31
192 35 32
191 35 32
191 35 33
190 35 34
190 35 34
189 35 35
189 35 35
188 35 36
188 35 36
187 35 37
187 35 37
186 35 38
186 35 38
186 35 39
185 35 40
185 35 40
184 35 41
184 35 41
183 35 42
183 35 42
182 35 43
182 35 43
181 35 44
181 35 45
181 35 45
180 35 46
180 35 46
179 35 47
179 35 47
178 35 48
178 35 48
177 35 49
177 35 49
176 35 50
176 35 51
175 35 51
175 35 52
175 35 52
174 35 53
174 35 53
173 35 54
173 35 54
172 35 55
172 35 56
171 35 56
171 35 57
170 35 57
170 35 58
169 35 58
169 35 59
169 35 59
168 35 60
168 35 60
167 35 61
167 35 62
166 35 62
166 35 63
165 35 63
165 35 64
164 35 64
164 35 65
164 35 65
163 35 66
163 35 66
162 35 67
162 35 68
161 35 68
161 35 69
160 35 69
160 35 70
159 35 70
159 35 71
158 35 71
158 35 72
158 35 73
157 35 73
157 35 74
156 35 74
156 35 75
155 35 75
155 35 76
154 35 76
154 35 77
153 35 77
153 35 78
152 35 79
152 35 79
152 35 80
151 35 80
151 35 81
150 35 81
150 35 82
149 35 82
149 35 83
148 35 84
148 35 84
147 35 85
147 35 85
147 35 86
146 35 86
146 35 87
145 35 87
145 35 88
144 35 88
144 35 89
143 35 90
143 35 90
142 35 91
142 35 91
141 35 92
141 35 92
141 35 93
140 35 93
140 35 94
139 35 95
139 35 95
138 35 96
138 35 96
137 35 97
137 35 97
136 35 98
136 35 98
135 35 99
135 35 99
135 35 100
134 35 101
134 35 101
133 35 102
133 35 102
132 35 103
132 35 103
131 35 104
131 35 104
130 35 105
130 35 105
130 35 106
129 35 107
129 35 107
128 35 108
128 35 108
127 35 109
127 35 109
126 35 110
126 35 110
125 35 111
125 35 112
124 35 112
124 35 113
124 35 113
123 35 114
123 35 114
122 35 115
122 35 115
121 35 116
121 35 116
120 35 117
120 35 118
119 35 118
119 35 119
119 35 119
118 35 120
118 35 120
117 35 121
117 35 121
116 35 122
116 35 123
115 35 123
115 35 124
114 35 124
114 35 125
113 35 125
113 35 126
113 35 126
112 35 127
112 35 127
111 35 128
111 35 129
110 35 129
110 35 130
109 35 130
109 35 131
108 35 131
108 35 132
107 35 132
107 35 133
107 35 133
106 35 134
106 35 135
105 35 135
105 35 136
104 35 136
104 35 137
103 35 137
103 35 138
102 35 138
102 35 139
102 35 140
101 35 140
101 35 141
100 35 141
100 35 142
99 35 142
99 35 143
98 35 143
98 35 144
97 35 144
97 35 145
96 35 146
96 35 146
96 35 147
95 35 147
95 35 148
94 35 148
94 35 149
93 35 149
93 35 150
92 35 151
92 35 151
91 35 152
91 35 152
90 35 153
90 35 153
90 35 154
89 35 154
89 35 155
88 35 155
88 35 156
87 35 157
87 35 157
86 35 158
86 35 158
85 35 159
85 35 159
85 35 160
84 35 160
84 35 161
83 35 162
83 35 162
82 35 163
82 35 163
81 35 164
81 35 164
80 35 165
80 35 165
79 35 166
79 35 166
79 35 167
78 35 168
78 35 168
77 35 169
77 35 169
76 35 170
76 35 170
75 35 171
75 35 171
74 35 172
74 35 172
73 35 173
73 35 174
73 35 174
72 35 175
72 35 175
71 35 176
71 35 176
70 35 177
70 35 177
69 35 178
69 35 179
68 35 179
68 35 180
68 35 180
67 35 181
67 35 181
66 35 182
66 35 182
65 35 183
65 35 183
64 35 184
64 35 185
63 35 185
63 35 186
62 35 186
62 35 187
62 35 187
61 35 188
61 35 188
60 35 189
60 35 190
59 35 190
59 35 191
58 35 191
58 35 192
57 35 192
57 35 193
57 35 193
56 35 194
56 35 194
55 35 195
55 35 196
54 35 196
54 35 197
53 35 197
53 35 198
52 35 198
52 35 199
51 35 199
51 35 200
51 35 200
50 35 201
50 35 202
49 35 202
49 35 203
48 35 203
48 35 204
47 35 204
47 35 205
46 35 205
46 35 206
45 35 207
45 35 207
45 35 208
44 35 208
44 35 209
43 35 209
43 35 210
42 35 210
42 35 211
41 35 211
41 35 212
40 35 213
40 35 213
40 35 214
39 35 214
39 35 215
38 35 215
38 35 216
37 35 216
37 35 217
36 35 218
36 35 218
35 35 219
220 34 0
219 34 0
219 34 1
219 34 1
218 34 2
218 34 2
217 34 3
217 34 3
216 34 4
216 34 4
215 34 5
215 34 6
214 34 6
214 34 7
213 34 7
213 34 8
212 34 8
212 34 9
212 34 9
211 34 10
211 34 11
210 34 11
210 34 12
209 34 12
209 34 13
208 34 13
208 34 14
207 34 14
207 34 15
206 34 16
206 34 16
205 34 17
205 34 17
205 34 18
204 34 18
204 34 19
203 34 19
203 34 20
202 34 20
202 34 21
201 34 22
201 34 22
200 34 23
200 34 23
199 34 24
199 34 24
198 34 25
198 34 25
198 34 26
197 34 27
197 34 27
196 34 28
196 34 28
195 34 29
195 34 29
194 34 30
194 34 30
193 34 31
193 34 32
192 34 32
192 34 33
191 34 33
191 34 34
191 34 34
190 34 35
190 34 35
189 34 36
189 34 37
188 34 37
188 34 38
187 34 38
187 34 39
186 34 39
186 34 40
185 34 40
185 34 41
185 34 41
184 34 42
184 34 43
183 34 43
183 34 44
182 34 44
182 34 45
181 34 45
181 34 46
180 34 46
180 34 47
179 34 48
179 34 48
178 34 49
178 34 49
178 34 50
177 34 50
177 34 51
176 34 51
176 34 52
175 34 53
175 34 53
174 34 54
174 34 54
173 34 55
173 34 55
172 34 56
172 34 56
171 34 57
171 34 58
171 34 58
170 34 59
170 34 59
169 34 60
169 34 60
168 34 61
168 34 61
167 34 62
167 34 62
166 34 63
166 34 64
165 34 64
165 34 65
164 34 65
164 34 66
164 34 66
163 34 67
163 34 67
162 34 68
162 34 69
161 34 69
161 34 70
160 34 70
160 34 71
159 34 71
159 34 72
158 34 72
158 34 73
158 34 74
157 34 74
157 34 75
156 34 75
156 34 76
155 34 76
155 34 77
154 34 77
154 34 78
153 34 78
153 34 79
152 34 80
152 34 80
151 34 81
151 34 81
151 34 82
150 34 82
150 34 83
149 34 83
149 34 84
148 34 85
148 34 85
147 34 86
147 34 86
146 34 87
146 34 87
145 34 88
145 34 88
144 34 89
144 34 90
144 34 90
143 34 91
143 34 91
142 34 92
142 34 92
141 34 93
141 34 93
140 34 94
140 34 95
139 34 95
139 34 96
138 34 96
138 34 97
137 34 97
137 34 98
137 34 98
136 34 99
136 34 99
135 34 100
135 34 101
134 34 101
134 34 102
133 34 102
133 34 103
132 34 103
132 34 104
131 34 104
131 34 105
130 34 106
130 34 106
130 34 107
129 34 107
129 34 108
128 34 108
128 34 109
127 34 109
127 34 110
126 34 111
126 34 111
125 34 112
125 34 112
124 34 113
124 34 113
124 34 114
123 34 114
123 34 115
122 34 116
122 34 116
121 34 117
121 34 117
120 34 118
120 34 118
119 34 119
119 34 119
118 34 120
118 34 120
117 34 121
117 34 122
117 34 122
116 34 123
116 34 123
115 34 124
115 34 124
114 34 125
114 34 125
113 34 126
113 34 127
112 34 127
112 34 128
111 34 128
111 34 129
110 34 129
110 34 130
110 34 130
109 34 131
109 34 132
108 34 132
108 34 133
107 34 133
107 34 134
106 34 134
106 34 135
105 34 135
105 34 136
104 34 136
104 34 137
103 34 138
103 34 138
103 34 139
102 34 139
102 34 140
101 34 140
101 34 141
100 34 141
100 34 142
99 34 143
99 34 143
98 34 144
98 34 144
97 34 145
97 34 145
96 34 146
96 34 146
96 34 147
95 34 148
95 34 148
94 34 149
94 34 149
93 34 150
93 34 150
92 34 151
92 34 151
91 34 152
91 34 153
90 34 153
90 34 154
90 34 154
89 34 155
89 34 155
88 34 156
88 34 156
87 34 157
87 34 157
86 34 158
86 34 159
85 34 159
85 34 160
84 34 160
84 34 161
83 34 161
83 34 162
83 34 162
82 34 163
82 34 164
81 34 164
81 34 165
80 34 165
80 34 166
79 34 166
79 34 167
78 34 167
78 34 168
77 34 169
77 34 169
76 34 170
76 34 170
76 34 171
75 34 171
75 34 172
74 34 172
74 34 173
73 34 174
73 34 174
72 34 175
72 34 175
71 34 176
71 34 176
70 34 177
70 34 177
69 34 178
69 34 178
69 34 179
68 34 180
68 34 180
67 34 181
67 34 181
66 34 182
66 34 182
65 34 183
65 34 183
64 34 184
64 34 185
63 34 185
63 34 186
63 34 186
62 34 187
62 34 187
61 34 188
61 34 188
60 34 189
60 34 190
59 34 190
59 34 191
58 34 191
58 34 192
57 34 192
57 34 193
56 34 193
56 34 194
56 34 194
55 34 195
55 34 196
54 34 196
54 34 197
53 34 197
53 34 198
52 34 198
52 34 199
51 34 199
51 34 200
50 34 201
50 34 201
49 34 202
49 34 202
49 34 203
48 34 203
48 34 204
47 34 204
47 34 205
46 34 206
46 34 206
45 34 207
45 34 207
44 34 208
44 34 208
43 34 209
43 34 209
42 34 210
42 34 211
42 34 211
41 34 212
41 34 212
40 34 213
40 34 213
39 34 214
39 34 214
38 34 215
38 34 215
37 34 216
37 34 217
36 34 217
36 34 218
35 34 218
35 34 219
35 34 219
34 34 220
221 33 0
221 33 0
220 33 1
220 33 1
219 33 2
219 33 2
218 33 3
218 33 3
217 33 4
217 33 5
216 33 5
216 33 6
216 33 6
215 33 7
215 33 7
214 33 8
214 33 8
213 33 9
213 33 10
212 33 10
212 33 11
211 33 11
211 33 12
210 33 12
210 33 13
209 33 13
209 33 14
208 33 15
208 33 15
207 33 16
207 33 16
207 33 17
206 33 17
206 33 18
205 33 18
205 33 19
204 33 20
204 33 20
203 33 21
203 33 21
202 33 22
202 33 22
201 33 23
201 33 23
200 33 24
200 33 25
199 33 25
199 33 26
199 33 26
198 33 27
198 33 27
197 33 28
197 33 28
196 33 29
196 33 30
195 33 30
195 33 31
194 33 31
194 33 32
193 33 32
193 33 33
192 33 33
192 33 34
191 33 35
191 33 35
190 33 36
190 33 36
190 33 37
189 33 37
189 33 38
188 33 38
188 33 39
187 33 40
187 33 40
186 33 41
186 33 41
185 33 42
185 33 42
184 33 43
184 33 43
183 33 44
183 33 45
182 33 45
182 33 46
182 33 46
181 33 47
181 33 47
180 33 48
180 33 48
179 33 49
179 33 50
178 33 50
178 33 51
177 33 51
177 33 52
176 33 52
176 33 53
175 33 53
175 33 54
174 33 55
174 33 55
174 33 56
173 33 56
173 33 57
172 33 57
172 33 58
171 33 58
171 33 59
170 33 60
170 33 60
169 33 61
169 33 61
168 33 62
168 33 62
167 33 63
167 33 63
166 33 64
166 33 65
165 33 65
165 33 66
165 33 66
164 33 67
164 33 67
163 33 68
163 33 68
162 33 69
162 33 70
161 33 70
161 33 71
160 33 71
160 33 72
159 33 72
159 33 73
158 33 73
158 33 74
157 33 75
157 33 75
157 33 76
156 33 76
156 33 77
155 33 77
155 33 78
154 33 78
154 33 79
153 33 80
153 33 80
152 33 81
152 33 81
151 33 82
151 33 82
150 33 83
150 33 83
149 33 84
149 33 85
148 33 85
148 33 86
148 33 86
147 33 87
147 33 87
146 33 88
146 33 88
145 33 89
145 33 90
144 33 90
144 33 91
143 33 91
143 33 92
142 33 92
142 33 93
141 33 93
141 33 94
140 33 95
140 33 95
140 33 96
139 33 96
139 33 97
138 33 97
138 33 98
137 33 98
137 33 99
136 33 100
136 33 100
135 33 101
135 33 101
134 33 102
134 33 102
133 33 103
133 33 103
132 33 104
132 33 105
131 33 105
131 33 106
131 33 106
130 33 107
130 33 107
129 33 108
129 33 108
128 33 109
128 33 110
127 33 110
127 33 111
126 33 111
126 33 112
125 33 112
125 33 113
124 33 113
124 33 114
123 33 115
123 33 115
123 33 116
122 33 116
122 33 117
121 33 117
121 33 118
120 33 118
120 33 119
119 33 120
119 33 120
118 33 121
118 33 121
117 33 122
117 33 122
116 33 123
116 33 123
115 33 124
115 33 125
114 33 125
114 33 126
114 33 126
113 33 127
113 33 127
112 33 128
112 33 128
111 33 129
111 33 130
110 33 130
110 33 131
109 33 131
109 33 132
108 33 132
108 33 133
107 33 133
107 33 134
106 33 135
106 33 135
106 33 136
105 33 136
105 33 137
104 33 137
104 33 138
103 33 138
103 33 139
102 33 140
102 33 140
101 33 141
101 33 141
100 33 142
100 33 142
99 33 143
99 33 143
98 33 144
98 33 145
97 33 145
97 33 146
97 33 146
96 33 147
96 33 147
95 33 148
95 33 148
94 33 149
94 33 150
93 33 150
93 33 151
92 33 151
92 33 152
91 33 152
91 33 153
90 33 153
90 33 154
89 33 155
89 33 155
89 33 156
88 33 156
88 33 157
87 33 157
87 33 158
86 33 158
86 33 159
85 33 160
85 33 160
84 33 161
84 33 161
83 33 162
83 33 162
82 33 163
82 33 163
81 33 164
81 33 165
80 33 165
80 33 166
80 33 166
79 33 167
79 33 167
78 33 168
78 33 168
77 33 169
77 33 170
76 33 170
76 33 171
75 33 171
75 33 172
74 33 172
74 33 173
73 33 173
73 33 174
72 33 175
72 33 175
72 33 176
71 33 176
71 33 177
70 33 177
70 33 178
69 33 178
69 33 179
68 33 180
68 33 180
67 33 181
67 33 181
66 33 182
66 33 182
65 33 183
65 33 183
64 33 184
64 33 185
64 33 185
63 33 186
63 33 186
62 33 187
62 33 187
61 33 188
61 33 188
60 33 189
60 33 190
59 33 190
59 33 191
58 33 191
58 33 192
57 33 192
57 33 193
56 33 193
56 33 194
55 33 195
55 33 195
55 33 196
54 33 196
54 33 197
53 33 197
53 33 198
52 33 198
52 33 199
51 33 200
51 33 200
50 33 201
50 33 201
49 33 202
49 33 202
48 33 203
48 33 203
47 33 204
47 33 205
47 33 205
46 33 206
46 33 206
45 33 207
45 33 207
44 33 208
44 33 208
43 33 209
43 33 210
42 33 210
42 33 211
41 33 211
41 33 212
40 33 212
40 33 213
39 33 213
39 33 214
38 33 215
38 33 215
38 33 216
37 33 216
37 33 217
36 33 217
36 33 218
35 33 218
35 33 219
34 33 220
34 33 220
33 33 221
33 33 221
222 32 0
222 32 0
222 32 1
221 32 1
221 32 2
220 32 2
220 32 3
219 32 3
219 32 4
218 32 5
218 32 5
217 32 6
217 32 6
216 32 7
216 32 7
215 32 8
215 32 8
214 32 9
214 32 10
213 32 10
213 32 11
212 32 11
212 32 12
211 32 12
211 32 13
211 32 13
210 32 14
210 32 15
209 32 15
209 32 16
208 32 16
208 32 17
207 32 17
207 32 18
206 32 18
206 32 19
205 32 20
205 32 20
204 32 21
204 32 21
203 32 22
203 32 22
202 32 23
202 32 24
201 32 24
201 32 25
200 32 25
200 32 26
199 32 26
199 32 27
199 32 27
198 32 28
198 32 29
197 32 29
197 32 30
196 32 30
196 32 31
195 32 31
195 32 32
194 32 32
194 32 33
193 32 34
193 32 34
192 32 35
192 32 35
191 32 36
191 32 36
190 32 37
190 32 37
189 32 38
189 32 39
188 32 39
188 32 40
188 32 40
187 32 41
187 32 41
186 32 42
186 32 43
185 32 43
185 32 44
184 32 44
184 32 45
183 32 45
183 32 46
182 32 46
182 32 47
181 32 48
181 32 48
180 32 49
180 32 49
179 32 50
179 32 50
178 32 51
178 32 51
177 32 52
177 32 53
177 32 53
176 32 54
176 32 54
175 32 55
175 32 55
174 32 56
174 32 56
173 32 57
173 32 58
172 32 58
172 32 59
171 32 59
171 32 60
170 32 60
170 32 61
169 32 62
169 32 62
168 32 63
168 32 63
167 32 64
167 32 64
166 32 65
166 32 65
166 32 66
165 32 67
165 32 67
164 32 68
164 32 68
163 32 69
163 32 69
162 32 70
162 32 70
161 32 71
161 32 72
160 32 72
160 32 73
159 32 73
159 32 74
158 32 74
158 32 75
157 32 75
157 32 76
156 32 77
156 32 77
155 32 78
155 32 78
155 32 79
154 32 79
154 32 80
153 32 81
153 32 81
152 32 82
152 32 82
151 32 83
151 32 83
150 32 84
150 32 84
149 32 85
149 32 86
148 32 86
148 32 87
147 32 87
147 32 88
146 32 88
146 32 89
145 32 89
145 32 90
144 32 91
144 32 91
144 32 92
143 32 92
143 32 93
142 32 93
142 32 94
141 32 94
141 32 95
140 32 96
140 32 96
139 32 97
139 32 97
138 32 98
138 32 98
137 32 99
137 32 100
136 32 100
136 32 101
135 32 101
135 32 102
134 32 102
134 32 103
133 32 103
133 32 104
133 32 105
132 32 105
132 32 106
131 32 106
131 32 107
130 32 107
130 32 108
129 32 108
129 32 109
128 32 110
128 32 110
127 32 111
127 32 111
126 32 112
126 32 112
125 32 113
125 32 113
124 32 114
124 32 115
123 32 115
123 32 116
122 32 116
122 32 117
121 32 117
121 32 118
121 32 119
120 32 119
120 32 120
119 32 120
119 32 121
118 32 121
118 32 122
117 32 122
117 32 123
116 32 124
116 32 124
115 32 125
115 32 125
114 32 126
114 32 126
113 32 127
113 32 127
112 32 128
112 32 129
111 32 129
111 32 130
110 32 130
110 32 131
110 32 131
109 32 132
109 32 132
108 32 133
108 32 134
107 32 134
107 32 135
106 32 135
106 32 136
105 32 136
105 32 137
104 32 138
104 32 138
103 32 139
103 32 139
102 32 140
102 32 140
101 32 141
101 32 141
100 32 142
100 32 143
99 32 143
99 32 144
99 32 144
98 32 145
98 32 145
97 32 146
97 32 146
96 32 147
96 32 148
95 32 148
95 32 149
94 32 149
94 32 150
93 32 150
93 32 151
92 32 151
92 32 152
91 32 153
91 32 153
90 32 154
90 32 154
89 32 155
89 32 155
88 32 156
88 32 157
88 32 157
87 32 158
87 32 158
86 32 159
86 32 159
85 32 160
85 32 160
84 32 161
84 32 162
83 32 162
83 32 163
82 32 163
82 32 164
81 32 164
81 32 165
80 32 165
80 32 166
79 32 167
79 32 167
78 32 168
78 32 168
77 32 169
77 32 169
77 32 170
76 32 170
76 32 171
75 32 172
75 32 172
74 32 173
74 32 173
73 32 174
73 32 174
72 32 175
72 32 176
71 32 176
71 32 177
70 32 177
70 32 178
69 32 178
69 32 179
68 32 179
68 32 180
67 32 181
67 32 181
66 32 182
66 32 182
66 32 183
65 32 183
65 32 184
64 32 184
64 32 185
63 32 186
63 32 186
62 32 187
62 32 187
61 32 188
61 32 188
60 32 189
60 32 189
59 32 190
59 32 191
58 32 191
58 32 192
57 32 192
57 32 193
56 32 193
56 32 194
55 32 195
55 32 195
55 32 196
54 32 196
54 32 197
53 32 197
53 32 198
52 32 198
52 32 199
51 32 200
51 32 200
50 32 201
50 32 201
49 32 202
49 32 202
48 32 203
48 32 203
47 32 204
47 32 205
46 32 205
46 32 206
45 32 206
45 32 207
44 32 207
44 32 208
43 32 208
43 32 209
43 32 210
42 32 210
42 32 211
41 32 211
41 32 212
40 32 212
40 32 213
39 32 214
39 32 214
38 32 215
38 32 215
37 32 216
37 32 216
36 32 217
36 32 217
35 32 218
35 32 219
34 32 219
34 32 220
33 32 220
33 32 221
32 32 221
32 32 222
32 32 222
224 30 0
223 30 0
223 30 1
222 30 1
222 30 2
221 30 2
221 30 3
220 30 3
220 30 4
219 30 5
219 30 5
218 30 6
218 30 6
217 30 7
217 30 7
216 30 8
216 30 8
216 30 9
215 30 10
215 30 10
214 30 11
214 30 11
213 30 12
213 30 12
212 30 13
212 30 14
211 30 14
211 30 15
210 30 15
210 30 16
209 30 16
209 30 17
208 30 17
208 30 18
207 30 19
207 30 19
206 30 20
206 30 20
205 30 21
205 30 21
204 30 22
204 30 23
203 30 23
203 30 24
202 30 24
202 30 25
201 30 25
201 30 26
200 30 26
200 30 27
199 30 28
199 30 28
199 30 29
198 30 29
198 30 30
197 30 30
197 30 31
196 30 32
196 30 32
195 30 33
195 30 33
194 30 34
194 30 34
193 30 35
193 30 35
192 30 36
192 30 37
191 30 37
191 30 38
190 30 38
190 30 39
189 30 39
189 30 40
188 30 41
188 30 41
187 30 42
187 30 42
186 30 43
186 30 43
185 30 44
185 30 44
184 30 45
184 30 46
183 30 46
183 30 47
183 30 47
182 30 48
182 30 48
181 30 49
181 30 50
180 30 50
180 30 51
179 30 51
179 30 52
178 30 52
178 30 53
177 30 53
177 30 54
176 30 55
176 30 55
175 30 56
175 30 56
174 30 57
174 30 57
173 30 58
173 30 59
172 30 59
172 30 60
171 30 60
171 30 61
170 30 61
170 30 62
169 30 62
169 30 63
168 30 64
168 30 64
167 30 65
167 30 65
167 30 66
166 30 66
166 30 67
165 30 68
165 30 68
164 30 69
164 30 69
163 30 70
163 30 70
162 30 71
162 30 71
161 30 72
161 30 73
160 30 73
160 30 74
159 30 74
159 30 75
158 30 75
158 30 76
157 30 76
157 30 77
156 30 78
156 30 78
155 30 79
155 30 79
154 30 80
154 30 80
153 30 81
153 30 82
152 30 82
152 30 83
151 30 83
151 30 84
151 30 84
150 30 85
150 30 85
149 30 86
149 30 87
148 30 87
148 30 88
147 30 88
147 30 89
146 30 89
146 30 90
145 30 91
145 30 91
144 30 92
144 30 92
143 30 93
143 30 93
142 30 94
142 30 94
141 30 95
141 30 96
140 30 96
140 30 97
139 30 97
139 30 98
138 30 98
138 30 99
137 30 100
137 30 100
136 30 101
136 30 101
135 30 102
135 30 102
135 30 103
134 30 103
134 30 104
133 30 105
133 30 105
132 30 106
132 30 106
131 30 107
131 30 107
130 30 108
130 30 109
129 30 109
129 30 110
128 30 110
128 30 111
127 30 111
127 30 112
126 30 112
126 30 113
125 30 114
125 30 114
124 30 115
124 30 115
123 30 116
123 30 116
122 30 117
122 30 118
121 30 118
121 30 119
120 30 119
120 30 120
119 30 120
119 30 121
119 30 121
118 30 122
118 30 123
117 30 123
117 30 124
116 30 124
116 30 125
115 30 125
115 30 126
114 30 127
114 30 127
113 30 128
113 30 128
112 30 129
112 30 129
111 30 130
111 30 130
110 30 131
110 30 132
109 30 132
109 30 133
108 30 133
108 30 134
107 30 134
107 30 135
106 30 136
106 30 136
105 30 137
105 30 137
104 30 138
104 30 138
103 30 139
103 30 139
103 30 140
102 30 141
102 30 141
101 30 142
101 30 142
100 30 143
100 30 143
99 30 144
99 30 145
98 30 145
98 30 146
97 30 146
97 30 147
96 30 147
96 30 148
95 30 148
95 30 149
94 30 150
94 30 150
93 30 151
93 30 151
92 30 152
92 30 152
91 30 153
91 30 153
90 30 154
90 30 155
89 30 155
89 30 156
88 30 156
88 30 157
87 30 157
87 30 158
87 30 159
86 30 159
86 30 160
85 30 160
85 30 161
84 30 161
84 30 162
83 30 162
83 30 163
82 30 164
82 30 164
81 30 165
81 30 165
80 30 166
80 30 166
79 30 167
79 30 168
78 30 168
78 30 169
77 30 169
77 30 170
76 30 170
76 30 171
75 30 171
75 30 172
74 30 173
74 30 173
73 30 174
73 30 174
72 30 175
72 30 175
71 30 176
71 30 177
71 30 177
70 30 178
70 30 178
69 30 179
69 30 179
68 30 180
68 30 180
67 30 181
67 30 182
66 30 182
66 30 183
65 30 183
65 30 184
64 30 184
64 30 185
63 30 186
63 30 186
62 30 187
62 30 187
61 30 188
61 30 188
60 30 189
60 30 189
59 30 190
59 30 191
58 30 191
58 30 192
57 30 192
57 30 193
56 30 193
56 30 194
55 30 195
55 30 195
55 30 196
54 30 196
54 30 197
53 30 197
53 30 198
52 30 198
52 30 199
51 30 200
51 30 200
50 30 201
50 30 201
49 30 202
49 30 202
48 30 203
48 30 204
47 30 204
47 30 205
46 30 205
46 30 206
45 30 206
45 30 207
44 30 207
44 30 208
43 30 209
43 30 209
42 30 210
42 30 210
41 30 211
41 30 211
40 30 212
40 30 213
39 30 213
39 30 214
38 30 214
38 30 215
38 30 215
37 30 216
37 30 216
36 30 217
36 30 218
35 30 218
35 30 219
34 30 219
34 30 220
33 30 220
33 30 221
32 30 221
32 30 222
31 30 223
31 30 223
30 30 224
225 29 0
225 29 0
224 29 1
224 29 1
223 29 2
223 29 2
222 29 3
222 29 3
221 29 4
221 29 5
220 29 5
220 29 6
219 29 6
219 29 7
218 29 7
218 29 8
217 29 9
217 29 9
216 29 10
216 29 10
215 29 11
215 29 11
214 29 12
214 29 13
213 29 13
213 29 14
212 29 14
212 29 15
211 29 15
211 29 16
210 29 16
210 29 17
209 29 18
209 29 18
208 29 19
208 29 19
207 29 20
207 29 20
206 29 21
206 29 22
205 29 22
205 29 23
204 29 23
204 29 24
203 29 24
203 29 25
202 29 26
202 29 26
201 29 27
201 29 27
200 29 28
200 29 28
199 29 29
199 29 29
198 29 30
198 29 31
198 29 31
197 29 32
197 29 32
196 29 33
196 29 33
195 29 34
195 29 35
194 29 35
194 29 36
193 29 36
193 29 37
192 29 37
192 29 38
191 29 39
191 29 39
190 29 40
190 29 40
189 29 41
189 29 41
188 29 42
188 29 42
187 29 43
187 29 44
186 29 44
186 29 45
185 29 45
185 29 46
184 29 46
184 29 47
183 29 48
183 29 48
182 29 49
182 29 49
181 29 50
181 29 50
180 29 51
180 29 52
179 29 52
179 29 53
178 29 53
178 29 54
177 29 54
177 29 55
176 29 55
176 29 56
175 29 57
175 29 57
174 29 58
174 29 58
173 29 59
173 29 59
172 29 60
172 29 61
171 29 61
171 29 62
170 29 62
170 29 63
170 29 63
169 29 64
169 29 65
168 29 65
168 29 66
167 29 66
167 29 67
166 29 67
166 29 68
165 29 68
165 29 69
164 29 70
164 29 70
163 29 71
163 29 71
162 29 72
162 29 72
161 29 73
161 29 74
160 29 74
160 29 75
159 29 75
159 29 76
158 29 76
158 29 77
157 29 78
157 29 78
156 29 79
156 29 79
155 29 80
155 29 80
154 29 81
154 29 81
153 29 82
153 29 83
152 29 83
152 29 84
151 29 84
151 29 85
150 29 85
150 29 86
149 29 87
149 29 87
148 29 88
148 29 88
147 29 89
147 29 89
146 29 90
146 29 91
145 29 91
145 29 92
144 29 92
144 29 93
143 29 93
143 29 94
142 29 94
142 29 95
141 29 96
141 29 96
141 29 97
140 29 97
140 29 98
139 29 98
139 29 99
138 29 100
138 29 100
137 29 101
137 29 101
136 29 102
136 29 102
135 29 103
135 29 104
134 29 104
134 29 105
133 29 105
133 29 106
132 29 106
132 29 107
131 29 107
131 29 108
130 29 109
130 29 109
129 29 110
129 29 110
128 29 111
128 29 111
127 29 112
127 29 113
126 29 113
126 29 114
125 29 114
125 29 115
124 29 115
124 29 116
123 29 117
123 29 117
122 29 118
122 29 118
121 29 119
121 29 119
120 29 120
120 29 120
119 29 121
119 29 122
118 29 122
118 29 123
117 29 123
117 29 124
116 29 124
116 29 125
115 29 126
115 29 126
114 29 127
114 29 127
113 29 128
113 29 128
113 29 129
112 29 130
112 29 130
111 29 131
111 29 131
110 29 132
110 29 132
109 29 133
109 29 133
108 29 134
108 29 135
107 29 135
107 29 136
106 29 136
106 29 137
105 29 137
105 29 138
104 29 139
104 29 139
103 29 140
103 29 140
102 29 141
102 29 141
101 29 142
101 29 143
100 29 143
100 29 144
99 29 144
99 29 145
98 29 145
98 29 146
97 29 146
97 29 147
96 29 148
96 29 148
95 29 149
95 29 149
94 29 150
94 29 150
93 29 151
93 29 152
92 29 152
92 29 153
91 29 153
91 29 154
90 29 154
90 29 155
89 29 156
89 29 156
88 29 157
88 29 157
87 29 158
87 29 158
86 29 159
86 29 159
85 29 160
85 29 161
84 29 161
84 29 162
84 29 162
83 29 163
83 29 163
82 29 164
82 29 165
81 29 165
81 29 166
80 29 166
80 29 167
79 29 167
79 29 168
78 29 169
78 29 169
77 29 170
77 29 170
76 29 171
76 29 171
75 29 172
75 29 172
74 29 173
74 29 174
73 29 174
73 29 175
72 29 175
72 29 176
71 29 176
71 29 177
70 29 178
70 29 178
69 29 179
69 29 179
68 29 180
68 29 180
67 29 181
67 29 182
66 29 182
66 29 183
65 29 183
65 29 184
64 29 184
64 29 185
63 29 185
63 29 186
62 29 187
62 29 187
61 29 188
61 29 188
60 29 189
60 29 189
59 29 190
59 29 191
58 29 191
58 29 192
57 29 192
57 29 193
56 29 193
56 29 194
56 29 195
55 29 195
55 29 196
54 29 196
54 29 197
53 29 197
53 29 198
52 29 198
52 29 199
51 29 200
51 29 200
50 29 201
50 29 201
49 29 202
49 29 202
48 29 203
48 29 204
47 29 204
47 29 205
46 29 205
46 29 206
45 29 206
45 29 207
44 29 208
44 29 208
43 29 209
43 29 209
42 29 210
42 29 210
41 29 211
41 29 211
40 29 212
40 29 213
39 29 213
39 29 214
38 29 214
38 29 215
37 29 215
37 29 216
36 29 217
36 29 217
35 29 218
35 29 218
34 29 219
34 29 219
33 29 220
33 29 221
32 29 221
32 29 222
31 29 222
31 29 223
30 29 223
30 29 224
29 29 224
29 29 225
226 28 0
226 28 0
225 28 1
225 28 1
224 28 2
224 28 2
223 28 3
223 28 3
222 28 4
222 28 5
221 28 5
221 28 6
220 28 6
220 28 7
219 28 7
219 28 8
218 28 9
218 28 9
217 28 10
217 28 10
216 28 11
216 28 11
215 28 12
215 28 13
214 28 13
214 28 14
213 28 14
213 28 15
212 28 15
212 28 16
211 28 17
211 28 17
210 28 18
210 28 18
209 28 19
209 28 19
208 28 20
208 28 21
207 28 21
207 28 22
206 28 22
206 28 23
205 28 23
205 28 24
204 28 25
204 28 25
203 28 26
203 28 26
202 28 27
202 28 27
201 28 28
201 28 28
200 28 29
200 28 30
199 28 30
199 28 31
198 28 31
198 28 32
197 28 32
197 28 33
196 28 34
196 28 34
195 28 35
195 28 35
194 28 36
194 28 36
193 28 37
193 28 38
192 28 38
192 28 39
191 28 39
191 28 40
190 28 40
190 28 41
189 28 42
189 28 42
188 28 43
188 28 43
187 28 44
187 28 44
186 28 45
186 28 46
185 28 46
185 28 47
184 28 47
184 28 48
183 28 48
183 28 49
183 28 50
182 28 50
182 28 51
181 28 51
181 28 52
180 28 52
180 28 53
179 28 54
179 28 54
178 28 55
178 28 55
177 28 56
177 28 56
176 28 57
176 28 57
175 28 58
175 28 59
174 28 59
174 28 60
173 28 60
173 28 61
172 28 61
172 28 62
171 28 63
171 28 63
170 28 64
170 28 64
169 28 65
169 28 65
168 28 66
168 28 67
167 28 67
167 28 68
166 28 68
166 28 69
165 28 69
165 28 70
164 28 71
164 28 71
163 28 72
163 28 72
162 28 73
162 28 73
161 28 74
161 28 75
160 28 75
160 28 76
159 28 76
159 28 77
158 28 77
158 28 78
157 28 79
157 28 79
156 28 80
156 28 80
155 28 81
155 28 81
154 28 82
154 28 82
153 28 83
153 28 84
152 28 84
152 28 85
151 28 85
151 28 86
150 28 86
150 28 87
149 28 88
149 28 88
148 28 89
148 28 89
147 28 90
147 28 90
146 28 91
146 28 92
145 28 92
145 28 93
144 28 93
144 28 94
143 28 94
143 28 95
142 28 96
142 28 96
141 28 97
141 28 97
140 28 98
140 28 98
139 28 99
139 28 100
138 28 100
138 28 101
137 28 101
137 28 102
136 28 102
136 28 103
135 28 104
135 28 104
134 28 105
134 28 105
133 28 106
133 28 106
132 28 107
132 28 108
131 28 108
131 28 109
130 28 109
130 28 110
129 28 110
129 28 111
128 28 111
128 28 112
127 28 113
127 28 113
126 28 114
126 28 114
125 28 115
125 28 115
124 28 116
124 28 117
123 28 117
123 28 118
122 28 118
122 28 119
121 28 119
121 28 120
120 28 121
120 28 121
119 28 122
119 28 122
118 28 123
118 28 123
117 28 124
117 28 125
116 28 125
116 28 126
115 28 126
115 28 127
114 28 127
114 28 128
113 28 129
113 28 129
112 28 130
112 28 130
111 28 131
111 28 131
110 28 132
110 28 133
109 28 133
109 28 134
108 28 134
108 28 135
107 28 135
107 28 136
106 28 136
106 28 137
105 28 138
105 28 138
104 28 139
104 28 139
103 28 140
103 28 140
102 28 141
102 28 142
101 28 142
101 28 143
100 28 143
100 28 144
99 28 144
99 28 145
98 28 146
98 28 146
97 28 147
97 28 147
96 28 148
96 28 148
95 28 149
95 28 150
94 28 150
94 28 151
93 28 151
93 28 152
92 28 152
92 28 153
91 28 154
91 28 154
90 28 155
90 28 155
89 28 156
89 28 156
88 28 157
88 28 158
87 28 158
87 28 159
86 28 159
86 28 160
85 28 160
85 28 161
84 28 162
84 28 162
83 28 163
83 28 163
82 28 164
82 28 164
81 28 165
81 28 165
80 28 166
80 28 167
79 28 167
79 28 168
78 28 168
78 28 169
77 28 169
77 28 170
76 28 171
76 28 171
75 28 172
75 28 172
74 28 173
74 28 173
73 28 174
73 28 175
72 28 175
72 28 176
71 28 176
71 28 177
71 28 177
70 28 178
70 28 179
69 28 179
69 28 180
68 28 180
68 28 181
67 28 181
67 28 182
66 28 183
66 28 183
65 28 184
65 28 184
64 28 185
64 28 185
63 28 186
63 28 187
62 28 187
62 28 188
61 28 188
61 28 189
60 28 189
60 28 190
59 28 190
59 28 191
58 28 192
58 28 192
57 28 193
57 28 193
56 28 194
56 28 194
55 28 195
55 28 196
54 28 196
54 28 197
53 28 197
53 28 198
52 28 198
52 28 199
51 28 200
51 28 200
50 28 201
50 28 201
49 28 202
49 28 202
48 28 203
48 28 204
47 28 204
47 28 205
46 28 205
46 28 206
45 28 206
45 28 207
44 28 208
44 28 208
43 28 209
43 28 209
42 28 210
42 28 210
41 28 211
41 28 212
40 28 212
40 28 213
39 28 213
39 28 214
38 28 214
38 28 215
37 28 216
37 28 216
36 28 217
36 28 217
35 28 218
35 28 218
34 28 219
34 28 219
33 28 220
33 28 221
32 28 221
32 28 222
31 28 222
31 28 223
30 28 223
30 28 224
29 28 225
29 28 225
28 28 226
28 28 226
228 26 0
227 26 0
227 26 1
226 26 1
226 26 2
225 26 2
225 26 3
224 26 4
224 26 4
223 26 5
223 26 5
222 26 6
222 26 6
221 26 7
221 26 8
220 26 8
220 26 9
219 26 9
219 26 10
218 26 10
218 26 11
217 26 12
216 26 12
216 26 13
215 26 13
215 26 14
214 26 14
214 26 15
213 26 16
213 26 16
212 26 17
212 26 17
211 26 18
211 26 18
210 26 19
210 26 20
209 26 20
209 26 21
208 26 21
208 26 22
207 26 22
207 26 23
206 26 24
206 26 24
205 26 25
205 26 25
204 26 26
204 26 26
203 26 27
203 26 28
202 26 28
202 26 29
201 26 29
201 26 30
200 26 30
200 26 31
199 26 32
199 26 32
198 26 33
198 26 33
197 26 34
197 26 34
196 26 35
196 26 36
195 26 36
195 26 37
194 26 37
194 26 38
193 26 38
193 26 39
192 26 40
192 26 40
191 26 41
191 26 41
190 26 42
190 26 42
189 26 43
189 26 44
188 26 44
188 26 45
187 26 45
187 26 46
186 26 46
186 26 47
185 26 48
185 26 48
184 26 49
184 26 49
183 26 50
183 26 50
182 26 51
182 26 52
181 26 52
181 26 53
180 26 53
180 26 54
179 26 54
179 26 55
178 26 56
178 26 56
177 26 57
177 26 57
176 26 58
176 26 58
175 26 59
175 26 60
174 26 60
174 26 61
173 26 61
173 26 62
172 26 62
172 26 63
171 26 64
171 26 64
170 26 65
170 26 65
169 26 66
169 26 66
168 26 67
168 26 68
167 26 68
167 26 69
166 26 69
166 26 70
165 26 70
165 26 71
164 26 72
164 26 72
163 26 73
163 26 73
162 26 74
162 26 74
161 26 75
161 26 76
160 26 76
160 26 77
159 26 77
159 26 78
158 26 78
158 26 79
157 26 80
156 26 80
156 26 81
155 26 81
155 26 82
154 26 82
154 26 83
153 26 84
153 26 84
152 26 85
152 26 85
151 26 86
151 26 86
150 26 87
150 26 88
149 26 88
149 26 89
148 26 89
148 26 90
147 26 90
147 26 91
146 26 92
146 26 92
145 26 93
145 26 93
144 26 94
144 26 94
143 26 95
143 26 96
142 26 96
142 26 97
141 26 97
141 26 98
140 26 98
140 26 99
139 26 100
139 26 100
138 26 101
138 26 101
137 26 102
137 26 102
136 26 103
136 26 104
135 26 104
135 26 105
134 26 105
134 26 106
133 26 106
133 26 107
132 26 108
132 26 108
131 26 109
131 26 109
130 26 110
130 26 110
129 26 111
129 26 112
128 26 112
128 26 113
127 26 113
127 26 114
126 26 114
126 26 115
125 26 116
125 26 116
124 26 117
124 26 117
123 26 118
123 26 118
122 26 119
122 26 120
121 26 120
121 26 121
120 26 121
120 26 122
119 26 122
119 26 123
118 26 124
118 26 124
117 26 125
117 26 125
116 26 126
116 26 126
115 26 127
115 26 128
114 26 128
114 26 129
113 26 129
113 26 130
112 26 130
112 26 131
111 26 132
111 26 132
110 26 133
110 26 133
109 26 134
109 26 134
108 26 135
108 26 136
107 26 136
107 26 137
106 26 137
106 26 138
105 26 138
105 26 139
104 26 140
104 26 140
103 26 141
103 26 141
102 26 142
102 26 142
101 26 143
101 26 144
100 26 144
100 26 145
99 26 145
99 26 146
98 26 146
98 26 147
97 26 148
96 26 148
96 26 149
95 26 149
95 26 150
94 26 150
94 26 151
93 26 152
93 26 152
92 26 153
92 26 153
91 26 154
91 26 154
90 26 155
90 26 156
89 26 156
89 26 157
88 26 157
88 26 158
87 26 158
87 26 159
86 26 160
86 26 160
85 26 161
85 26 161
84 26 162
84 26 162
83 26 163
83 26 164
82 26 164
82 26 165
81 26 165
81 26 166
80 26 166
80 26 167
79 26 168
79 26 168
78 26 169
78 26 169
77 26 170
77 26 170
76 26 171
76 26 172
75 26 172
75 26 173
74 26 173
74 26 174
73 26 174
73 26 175
72 26 176
72 26 176
71 26 177
71 26 177
70 26 178
70 26 178
69 26 179
69 26 180
68 26 180
68 26 181
67 26 181
67 26 182
66 26 182
66 26 183
65 26 184
65 26 184
64 26 185
64 26 185
63 26 186
63 26 186
62 26 187
62 26 188
61 26 188
61 26 189
60 26 189
60 26 190
59 26 190
59 26 191
58 26 192
58 26 192
57 26 193
57 26 193
56 26 194
56 26 194
55 26 195
55 26 196
54 26 196
54 26 197
53 26 197
53 26 198
52 26 198
52 26 199
51 26 200
51 26 200
50 26 201
50 26 201
49 26 202
49 26 202
48 26 203
48 26 204
47 26 204
47 26 205
46 26 205
46 26 206
45 26 206
45 26 207
44 26 208
44 26 208
43 26 209
43 26 209
42 26 210
42 26 210
41 26 211
41 26 212
40 26 212
40 26 213
39 26 213
39 26 214
38 26 214
38 26 215
37 26 216
36 26 216
36 26 217
35 26 217
35 26 218
34 26 218
34 26 219
33 26 220
33 26 220
32 26 221
32 26 221
31 26 222
31 26 222
30 26 223
30 26 224
29 26 224
29 26 225
28 26 225
28 26 226
27 26 226
27 26 227
26 26 228
229 25 0
228 25 0
228 25 1
227 25 1
227 25 2
226 25 2
226 25 3
225 25 4
225 25 4
224 25 5
224 25 5
223 25 6
223 25 6
222 25 7
222 25 8
221 25 8
221 25 9
220 25 9
220 25 10
219 25 10
219 25 11
218 25 12
218 25 12
217 25 13
217 25 13
216 25 14
216 25 14
215 25 15
215 25 16
214 25 16
214 25 17
213 25 17
213 25 18
212 25 18
212 25 19
211 25 20
210 25 20
210 25 21
209 25 21
209 25 22
208 25 22
208 25 23
207 25 24
207 25 24
206 25 25
206 25 25
205 25 26
205 25 27
204 25 27
204 25 28
203 25 28
203 25 29
202 25 29
202 25 30
201 25 31
201 25 31
200 25 32
200 25 32
199 25 33
199 25 33
198 25 34
198 25 35
197 25 35
197 25 36
196 25 36
196 25 37
195 25 37
195 25 38
194 25 39
194 25 39
193 25 40
193 25 40
192 25 41
192 25 41
191 25 42
191 25 43
190 25 43
190 25 44
189 25 44
189 25 45
188 25 45
188 25 46
187 25 47
186 25 47
186 25 48
185 25 48
185 25 49
184 25 50
184 25 50
183 25 51
183 25 51
182 25 52
182 25 52
181 25 53
181 25 54
180 25 54
180 25 55
179 25 55
179 25 56
178 25 56
178 25 57
177 25 58
177 25 58
176 25 59
176 25 59
175 25 60
175 25 60
174 25 61
174 25 62
173 25 62
173 25 63
172 25 63
172 25 64
171 25 64
171 25 65
170 25 66
170 25 66
169 25 67
169 25 67
168 25 68
168 25 68
167 25 69
167 25 70
166 25 70
166 25 71
165 25 71
165 25 72
164 25 73
164 25 73
163 25 74
162 25 74
162 25 75
161 25 75
161 25 76
160 25 77
160 25 77
159 25 78
159 25 78
158 25 79
158 25 79
157 25 80
157 25 81
156 25 81
156 25 82
155 25 82
155 25 83
154 25 83
154 25 84
153 25 85
153 25 85
152 25 86
152 25 86
151 25 87
151 25 87
150 25 88
150 25 89
149 25 89
149 25 90
148 25 90
148 25 91
147 25 91
147 25 92
146 25 93
146 25 93
145 25 94
145 25 94
144 25 95
144 25 96
143 25 96
143 25 97
142 25 97
142 25 98
141 25 98
141 25 99
140 25 100
140 25 100
139 25 101
138 25 101
138 25 102
137 25 102
137 25 103
136 25 104
136 25 104
135 25 105
135 25 105
134 25 106
134 25 106
133 25 107
133 25 108
132 25 108
132 25 109
131 25 109
131 25 110
130 25 110
130 25 111
129 25 112
129 25 112
128 25 113
128 25 113
127 25 114
127 25 114
126 25 115
126 25 116
125 25 116
125 25 117
124 25 117
124 25 118
123 25 118
123 25 119
122 25 120
122 25 120
121 25 121
121 25 121
120 25 122
120 25 123
119 25 123
119 25 124
118 25 124
118 25 125
117 25 125
117 25 126
116 25 127
116 25 127
115 25 128
114 25 128
114 25 129
113 25 129
113 25 130
112 25 131
112 25 131
111 25 132
111 25 132
110 25 133
110 25 133
109 25 134
109 25 135
108 25 135
108 25 136
107 25 136
107 25 137
106 25 137
106 25 138
105 25 139
105 25 139
104 25 140
104 25 140
103 25 141
103 25 141
102 25 142
102 25 143
101 25 143
101 25 144
100 25 144
100 25 145
99 25 146
99 25 146
98 25 147
98 25 147
97 25 148
97 25 148
96 25 149
96 25 150
95 25 150
95 25 151
94 25 151
94 25 152
93 25 152
93 25 153
92 25 154
92 25 154
91 25 155
90 25 155
90 25 156
89 25 156
89 25 157
88 25 158
88 25 158
87 25 159
87 25 159
86 25 160
86 25 160
85 25 161
85 25 162
84 25 162
84 25 163
83 25 163
83 25 164
82 25 164
82 25 165
81 25 166
81 25 166
80 25 167
80 25 167
79 25 168
79 25 169
78 25 169
78 25 170
77 25 170
77 25 171
76 25 171
76 25 172
75 25 173
75 25 173
74 25 174
74 25 174
73 25 175
73 25 175
72 25 176
72 25 177
71 25 177
71 25 178
70 25 178
70 25 179
69 25 179
69 25 180
68 25 181
68 25 181
67 25 182
66 25 182
66 25 183
65 25 183
65 25 184
64 25 185
64 25 185
63 25 186
63 25 186
62 25 187
62 25 187
61 25 188
61 25 189
60 25 189
60 25 190
59 25 190
59 25 191
58 25 192
58 25 192
57 25 193
57 25 193
56 25 194
56 25 194
55 25 195
55 25 196
54 25 196
54 25 197
53 25 197
53 25 198
52 25 198
52 25 199
51 25 200
51 25 200
50 25 201
50 25 201
49 25 202
49 25 202
48 25 203
48 25 204
47 25 204
47 25 205
46 25 205
46 25 206
45 25 206
45 25 207
44 25 208
44 25 208
43 25 209
42 25 209
42 25 210
41 25 210
41 25 211
40 25 212
40 25 212
39 25 213
39 25 213
38 25 214
38 25 215
37 25 215
37 25 216
36 25 216
36 25 217
35 25 217
35 25 218
34 25 219
34 25 219
33 25 220
33 25 220
32 25 221
32 25 221
31 25 222
31 25 223
30 25 223
30 25 224
29 25 224
29 25 225
28 25 225
28 25 226
27 25 227
27 25 227
26 25 228
26 25 228
25 25 229
230 24 0
230 24 0
229 24 1
229 24 1
228 24 2
228 24 2
227 24 3
227 24 4
226 24 4
225 24 5
225 24 5
224 24 6
224 24 6
223 24 7
223 24 8
222 24 8
222 24 9
221 24 9
221 24 10
220 24 10
220 24 11
219 24 12
219 24 12
218 24 13
218 24 13
217 24 14
217 24 15
216 24 15
216 24 16
215 24 16
215 24 17
214 24 17
214 24 18
213 24 19
213 24 19
212 24 20
212 24 20
211 24 21
211 24 21
210 24 22
209 24 23
209 24 23
208 24 24
208 24 24
207 24 25
207 24 26
206 24 26
206 24 27
205 24 27
205 24 28
204 24 28
204 24 29
203 24 30
203 24 30
202 24 31
202 24 31
201 24 32
201 24 32
200 24 33
200 24 34
199 24 34
199 24 35
198 24 35
198 24 36
197 24 36
197 24 37
196 24 38
196 24 38
195 24 39
194 24 39
194 24 40
193 24 41
193 24 41
192 24 42
192 24 42
191 24 43
191 24 43
190 24 44
190 24 45
189 24 45
189 24 46
188 24 46
188 24 47
187 24 47
187 24 48
186 24 49
186 24 49
185 24 50
185 24 50
184 24 51
184 24 52
183 24 52
183 24 53
182 24 53
182 24 54
181 24 54
181 24 55
180 24 56
179 24 56
179 24 57
178 24 57
178 24 58
177 24 58
177 24 59
176 24 60
176 24 60
175 24 61
175 24 61
174 24 62
174 24 63
173 24 63
173 24 64
172 24 64
172 24 65
171 24 65
171 24 66
170 24 67
170 24 67
169 24 68
169 24 68
168 24 69
168 24 69
167 24 70
167 24 71
166 24 71
166 24 72
165 24 72
164 24 73
164 24 73
163 24 74
163 24 75
162 24 75
162 24 76
161 24 76
161 24 77
160 24 78
160 24 78
159 24 79
159 24 79
158 24 80
158 24 80
157 24 81
157 24 82
156 24 82
156 24 83
155 24 83
155 24 84
154 24 84
154 24 85
153 24 86
153 24 86
152 24 87
152 24 87
151 24 88
151 24 89
150 24 89
149 24 90
149 24 90
148 24 91
148 24 91
147 24 92
147 24 93
146 24 93
146 24 94
145 24 94
145 24 95
144 24 95
144 24 96
143 24 97
143 24 97
142 24 98
142 24 98
141 24 99
141 24 100
140 24 100
140 24 101
139 24 101
139 24 102
138 24 102
138 24 103
137 24 104
137 24 104
136 24 105
136 24 105
135 24 106
134 24 106
134 24 107
133 24 108
133 24 108
132 24 109
132 24 109
131 24 110
131 24 110
130 24 111
130 24 112
129 24 112
129 24 113
128 24 113
128 24 114
127 24 115
127 24 115
126 24 116
126 24 116
125 24 117
125 24 117
124 24 118
124 24 119
123 24 119
123 24 120
122 24 120
122 24 121
121 24 121
121 24 122
120 24 123
120 24 123
119 24 124
118 24 124
118 24 125
117 24 126
117 24 126
116 24 127
116 24 127
115 24 128
115 24 128
114 24 129
114 24 130
113 24 130
113 24 131
112 24 131
112 24 132
111 24 132
111 24 133
110 24 134
110 24 134
109 24 135
109 24 135
108 24 136
108 24 137
107 24 137
107 24 138
106 24 138
106 24 139
105 24 139
105 24 140
104 24 141
103 24 141
103 24 142
102 24 142
102 24 143
101 24 143
101 24 144
100 24 145
100 24 145
99 24 146
99 24 146
98 24 147
98 24 147
97 24 148
97 24 149
96 24 149
96 24 150
95 24 150
95 24 151
94 24 152
94 24 152
93 24 153
93 24 153
92 24 154
92 24 154
91 24 155
91 24 156
90 24 156
90 24 157
89 24 157
88 24 158
88 24 158
87 24 159
87 24 160
86 24 160
86 24 161
85 24 161
85 24 162
84 24 163
84 24 163
83 24 164
83 24 164
82 24 165
82 24 165
81 24 166
81 24 167
80 24 167
80 24 168
79 24 168
79 24 169
78 24 169
78 24 170
77 24 171
77 24 171
76 24 172
76 24 172
75 24 173
75 24 174
74 24 174
73 24 175
73 24 175
72 24 176
72 24 176
71 24 177
71 24 178
70 24 178
70 24 179
69 24 179
69 24 180
68 24 180
68 24 181
67 24 182
67 24 182
66 24 183
66 24 183
65 24 184
65 24 184
64 24 185
64 24 186
63 24 186
63 24 187
62 24 187
62 24 188
61 24 189
61 24 189
60 24 190
60 24 190
59 24 191
58 24 191
58 24 192
57 24 193
57 24 193
56 24 194
56 24 194
55 24 195
55 24 195
54 24 196
54 24 197
53 24 197
53 24 198
52 24 198
52 24 199
51 24 200
51 24 200
50 24 201
50 24 201
49 24 202
49 24 202
48 24 203
48 24 204
47 24 204
47 24 205
46 24 205
46 24 206
45 24 206
45 24 207
44 24 208
43 24 208
43 24 209
42 24 209
42 24 210
41 24 210
41 24 211
40 24 212
40 24 212
39 24 213
39 24 213
38 24 214
38 24 215
37 24 215
37 24 216
36 24 216
36 24 217
35 24 217
35 24 218
34 24 219
34 24 219
33 24 220
33 24 220
32 24 221
32 24 221
31 24 222
31 24 223
30 24 223
30 24 224
29 24 224
29 24 225
28 24 226
27 24 226
27 24 227
26 24 227
26 24 228
25 24 228
25 24 229
24 24 230
24 24 230
231 23 0
231 23 0
230 23 1
230 23 1
229 23 2
229 23 2
228 23 3
228 23 4
227 23 4
227 23 5
226 23 5
226 23 6
225 23 6
225 23 7
224 23 8
224 23 8
223 23 9
223 23 9
222 23 10
221 23 11
221 23 11
220 23 12
220 23 12
219 23 13
219 23 13
218 23 14
218 23 15
217 23 15
217 23 16
216 23 16
216 23 17
215 23 18
215 23 18
214 23 19
214 23 19
213 23 20
213 23 20
212 23 21
212 23 22
211 23 22
210 23 23
210 23 23
209 23 24
209 23 24
208 23 25
208 23 26
207 23 26
207 23 27
206 23 27
206 23 28
205 23 29
205 23 29
204 23 30
204 23 30
203 23 31
203 23 31
202 23 32
202 23 33
201 23 33
201 23 34
200 23 34
200 23 35
199 23 36
198 23 36
198 23 37
197 23 37
197 23 38
196 23 38
196 23 39
195 23 40
195 23 40
194 23 41
194 23 41
193 23 42
193 23 43
192 23 43
192 23 44
191 23 44
191 23 45
190 23 45
190 23 46
189 23 47
189 23 47
188 23 48
187 23 48
187 23 49
186 23 49
186 23 50
185 23 51
185 23 51
184 23 52
184 23 52
183 23 53
183 23 54
182 23 54
182 23 55
181 23 55
181 23 56
180 23 56
180 23 57
179 23 58
179 23 58
178 23 59
178 23 59
177 23 60
176 23 61
176 23 61
175 23 62
175 23 62
174 23 63
174 23 63
173 23 64
173 23 65
172 23 65
172 23 66
171 23 66
171 23 67
170 23 68
170 23 68
169 23 69
169 23 69
168 23 70
168 23 70
167 23 71
167 23 72
166 23 72
165 23 73
165 23 73
164 23 74
164 23 74
163 23 75
163 23 76
162 23 76
162 23 77
161 23 77
161 23 78
160 23 79
160 23 79
159 23 80
159 23 80
158 23 81
158 23 81
157 23 82
157 23 83
156 23 83
156 23 84
155 23 84
154 23 85
154 23 86
153 23 86
153 23 87
152 23 87
152 23 88
151 23 88
151 23 89
150 23 90
150 23 90
149 23 91
149 23 91
148 23 92
148 23 93
147 23 93
147 23 94
146 23 94
146 23 95
145 23 95
145 23 96
144 23 97
143 23 97
143 23 98
142 23 98
142 23 99
141 23 99
141 23 100
140 23 101
140 23 101
139 23 102
139 23 102
138 23 103
138 23 104
137 23 104
137 23 105
136 23 105
136 23 106
135 23 106
135 23 107
134 23 108
134 23 108
133 23 109
132 23 109
132 23 110
131 23 111
131 23 111
130 23 112
130 23 112
129 23 113
129 23 113
128 23 114
128 23 115
127 23 115
127 23 116
126 23 116
126 23 117
125 23 118
125 23 118
124 23 119
124 23 119
123 23 120
123 23 120
122 23 121
122 23 122
121 23 122
120 23 123
120 23 123
119 23 124
119 23 124
118 23 125
118 23 126
117 23 126
117 23 127
116 23 127
116 23 128
115 23 129
115 23 129
114 23 130
114 23 130
113 23 131
113 23 131
112 23 132
112 23 133
111 23 133
111 23 134
110 23 134
109 23 135
109 23 136
108 23 136
108 23 137
107 23 137
107 23 138
106 23 138
106 23 139
105 23 140
105 23 140
104 23 141
104 23 141
103 23 142
103 23 142
102 23 143
102 23 144
101 23 144
101 23 145
100 23 145
100 23 146
99 23 147
98 23 147
98 23 148
97 23 148
97 23 149
96 23 149
96 23 150
95 23 151
95 23 151
94 23 152
94 23 152
93 23 153
93 23 154
92 23 154
92 23 155
91 23 155
91 23 156
90 23 156
90 23 157
89 23 158
89 23 158
88 23 159
87 23 159
87 23 160
86 23 161
86 23 161
85 23 162
85 23 162
84 23 163
84 23 163
83 23 164
83 23 165
82 23 165
82 23 166
81 23 166
81 23 167
80 23 167
80 23 168
79 23 169
79 23 169
78 23 170
78 23 170
77 23 171
76 23 172
76 23 172
75 23 173
75 23 173
74 23 174
74 23 174
73 23 175
73 23 176
72 23 176
72 23 177
71 23 177
71 23 178
70 23 179
70 23 179
69 23 180
69 23 180
68 23 181
68 23 181
67 23 182
67 23 183
66 23 183
65 23 184
65 23 184
64 23 185
64 23 186
63 23 186
63 23 187
62 23 187
62 23 188
61 23 188
61 23 189
60 23 190
60 23 190
59 23 191
59 23 191
58 23 192
58 23 192
57 23 193
57 23 194
56 23 194
56 23 195
55 23 195
54 23 196
54 23 197
53 23 197
53 23 198
52 23 198
52 23 199
51 23 199
51 23 200
50 23 201
50 23 201
49 23 202
49 23 202
48 23 203
48 23 204
47 23 204
47 23 205
46 23 205
46 23 206
45 23 206
45 23 207
44 23 208
44 23 208
43 23 209
42 23 209
42 23 210
41 23 211
41 23 211
40 23 212
40 23 212
39 23 213
39 23 213
38 23 214
38 23 215
37 23 215
37 23 216
36 23 216
36 23 217
35 23 217
35 23 218
34 23 219
34 23 219
33 23 220
33 23 220
32 23 221
31 23 222
31 23 222
30 23 223
30 23 223
29 23 224
29 23 224
28 23 225
28 23 226
27 23 226
27 23 227
26 23 227
26 23 228
25 23 229
25 23 229
24 23 230
24 23 230
23 23 231
23 23 231
233 21 0
232 21 0
232 21 1
231 21 1
231 21 2
230 21 2
230 21 3
229 21 4
228 21 4
228 21 5
227 21 5
227 21 6
226 21 7
226 21 7
225 21 8
225 21 8
224 21 9
224 21 9
223 21 10
223 21 11
222 21 11
222 21 12
221 21 12
221 21 13
220 21 14
219 21 14
219 21 15
218 21 15
218 21 16
217 21 16
217 21 17
216 21 18
216 21 18
215 21 19
215 21 19
214 21 20
214 21 21
213 21 21
213 21 22
212 21 22
212 21 23
211 21 23
210 21 24
210 21 25
209 21 25
209 21 26
208 21 26
208 21 27
207 21 28
207 21 28
206 21 29
206 21 29
205 21 30
205 21 30
204 21 31
204 21 32
203 21 32
203 21 33
202 21 33
201 21 34
201 21 35
200 21 35
200 21 36
199 21 36
199 21 37
198 21 37
198 21 38
197 21 39
197 21 39
196 21 40
196 21 40
195 21 41
195 21 42
194 21 42
194 21 43
193 21 43
192 21 44
192 21 45
191 21 45
191 21 46
190 21 46
190 21 47
189 21 47
189 21 48
188 21 49
188 21 49
187 21 50
187 21 50
186 21 51
186 21 52
185 21 52
184 21 53
184 21 53
183 21 54
183 21 54
182 21 55
182 21 56
181 21 56
181 21 57
180 21 57
180 21 58
179 21 59
179 21 59
178 21 60
178 21 60
177 21 61
177 21 61
176 21 62
175 21 63
175 21 63
174 21 64
174 21 64
173 21 65
173 21 66
172 21 66
172 21 67
171 21 67
171 21 68
170 21 68
170 21 69
169 21 70
169 21 70
168 21 71
168 21 71
167 21 72
166 21 73
166 21 73
165 21 74
165 21 74
164 21 75
164 21 75
163 21 76
163 21 77
162 21 77
162 21 78
161 21 78
161 21 79
160 21 80
160 21 80
159 21 81
159 21 81
158 21 82
157 21 82
157 21 83
156 21 84
156 21 84
155 21 85
155 21 85
154 21 86
154 21 87
153 21 87
153 21 88
152 21 88
152 21 89
151 21 90
151 21 90
150 21 91
150 21 91
149 21 92
148 21 92
148 21 93
147 21 94
147 21 94
146 21 95
146 21 95
145 21 96
145 21 97
144 21 97
144 21 98
143 21 98
143 21 99
142 21 99
142 21 100
141 21 101
141 21 101
140 21 102
139 21 102
139 21 103
138 21 104
138 21 104
137 21 105
137 21 105
136 21 106
136 21 106
135 21 107
135 21 108
134 21 108
134 21 109
133 21 109
133 21 110
132 21 111
132 21 111
131 21 112
130 21 112
130 21 113
129 21 113
129 21 114
128 21 115
128 21 115
127 21 116
127 21 116
126 21 117
126 21 118
125 21 118
125 21 119
124 21 119
124 21 120
123 21 120
122 21 121
122 21 122
121 21 122
121 21 123
120 21 123
120 21 124
119 21 125
119 21 125
118 21 126
118 21 126
117 21 127
117 21 128
116 21 128
116 21 129
115 21 129
115 21 130
114 21 130
113 21 131
113 21 132
112 21 132
112 21 133
111 21 133
111 21 134
110 21 135
110 21 135
109 21 136
109 21 136
108 21 137
108 21 137
107 21 138
107 21 139
106 21 139
106 21 140
105 21 140
104 21 141
104 21 142
103 21 142
103 21 143
102 21 143
102 21 144
101 21 144
101 21 145
100 21 146
100 21 146
99 21 147
99 21 147
98 21 148
98 21 149
97 21 149
97 21 150
96 21 150
95 21 151
95 21 151
94 21 152
94 21 153
93 21 153
93 21 154
92 21 154
92 21 155
91 21 156
91 21 156
90 21 157
90 21 157
89 21 158
89 21 158
88 21 159
88 21 160
87 21 160
86 21 161
86 21 161
85 21 162
85 21 163
84 21 163
84 21 164
83 21 164
83 21 165
82 21 165
82 21 166
81 21 167
81 21 167
80 21 168
80 21 168
79 21 169
79 21 170
78 21 170
77 21 171
77 21 171
76 21 172
76 21 173
75 21 173
75 21 174
74 21 174
74 21 175
73 21 175
73 21 176
72 21 177
72 21 177
71 21 178
71 21 178
70 21 179
70 21 180
69 21 180
68 21 181
68 21 181
67 21 182
67 21 182
66 21 183
66 21 184
65 21 184
65 21 185
64 21 185
64 21 186
63 21 187
63 21 187
62 21 188
62 21 188
61 21 189
60 21 189
60 21 190
59 21 191
59 21 191
58 21 192
58 21 192
57 21 193
57 21 194
56 21 194
56 21 195
55 21 195
55 21 196
54 21 196
54 21 197
53 21 198
53 21 198
52 21 199
51 21 199
51 21 200
50 21 201
50 21 201
49 21 202
49 21 202
48 21 203
48 21 203
47 21 204
47 21 205
46 21 205
46 21 206
45 21 206
45 21 207
44 21 208
44 21 208
43 21 209
42 21 209
42 21 210
41 21 211
41 21 211
40 21 212
40 21 212
39 21 213
39 21 213
38 21 214
38 21 215
37 21 215
37 21 216
36 21 216
36 21 217
35 21 218
35 21 218
34 21 219
33 21 219
33 21 220
32 21 220
32 21 221
31 21 222
31 21 222
30 21 223
30 21 223
29 21 224
29 21 225
28 21 225
28 21 226
27 21 226
27 21 227
26 21 227
26 21 228
25 21 229
24 21 229
24 21 230
23 21 230
23 21 231
22 21 232
22 21 232
21 21 233
234 20 0
233 20 0
233 20 1
232 20 1
232 20 2
231 20 2
231 20 3
230 20 4
230 20 4
229 20 5
229 20 5
228 20 6
228 20 7
227 20 7
226 20 8
226 20 8
225 20 9
225 20 9
224 20 10
224 20 11
223 20 11
223 20 12
222 20 12
222 20 13
221 20 14
221 20 14
220 20 15
220 20 15
219 20 16
218 20 17
218 20 17
217 20 18
217 20 18
216 20 19
216 20 19
215 20 20
215 20 21
214 20 21
214 20 22
213 20 22
213 20 23
212 20 24
211 20 24
211 20 25
210 20 25
210 20 26
209 20 27
209 20 27
208 20 28
208 20 28
207 20 29
207 20 29
206 20 30
206 20 31
205 20 31
204 20 32
204 20 32
203 20 33
203 20 34
202 20 34
202 20 35
201 20 35
201 20 36
200 20 37
200 20 37
199 20 38
199 20 38
198 20 39
198 20 39
197 20 40
196 20 41
196 20 41
195 20 42
195 20 42
194 20 43
194 20 44
193 20 44
193 20 45
192 20 45
192 20 46
191 20 47
191 20 47
190 20 48
189 20 48
189 20 49
188 20 49
188 20 50
187 20 51
187 20 51
186 20 52
186 20 52
185 20 53
185 20 54
184 20 54
184 20 55
183 20 55
183 20 56
182 20 57
181 20 57
181 20 58
180 20 58
180 20 59
179 20 59
179 20 60
178 20 61
178 20 61
177 20 62
177 20 62
176 20 63
176 20 64
175 20 64
174 20 65
174 20 65
173 20 66
173 20 66
172 20 67
172 20 68
171 20 68
171 20 69
170 20 69
170 20 70
169 20 71
169 20 71
168 20 72
167 20 72
167 20 73
166 20 74
166 20 74
165 20 75
165 20 75
164 20 76
164 20 76
163 20 77
163 20 78
162 20 78
162 20 79
161 20 79
161 20 80
160 20 81
159 20 81
159 20 82
158 20 82
158 20 83
157 20 84
157 20 84
156 20 85
156 20 85
155 20 86
155 20 86
154 20 87
154 20 88
153 20 88
152 20 89
152 20 89
151 20 90
151 20 91
150 20 91
150 20 92
149 20 92
149 20 93
148 20 94
148 20 94
147 20 95
147 20 95
146 20 96
146 20 96
145 20 97
144 20 98
144 20 98
143 20 99
143 20 99
142 20 100
142 20 101
141 20 101
141 20 102
140 20 102
140 20 103
139 20 104
139 20 104
138 20 105
137 20 105
137 20 106
136 20 106
136 20 107
135 20 108
135 20 108
134 20 109
134 20 109
133 20 110
133 20 111
132 20 111
132 20 112
131 20 112
130 20 113
130 20 114
129 20 114
129 20 115
128 20 115
128 20 116
127 20 116
127 20 117
126 20 118
126 20 118
125 20 119
125 20 119
124 20 120
124 20 121
123 20 121
122 20 122
122 20 122
121 20 123
121 20 124
120 20 124
120 20 125
119 20 125
119 20 126
118 20 126
118 20 127
117 20 128
117 20 128
116 20 129
115 20 129
115 20 130
114 20 131
114 20 131
113 20 132
113 20 132
112 20 133
112 20 133
111 20 134
111 20 135
110 20 135
110 20 136
109 20 136
108 20 137
108 20 138
107 20 138
107 20 139
106 20 139
106 20 140
105 20 141
105 20 141
104 20 142
104 20 142
103 20 143
103 20 143
102 20 144
102 20 145
101 20 145
100 20 146
100 20 146
99 20 147
99 20 148
98 20 148
98 20 149
97 20 149
97 20 150
96 20 151
96 20 151
95 20 152
95 20 152
94 20 153
93 20 153
93 20 154
92 20 155
92 20 155
91 20 156
91 20 156
90 20 157
90 20 158
89 20 158
89 20 159
88 20 159
88 20 160
87 20 161
87 20 161
86 20 162
85 20 162
85 20 163
84 20 163
84 20 164
83 20 165
83 20 165
82 20 166
82 20 166
81 20 167
81 20 168
80 20 168
80 20 169
79 20 169
78 20 170
78 20 171
77 20 171
77 20 172
76 20 172
76 20 173
75 20 173
75 20 174
74 20 175
74 20 175
73 20 176
73 20 176
72 20 177
71 20 178
71 20 178
70 20 179
70 20 179
69 20 180
69 20 181
68 20 181
68 20 182
67 20 182
67 20 183
66 20 183
66 20 184
65 20 185
65 20 185
64 20 186
63 20 186
63 20 187
62 20 188
62 20 188
61 20 189
61 20 189
60 20 190
60 20 191
59 20 191
59 20 192
58 20 192
58 20 193
57 20 193
56 20 194
56 20 195
55 20 195
55 20 196
54 20 196
54 20 197
53 20 198
53 20 198
52 20 199
52 20 199
51 20 200
51 20 200
50 20 201
50 20 202
49 20 202
48 20 203
48 20 203
47 20 204
47 20 205
46 20 205
46 20 206
45 20 206
45 20 207
44 20 208
44 20 208
43 20 209
43 20 209
42 20 210
41 20 210
41 20 211
40 20 212
40 20 212
39 20 213
39 20 213
38 20 214
38 20 215
37 20 215
37 20 216
36 20 216
36 20 217
35 20 218
34 20 218
34 20 219
33 20 219
33 20 220
32 20 220
32 20 221
31 20 222
31 20 222
30 20 223
30 20 223
29 20 224
29 20 225
28 20 225
28 20 226
27 20 226
26 20 227
26 20 228
25 20 228
25 20 229
24 20 229
24 20 230
23 20 230
23 20 231
22 20 232
22 20 232
21 20 233
21 20 233
20 20 234
235 19 0
235 19 0
234 19 1
234 19 1
233 19 2
233 19 2
232 19 3
231 19 4
231 19 4
230 19 5
230 19 5
229 19 6
229 19 7
228 19 7
228 19 8
227 19 8
227 19 9
226 19 10
226 19 10
225 19 11
224 19 11
224 19 12
223 19 13
223 19 13
222 19 14
222 19 14
221 19 15
221 19 15
220 19 16
220 19 17
219 19 17
218 19 18
218 19 18
217 19 19
217 19 20
216 19 20
216 19 21
215 19 21
215 19 22
214 19 23
214 19 23
213 19 24
212 19 24
212 19 25
211 19 26
211 19 26
210 19 27
210 19 27
209 19 28
209 19 28
208 19 29
208 19 30
207 19 30
207 19 31
206 19 31
205 19 32
205 19 33
204 19 33
204 19 34
203 19 34
203 19 35
202 19 36
202 19 36
201 19 37
201 19 37
200 19 38
199 19 39
199 19 39
198 19 40
198 19 40
197 19 41
197 19 41
196 19 42
196 19 43
195 19 43
195 19 44
194 19 44
193 19 45
193 19 46
192 19 46
192 19 47
191 19 47
191 19 48
190 19 49
190 19 49
189 19 50
189 19 50
188 19 51
188 19 52
187 19 52
186 19 53
186 19 53
185 19 54
185 19 54
184 19 55
184 19 56
183 19 56
183 19 57
182 19 57
182 19 58
181 19 59
180 19 59
180 19 60
179 19 60
179 19 61
178 19 62
178 19 62
177 19 63
177 19 63
176 19 64
176 19 65
175 19 65
174 19 66
174 19 66
173 19 67
173 19 67
172 19 68
172 19 69
171 19 69
171 19 70
170 19 70
170 19 71
169 19 72
169 19 72
168 19 73
167 19 73
167 19 74
166 19 75
166 19 75
165 19 76
165 19 76
164 19 77
164 19 78
163 19 78
163 19 79
162 19 79
161 19 80
161 19 80
160 19 81
160 19 82
159 19 82
159 19 83
158 19 83
158 19 84
157 19 85
157 19 85
156 19 86
155 19 86
155 19 87
154 19 88
154 19 88
153 19 89
153 19 89
152 19 90
152 19 91
151 19 91
151 19 92
150 19 92
150 19 93
149 19 93
148 19 94
148 19 95
147 19 95
147 19 96
146 19 96
146 19 97
145 19 98
145 19 98
144 19 99
144 19 99
143 19 100
142 19 101
142 19 101
141 19 102
141 19 102
140 19 103
140 19 104
139 19 104
139 19 105
138 19 105
138 19 106
137 19 106
136 19 107
136 19 108
135 19 108
135 19 109
134 19 109
134 19 110
133 19 111
133 19 111
132 19 112
132 19 112
131 19 113
131 19 114
130 19 114
129 19 115
129 19 115
128 19 116
128 19 117
127 19 117
127 19 118
126 19 118
126 19 119
125 19 119
125 19 120
124 19 121
123 19 121
123 19 122
122 19 122
122 19 123
121 19 124
121 19 124
120 19 125
120 19 125
119 19 126
119 19 127
118 19 127
118 19 128
117 19 128
116 19 129
116 19 130
115 19 130
115 19 131
114 19 131
114 19 132
113 19 132
113 19 133
112 19 134
112 19 134
111 19 135
110 19 135
110 19 136
109 19 137
109 19 137
108 19 138
108 19 138
107 19 139
107 19 140
106 19 140
106 19 141
105 19 141
104 19 142
104 19 143
103 19 143
103 19 144
102 19 144
102 19 145
101 19 145
101 19 146
100 19 147
100 19 147
99 19 148
99 19 148
98 19 149
97 19 150
97 19 150
96 19 151
96 19 151
95 19 152
95 19 153
94 19 153
94 19 154
93 19 154
93 19 155
92 19 156
91 19 156
91 19 157
90 19 157
90 19 158
89 19 158
89 19 159
88 19 160
88 19 160
87 19 161
87 19 161
86 19 162
85 19 163
85 19 163
84 19 164
84 19 164
83 19 165
83 19 166
82 19 166
82 19 167
81 19 167
81 19 168
80 19 169
80 19 169
79 19 170
78 19 170
78 19 171
77 19 171
77 19 172
76 19 173
76 19 173
75 19 174
75 19 174
74 19 175
74 19 176
73 19 176
72 19 177
72 19 177
71 19 178
71 19 179
70 19 179
70 19 180
69 19 180
69 19 181
68 19 182
68 19 182
67 19 183
66 19 183
66 19 184
65 19 184
65 19 185
64 19 186
64 19 186
63 19 187
63 19 187
62 19 188
62 19 189
61 19 189
61 19 190
60 19 190
59 19 191
59 19 192
58 19 192
58 19 193
57 19 193
57 19 194
56 19 195
56 19 195
55 19 196
55 19 196
54 19 197
53 19 197
53 19 198
52 19 199
52 19 199
51 19 200
51 19 200
50 19 201
50 19 202
49 19 202
49 19 203
48 19 203
47 19 204
47 19 205
46 19 205
46 19 206
45 19 206
45 19 207
44 19 208
44 19 208
43 19 209
43 19 209
42 19 210
42 19 210
41 19 211
40 19 212
40 19 212
39 19 213
39 19 213
38 19 214
38 19 215
37 19 215
37 19 216
36 19 216
36 19 217
35 19 218
34 19 218
34 19 219
33 19 219
33 19 220
32 19 221
32 19 221
31 19 222
31 19 222
30 19 223
30 19 223
29 19 224
28 19 225
28 19 225
27 19 226
27 19 226
26 19 227
26 19 228
25 19 228
25 19 229
24 19 229
24 19 230
23 19 231
23 19 231
22 19 232
21 19 232
21 19 233
20 19 234
20 19 234
19 19 235
19 19 235
237 17 0
236 17 0
235 17 1
235 17 1
234 17 2
234 17 2
233 17 3
233 17 4
232 17 4
232 17 5
231 17 5
231 17 6
230 17 7
229 17 7
229 17 8
228 17 8
228 17 9
227 17 10
227 17 10
226 17 11
226 17 11
225 17 12
224 17 13
224 17 13
223 17 14
223 17 14
222 17 15
222 17 16
221 17 16
221 17 17
220 17 17
220 17 18
219 17 19
218 17 19
218 17 20
217 17 20
217 17 21
216 17 21
216 17 22
215 17 23
215 17 23
214 17 24
213 17 24
213 17 25
212 17 26
212 17 26
211 17 27
211 17 27
210 17 28
210 17 29
209 17 29
209 17 30
208 17 30
207 17 31
207 17 32
206 17 32
206 17 33
205 17 33
205 17 34
204 17 35
204 17 35
203 17 36
203 17 36
202 17 37
201 17 38
201 17 38
200 17 39
200 17 39
199 17 40
199 17 40
198 17 41
198 17 42
197 17 42
196 17 43
196 17 43
195 17 44
195 17 45
194 17 45
194 17 46
193 17 46
193 17 47
192 17 48
192 17 48
191 17 49
190 17 49
190 17 50
189 17 51
189 17 51
188 17 52
188 17 52
187 17 53
187 17 54
186 17 54
185 17 55
185 17 55
184 17 56
184 17 57
183 17 57
183 17 58
182 17 58
182 17 59
181 17 60
181 17 60
180 17 61
179 17 61
179 17 62
178 17 62
178 17 63
177 17 64
177 17 64
176 17 65
176 17 65
175 17 66
175 17 67
174 17 67
173 17 68
173 17 68
172 17 69
172 17 70
171 17 70
171 17 71
170 17 71
170 17 72
169 17 73
168 17 73
168 17 74
167 17 74
167 17 75
166 17 76
166 17 76
165 17 77
165 17 77
164 17 78
164 17 79
163 17 79
162 17 80
162 17 80
161 17 81
161 17 81
160 17 82
160 17 83
159 17 83
159 17 84
158 17 84
157 17 85
157 17 86
156 17 86
156 17 87
155 17 87
155 17 88
154 17 89
154 17 89
153 17 90
153 17 90
152 17 91
151 17 92
151 17 92
150 17 93
150 17 93
149 17 94
149 17 95
148 17 95
148 17 96
147 17 96
146 17 97
146 17 98
145 17 98
145 17 99
144 17 99
144 17 100
143 17 101
143 17 101
142 17 102
142 17 102
141 17 103
140 17 103
140 17 104
139 17 105
139 17 105
138 17 106
138 17 106
137 17 107
137 17 108
136 17 108
136 17 109
135 17 109
134 17 110
134 17 111
133 17 111
133 17 112
132 17 112
132 17 113
131 17 114
131 17 114
130 17 115
129 17 115
129 17 116
128 17 117
128 17 117
127 17 118
127 17 118
126 17 119
126 17 120
125 17 120
125 17 121
124 17 121
123 17 122
123 17 122
122 17 123
122 17 124
121 17 124
121 17 125
120 17 125
120 17 126
119 17 127
118 17 127
118 17 128
117 17 128
117 17 129
116 17 130
116 17 130
115 17 131
115 17 131
114 17 132
114 17 133
113 17 133
112 17 134
112 17 134
111 17 135
111 17 136
110 17 136
110 17 137
109 17 137
109 17 138
108 17 139
108 17 139
107 17 140
106 17 140
106 17 141
105 17 141
105 17 142
104 17 143
104 17 143
103 17 144
103 17 144
102 17 145
101 17 146
101 17 146
100 17 147
100 17 147
99 17 148
99 17 149
98 17 149
98 17 150
97 17 150
97 17 151
96 17 152
95 17 152
95 17 153
94 17 153
94 17 154
93 17 155
93 17 155
92 17 156
92 17 156
91 17 157
90 17 158
90 17 158
89 17 159
89 17 159
88 17 160
88 17 161
87 17 161
87 17 162
86 17 162
86 17 163
85 17 163
84 17 164
84 17 165
83 17 165
83 17 166
82 17 166
82 17 167
81 17 168
81 17 168
80 17 169
79 17 169
79 17 170
78 17 171
78 17 171
77 17 172
77 17 172
76 17 173
76 17 174
75 17 174
75 17 175
74 17 175
73 17 176
73 17 177
72 17 177
72 17 178
71 17 178
71 17 179
70 17 180
70 17 180
69 17 181
69 17 181
68 17 182
67 17 182
67 17 183
66 17 184
66 17 184
65 17 185
65 17 185
64 17 186
64 17 187
63 17 187
62 17 188
62 17 188
61 17 189
61 17 190
60 17 190
60 17 191
59 17 191
59 17 192
58 17 193
58 17 193
57 17 194
56 17 194
56 17 195
55 17 196
55 17 196
54 17 197
54 17 197
53 17 198
53 17 199
52 17 199
51 17 200
51 17 200
50 17 201
50 17 202
49 17 202
49 17 203
48 17 203
48 17 204
47 17 204
47 17 205
46 17 206
45 17 206
45 17 207
44 17 207
44 17 208
43 17 209
43 17 209
42 17 210
42 17 210
41 17 211
41 17 212
40 17 212
39 17 213
39 17 213
38 17 214
38 17 215
37 17 215
37 17 216
36 17 216
36 17 217
35 17 218
34 17 218
34 17 219
33 17 219
33 17 220
32 17 221
32 17 221
31 17 222
31 17 222
30 17 223
30 17 223
29 17 224
28 17 225
28 17 225
27 17 226
27 17 226
26 17 227
26 17 228
25 17 228
25 17 229
24 17 229
23 17 230
23 17 231
22 17 231
22 17 232
21 17 232
21 17 233
20 17 234
20 17 234
19 17 235
19 17 235
18 17 236
17 17 237
238 16 0
237 16 0
237 16 1
236 16 1
236 16 2
235 16 2
235 16 3
234 16 4
233 16 4
233 16 5
232 16 5
232 16 6
231 16 7
231 16 7
230 16 8
230 16 8
229 16 9
228 16 10
228 16 10
227 16 11
227 16 11
226 16 12
226 16 13
225 16 13
225 16 14
224 16 14
223 16 15
223 16 16
222 16 16
222 16 17
221 16 17
221 16 18
220 16 19
220 16 19
219 16 20
218 16 20
218 16 21
217 16 22
217 16 22
216 16 23
216 16 23
215 16 24
215 16 25
214 16 25
213 16 26
213 16 26
212 16 27
212 16 28
211 16 28
211 16 29
210 16 29
210 16 30
209 16 31
208 16 31
208 16 32
207 16 32
207 16 33
206 16 34
206 16 34
205 16 35
205 16 35
204 16 36
203 16 37
203 16 37
202 16 38
202 16 38
201 16 39
201 16 40
200 16 40
200 16 41
199 16 41
198 16 42
198 16 43
197 16 43
197 16 44
196 16 44
196 16 45
195 16 45
195 16 46
194 16 47
193 16 47
193 16 48
192 16 48
192 16 49
191 16 50
191 16 50
190 16 51
190 16 51
189 16 52
188 16 53
188 16 53
187 16 54
187 16 54
186 16 55
186 16 56
185 16 56
185 16 57
184 16 57
183 16 58
183 16 59
182 16 59
182 16 60
181 16 60
181 16 61
180 16 62
180 16 62
179 16 63
178 16 63
178 16 64
177 16 65
177 16 65
176 16 66
176 16 66
175 16 67
175 16 68
174 16 68
173 16 69
173 16 69
172 16 70
172 16 71
171 16 71
171 16 72
170 16 72
170 16 73
169 16 74
168 16 74
168 16 75
167 16 75
167 16 76
166 16 77
166 16 77
165 16 78
165 16 78
164 16 79
163 16 80
163 16 80
162 16 81
162 16 81
161 16 82
161 16 83
160 16 83
160 16 84
159 16 84
158 16 85
158 16 86
157 16 86
157 16 87
156 16 87
156 16 88
155 16 89
155 16 89
154 16 90
153 16 90
153 16 91
152 16 91
152 16 92
151 16 93
151 16 93
150 16 94
150 16 94
149 16 95
148 16 96
148 16 96
147 16 97
147 16 97
146 16 98
146 16 99
145 16 99
145 16 100
144 16 100
143 16 101
143 16 102
142 16 102
142 16 103
141 16 103
141 16 104
140 16 105
140 16 105
139 16 106
138 16 106
138 16 107
137 16 108
137 16 108
136 16 109
136 16 109
135 16 110
135 16 111
134 16 111
133 16 112
133 16 112
132 16 113
132 16 114
131 16 114
131 16 115
130 16 115
130 16 116
129 16 117
128 16 117
128 16 118
127 16 118
127 16 119
126 16 120
126 16 120
125 16 121
124 16 121
124 16 122
123 16 123
123 16 123
122 16 124
122 16 124
121 16 125
121 16 126
120 16 126
119 16 127
119 16 127
118 16 128
118 16 129
117 16 129
117 16 130
116 16 130
116 16 131
115 16 132
114 16 132
114 16 133
113 16 133
113 16 134
112 16 135
112 16 135
111 16 136
111 16 136
110 16 137
109 16 137
109 16 138
108 16 139
108 16 139
107 16 140
107 16 140
106 16 141
106 16 142
105 16 142
104 16 143
104 16 143
103 16 144
103 16 145
102 16 145
102 16 146
101 16 146
101 16 147
100 16 148
99 16 148
99 16 149
98 16 149
98 16 150
97 16 151
97 16 151
96 16 152
96 16 152
95 16 153
94 16 154
94 16 154
93 16 155
93 16 155
92 16 156
92 16 157
91 16 157
91 16 158
90 16 158
89 16 159
89 16 160
88 16 160
88 16 161
87 16 161
87 16 162
86 16 163
86 16 163
85 16 164
84 16 164
84 16 165
83 16 166
83 16 166
82 16 167
82 16 167
81 16 168
81 16 169
80 16 169
79 16 170
79 16 170
78 16 171
78 16 172
77 16 172
77 16 173
76 16 173
76 16 174
75 16 175
74 16 175
74 16 176
73 16 176
73 16 177
72 16 178
72 16 178
71 16 179
71 16 179
70 16 180
69 16 180
69 16 181
68 16 182
68 16 182
67 16 183
67 16 183
66 16 184
66 16 185
65 16 185
64 16 186
64 16 186
63 16 187
63 16 188
62 16 188
62 16 189
61 16 189
61 16 190
60 16 191
59 16 191
59 16 192
58 16 192
58 16 193
57 16 194
57 16 194
56 16 195
56 16 195
55 16 196
54 16 197
54 16 197
53 16 198
53 16 198
52 16 199
52 16 200
51 16 200
51 16 201
50 16 201
49 16 202
49 16 203
48 16 203
48 16 204
47 16 204
47 16 205
46 16 206
46 16 206
45 16 207
44 16 207
44 16 208
43 16 209
43 16 209
42 16 210
42 16 210
41 16 211
41 16 212
40 16 212
39 16 213
39 16 213
38 16 214
38 16 215
37 16 215
37 16 216
36 16 216
36 16 217
35 16 218
34 16 218
34 16 219
33 16 219
33 16 220
32 16 221
32 16 221
31 16 222
31 16 222
30 16 223
29 16 224
29 16 224
28 16 225
28 16 225
27 16 226
27 16 226
26 16 227
26 16 228
25 16 228
24 16 229
24 16 229
23 16 230
23 16 231
22 16 231
22 16 232
21 16 232
21 16 233
20 16 234
19 16 234
19 16 235
18 16 235
18 16 236
17 16 237
17 16 237
16 16 238
239 15 0
239 15 0
238 15 1
237 15 1
237 15 2
236 15 3
236 15 3
235 15 4
235 15 4
234 15 5
234 15 6
233 15 6
232 15 7
232 15 7
231 15 8
231 15 9
230 15 9
230 15 10
229 15 10
228 15 11
228 15 12
227 15 12
227 15 13
226 15 13
226 15 14
225 15 15
225 15 15
224 15 16
223 15 16
223 15 17
222 15 18
222 15 18
221 15 19
221 15 19
220 15 20
219 15 21
219 15 21
218 15 22
218 15 22
217 15 23
217 15 24
216 15 24
216 15 25
215 15 25
214 15 26
214 15 27
213 15 27
213 15 28
212 15 28
212 15 29
211 15 30
210 15 30
210 15 31
209 15 31
209 15 32
208 15 33
208 15 33
207 15 34
207 15 34
206 15 35
205 15 36
205 15 36
204 15 37
204 15 37
203 15 38
203 15 39
202 15 39
201 15 40
201 15 40
200 15 41
200 15 42
199 15 42
199 15 43
198 15 43
198 15 44
197 15 45
196 15 45
196 15 46
195 15 46
195 15 47
194 15 48
194 15 48
193 15 49
192 15 49
192 15 50
191 15 51
191 15 51
190 15 52
190 15 52
189 15 53
189 15 54
188 15 54
187 15 55
187 15 55
186 15 56
186 15 57
185 15 57
185 15 58
184 15 58
183 15 59
183 15 60
182 15 60
182 15 61
181 15 61
181 15 62
180 15 63
180 15 63
179 15 64
178 15 64
178 15 65
177 15 66
177 15 66
176 15 67
176 15 67
175 15 68
174 15 69
174 15 69
173 15 70
173 15 70
172 15 71
172 15 72
171 15 72
171 15 73
170 15 73
169 15 74
169 15 75
168 15 75
168 15 76
167 15 76
167 15 77
166 15 78
165 15 78
165 15 79
164 15 79
164 15 80
163 15 81
163 15 81
162 15 82
162 15 82
161 15 83
160 15 84
160 15 84
159 15 85
159 15 85
158 15 86
158 15 87
157 15 87
157 15 88
156 15 88
155 15 89
155 15 90
154 15 90
154 15 91
153 15 91
153 15 92
152 15 93
151 15 93
151 15 94
150 15 94
150 15 95
149 15 96
149 15 96
148 15 97
148 15 97
147 15 98
146 15 99
146 15 99
145 15 100
145 15 100
144 15 101
144 15 102
143 15 102
142 15 103
142 15 103
141 15 104
141 15 105
140 15 105
140 15 106
139 15 106
139 15 107
138 15 108
137 15 108
137 15 109
136 15 109
136 15 110
135 15 111
135 15 111
134 15 112
133 15 112
133 15 113
132 15 114
132 15 114
131 15 115
131 15 115
130 15 116
130 15 117
129 15 117
128 15 118
128 15 118
127 15 119
127 15 120
126 15 120
126 15 121
125 15 121
124 15 122
124 15 123
123 15 123
123 15 124
122 15 124
122 15 125
121 15 126
121 15 126
120 15 127
119 15 127
119 15 128
118 15 129
118 15 129
117 15 130
117 15 130
116 15 131
115 15 132
115 15 132
114 15 133
114 15 133
113 15 134
113 15 135
112 15 135
112 15 136
111 15 136
110 15 137
110 15 138
109 15 138
109 15 139
108 15 139
108 15 140
107 15 141
106 15 141
106 15 142
105 15 142
105 15 143
104 15 144
104 15 144
103 15 145
103 15 145
102 15 146
101 15 147
101 15 147
100 15 148
100 15 148
99 15 149
99 15 150
98 15 150
97 15 151
97 15 151
96 15 152
96 15 153
95 15 153
95 15 154
94 15 154
94 15 155
93 15 156
92 15 156
92 15 157
91 15 157
91 15 158
90 15 159
90 15 159
89 15 160
89 15 160
88 15 161
87 15 162
87 15 162
86 15 163
86 15 163
85 15 164
85 15 165
84 15 165
83 15 166
83 15 166
82 15 167
82 15 168
81 15 168
81 15 169
80 15 169
80 15 170
79 15 171
78 15 171
78 15 172
77 15 172
77 15 173
76 15 174
76 15 174
75 15 175
74 15 175
74 15 176
73 15 177
73 15 177
72 15 178
72 15 178
71 15 179
71 15 180
70 15 180
69 15 181
69 15 181
68 15 182
68 15 183
67 15 183
67 15 184
66 15 184
65 15 185
65 15 186
64 15 186
64 15 187
63 15 187
63 15 188
62 15 189
62 15 189
61 15 190
60 15 190
60 15 191
59 15 192
59 15 192
58 15 193
58 15 193
57 15 194
56 15 195
56 15 195
55 15 196
55 15 196
54 15 197
54 15 198
53 15 198
53 15 199
52 15 199
51 15 200
51 15 201
50 15 201
50 15 202
49 15 202
49 15 203
48 15 204
47 15 204
47 15 205
46 15 205
46 15 206
45 15 207
45 15 207
44 15 208
44 15 208
43 15 209
42 15 210
42 15 210
41 15 211
41 15 211
40 15 212
40 15 213
39 15 213
38 15 214
38 15 215
37 15 215
37 15 216
36 15 216
36 15 217
35 15 218
35 15 218
34 15 219
33 15 219
33 15 220
32 15 221
32 15 221
31 15 222
31 15 222
30 15 223
29 15 224
29 15 224
28 15 225
28 15 225
27 15 226
27 15 227
26 15 227
26 15 228
25 15 228
24 15 229
24 15 230
23 15 230
23 15 231
22 15 231
22 15 232
21 15 233
20 15 233
20 15 234
19 15 234
19 15 235
18 15 236
18 15 236
17 15 237
17 15 237
16 15 238
15 15 239
15 15 239
240 14 0
240 14 0
239 14 1
239 14 1
238 14 2
238 14 3
237 14 3
236 14 4
236 14 4
235 14 5
235 14 6
234 14 6
234 14 7
233 14 7
232 14 8
232 14 9
231 14 9
231 14 10
230 14 10
230 14 11
229 14 12
228 14 12
228 14 13
227 14 13
227 14 14
226 14 15
226 14 15
225 14 16
224 14 16
224 14 17
223 14 18
223 14 18
222 14 19
222 14 19
221 14 20
221 14 21
220 14 21
219 14 22
219 14 22
218 14 23
218 14 24
217 14 24
217 14 25
216 14 25
215 14 26
215 14 27
214 14 27
214 14 28
213 14 28
213 14 29
212 14 30
211 14 30
211 14 31
210 14 31
210 14 32
209 14 33
209 14 33
208 14 34
207 14 35
207 14 35
206 14 36
206 14 36
205 14 37
205 14 38
204 14 38
203 14 39
203 14 39
202 14 40
202 14 41
201 14 41
201 14 42
200 14 42
199 14 43
199 14 44
198 14 44
198 14 45
197 14 45
197 14 46
196 14 47
195 14 47
195 14 48
194 14 48
194 14 49
193 14 50
193 14 50
192 14 51
192 14 51
191 14 52
190 14 53
190 14 53
189 14 54
189 14 54
188 14 55
188 14 56
187 14 56
186 14 57
186 14 57
185 14 58
185 14 59
184 14 59
184 14 60
183 14 60
182 14 61
182 14 62
181 14 62
181 14 63
180 14 63
180 14 64
179 14 65
178 14 65
178 14 66
177 14 67
177 14 67
176 14 68
176 14 68
175 14 69
174 14 70
174 14 70
173 14 71
173 14 71
172 14 72
172 14 73
171 14 73
170 14 74
170 14 74
169 14 75
169 14 76
168 14 76
168 14 77
167 14 77
167 14 78
166 14 79
165 14 79
165 14 80
164 14 80
164 14 81
163 14 82
163 14 82
162 14 83
161 14 83
161 14 84
160 14 85
160 14 85
159 14 86
159 14 86
158 14 87
157 14 88
157 14 88
156 14 89
156 14 89
155 14 90
155 14 91
154 14 91
153 14 92
153 14 92
152 14 93
152 14 94
151 14 94
151 14 95
150 14 95
149 14 96
149 14 97
148 14 97
148 14 98
147 14 99
147 14 99
146 14 100
145 14 100
145 14 101
144 14 102
144 14 102
143 14 103
143 14 103
142 14 104
141 14 105
141 14 105
140 14 106
140 14 106
139 14 107
139 14 108
138 14 108
138 14 109
137 14 109
136 14 110
136 14 111
135 14 111
135 14 112
134 14 112
134 14 113
133 14 114
132 14 114
132 14 115
131 14 115
131 14 116
130 14 117
130 14 117
129 14 118
128 14 118
128 14 119
127 14 120
127 14 120
126 14 121
126 14 121
125 14 122
124 14 123
124 14 123
123 14 124
123 14 124
122 14 125
122 14 126
121 14 126
120 14 127
120 14 127
119 14 128
119 14 129
118 14 129
118 14 130
117 14 131
116 14 131
116 14 132
115 14 132
115 14 133
114 14 134
114 14 134
113 14 135
113 14 135
112 14 136
111 14 137
111 14 137
110 14 138
110 14 138
109 14 139
109 14 140
108 14 140
107 14 141
107 14 141
106 14 142
106 14 143
105 14 143
105 14 144
104 14 144
103 14 145
103 14 146
102 14 146
102 14 147
101 14 147
101 14 148
100 14 149
99 14 149
99 14 150
98 14 150
98 14 151
97 14 152
97 14 152
96 14 153
95 14 153
95 14 154
94 14 155
94 14 155
93 14 156
93 14 156
92 14 157
91 14 158
91 14 158
90 14 159
90 14 159
89 14 160
89 14 161
88 14 161
87 14 162
87 14 163
86 14 163
86 14 164
85 14 164
85 14 165
84 14 166
84 14 166
83 14 167
82 14 167
82 14 168
81 14 169
81 14 169
80 14 170
80 14 170
79 14 171
78 14 172
78 14 172
77 14 173
77 14 173
76 14 174
76 14 175
75 14 175
74 14 176
74 14 176
73 14 177
73 14 178
72 14 178
72 14 179
71 14 179
70 14 180
70 14 181
69 14 181
69 14 182
68 14 182
68 14 183
67 14 184
66 14 184
66 14 185
65 14 185
65 14 186
64 14 187
64 14 187
63 14 188
62 14 188
62 14 189
61 14 190
61 14 190
60 14 191
60 14 191
59 14 192
59 14 193
58 14 193
57 14 194
57 14 195
56 14 195
56 14 196
55 14 196
55 14 197
54 14 198
53 14 198
53 14 199
52 14 199
52 14 200
51 14 201
51 14 201
50 14 202
49 14 202
49 14 203
48 14 204
48 14 204
47 14 205
47 14 205
46 14 206
45 14 207
45 14 207
44 14 208
44 14 208
43 14 209
43 14 210
42 14 210
41 14 211
41 14 211
40 14 212
40 14 213
39 14 213
39 14 214
38 14 214
37 14 215
37 14 216
36 14 216
36 14 217
35 14 217
35 14 218
34 14 219
33 14 219
33 14 220
32 14 220
32 14 221
31 14 222
31 14 222
30 14 223
30 14 223
29 14 224
28 14 225
28 14 225
27 14 226
27 14 227
26 14 227
26 14 228
25 14 228
24 14 229
24 14 230
23 14 230
23 14 231
22 14 231
22 14 232
21 14 233
20 14 233
20 14 234
19 14 234
19 14 235
18 14 236
18 14 236
17 14 237
16 14 237
16 14 238
15 14 239
15 14 239
14 14 240
14 14 240
242 12 0
241 12 0
241 12 1
240 12 1
239 12 2
239 12 3
238 12 3
238 12 4
237 12 4
237 12 5
236 12 6
235 12 6
235 12 7
234 12 7
234 12 8
233 12 9
232 12 9
232 12 10
231 12 10
231 12 11
230 12 12
230 12 12
229 12 13
228 12 13
228 12 14
227 12 15
227 12 15
226 12 16
226 12 16
225 12 17
224 12 18
224 12 18
223 12 19
223 12 20
222 12 20
222 12 21
221 12 21
220 12 22
220 12 23
219 12 23
219 12 24
218 12 24
218 12 25
217 12 26
216 12 26
216 12 27
215 12 27
215 12 28
214 12 29
214 12 29
213 12 30
212 12 30
212 12 31
211 12 32
211 12 32
210 12 33
209 12 33
209 12 34
208 12 35
208 12 35
207 12 36
207 12 37
206 12 37
205 12 38
205 12 38
204 12 39
204 12 40
203 12 40
203 12 41
202 12 41
201 12 42
201 12 43
200 12 43
200 12 44
199 12 44
199 12 45
198 12 46
197 12 46
197 12 47
196 12 47
196 12 48
195 12 49
195 12 49
194 12 50
193 12 50
193 12 51
192 12 52
192 12 52
191 12 53
191 12 54
190 12 54
189 12 55
189 12 55
188 12 56
188 12 57
187 12 57
186 12 58
186 12 58
185 12 59
185 12 60
184 12 60
184 12 61
183 12 61
182 12 62
182 12 63
181 12 63
181 12 64
180 12 64
180 12 65
179 12 66
178 12 66
178 12 67
177 12 67
177 12 68
176 12 69
176 12 69
175 12 70
174 12 71
174 12 71
173 12 72
173 12 72
172 12 73
172 12 74
171 12 74
170 12 75
170 12 75
169 12 76
169 12 77
168 12 77
168 12 78
167 12 78
166 12 79
166 12 80
165 12 80
165 12 81
164 12 81
164 12 82
163 12 83
162 12 83
162 12 84
161 12 84
161 12 85
160 12 86
159 12 86
159 12 87
158 12 88
158 12 88
157 12 89
157 12 89
156 12 90
155 12 91
155 12 91
154 12 92
154 12 92
153 12 93
153 12 94
152 12 94
151 12 95
151 12 95
150 12 96
150 12 97
149 12 97
149 12 98
148 12 98
147 12 99
147 12 100
146 12 100
146 12 101
145 12 101
145 12 102
144 12 103
143 12 103
143 12 104
142 12 105
142 12 105
141 12 106
141 12 106
140 12 107
139 12 108
139 12 108
138 12 109
138 12 109
137 12 110
136 12 111
136 12 111
135 12 112
135 12 112
134 12 113
134 12 114
133 12 114
132 12 115
132 12 115
131 12 116
131 12 117
130 12 117
130 12 118
129 12 118
128 12 119
128 12 120
127 12 120
127 12 121
126 12 122
126 12 122
125 12 123
124 12 123
124 12 124
123 12 125
123 12 125
122 12 126
122 12 126
121 12 127
120 12 128
120 12 128
119 12 129
119 12 129
118 12 130
118 12 131
117 12 131
116 12 132
116 12 132
115 12 133
115 12 134
114 12 134
113 12 135
113 12 135
112 12 136
112 12 137
111 12 137
111 12 138
110 12 138
109 12 139
109 12 140
108 12 140
108 12 141
107 12 142
107 12 142
106 12 143
105 12 143
105 12 144
104 12 145
104 12 145
103 12 146
103 12 146
102 12 147
101 12 148
101 12 148
100 12 149
100 12 149
99 12 150
99 12 151
98 12 151
97 12 152
97 12 152
96 12 153
96 12 154
95 12 154
95 12 155
94 12 155
93 12 156
93 12 157
92 12 157
92 12 158
91 12 159
90 12 159
90 12 160
89 12 160
89 12 161
88 12 162
88 12 162
87 12 163
86 12 163
86 12 164
85 12 165
85 12 165
84 12 166
84 12 166
83 12 167
82 12 168
82 12 168
81 12 169
81 12 169
80 12 170
80 12 171
79 12 171
78 12 172
78 12 172
77 12 173
77 12 174
76 12 174
76 12 175
75 12 176
74 12 176
74 12 177
73 12 177
73 12 178
72 12 179
72 12 179
71 12 180
70 12 180
70 12 181
69 12 182
69 12 182
68 12 183
68 12 183
67 12 184
66 12 185
66 12 185
65 12 186
65 12 186
64 12 187
63 12 188
63 12 188
62 12 189
62 12 189
61 12 190
61 12 191
60 12 191
59 12 192
59 12 193
58 12 193
58 12 194
57 12 194
57 12 195
56 12 196
55 12 196
55 12 197
54 12 197
54 12 198
53 12 199
53 12 199
52 12 200
51 12 200
51 12 201
50 12 202
50 12 202
49 12 203
49 12 203
48 12 204
47 12 205
47 12 205
46 12 206
46 12 206
45 12 207
45 12 208
44 12 208
43 12 209
43 12 210
42 12 210
42 12 211
41 12 211
40 12 212
40 12 213
39 12 213
39 12 214
38 12 214
38 12 215
37 12 216
36 12 216
36 12 217
35 12 217
35 12 218
34 12 219
34 12 219
33 12 220
32 12 220
32 12 221
31 12 222
31 12 222
30 12 223
30 12 223
29 12 224
28 12 225
28 12 225
27 12 226
27 12 227
26 12 227
26 12 228
25 12 228
24 12 229
24 12 230
23 12 230
23 12 231
22 12 231
22 12 232
21 12 233
20 12 233
20 12 234
19 12 234
19 12 235
18 12 236
17 12 236
17 12 237
16 12 237
16 12 238
15 12 239
15 12 239
14 12 240
13 12 240
13 12 241
12 12 242
243 11 0
242 11 0
242 11 1
241 11 1
241 11 2
240 11 3
239 11 3
239 11 4
238 11 4
238 11 5
237 11 6
237 11 6
236 11 7
235 11 7
235 11 8
234 11 9
234 11 9
233 11 10
233 11 10
232 11 11
231 11 12
231 11 12
230 11 13
230 11 14
229 11 14
228 11 15
228 11 15
227 11 16
227 11 17
226 11 17
226 11 18
225 11 18
224 11 19
224 11 20
223 11 20
223 11 21
222 11 21
221 11 22
221 11 23
220 11 23
220 11 24
219 11 25
219 11 25
218 11 26
217 11 26
217 11 27
216 11 28
216 11 28
215 11 29
214 11 29
214 11 30
213 11 31
213 11 31
212 11 32
212 11 32
211 11 33
210 11 34
210 11 34
209 11 35
209 11 36
208 11 36
208 11 37
207 11 37
206 11 38
206 11 39
205 11 39
205 11 40
204 11 40
203 11 41
203 11 42
202 11 42
202 11 43
201 11 43
201 11 44
200 11 45
199 11 45
199 11 46
198 11 46
198 11 47
197 11 48
196 11 48
196 11 49
195 11 50
195 11 50
194 11 51
194 11 51
193 11 52
192 11 53
192 11 53
191 11 54
191 11 54
190 11 55
189 11 56
189 11 56
188 11 57
188 11 57
187 11 58
187 11 59
186 11 59
185 11 60
185 11 61
184 11 61
184 11 62
183 11 62
183 11 63
182 11 64
181 11 64
181 11 65
180 11 65
180 11 66
179 11 67
178 11 67
178 11 68
177 11 68
177 11 69
176 11 70
176 11 70
175 11 71
174 11 72
174 11 72
173 11 73
173 11 73
172 11 74
171 11 75
171 11 75
170 11 76
170 11 76
169 11 77
169 11 78
168 11 78
167 11 79
167 11 79
166 11 80
166 11 81
165 11 81
164 11 82
164 11 82
163 11 83
163 11 84
162 11 84
162 11 85
161 11 86
160 11 86
160 11 87
159 11 87
159 11 88
158 11 89
158 11 89
157 11 90
156 11 90
156 11 91
155 11 92
155 11 92
154 11 93
153 11 93
153 11 94
152 11 95
152 11 95
151 11 96
151 11 97
150 11 97
149 11 98
149 11 98
148 11 99
148 11 100
147 11 100
146 11 101
146 11 101
145 11 102
145 11 103
144 11 103
144 11 104
143 11 104
142 11 105
142 11 106
141 11 106
141 11 107
140 11 108
139 11 108
139 11 109
138 11 109
138 11 110
137 11 111
137 11 111
136 11 112
135 11 112
135 11 113
134 11 114
134 11 114
133 11 115
133 11 115
132 11 116
131 11 117
131 11 117
130 11 118
130 11 118
129 11 119
128 11 120
128 11 120
127 11 121
127 11 122
126 11 122
126 11 123
125 11 123
124 11 124
124 11 125
123 11 125
123 11 126
122 11 126
121 11 127
121 11 128
120 11 128
120 11 129
119 11 129
119 11 130
118 11 131
117 11 131
117 11 132
116 11 133
116 11 133
115 11 134
115 11 134
114 11 135
113 11 136
113 11 136
112 11 137
112 11 137
111 11 138
110 11 139
110 11 139
109 11 140
109 11 140
108 11 141
108 11 142
107 11 142
106 11 143
106 11 144
105 11 144
105 11 145
104 11 145
103 11 146
103 11 147
102 11 147
102 11 148
101 11 148
101 11 149
100 11 150
99 11 150
99 11 151
98 11 151
98 11 152
97 11 153
96 11 153
96 11 154
95 11 154
95 11 155
94 11 156
94 11 156
93 11 157
92 11 158
92 11 158
91 11 159
91 11 159
90 11 160
90 11 161
89 11 161
88 11 162
88 11 162
87 11 163
87 11 164
86 11 164
85 11 165
85 11 165
84 11 166
84 11 167
83 11 167
83 11 168
82 11 169
81 11 169
81 11 170
80 11 170
80 11 171
79 11 172
78 11 172
78 11 173
77 11 173
77 11 174
76 11 175
76 11 175
75 11 176
74 11 176
74 11 177
73 11 178
73 11 178
72 11 179
71 11 180
71 11 180
70 11 181
70 11 181
69 11 182
69 11 183
68 11 183
67 11 184
67 11 184
66 11 185
66 11 186
65 11 186
65 11 187
64 11 187
63 11 188
63 11 189
62 11 189
62 11 190
61 11 190
60 11 191
60 11 192
59 11 192
59 11 193
58 11 194
58 11 194
57 11 195
56 11 195
56 11 196
55 11 197
55 11 197
54 11 198
53 11 198
53 11 199
52 11 200
52 11 200
51 11 201
51 11 201
50 11 202
49 11 203
49 11 203
48 11 204
48 11 205
47 11 205
46 11 206
46 11 206
45 11 207
45 11 208
44 11 208
44 11 209
43 11 209
42 11 210
42 11 211
41 11 211
41 11 212
40 11 212
40 11 213
39 11 214
38 11 214
38 11 215
37 11 216
37 11 216
36 11 217
35 11 217
35 11 218
34 11 219
34 11 219
33 11 220
33 11 220
32 11 221
31 11 222
31 11 222
30 11 223
30 11 223
29 11 224
28 11 225
28 11 225
27 11 226
27 11 226
26 11 227
26 11 228
25 11 228
24 11 229
24 11 230
23 11 230
23 11 231
22 11 231
21 11 232
21 11 233
20 11 233
20 11 234
19 11 234
19 11 235
18 11 236
17 11 236
17 11 237
16 11 237
16 11 238
15 11 239
15 11 239
14 11 240
13 11 241
13 11 241
12 11 242
12 11 242
11 11 243
244 10 0
244 10 0
243 10 1
242 10 1
242 10 2
241 10 3
241 10 3
240 10 4
240 10 4
239 10 5
238 10 6
238 10 6
237 10 7
237 10 7
236 10 8
235 10 9
235 10 9
234 10 10
234 10 11
233 10 11
232 10 12
232 10 12
231 10 13
231 10 14
230 10 14
230 10 15
229 10 15
228 10 16
228 10 17
227 10 17
227 10 18
226 10 19
225 10 19
225 10 20
224 10 20
224 10 21
223 10 22
223 10 22
222 10 23
221 10 23
221 10 24
220 10 25
220 10 25
219 10 26
218 10 26
218 10 27
217 10 28
217 10 28
216 10 29
215 10 30
215 10 30
214 10 31
214 10 31
213 10 32
213 10 33
212 10 33
211 10 34
211 10 34
210 10 35
210 10 36
209 10 36
208 10 37
208 10 38
207 10 38
207 10 39
206 10 39
205 10 40
205 10 41
204 10 41
204 10 42
203 10 42
203 10 43
202 10 44
201 10 44
201 10 45
200 10 46
200 10 46
199 10 47
198 10 47
198 10 48
197 10 49
197 10 49
196 10 50
195 10 50
195 10 51
194 10 52
194 10 52
193 10 53
193 10 53
192 10 54
191 10 55
191 10 55
190 10 56
190 10 57
189 10 57
188 10 58
188 10 58
187 10 59
187 10 60
186 10 60
185 10 61
185 10 61
184 10 62
184 10 63
183 10 63
183 10 64
182 10 65
181 10 65
181 10 66
180 10 66
180 10 67
179 10 68
178 10 68
178 10 69
177 10 69
177 10 70
176 10 71
175 10 71
175 10 72
174 10 72
174 10 73
173 10 74
173 10 74
172 10 75
171 10 76
171 10 76
170 10 77
170 10 77
169 10 78
168 10 79
168 10 79
167 10 80
167 10 80
166 10 81
165 10 82
165 10 82
164 10 83
164 10 84
163 10 84
163 10 85
162 10 85
161 10 86
161 10 87
160 10 87
160 10 88
159 10 88
158 10 89
158 10 90
157 10 90
157 10 91
156 10 92
156 10 92
155 10 93
154 10 93
154 10 94
153 10 95
153 10 95
152 10 96
151 10 96
151 10 97
150 10 98
150 10 98
149 10 99
148 10 99
148 10 100
147 10 101
147 10 101
146 10 102
146 10 103
145 10 103
144 10 104
144 10 104
143 10 105
143 10 106
142 10 106
141 10 107
141 10 107
140 10 108
140 10 109
139 10 109
138 10 110
138 10 111
137 10 111
137 10 112
136 10 112
136 10 113
135 10 114
134 10 114
134 10 115
133 10 115
133 10 116
132 10 117
131 10 117
131 10 118
130 10 119
130 10 119
129 10 120
128 10 120
128 10 121
127 10 122
127 10 122
126 10 123
126 10 123
125 10 124
124 10 125
124 10 125
123 10 126
123 10 126
122 10 127
121 10 128
121 10 128
120 10 129
120 10 130
119 10 130
118 10 131
118 10 131
117 10 132
117 10 133
116 10 133
116 10 134
115 10 134
114 10 135
114 10 136
113 10 136
113 10 137
112 10 138
111 10 138
111 10 139
110 10 139
110 10 140
109 10 141
108 10 141
108 10 142
107 10 142
107 10 143
106 10 144
106 10 144
105 10 145
104 10 145
104 10 146
103 10 147
103 10 147
102 10 148
101 10 149
101 10 149
100 10 150
100 10 150
99 10 151
98 10 152
98 10 152
97 10 153
97 10 153
96 10 154
96 10 155
95 10 155
94 10 156
94 10 157
93 10 157
93 10 158
92 10 158
91 10 159
91 10 160
90 10 160
90 10 161
89 10 161
89 10 162
88 10 163
87 10 163
87 10 164
86 10 165
86 10 165
85 10 166
84 10 166
84 10 167
83 10 168
83 10 168
82 10 169
81 10 169
81 10 170
80 10 171
80 10 171
79 10 172
79 10 172
78 10 173
77 10 174
77 10 174
76 10 175
76 10 176
75 10 176
74 10 177
74 10 177
73 10 178
73 10 179
72 10 179
71 10 180
71 10 180
70 10 181
70 10 182
69 10 182
69 10 183
68 10 184
67 10 184
67 10 185
66 10 185
66 10 186
65 10 187
64 10 187
64 10 188
63 10 188
63 10 189
62 10 190
61 10 190
61 10 191
60 10 191
60 10 192
59 10 193
59 10 193
58 10 194
57 10 195
57 10 195
56 10 196
56 10 196
55 10 197
54 10 198
54 10 198
53 10 199
53 10 199
52 10 200
51 10 201
51 10 201
50 10 202
50 10 203
49 10 203
49 10 204
48 10 204
47 10 205
47 10 206
46 10 206
46 10 207
45 10 207
44 10 208
44 10 209
43 10 209
43 10 210
42 10 211
41 10 211
41 10 212
40 10 212
40 10 213
39 10 214
39 10 214
38 10 215
37 10 215
37 10 216
36 10 217
36 10 217
35 10 218
34 10 218
34 10 219
33 10 220
33 10 220
32 10 221
31 10 222
31 10 222
30 10 223
30 10 223
29 10 224
29 10 225
28 10 225
27 10 226
27 10 226
26 10 227
26 10 228
25 10 228
24 10 229
24 10 230
23 10 230
23 10 231
22 10 231
22 10 232
21 10 233
20 10 233
20 10 234
19 10 234
19 10 235
18 10 236
17 10 236
17 10 237
16 10 238
16 10 238
15 10 239
14 10 239
14 10 240
13 10 241
13 10 241
12 10 242
12 10 242
11 10 243
10 10 244
10 10 244
246 8 0
245 8 0
244 8 1
244 8 1
243 8 2
243 8 3
242 8 3
241 8 4
241 8 4
240 8 5
240 8 6
239 8 6
238 8 7
238 8 8
237 8 8
237 8 9
236 8 9
235 8 10
235 8 11
234 8 11
234 8 12
233 8 12
232 8 13
232 8 14
231 8 14
231 8 15
230 8 16
229 8 16
229 8 17
228 8 17
228 8 18
227 8 19
227 8 19
226 8 20
225 8 20
225 8 21
224 8 22
224 8 22
223 8 23
222 8 24
222 8 24
221 8 25
221 8 25
220 8 26
219 8 27
219 8 27
218 8 28
218 8 28
217 8 29
216 8 30
216 8 30
215 8 31
215 8 32
214 8 32
213 8 33
213 8 33
212 8 34
212 8 35
211 8 35
210 8 36
210 8 36
209 8 37
209 8 38
208 8 38
208 8 39
207 8 40
206 8 40
206 8 41
205 8 41
205 8 42
204 8 43
203 8 43
203 8 44
202 8 45
202 8 45
201 8 46
200 8 46
200 8 47
199 8 48
199 8 48
198 8 49
197 8 49
197 8 50
196 8 51
196 8 51
195 8 52
194 8 53
194 8 53
193 8 54
193 8 54
192 8 55
191 8 56
191 8 56
190 8 57
190 8 57
189 8 58
188 8 59
188 8 59
187 8 60
187 8 61
186 8 61
186 8 62
185 8 62
184 8 63
184 8 64
183 8 64
183 8 65
182 8 65
181 8 66
181 8 67
180 8 67
180 8 68
179 8 69
178 8 69
178 8 70
177 8 70
177 8 71
176 8 72
175 8 72
175 8 73
174 8 73
174 8 74
173 8 75
172 8 75
172 8 76
171 8 77
171 8 77
170 8 78
169 8 78
169 8 79
168 8 80
168 8 80
167 8 81
167 8 82
166 8 82
165 8 83
165 8 83
164 8 84
164 8 85
163 8 85
162 8 86
162 8 86
161 8 87
161 8 88
160 8 88
159 8 89
159 8 90
158 8 90
158 8 91
157 8 91
156 8 92
156 8 93
155 8 93
155 8 94
154 8 94
153 8 95
153 8 96
152 8 96
152 8 97
151 8 98
150 8 98
150 8 99
149 8 99
149 8 100
148 8 101
147 8 101
147 8 102
146 8 102
146 8 103
145 8 104
145 8 104
144 8 105
143 8 106
143 8 106
142 8 107
142 8 107
141 8 108
140 8 109
140 8 109
139 8 110
139 8 110
138 8 111
137 8 112
137 8 112
136 8 113
136 8 114
135 8 114
134 8 115
134 8 115
133 8 116
133 8 117
132 8 117
131 8 118
131 8 119
130 8 119
130 8 120
129 8 120
128 8 121
128 8 122
127 8 122
127 8 123
126 8 123
126 8 124
125 8 125
124 8 125
124 8 126
123 8 127
123 8 127
122 8 128
121 8 128
121 8 129
120 8 130
120 8 130
119 8 131
118 8 131
118 8 132
117 8 133
117 8 133
116 8 134
115 8 135
115 8 135
114 8 136
114 8 136
113 8 137
112 8 138
112 8 138
111 8 139
111 8 139
110 8 140
109 8 141
109 8 141
108 8 142
108 8 143
107 8 143
107 8 144
106 8 144
105 8 145
105 8 146
104 8 146
104 8 147
103 8 147
102 8 148
102 8 149
101 8 149
101 8 150
100 8 151
99 8 151
99 8 152
98 8 152
98 8 153
97 8 154
96 8 154
96 8 155
95 8 156
95 8 156
94 8 157
93 8 157
93 8 158
92 8 159
92 8 159
91 8 160
90 8 160
90 8 161
89 8 162
89 8 162
88 8 163
87 8 164
87 8 164
86 8 165
86 8 165
85 8 166
85 8 167
84 8 167
83 8 168
83 8 168
82 8 169
82 8 170
81 8 170
80 8 171
80 8 172
79 8 172
79 8 173
78 8 173
77 8 174
77 8 175
76 8 175
76 8 176
75 8 176
74 8 177
74 8 178
73 8 178
73 8 179
72 8 180
71 8 180
71 8 181
70 8 181
70 8 182
69 8 183
68 8 183
68 8 184
67 8 184
67 8 185
66 8 186
66 8 186
65 8 187
64 8 188
64 8 188
63 8 189
63 8 189
62 8 190
61 8 191
61 8 191
60 8 192
60 8 193
59 8 193
58 8 194
58 8 194
57 8 195
57 8 196
56 8 196
55 8 197
55 8 197
54 8 198
54 8 199
53 8 199
52 8 200
52 8 201
51 8 201
51 8 202
50 8 202
49 8 203
49 8 204
48 8 204
48 8 205
47 8 205
46 8 206
46 8 207
45 8 207
45 8 208
44 8 209
44 8 209
43 8 210
42 8 210
42 8 211
41 8 212
41 8 212
40 8 213
39 8 213
39 8 214
38 8 215
38 8 215
37 8 216
36 8 217
36 8 217
35 8 218
35 8 218
34 8 219
33 8 220
33 8 220
32 8 221
32 8 221
31 8 222
30 8 223
30 8 223
29 8 224
29 8 225
28 8 225
27 8 226
27 8 226
26 8 227
26 8 228
25 8 228
25 8 229
24 8 229
23 8 230
23 8 231
22 8 231
22 8 232
21 8 233
20 8 233
20 8 234
19 8 234
19 8 235
18 8 236
17 8 236
17 8 237
16 8 238
16 8 238
15 8 239
14 8 239
14 8 240
13 8 241
13 8 241
12 8 242
11 8 242
11 8 243
10 8 244
10 8 244
9 8 245
8 8 246
247 7 0
246 7 0
246 7 1
245 7 1
244 7 2
244 7 3
243 7 3
243 7 4
242 7 4
241 7 5
241 7 6
240 7 6
240 7 7
239 7 8
238 7 8
238 7 9
237 7 9
237 7 10
236 7 11
235 7 11
235 7 12
234 7 13
234 7 13
233 7 14
232 7 14
232 7 15
231 7 16
231 7 16
230 7 17
229 7 17
229 7 18
228 7 19
228 7 19
227 7 20
226 7 21
226 7 21
225 7 22
225 7 22
224 7 23
223 7 24
223 7 24
222 7 25
222 7 26
221 7 26
220 7 27
220 7 27
219 7 28
219 7 29
218 7 29
217 7 30
217 7 30
216 7 31
216 7 32
215 7 32
214 7 33
214 7 34
213 7 34
213 7 35
212 7 35
211 7 36
211 7 37
210 7 37
210 7 38
209 7 39
208 7 39
208 7 40
207 7 40
207 7 41
206 7 42
205 7 42
205 7 43
204 7 44
204 7 44
203 7 45
202 7 45
202 7 46
201 7 47
201 7 47
200 7 48
199 7 48
199 7 49
198 7 50
198 7 50
197 7 51
196 7 52
196 7 52
195 7 53
195 7 53
194 7 54
193 7 55
193 7 55
192 7 56
192 7 57
191 7 57
190 7 58
190 7 58
189 7 59
189 7 60
188 7 60
187 7 61
187 7 61
186 7 62
186 7 63
185 7 63
184 7 64
184 7 65
183 7 65
183 7 66
182 7 66
181 7 67
181 7 68
180 7 68
180 7 69
179 7 70
178 7 70
178 7 71
177 7 71
177 7 72
176 7 73
175 7 73
175 7 74
174 7 74
174 7 75
173 7 76
172 7 76
172 7 77
171 7 78
171 7 78
170 7 79
169 7 79
169 7 80
168 7 81
168 7 81
167 7 82
166 7 83
166 7 83
165 7 84
165 7 84
164 7 85
163 7 86
163 7 86
162 7 87
162 7 88
161 7 88
160 7 89
160 7 89
159 7 90
159 7 91
158 7 91
157 7 92
157 7 92
156 7 93
156 7 94
155 7 94
154 7 95
154 7 96
153 7 96
153 7 97
152 7 97
151 7 98
151 7 99
150 7 99
150 7 100
149 7 101
148 7 101
148 7 102
147 7 102
147 7 103
146 7 104
145 7 104
145 7 105
144 7 105
144 7 106
143 7 107
142 7 107
142 7 108
141 7 109
141 7 109
140 7 110
139 7 110
139 7 111
138 7 112
138 7 112
137 7 113
136 7 114
136 7 114
135 7 115
135 7 115
134 7 116
133 7 117
133 7 117
132 7 118
132 7 119
131 7 119
130 7 120
130 7 120
129 7 121
129 7 122
128 7 122
127 7 123
127 7 123
126 7 124
125 7 125
125 7 125
124 7 126
124 7 127
123 7 127
122 7 128
122 7 128
121 7 129
121 7 130
120 7 130
119 7 131
119 7 132
118 7 132
118 7 133
117 7 133
116 7 134
116 7 135
115 7 135
115 7 136
114 7 136
113 7 137
113 7 138
112 7 138
112 7 139
111 7 140
110 7 140
110 7 141
109 7 141
109 7 142
108 7 143
107 7 143
107 7 144
106 7 145
106 7 145
105 7 146
104 7 146
104 7 147
103 7 148
103 7 148
102 7 149
101 7 149
101 7 150
100 7 151
100 7 151
99 7 152
98 7 153
98 7 153
97 7 154
97 7 154
96 7 155
95 7 156
95 7 156
94 7 157
94 7 158
93 7 158
92 7 159
92 7 159
91 7 160
91 7 161
90 7 161
89 7 162
89 7 163
88 7 163
88 7 164
87 7 164
86 7 165
86 7 166
85 7 166
85 7 167
84 7 167
83 7 168
83 7 169
82 7 169
82 7 170
81 7 171
80 7 171
80 7 172
79 7 172
79 7 173
78 7 174
77 7 174
77 7 175
76 7 176
76 7 176
75 7 177
74 7 177
74 7 178
73 7 179
73 7 179
72 7 180
71 7 180
71 7 181
70 7 182
70 7 182
69 7 183
68 7 184
68 7 184
67 7 185
67 7 185
66 7 186
65 7 187
65 7 187
64 7 188
64 7 189
63 7 189
62 7 190
62 7 190
61 7 191
61 7 192
60 7 192
59 7 193
59 7 194
58 7 194
58 7 195
57 7 195
56 7 196
56 7 197
55 7 197
55 7 198
54 7 198
53 7 199
53 7 200
52 7 200
52 7 201
51 7 202
50 7 202
50 7 203
49 7 203
49 7 204
48 7 205
47 7 205
47 7 206
46 7 207
46 7 207
45 7 208
44 7 208
44 7 209
43 7 210
43 7 210
42 7 211
41 7 211
41 7 212
40 7 213
40 7 213
39 7 214
38 7 215
38 7 215
37 7 216
37 7 216
36 7 217
35 7 218
35 7 218
34 7 219
34 7 220
33 7 220
32 7 221
32 7 221
31 7 222
31 7 223
30 7 223
29 7 224
29 7 224
28 7 225
28 7 226
27 7 226
26 7 227
26 7 228
25 7 228
25 7 229
24 7 229
23 7 230
23 7 231
22 7 231
22 7 232
21 7 233
20 7 233
20 7 234
19 7 234
19 7 235
18 7 236
17 7 236
17 7 237
16 7 238
16 7 238
15 7 239
14 7 239
14 7 240
13 7 241
13 7 241
12 7 242
11 7 242
11 7 243
10 7 244
10 7 244
9 7 245
8 7 246
8 7 246
7 7 247
248 6 0
247 6 0
247 6 1
246 6 1
246 6 2
245 6 3
244 6 3
244 6 4
243 6 4
243 6 5
242 6 6
241 6 6
241 6 7
240 6 8
240 6 8
239 6 9
238 6 9
238 6 10
237 6 11
237 6 11
236 6 12
235 6 13
235 6 13
234 6 14
234 6 14
233 6 15
232 6 16
232 6 16
231 6 17
230 6 18
230 6 18
229 6 19
229 6 19
228 6 20
227 6 21
227 6 21
226 6 22
226 6 23
225 6 23
224 6 24
224 6 24
223 6 25
223 6 26
222 6 26
221 6 27
221 6 28
220 6 28
220 6 29
219 6 29
218 6 30
218 6 31
217 6 31
217 6 32
216 6 33
215 6 33
215 6 34
214 6 34
213 6 35
213 6 36
212 6 36
212 6 37
211 6 38
210 6 38
210 6 39
209 6 39
209 6 40
208 6 41
207 6 41
207 6 42
206 6 42
206 6 43
205 6 44
204 6 44
204 6 45
203 6 46
203 6 46
202 6 47
201 6 47
201 6 48
200 6 49
200 6 49
199 6 50
198 6 51
198 6 51
197 6 52
196 6 52
196 6 53
195 6 54
195 6 54
194 6 55
193 6 56
193 6 56
192 6 57
192 6 57
191 6 58
190 6 59
190 6 59
189 6 60
189 6 61
188 6 61
187 6 62
187 6 62
186 6 63
186 6 64
185 6 64
184 6 65
184 6 66
183 6 66
183 6 67
182 6 67
181 6 68
181 6 69
180 6 69
180 6 70
179 6 71
178 6 71
178 6 72
177 6 72
176 6 73
176 6 74
175 6 74
175 6 75
174 6 76
173 6 76
173 6 77
172 6 77
172 6 78
171 6 79
170 6 79
170 6 80
169 6 80
169 6 81
168 6 82
167 6 82
167 6 83
166 6 84
166 6 84
165 6 85
164 6 85
164 6 86
163 6 87
163 6 87
162 6 88
161 6 89
161 6 89
160 6 90
159 6 90
159 6 91
158 6 92
158 6 92
157 6 93
156 6 94
156 6 94
155 6 95
155 6 95
154 6 96
153 6 97
153 6 97
152 6 98
152 6 99
151 6 99
150 6 100
150 6 100
149 6 101
149 6 102
148 6 102
147 6 103
147 6 104
146 6 104
146 6 105
145 6 105
144 6 106
144 6 107
143 6 107
142 6 108
142 6 109
141 6 109
141 6 110
140 6 110
139 6 111
139 6 112
138 6 112
138 6 113
137 6 114
136 6 114
136 6 115
135 6 115
135 6 116
134 6 117
133 6 117
133 6 118
132 6 119
132 6 119
131 6 120
130 6 120
130 6 121
129 6 122
129 6 122
128 6 123
127 6 123
127 6 124
126 6 125
125 6 125
125 6 126
124 6 127
124 6 127
123 6 128
122 6 128
122 6 129
121 6 130
121 6 130
120 6 131
119 6 132
119 6 132
118 6 133
118 6 133
117 6 134
116 6 135
116 6 135
115 6 136
115 6 137
114 6 137
113 6 138
113 6 138
112 6 139
112 6 140
111 6 140
110 6 141
110 6 142
109 6 142
108 6 143
108 6 143
107 6 144
107 6 145
106 6 145
105 6 146
105 6 147
104 6 147
104 6 148
103 6 148
102 6 149
102 6 150
101 6 150
101 6 151
100 6 152
99 6 152
99 6 153
98 6 153
98 6 154
97 6 155
96 6 155
96 6 156
95 6 157
95 6 157
94 6 158
93 6 158
93 6 159
92 6 160
91 6 160
91 6 161
90 6 161
90 6 162
89 6 163
88 6 163
88 6 164
87 6 165
87 6 165
86 6 166
85 6 166
85 6 167
84 6 168
84 6 168
83 6 169
82 6 170
82 6 170
81 6 171
81 6 171
80 6 172
79 6 173
79 6 173
78 6 174
78 6 175
77 6 175
76 6 176
76 6 176
75 6 177
74 6 178
74 6 178
73 6 179
73 6 180
72 6 180
71 6 181
71 6 181
70 6 182
70 6 183
69 6 183
68 6 184
68 6 185
67 6 185
67 6 186
66 6 186
65 6 187
65 6 188
64 6 188
64 6 189
63 6 190
62 6 190
62 6 191
61 6 191
61 6 192
60 6 193
59 6 193
59 6 194
58 6 195
58 6 195
57 6 196
56 6 196
56 6 197
55 6 198
54 6 198
54 6 199
53 6 199
53 6 200
52 6 201
51 6 201
51 6 202
50 6 203
50 6 203
49 6 204
48 6 204
48 6 205
47 6 206
47 6 206
46 6 207
45 6 208
45 6 208
44 6 209
44 6 209
43 6 210
42 6 211
42 6 211
41 6 212
41 6 213
40 6 213
39 6 214
39 6 214
38 6 215
37 6 216
37 6 216
36 6 217
36 6 218
35 6 218
34 6 219
34 6 219
33 6 220
33 6 221
32 6 221
31 6 222
31 6 223
30 6 223
30 6 224
29 6 224
28 6 225
28 6 226
27 6 226
27 6 227
26 6 228
25 6 228
25 6 229
24 6 229
24 6 230
23 6 231
22 6 231
22 6 232
21 6 233
20 6 233
20 6 234
19 6 234
19 6 235
18 6 236
17 6 236
17 6 237
16 6 238
16 6 238
15 6 239
14 6 239
14 6 240
13 6 241
13 6 241
12 6 242
11 6 242
11 6 243
10 6 244
10 6 244
9 6 245
8 6 246
8 6 246
7 6 247
7 6 247
6 6 248
249 5 0
249 5 0
248 5 1
248 5 1
247 5 2
246 5 3
246 5 3
245 5 4
244 5 5
244 5 5
243 5 6
243 5 6
242 5 7
241 5 8
241 5 8
240 5 9
240 5 10
239 5 10
238 5 11
238 5 11
237 5 12
236 5 13
236 5 13
235 5 14
235 5 15
234 5 15
233 5 16
233 5 16
232 5 17
232 5 18
231 5 18
230 5 19
230 5 20
229 5 20
229 5 21
228 5 21
227 5 22
227 5 23
226 5 23
225 5 24
225 5 25
224 5 25
224 5 26
223 5 26
222 5 27
222 5 28
221 5 28
221 5 29
220 5 30
219 5 30
219 5 31
218 5 31
217 5 32
217 5 33
216 5 33
216 5 34
215 5 35
214 5 35
214 5 36
213 5 36
213 5 37
212 5 38
211 5 38
211 5 39
210 5 40
210 5 40
209 5 41
208 5 41
208 5 42
207 5 43
206 5 43
206 5 44
205 5 45
205 5 45
204 5 46
203 5 46
203 5 47
202 5 48
202 5 48
201 5 49
200 5 50
200 5 50
199 5 51
198 5 51
198 5 52
197 5 53
197 5 53
196 5 54
195 5 55
195 5 55
194 5 56
194 5 56
193 5 57
192 5 58
192 5 58
191 5 59
190 5 60
190 5 60
189 5 61
189 5 61
188 5 62
187 5 63
187 5 63
186 5 64
186 5 65
185 5 65
184 5 66
184 5 67
183 5 67
183 5 68
182 5 68
181 5 69
181 5 70
180 5 70
179 5 71
179 5 72
178 5 72
178 5 73
177 5 73
176 5 74
176 5 75
175 5 75
175 5 76
174 5 77
173 5 77
173 5 78
172 5 78
171 5 79
171 5 80
170 5 80
170 5 81
169 5 82
168 5 82
168 5 83
167 5 83
167 5 84
166 5 85
165 5 85
165 5 86
164 5 87
163 5 87
163 5 88
162 5 88
162 5 89
161 5 90
160 5 90
160 5 91
159 5 92
159 5 92
158 5 93
157 5 93
157 5 94
156 5 95
156 5 95
155 5 96
154 5 97
154 5 97
153 5 98
152 5 98
152 5 99
151 5 100
151 5 100
150 5 101
149 5 102
149 5 102
148 5 103
148 5 103
147 5 104
146 5 105
146 5 105
145 5 106
144 5 107
144 5 107
143 5 108
143 5 108
142 5 109
141 5 110
141 5 110
140 5 111
140 5 112
139 5 112
138 5 113
138 5 113
137 5 114
137 5 115
136 5 115
135 5 116
135 5 117
134 5 117
133 5 118
133 5 118
132 5 119
132 5 120
131 5 120
130 5 121
130 5 122
129 5 122
129 5 123
128 5 123
127 5 124
127 5 125
126 5 125
125 5 126
125 5 127
124 5 127
124 5 128
123 5 129
122 5 129
122 5 130
121 5 130
121 5 131
120 5 132
119 5 132
119 5 133
118 5 134
117 5 134
117 5 135
116 5 135
116 5 136
115 5 137
114 5 137
114 5 138
113 5 139
113 5 139
112 5 140
111 5 140
111 5 141
110 5 142
110 5 142
109 5 143
108 5 144
108 5 144
107 5 145
106 5 145
106 5 146
105 5 147
105 5 147
104 5 148
103 5 149
103 5 149
102 5 150
102 5 150
101 5 151
100 5 152
100 5 152
99 5 153
98 5 154
98 5 154
97 5 155
97 5 155
96 5 156
95 5 157
95 5 157
94 5 158
94 5 159
93 5 159
92 5 160
92 5 160
91 5 161
91 5 162
90 5 162
89 5 163
89 5 164
88 5 164
87 5 165
87 5 165
86 5 166
86 5 167
85 5 167
84 5 168
84 5 169
83 5 169
83 5 170
82 5 170
81 5 171
81 5 172
80 5 172
79 5 173
79 5 174
78 5 174
78 5 175
77 5 175
76 5 176
76 5 177
75 5 177
75 5 178
74 5 179
73 5 179
73 5 180
72 5 180
71 5 181
71 5 182
70 5 182
70 5 183
69 5 184
68 5 184
68 5 185
67 5 185
67 5 186
66 5 187
65 5 187
65 5 188
64 5 189
64 5 189
63 5 190
62 5 191
62 5 191
61 5 192
60 5 192
60 5 193
59 5 194
59 5 194
58 5 195
57 5 196
57 5 196
56 5 197
56 5 197
55 5 198
54 5 199
54 5 199
53 5 200
52 5 201
52 5 201
51 5 202
51 5 202
50 5 203
49 5 204
49 5 204
48 5 205
48 5 206
47 5 206
46 5 207
46 5 207
45 5 208
44 5 209
44 5 209
43 5 210
43 5 211
42 5 211
41 5 212
41 5 212
40 5 213
40 5 214
39 5 214
38 5 215
38 5 216
37 5 216
37 5 217
36 5 217
35 5 218
35 5 219
34 5 219
33 5 220
33 5 221
32 5 221
32 5 222
31 5 222
30 5 223
30 5 224
29 5 224
29 5 225
28 5 226
27 5 226
27 5 227
26 5 227
25 5 228
25 5 229
24 5 229
24 5 230
23 5 231
22 5 231
22 5 232
21 5 232
21 5 233
20 5 234
19 5 234
19 5 235
18 5 236
18 5 236
17 5 237
16 5 237
16 5 238
15 5 239
14 5 239
14 5 240
13 5 241
13 5 241
12 5 242
11 5 242
11 5 243
10 5 244
10 5 244
9 5 245
8 5 246
8 5 246
7 5 247
6 5 247
6 5 248
5 5 249
5 5 249
251 3 0
250 3 0
249 3 1
249 3 1
248 3 2
248 3 3
247 3 3
246 3 4
246 3 5
245 3 5
244 3 6
244 3 6
243 3 7
243 3 8
242 3 8
241 3 9
241 3 10
240 3 10
239 3 11
239 3 11
238 3 12
238 3 13
237 3 13
236 3 14
236 3 15
235 3 15
235 3 16
234 3 16
233 3 17
233 3 18
232 3 18
231 3 19
231 3 20
230 3 20
230 3 21
229 3 22
228 3 22
228 3 23
227 3 23
226 3 24
226 3 25
225 3 25
225 3 26
224 3 27
223 3 27
223 3 28
222 3 28
222 3 29
221 3 30
220 3 30
220 3 31
219 3 32
218 3 32
218 3 33
217 3 33
217 3 34
216 3 35
215 3 35
215 3 36
214 3 37
213 3 37
213 3 38
212 3 39
212 3 39
211 3 40
210 3 40
210 3 41
209 3 42
209 3 42
208 3 43
207 3 44
207 3 44
206 3 45
205 3 45
205 3 46
204 3 47
204 3 47
203 3 48
202 3 49
202 3 49
201 3 50
200 3 50
200 3 51
199 3 52
199 3 52
198 3 53
197 3 54
197 3 54
196 3 55
195 3 56
195 3 56
194 3 57
194 3 57
193 3 58
192 3 59
192 3 59
191 3 60
191 3 61
190 3 61
189 3 62
189 3 62
188 3 63
187 3 64
187 3 64
186 3 65
186 3 66
185 3 66
184 3 67
184 3 67
183 3 68
182 3 69
182 3 69
181 3 70
181 3 71
180 3 71
179 3 72
179 3 73
178 3 73
178 3 74
177 3 74
176 3 75
176 3 76
175 3 76
174 3 77
174 3 78
173 3 78
173 3 79
172 3 79
171 3 80
171 3 81
170 3 81
169 3 82
169 3 83
168 3 83
168 3 84
167 3 84
166 3 85
166 3 86
165 3 86
164 3 87
164 3 88
163 3 88
163 3 89
162 3 90
161 3 90
161 3 91
160 3 91
160 3 92
159 3 93
158 3 93
158 3 94
157 3 95
156 3 95
156 3 96
155 3 96
155 3 97
154 3 98
153 3 98
153 3 99
152 3 100
151 3 100
151 3 101
150 3 101
150 3 102
149 3 103
148 3 103
148 3 104
147 3 105
147 3 105
146 3 106
145 3 107
145 3 107
144 3 108
143 3 108
143 3 109
142 3 110
142 3 110
141 3 111
140 3 112
140 3 112
139 3 113
138 3 113
138 3 114
137 3 115
137 3 115
136 3 116
135 3 117
135 3 117
134 3 118
134 3 118
133 3 119
132 3 120
132 3 120
131 3 121
130 3 122
130 3 122
129 3 123
129 3 124
128 3 124
127 3 125
127 3 125
126 3 126
125 3 127
125 3 127
124 3 128
124 3 129
123 3 129
122 3 130
122 3 130
121 3 131
120 3 132
120 3 132
119 3 133
119 3 134
118 3 134
117 3 135
117 3 135
116 3 136
116 3 137
115 3 137
114 3 138
114 3 139
113 3 139
112 3 140
112 3 140
111 3 141
111 3 142
110 3 142
109 3 143
109 3 144
108 3 144
107 3 145
107 3 146
106 3 146
106 3 147
105 3 147
104 3 148
104 3 149
103 3 149
103 3 150
102 3 151
101 3 151
101 3 152
100 3 152
99 3 153
99 3 154
98 3 154
98 3 155
97 3 156
96 3 156
96 3 157
95 3 157
94 3 158
94 3 159
93 3 159
93 3 160
92 3 161
91 3 161
91 3 162
90 3 163
90 3 163
89 3 164
88 3 164
88 3 165
87 3 166
86 3 166
86 3 167
85 3 168
85 3 168
84 3 169
83 3 169
83 3 170
82 3 171
81 3 171
81 3 172
80 3 173
80 3 173
79 3 174
78 3 174
78 3 175
77 3 176
76 3 176
76 3 177
75 3 178
75 3 178
74 3 179
73 3 180
73 3 180
72 3 181
72 3 181
71 3 182
70 3 183
70 3 183
69 3 184
68 3 185
68 3 185
67 3 186
67 3 186
66 3 187
65 3 188
65 3 188
64 3 189
63 3 190
63 3 190
62 3 191
62 3 191
61 3 192
60 3 193
60 3 193
59 3 194
59 3 195
58 3 195
57 3 196
57 3 197
56 3 197
55 3 198
55 3 198
54 3 199
54 3 200
53 3 200
52 3 201
52 3 202
51 3 202
50 3 203
50 3 203
49 3 204
49 3 205
48 3 205
47 3 206
47 3 207
46 3 207
45 3 208
45 3 208
44 3 209
44 3 210
43 3 210
42 3 211
42 3 212
41 3 212
41 3 213
40 3 214
39 3 214
39 3 215
38 3 215
37 3 216
37 3 217
36 3 217
36 3 218
35 3 219
34 3 219
34 3 220
33 3 220
32 3 221
32 3 222
31 3 222
31 3 223
30 3 224
29 3 224
29 3 225
28 3 225
28 3 226
27 3 227
26 3 227
26 3 228
25 3 229
24 3 229
24 3 230
23 3 231
23 3 231
22 3 232
21 3 232
21 3 233
20 3 234
19 3 234
19 3 235
18 3 236
18 3 236
17 3 237
16 3 237
16 3 238
15 3 239
15 3 239
14 3 240
13 3 241
13 3 241
12 3 242
11 3 242
11 3 243
10 3 244
10 3 244
9 3 245
8 3 246
8 3 246
7 3 247
6 3 248
6 3 248
5 3 249
5 3 249
4 3 250
3 3 251
252 2 0
251 2 0
251 2 1
250 2 1
249 2 2
249 2 3
248 2 3
248 2 4
247 2 5
246 2 5
246 2 6
245 2 6
244 2 7
244 2 8
243 2 8
243 2 9
242 2 10
241 2 10
241 2 11
240 2 12
239 2 12
239 2 13
238 2 13
238 2 14
237 2 15
236 2 15
236 2 16
235 2 17
234 2 17
234 2 18
233 2 18
233 2 19
232 2 20
231 2 20
231 2 21
230 2 22
229 2 22
229 2 23
228 2 24
228 2 24
227 2 25
226 2 25
226 2 26
225 2 27
224 2 27
224 2 28
223 2 29
223 2 29
222 2 30
221 2 31
221 2 31
220 2 32
219 2 32
219 2 33
218 2 34
217 2 34
217 2 35
216 2 36
216 2 36
215 2 37
214 2 37
214 2 38
213 2 39
212 2 39
212 2 40
211 2 41
211 2 41
210 2 42
209 2 43
209 2 43
208 2 44
207 2 44
207 2 45
206 2 46
206 2 46
205 2 47
204 2 48
204 2 48
203 2 49
202 2 49
202 2 50
201 2 51
201 2 51
200 2 52
199 2 53
199 2 53
198 2 54
197 2 55
197 2 55
196 2 56
196 2 56
195 2 57
194 2 58
194 2 58
193 2 59
192 2 60
192 2 60
191 2 61
191 2 62
190 2 62
189 2 63
189 2 63
188 2 64
187 2 65
187 2 65
186 2 66
186 2 67
185 2 67
184 2 68
184 2 68
183 2 69
182 2 70
182 2 70
181 2 71
181 2 72
180 2 72
179 2 73
179 2 74
178 2 74
177 2 75
177 2 75
176 2 76
176 2 77
175 2 77
174 2 78
174 2 79
173 2 79
172 2 80
172 2 80
171 2 81
171 2 82
170 2 82
169 2 83
169 2 84
168 2 84
167 2 85
167 2 86
166 2 86
166 2 87
165 2 87
164 2 88
164 2 89
163 2 89
162 2 90
162 2 91
161 2 91
161 2 92
160 2 93
159 2 93
159 2 94
158 2 94
157 2 95
157 2 96
156 2 96
155 2 97
155 2 98
154 2 98
154 2 99
153 2 99
152 2 100
152 2 101
151 2 101
150 2 102
150 2 103
149 2 103
149 2 104
148 2 105
147 2 105
147 2 106
146 2 106
145 2 107
145 2 108
144 2 108
144 2 109
143 2 110
142 2 110
142 2 111
141 2 111
140 2 112
140 2 113
139 2 113
139 2 114
138 2 115
137 2 115
137 2 116
136 2 117
135 2 117
135 2 118
134 2 118
134 2 119
133 2 120
132 2 120
132 2 121
131 2 122
130 2 122
130 2 123
129 2 124
129 2 124
128 2 125
127 2 125
127 2 126
126 2 127
125 2 127
125 2 128
124 2 129
124 2 129
123 2 130
122 2 130
122 2 131
121 2 132
120 2 132
120 2 133
119 2 134
119 2 134
118 2 135
117 2 136
117 2 136
116 2 137
115 2 137
115 2 138
114 2 139
114 2 139
113 2 140
112 2 141
112 2 141
111 2 142
110 2 142
110 2 143
109 2 144
109 2 144
108 2 145
107 2 146
107 2 146
106 2 147
105 2 148
105 2 148
104 2 149
104 2 149
103 2 150
102 2 151
102 2 151
101 2 152
100 2 153
100 2 153
99 2 154
99 2 155
98 2 155
97 2 156
97 2 156
96 2 157
95 2 158
95 2 158
94 2 159
93 2 160
93 2 160
92 2 161
92 2 161
91 2 162
90 2 163
90 2 163
89 2 164
88 2 165
88 2 165
87 2 166
87 2 167
86 2 167
85 2 168
85 2 168
84 2 169
83 2 170
83 2 170
82 2 171
82 2 172
81 2 172
80 2 173
80 2 173
79 2 174
78 2 175
78 2 175
77 2 176
77 2 177
76 2 177
75 2 178
75 2 179
74 2 179
73 2 180
73 2 180
72 2 181
72 2 182
71 2 182
70 2 183
70 2 184
69 2 184
68 2 185
68 2 186
67 2 186
67 2 187
66 2 187
65 2 188
65 2 189
64 2 189
63 2 190
63 2 191
62 2 191
62 2 192
61 2 192
60 2 193
60 2 194
59 2 194
58 2 195
58 2 196
57 2 196
57 2 197
56 2 198
55 2 198
55 2 199
54 2 199
53 2 200
53 2 201
52 2 201
52 2 202
51 2 203
50 2 203
50 2 204
49 2 204
48 2 205
48 2 206
47 2 206
47 2 207
46 2 208
45 2 208
45 2 209
44 2 210
43 2 210
43 2 211
42 2 211
42 2 212
41 2 213
40 2 213
40 2 214
39 2 215
38 2 215
38 2 216
37 2 217
37 2 217
36 2 218
35 2 218
35 2 219
34 2 220
33 2 220
33 2 221
32 2 222
31 2 222
31 2 223
30 2 223
30 2 224
29 2 225
28 2 225
28 2 226
27 2 227
26 2 227
26 2 228
25 2 229
25 2 229
24 2 230
23 2 230
23 2 231
22 2 232
21 2 232
21 2 233
20 2 234
20 2 234
19 2 235
18 2 235
18 2 236
17 2 237
16 2 237
16 2 238
15 2 239
15 2 239
14 2 240
13 2 241
13 2 241
12 2 242
11 2 242
11 2 243
10 2 244
10 2 244
9 2 245
8 2 246
8 2 246
7 2 247
6 2 248
6 2 248
5 2 249
5 2 249
4 2 250
3 2 251
3 2 251
2 2 252
253 1 0
253 1 0
252 1 1
251 1 1
251 1 2
250 1 3
249 1 3
249 1 4
248 1 5
248 1 5
247 1 6
246 1 6
246 1 7
245 1 8
244 1 8
244 1 9
243 1 10
242 1 10
242 1 11
241 1 12
241 1 12
240 1 13
239 1 13
239 1 14
238 1 15
237 1 15
237 1 16
236 1 17
236 1 17
235 1 18
234 1 19
234 1 19
233 1 20
232 1 20
232 1 21
231 1 22
230 1 22
230 1 23
229 1 24
229 1 24
228 1 25
227 1 26
227 1 26
226 1 27
225 1 27
225 1 28
224 1 29
223 1 29
223 1 30
222 1 31
222 1 31
221 1 32
220 1 33
220 1 33
219 1 34
218 1 34
218 1 35
217 1 36
217 1 36
216 1 37
215 1 38
215 1 38
214 1 39
213 1 40
213 1 40
212 1 41
211 1 41
211 1 42
210 1 43
210 1 43
209 1 44
208 1 45
208 1 45
207 1 46
206 1 47
206 1 47
205 1 48
205 1 48
204 1 49
203 1 50
203 1 50
202 1 51
201 1 52
201 1 52
200 1 53
199 1 54
199 1 54
198 1 55
198 1 55
197 1 56
196 1 57
196 1 57
195 1 58
194 1 59
194 1 59
193 1 60
192 1 61
192 1 61
191 1 62
191 1 62
190 1 63
189 1 64
189 1 64
188 1 65
187 1 66
187 1 66
186 1 67
186 1 68
185 1 68
184 1 69
184 1 69
183 1 70
182 1 71
182 1 71
181 1 72
180 1 73
180 1 73
179 1 74
179 1 75
178 1 75
177 1 76
177 1 76
176 1 77
175 1 78
175 1 78
174 1 79
174 1 80
173 1 80
172 1 81
172 1 82
171 1 82
170 1 83
170 1 83
169 1 84
168 1 85
168 1 85
167 1 86
167 1 87
166 1 87
165 1 88
165 1 89
164 1 89
163 1 90
163 1 90
162 1 91
161 1 92
161 1 92
160 1 93
160 1 94
159 1 94
158 1 95
158 1 96
157 1 96
156 1 97
156 1 97
155 1 98
155 1 99
154 1 99
153 1 100
153 1 101
152 1 101
151 1 102
151 1 103
150 1 103
149 1 104
149 1 104
148 1 105
148 1 106
147 1 106
146 1 107
146 1 108
145 1 108
144 1 109
144 1 110
143 1 110
143 1 111
142 1 111
141 1 112
141 1 113
140 1 113
139 1 114
139 1 115
138 1 115
137 1 116
137 1 117
136 1 117
136 1 118
135 1 118
134 1 119
134 1 120
133 1 120
132 1 121
132 1 122
131 1 122
130 1 123
130 1 123
129 1 124
129 1 125
128 1 125
127 1 126
127 1 127
126 1 127
125 1 128
125 1 129
124 1 129
124 1 130
123 1 130
122 1 131
122 1 132
121 1 132
120 1 133
120 1 134
119 1 134
118 1 135
118 1 136
117 1 136
117 1 137
116 1 137
115 1 138
115 1 139
114 1 139
113 1 140
113 1 141
112 1 141
111 1 142
111 1 143
110 1 143
110 1 144
109 1 144
108 1 145
108 1 146
107 1 146
106 1 147
106 1 148
105 1 148
105 1 149
104 1 150
103 1 150
103 1 151
102 1 151
101 1 152
101 1 153
100 1 153
99 1 154
99 1 155
98 1 155
98 1 156
97 1 157
96 1 157
96 1 158
95 1 158
94 1 159
94 1 160
93 1 160
93 1 161
92 1 162
91 1 162
91 1 163
90 1 164
89 1 164
89 1 165
88 1 165
87 1 166
87 1 167
86 1 167
86 1 168
85 1 169
84 1 169
84 1 170
83 1 171
82 1 171
82 1 172
81 1 172
80 1 173
80 1 174
79 1 174
79 1 175
78 1 176
77 1 176
77 1 177
76 1 178
75 1 178
75 1 179
74 1 179
74 1 180
73 1 181
72 1 181
72 1 182
71 1 183
70 1 183
70 1 184
69 1 185
68 1 185
68 1 186
67 1 186
67 1 187
66 1 188
65 1 188
65 1 189
64 1 190
63 1 190
63 1 191
62 1 192
62 1 192
61 1 193
60 1 193
60 1 194
59 1 195
58 1 195
58 1 196
57 1 197
56 1 197
56 1 198
55 1 199
55 1 199
54 1 200
53 1 200
53 1 201
52 1 202
51 1 202
51 1 203
50 1 204
49 1 204
49 1 205
48 1 206
48 1 206
47 1 207
46 1 207
46 1 208
45 1 209
44 1 209
44 1 210
43 1 211
43 1 211
42 1 212
41 1 213
41 1 213
40 1 214
39 1 214
39 1 215
38 1 216
37 1 216
37 1 217
36 1 218
36 1 218
35 1 219
34 1 220
34 1 220
33 1 221
32 1 221
32 1 222
31 1 223
31 1 223
30 1 224
29 1 225
29 1 225
28 1 226
27 1 227
27 1 227
26 1 228
25 1 228
25 1 229
24 1 230
24 1 230
23 1 231
22 1 232
22 1 232
21 1 233
20 1 234
20 1 234
19 1 235
18 1 235
18 1 236
17 1 237
17 1 237
16 1 238
15 1 239
15 1 239
14 1 240
13 1 241
13 1 241
12 1 242
12 1 242
11 1 243
10 1 244
10 1 244
9 1 245
8 1 246
8 1 246
7 1 247
6 1 247
6 1 248
5 1 249
5 1 249
4 1 250
3 1 251
3 1 251
2 1 252
1 1 253
1 1 253
255 0 0
254 0 0
253 0 1
253 0 1
252 0 2
251 0 3
251 0 3
250 0 4
249 0 5
249 0 5
248 0 6
247 0 7
247 0 7
246 0 8
246 0 8
245 0 9
244 0 10
244 0 10
243 0 11
242 0 12
242 0 12
241 0 13
240 0 14
240 0 14
239 0 15
239 0 15
238 0 16
237 0 17
237 0 17
236 0 18
235 0 19
235 0 19
234 0 20
233 0 21
233 0 21
232 0 22
231 0 23
231 0 23
230 0 24
230 0 24
229 0 25
228 0 26
228 0 26
227 0 27
226 0 28
226 0 28
225 0 29
224 0 30
224 0 30
223 0 31
223 0 31
222 0 32
221 0 33
221 0 33
220 0 34
219 0 35
219 0 35
218 0 36
217 0 37
217 0 37
216 0 38
216 0 38
215 0 39
214 0 40
214 0 40
213 0 41
212 0 42
212 0 42
211 0 43
210 0 44
210 0 44
209 0 45
208 0 46
208 0 46
207 0 47
207 0 47
206 0 48
205 0 49
205 0 49
204 0 50
203 0 51
203 0 51
202 0 52
201 0 53
201 0 53
200 0 54
200 0 54
199 0 55
198 0 56
198 0 56
197 0 57
196 0 58
196 0 58
195 0 59
194 0 60
194 0 60
193 0 61
193 0 61
192 0 62
191 0 63
191 0 63
190 0 64
189 0 65
189 0 65
188 0 66
187 0 67
187 0 67
186 0 68
185 0 69
185 0 69
184 0 70
184 0 70
183 0 71
182 0 72
182 0 72
181 0 73
180 0 74
180 0 74
179 0 75
178 0 76
178 0 76
177 0 77
177 0 77
176 0 78
175 0 79
175 0 79
174 0 80
173 0 81
173 0 81
172 0 82
171 0 83
171 0 83
170 0 84
169 0 85
169 0 85
168 0 86
168 0 86
167 0 87
166 0 88
166 0 88
165 0 89
164 0 90
164 0 90
163 0 91
162 0 92
162 0 92
161 0 93
161 0 93
160 0 94
159 0 95
159 0 95
158 0 96
157 0 97
157 0 97
156 0 98
155 0 99
155 0 99
154 0 100
154 0 100
153 0 101
152 0 102
152 0 102
151 0 103
150 0 104
150 0 104
149 0 105
148 0 106
148 0 106
147 0 107
146 0 108
146 0 108
145 0 109
145 0 109
144 0 110
143 0 111
143 0 111
142 0 112
141 0 113
141 0 113
140 0 114
139 0 115
139 0 115
138 0 116
138 0 116
137 0 117
136 0 118
136 0 118
135 0 119
134 0 120
134 0 120
133 0 121
132 0 122
132 0 122
131 0 123
131 0 123
130 0 124
129 0 125
129 0 125
128 0 126
127 0 127
127 0 127
126 0 128
125 0 129
125 0 129
124 0 130
123 0 131
123 0 131
122 0 132
122 0 132
121 0 133
120 0 134
120 0 134
119 0 135
118 0 136
118 0 136
117 0 137
116 0 138
116 0 138
115 0 139
115 0 139
114 0 140
113 0 141
113 0 141
112 0 142
111 0 143
111 0 143
110 0 144
109 0 145
109 0 145
108 0 146
108 0 146
107 0 147
106 0 148
106 0 148
105 0 149
104 0 150
104 0 150
103 0 151
102 0 152
102 0 152
101 0 153
100 0 154
100 0 154
99 0 155
99 0 155
98 0 156
97 0 157
97 0 157
96 0 158
95 0 159
95 0 159
94 0 160
93 0 161
93 0 161
92 0 162
92 0 162
91 0 163
90 0 164
90 0 164
89 0 165
88 0 166
88 0 166
87 0 167
86 0 168
86 0 168
85 0 169
84 0 170
84 0 170
83 0 171
83 0 171
82 0 172
81 0 173
81 0 173
80 0 174
79 0 175
79 0 175
78 0 176
77 0 177
77 0 177
76 0 178
76 0 178
75 0 179
74 0 180
74 0 180
73 0 181
72 0 182
72 0 182
71 0 183
70 0 184
70 0 184
69 0 185
69 0 185
68 0 186
67 0 187
67 0 187
66 0 188
65 0 189
65 0 189
64 0 190
63 0 191
63 0 191
62 0 192
61 0 193
61 0 193
60 0 194
60 0 194
59 0 195
58 0 196
58 0 196
57 0 197
56 0 198
56 0 198
55 0 199
54 0 200
54 0 200
53 0 201
53 0 201
52 0 202
51 0 203
51 0 203
50 0 204
49 0 205
49 0 205
48 0 206
47 0 207
47 0 207
46 0 208
46 0 208
45 0 209
44 0 210
44 0 210
43 0 211
42 0 212
42 0 212
41 0 213
40 0 214
40 0 214
39 0 215
38 0 216
38 0 216
37 0 217
37 0 217
36 0 218
35 0 219
35 0 219
34 0 220
33 0 221
33 0 221
32 0 222
31 0 223
31 0 223
30 0 224
30 0 224
29 0 225
28 0 226
28 0 226
27 0 227
26 0 228
26 0 228
25 0 229
24 0 230
24 0 230
23 0 231
23 0 231
22 0 232
21 0 233
21 0 233
20 0 234
19 0 235
19 0 235
18 0 236
17 0 237
17 0 237
16 0 238
15 0 239
15 0 239
14 0 240
14 0 240
13 0 241
12 0 242
12 0 242
11 0 243
10 0 244
10 0 244
9 0 245
8 0 246
8 0 246
7 0 247
7 0 247
6 0 248
5 0 249
5 0 249
4 0 250
3 0 251
3 0 251
2 0 252
1 0 253
1 0 253
0 0 254
0 0 255
