P3
400 200
255
0 0 255
0 0 254
1 1 253
1 1 253
2 2 252
3 3 251
3 3 251
4 4 250
5 5 249
5 5 249
6 6 248
7 7 247
7 7 247
8 8 246
8 8 246
9 9 245
10 10 244
10 10 244
11 11 243
12 12 242
12 12 242
13 13 241
14 14 240
14 14 240
15 15 239
15 15 239
16 16 238
17 17 237
17 17 237
18 18 236
19 19 235
19 19 235
20 20 234
21 21 233
21 21 233
22 22 232
23 23 231
23 23 231
24 24 230
24 24 230
25 25 229
26 26 228
26 26 228
27 27 227
28 28 226
28 28 226
29 29 225
30 30 224
30 30 224
31 31 223
31 31 223
32 32 222
33 33 221
33 33 221
34 34 220
35 35 219
35 35 219
36 36 218
37 37 217
37 37 217
38 38 216
38 38 216
39 39 215
40 40 214
40 40 214
41 41 213
42 42 212
42 42 212
43 43 211
44 44 210
44 44 210
45 45 209
46 46 208
46 46 208
47 47 207
47 47 207
48 48 206
49 49 205
49 49 205
50 50 204
51 51 203
51 51 203
52 52 202
53 53 201
53 53 201
54 54 200
54 54 200
55 55 199
56 56 198
56 56 198
57 57 197
58 58 196
58 58 196
59 59 195
60 60 194
60 60 194
61 61 193
61 61 193
62 62 192
63 63 191
63 63 191
64 64 190
65 65 189
65 65 189
66 66 188
67 67 187
67 67 187
68 68 186
69 69 185
69 69 185
70 70 184
70 70 184
71 71 183
72 72 182
72 72 182
73 73 181
74 74 180
74 74 180
75 75 179
76 76 178
76 76 178
77 77 177
77 77 177
78 78 176
79 79 175
79 79 175
80 80 174
81 81 173
81 81 173
82 82 172
83 83 171
83 83 171
84 84 170
85 85 169
85 85 169
86 86 168
86 86 168
87 87 167
88 88 166
88 88 166
89 89 165
90 90 164
90 90 164
91 91 163
92 92 162
92 92 162
93 93 161
93 93 161
94 94 160
95 95 159
95 95 159
96 96 158
97 97 157
97 97 157
98 98 156
99 99 155
99 99 155
100 100 154
100 100 154
101 101 153
102 102 152
102 102 152
103 103 151
104 104 150
104 104 150
105 105 149
106 106 148
106 106 148
107 107 147
108 108 146
108 108 146
109 109 145
109 109 145
110 110 144
111 111 143
111 111 143
112 112 142
113 113 141
113 113 141
114 114 140
115 115 139
115 115 139
116 116 138
116 116 138
117 117 137
118 118 136
118 118 136
119 119 135
120 120 134
120 120 134
121 121 133
122 122 132
122 122 132
123 123 131
123 123 131
124 124 130
125 125 129
125 125 129
126 126 128
127 127 127
127 127 127
128 128 126
129 129 125
129 129 125
130 130 124
131 131 123
131 131 123
132 132 122
132 132 122
133 133 121
134 134 120
134 134 120
135 135 119
136 136 118
136 136 118
137 137 117
138 138 116
138 138 116
139 139 115
139 139 115
140 140 114
141 141 113
141 141 113
142 142 112
143 143 111
143 143 111
144 144 110
145 145 109
145 145 109
146 146 108
146 146 108
147 147 107
148 148 106
148 148 106
149 149 105
150 150 104
150 150 104
151 151 103
152 152 102
152 152 102
153 153 101
154 154 100
154 154 100
155 155 99
155 155 99
156 156 98
157 157 97
157 157 97
158 158 96
159 159 95
159 159 95
160 160 94
161 161 93
161 161 93
162 162 92
162 162 92
163 163 91
164 164 90
164 164 90
165 165 89
166 166 88
166 166 88
167 167 87
168 168 86
168 168 86
169 169 85
170 170 84
170 170 84
171 171 83
171 171 83
172 172 82
173 173 81
173 173 81
174 174 80
175 175 79
175 175 79
176 176 78
177 177 77
177 177 77
178 178 76
178 178 76
179 179 75
180 180 74
180 180 74
181 181 73
182 182 72
182 182 72
183 183 71
184 184 70
184 184 70
185 185 69
185 185 69
186 186 68
187 187 67
187 187 67
188 188 66
189 189 65
189 189 65
190 190 64
191 191 63
191 191 63
192 192 62
193 193 61
193 193 61
194 194 60
194 194 60
195 195 59
196 196 58
196 196 58
197 197 57
198 198 56
198 198 56
199 199 55
200 200 54
200 200 54
201 201 53
201 201 53
202 202 52
203 203 51
203 203 51
204 204 50
205 205 49
205 205 49
206 206 48
207 207 47
207 207 47
208 208 46
208 208 46
209 209 45
210 210 44
210 210 44
211 211 43
212 212 42
212 212 42
213 213 41
214 214 40
214 214 40
215 215 39
216 216 38
216 216 38
217 217 37
217 217 37
218 218 36
219 219 35
219 219 35
220 220 34
221 221 33
221 221 33
222 222 32
223 223 31
223 223 31
224 224 30
224 224 30
225 225 29
226 226 28
226 226 28
227 227 27
228 228 26
228 228 26
229 229 25
230 230 24
230 230 24
231 231 23
231 231 23
232 232 22
233 233 21
233 233 21
234 234 20
235 235 19
235 235 19
236 236 18
237 237 17
237 237 17
238 238 16
239 239 15
239 239 15
240 240 14
240 240 14
241 241 13
242 242 12
242 242 12
243 243 11
244 244 10
244 244 10
245 245 9
246 246 8
246 246 8
247 247 7
247 247 7
248 248 6
249 249 5
249 249 5
250 250 4
251 251 3
251 251 3
252 252 2
253 253 1
253 253 1
254 254 0
255 255 0
1 0 253
1 0 253
2 1 252
3 1 251
3 2 251
4 3 250
5 3 249
5 4 249
6 5 248
6 5 247
7 6 247
8 7 246
8 7 246
9 8 245
10 8 244
10 9 244
11 10 243
12 10 242
12 11 242
13 12 241
13 12 241
14 13 240
15 14 239
15 14 239
16 15 238
17 15 237
17 16 237
18 17 236
18 17 235
19 18 235
20 19 234
20 19 234
21 20 233
22 21 232
22 21 232
23 22 231
24 23 230
24 23 230
25 24 229
25 24 228
26 25 228
27 26 227
27 26 227
28 27 226
29 28 225
29 28 225
30 29 224
31 30 223
31 30 223
32 31 222
32 31 221
33 32 221
34 33 220
34 33 220
35 34 219
36 35 218
36 35 218
37 36 217
37 37 216
38 37 216
39 38 215
39 38 214
40 39 214
41 40 213
41 40 213
42 41 212
43 42 211
43 42 211
44 43 210
44 44 209
45 44 209
46 45 208
46 46 207
47 46 207
48 47 206
48 47 206
49 48 205
49 49 204
50 49 204
51 50 203
51 51 202
52 51 202
53 52 201
53 53 200
54 53 200
55 54 199
55 54 199
56 55 198
56 56 197
57 56 197
58 57 196
58 58 195
59 58 195
60 59 194
60 60 193
61 60 193
62 61 192
62 61 192
63 62 191
63 63 190
64 63 190
65 64 189
65 65 188
66 65 188
67 66 187
67 67 186
68 67 186
68 68 185
69 69 185
70 69 184
70 70 183
71 70 183
72 71 182
72 72 181
73 72 181
74 73 180
74 74 179
75 74 179
75 75 178
76 76 178
77 76 177
77 77 176
78 77 176
79 78 175
79 79 174
80 79 174
80 80 173
81 81 172
82 81 172
82 82 171
83 83 171
84 83 170
84 84 169
85 85 169
86 85 168
86 86 167
87 86 167
87 87 166
88 88 165
89 88 165
89 89 164
90 90 164
91 90 163
91 91 162
92 92 162
93 92 161
93 93 160
94 93 160
94 94 159
95 95 158
96 95 158
96 96 157
97 97 157
98 97 156
98 98 155
99 99 155
99 99 154
100 100 153
101 100 153
101 101 152
102 102 151
103 102 151
103 103 150
104 104 150
105 104 149
105 105 148
106 106 148
106 106 147
107 107 146
108 108 146
108 108 145
109 109 144
110 109 144
110 110 143
111 111 143
111 111 142
112 112 141
113 113 141
113 113 140
114 114 139
115 115 139
115 115 138
116 116 137
117 116 137
117 117 136
118 118 136
118 118 135
119 119 134
120 120 134
120 120 133
121 121 132
122 122 132
122 122 131
123 123 130
124 123 130
124 124 129
125 125 129
125 125 128
126 126 127
127 127 127
127 127 126
128 128 125
129 129 125
129 129 124
130 130 123
130 131 123
131 131 122
132 132 122
132 132 121
133 133 120
134 134 120
134 134 119
135 135 118
136 136 118
136 136 117
137 137 117
137 138 116
138 138 115
139 139 115
139 139 114
140 140 113
141 141 113
141 141 112
142 142 111
143 143 111
143 143 110
144 144 110
144 145 109
145 145 108
146 146 108
146 146 107
147 147 106
148 148 106
148 148 105
149 149 104
149 150 104
150 150 103
151 151 103
151 152 102
152 152 101
153 153 101
153 154 100
154 154 99
155 155 99
155 155 98
156 156 97
156 157 97
157 157 96
158 158 96
158 159 95
159 159 94
160 160 94
160 161 93
161 161 92
161 162 92
162 162 91
163 163 90
163 164 90
164 164 89
165 165 89
165 166 88
166 166 87
167 167 87
167 168 86
168 168 85
168 169 85
169 170 84
170 170 83
170 171 83
171 171 82
172 172 82
172 173 81
173 173 80
174 174 80
174 175 79
175 175 78
175 176 78
176 177 77
177 177 76
177 178 76
178 178 75
179 179 75
179 180 74
180 180 73
180 181 73
181 182 72
182 182 71
182 183 71
183 184 70
184 184 69
184 185 69
185 185 68
186 186 68
186 187 67
187 187 66
187 188 66
188 189 65
189 189 64
189 190 64
190 191 63
191 191 62
191 192 62
192 193 61
192 193 61
193 194 60
194 194 59
194 195 59
195 196 58
196 196 57
196 197 57
197 198 56
198 198 55
198 199 55
199 200 54
199 200 54
200 201 53
201 201 52
201 202 52
202 203 51
203 203 50
203 204 50
204 205 49
205 205 48
205 206 48
206 207 47
206 207 47
207 208 46
208 208 45
208 209 45
209 210 44
210 210 43
210 211 43
211 212 42
211 212 41
212 213 41
213 214 40
213 214 40
214 215 39
215 216 38
215 216 38
216 217 37
217 217 36
217 218 36
218 219 35
218 219 34
219 220 34
220 221 33
220 221 33
221 222 32
222 223 31
222 223 31
223 224 30
223 224 29
224 225 29
225 226 28
225 226 27
226 227 27
227 228 26
227 228 26
228 229 25
229 230 24
229 230 24
230 231 23
230 231 22
231 232 22
232 233 21
232 233 20
233 234 20
234 235 19
234 235 19
235 236 18
236 237 17
236 237 17
237 238 16
237 239 15
238 239 15
239 240 14
239 240 13
240 241 13
241 242 12
241 242 12
242 243 11
242 244 10
243 244 10
244 245 9
244 246 8
245 246 8
246 247 7
246 247 6
247 248 6
248 249 5
248 249 5
249 250 4
249 251 3
250 251 3
251 252 2
251 253 1
252 253 1
253 254 0
253 255 0
2 0 252
3 0 251
3 1 251
4 1 250
5 2 249
5 3 249
6 3 248
6 4 248
7 5 247
8 5 246
8 6 246
9 7 245
10 7 244
10 8 244
11 8 243
11 9 242
12 10 242
13 10 241
13 11 241
14 12 240
15 12 239
15 13 239
16 14 238
16 14 237
17 15 237
18 15 236
18 16 235
19 17 235
20 17 234
20 18 234
21 19 233
21 19 232
22 20 232
23 21 231
23 21 230
24 22 230
25 23 229
25 23 229
26 24 228
26 24 227
27 25 227
28 26 226
28 26 225
29 27 225
30 28 224
30 28 223
31 29 223
31 30 222
32 30 222
33 31 221
33 31 220
34 32 220
35 33 219
35 33 218
36 34 218
37 35 217
37 35 217
38 36 216
38 37 215
39 37 215
40 38 214
40 38 213
41 39 213
42 40 212
42 40 211
43 41 211
43 42 210
44 42 210
45 43 209
45 44 208
46 44 208
47 45 207
47 46 206
48 46 206
48 47 205
49 47 204
50 48 204
50 49 203
51 49 203
52 50 202
52 51 201
53 51 201
53 52 200
54 53 199
55 53 199
55 54 198
56 54 198
57 55 197
57 56 196
58 56 196
58 57 195
59 58 194
60 58 194
60 59 193
61 60 192
62 60 192
62 61 191
63 61 191
63 62 190
64 63 189
65 63 189
65 64 188
66 65 187
67 65 187
67 66 186
68 67 186
68 67 185
69 68 184
70 69 184
70 69 183
71 70 182
72 70 182
72 71 181
73 72 180
73 72 180
74 73 179
75 74 179
75 74 178
76 75 177
77 76 177
77 76 176
78 77 175
78 77 175
79 78 174
80 79 173
80 79 173
81 80 172
82 81 172
82 81 171
83 82 170
83 83 170
84 83 169
85 84 168
85 85 168
86 85 167
87 86 167
87 86 166
88 87 165
88 88 165
89 88 164
90 89 163
90 90 163
91 90 162
92 91 161
92 92 161
93 92 160
93 93 160
94 93 159
95 94 158
95 95 158
96 95 157
97 96 156
97 97 156
98 97 155
99 98 155
99 99 154
100 99 153
100 100 153
101 100 152
102 101 151
102 102 151
103 102 150
104 103 149
104 104 149
105 104 148
105 105 148
106 106 147
107 106 146
107 107 146
108 108 145
109 108 144
109 109 144
110 109 143
110 110 142
111 111 142
112 111 141
112 112 141
113 113 140
114 113 139
114 114 139
115 115 138
115 115 137
116 116 137
117 116 136
117 117 136
118 118 135
119 118 134
119 119 134
120 120 133
120 120 132
121 121 132
122 122 131
122 122 130
123 123 130
124 123 129
124 124 129
125 125 128
125 125 127
126 126 127
127 127 126
127 127 125
128 128 125
129 129 124
129 129 124
130 130 123
130 131 122
131 131 122
132 132 121
132 132 120
133 133 120
134 134 119
134 134 118
135 135 118
135 136 117
136 136 117
137 137 116
137 138 115
138 138 115
139 139 114
139 139 113
140 140 113
140 141 112
141 141 111
142 142 111
142 143 110
143 143 110
144 144 109
144 145 108
145 145 108
145 146 107
146 146 106
147 147 106
147 148 105
148 148 105
149 149 104
149 150 103
150 150 103
150 151 102
151 152 101
152 152 101
152 153 100
153 154 99
154 154 99
154 155 98
155 155 98
155 156 97
156 157 96
157 157 96
157 158 95
158 159 94
159 159 94
159 160 93
160 161 93
161 161 92
161 162 91
162 162 91
162 163 90
163 164 89
164 164 89
164 165 88
165 166 87
166 166 87
166 167 86
167 168 86
167 168 85
168 169 84
169 170 84
169 170 83
170 171 82
171 171 82
171 172 81
172 173 80
172 173 80
173 174 79
174 175 79
174 175 78
175 176 77
176 177 77
176 177 76
177 178 75
177 178 75
178 179 74
179 180 74
179 180 73
180 181 72
181 182 72
181 182 71
182 183 70
182 184 70
183 184 69
184 185 68
184 185 68
185 186 67
186 187 67
186 187 66
187 188 65
187 189 65
188 189 64
189 190 63
189 191 63
190 191 62
191 192 62
191 193 61
192 193 60
192 194 60
193 194 59
194 195 58
194 196 58
195 196 57
196 197 56
196 198 56
197 198 55
197 199 55
198 200 54
199 200 53
199 201 53
200 201 52
201 202 51
201 203 51
202 203 50
202 204 49
203 205 49
204 205 48
204 206 48
205 207 47
206 207 46
206 208 46
207 208 45
207 209 44
208 210 44
209 210 43
209 211 43
210 212 42
211 212 41
211 213 41
212 214 40
212 214 39
213 215 39
214 216 38
214 216 37
215 217 37
216 217 36
216 218 36
217 219 35
217 219 34
218 220 34
219 221 33
219 221 32
220 222 32
221 223 31
221 223 31
222 224 30
223 224 29
223 225 29
224 226 28
224 226 27
225 227 27
226 228 26
226 228 25
227 229 25
228 230 24
228 230 24
229 231 23
229 231 22
230 232 22
231 233 21
231 233 20
232 234 20
233 235 19
233 235 18
234 236 18
234 237 17
235 237 17
236 238 16
236 239 15
237 239 15
238 240 14
238 240 13
239 241 13
239 242 12
240 242 12
241 243 11
241 244 10
242 244 10
243 245 9
243 246 8
244 246 8
244 247 7
245 247 6
246 248 6
246 249 5
247 249 5
248 250 4
248 251 3
249 251 3
249 252 2
250 253 1
251 253 1
251 254 0
252 255 0
3 0 251
4 0 250
5 1 249
5 1 249
6 2 248
6 3 248
7 3 247
8 4 246
8 5 246
9 5 245
10 6 244
10 7 244
11 7 243
11 8 242
12 8 242
13 9 241
13 10 241
14 10 240
15 11 239
15 12 239
16 12 238
16 13 237
17 14 237
18 14 236
18 15 236
19 15 235
19 16 234
20 17 234
21 17 233
21 18 232
22 19 232
23 19 231
23 20 231
24 21 230
24 21 229
25 22 229
26 23 228
26 23 227
27 24 227
28 24 226
28 25 225
29 26 225
29 26 224
30 27 224
31 28 223
31 28 222
32 29 222
32 30 221
33 30 220
34 31 220
34 31 219
35 32 219
36 33 218
36 33 217
37 34 217
37 35 216
38 35 215
39 36 215
39 37 214
40 37 214
41 38 213
41 38 212
42 39 212
42 40 211
43 40 210
44 41 210
44 42 209
45 42 208
45 43 208
46 44 207
47 44 207
47 45 206
48 46 205
49 46 205
49 47 204
50 47 203
50 48 203
51 49 202
52 49 202
52 50 201
53 51 200
54 51 200
54 52 199
55 53 198
55 53 198
56 54 197
57 54 197
57 55 196
58 56 195
59 56 195
59 57 194
60 58 193
60 58 193
61 59 192
62 60 191
62 60 191
63 61 190
63 61 190
64 62 189
65 63 188
65 63 188
66 64 187
67 65 186
67 65 186
68 66 185
68 67 185
69 67 184
70 68 183
70 69 183
71 69 182
72 70 181
72 70 181
73 71 180
73 72 180
74 72 179
75 73 178
75 74 178
76 74 177
76 75 176
77 76 176
78 76 175
78 77 174
79 77 174
80 78 173
80 79 173
81 79 172
81 80 171
82 81 171
83 81 170
83 82 169
84 83 169
85 83 168
85 84 168
86 85 167
86 85 166
87 86 166
88 86 165
88 87 164
89 88 164
90 88 163
90 89 163
91 90 162
91 90 161
92 91 161
93 92 160
93 92 159
94 93 159
94 93 158
95 94 157
96 95 157
96 95 156
97 96 156
98 97 155
98 97 154
99 98 154
99 99 153
100 99 152
101 100 152
101 100 151
102 101 151
103 102 150
103 102 149
104 103 149
104 104 148
105 104 147
106 105 147
106 106 146
107 106 146
107 107 145
108 108 144
109 108 144
109 109 143
110 109 142
111 110 142
111 111 141
112 111 140
112 112 140
113 113 139
114 113 139
114 114 138
115 115 137
116 115 137
116 116 136
117 116 135
117 117 135
118 118 134
119 118 134
119 119 133
120 120 132
120 120 132
121 121 131
122 122 130
122 122 130
123 123 129
124 123 129
124 124 128
125 125 127
125 125 127
126 126 126
127 127 125
127 127 125
128 128 124
129 129 124
129 129 123
130 130 122
130 131 122
131 131 121
132 132 120
132 132 120
133 133 119
134 134 118
134 134 118
135 135 117
135 136 117
136 136 116
137 137 115
137 138 115
138 138 114
138 139 113
139 139 113
140 140 112
140 141 112
141 141 111
142 142 110
142 143 110
143 143 109
143 144 108
144 145 108
145 145 107
145 146 107
146 146 106
147 147 105
147 148 105
148 148 104
148 149 103
149 150 103
150 150 102
150 151 101
151 152 101
151 152 100
152 153 100
153 154 99
153 154 98
154 155 98
155 155 97
155 156 96
156 157 96
156 157 95
157 158 95
158 159 94
158 159 93
159 160 93
160 161 92
160 161 91
161 162 91
161 162 90
162 163 90
163 164 89
163 164 88
164 165 88
164 166 87
165 166 86
166 167 86
166 168 85
167 168 84
168 169 84
168 170 83
169 170 83
169 171 82
170 171 81
171 172 81
171 173 80
172 173 79
173 174 79
173 175 78
174 175 78
174 176 77
175 177 76
176 177 76
176 178 75
177 178 74
178 179 74
178 180 73
179 180 73
179 181 72
180 182 71
181 182 71
181 183 70
182 184 69
182 184 69
183 185 68
184 185 67
184 186 67
185 187 66
186 187 66
186 188 65
187 189 64
187 189 64
188 190 63
189 191 62
189 191 62
190 192 61
191 193 61
191 193 60
192 194 59
192 194 59
193 195 58
194 196 57
194 196 57
195 197 56
195 198 56
196 198 55
197 199 54
197 200 54
198 200 53
199 201 52
199 201 52
200 202 51
200 203 50
201 203 50
202 204 49
202 205 49
203 205 48
204 206 47
204 207 47
205 207 46
205 208 45
206 208 45
207 209 44
207 210 44
208 210 43
209 211 42
209 212 42
210 212 41
210 213 40
211 214 40
212 214 39
212 215 39
213 216 38
213 216 37
214 217 37
215 217 36
215 218 35
216 219 35
217 219 34
217 220 33
218 221 33
218 221 32
219 222 32
220 223 31
220 223 30
221 224 30
222 224 29
222 225 28
223 226 28
223 226 27
224 227 27
225 228 26
225 228 25
226 229 25
226 230 24
227 230 23
228 231 23
228 231 22
229 232 22
230 233 21
230 233 20
231 234 20
231 235 19
232 235 18
233 236 18
233 237 17
234 237 16
235 238 16
235 239 15
236 239 15
236 240 14
237 240 13
238 241 13
238 242 12
239 242 11
239 243 11
240 244 10
241 244 10
241 245 9
242 246 8
243 246 8
243 247 7
244 247 6
244 248 6
245 249 5
246 249 5
246 250 4
247 251 3
248 251 3
248 252 2
249 253 1
249 253 1
250 254 0
251 255 0
5 0 249
5 0 249
6 1 248
6 1 247
7 2 247
8 3 246
8 3 246
9 4 245
10 5 244
10 5 244
11 6 243
11 7 242
12 7 242
13 8 241
13 8 241
14 9 240
14 10 239
15 10 239
16 11 238
16 12 237
17 12 237
18 13 236
18 14 236
19 14 235
19 15 234
20 15 234
21 16 233
21 17 232
22 17 232
22 18 231
23 19 231
24 19 230
24 20 229
25 21 229
25 21 228
26 22 227
27 23 227
27 23 226
28 24 226
29 24 225
29 25 224
30 26 224
30 26 223
31 27 222
32 28 222
32 28 221
33 29 221
33 30 220
34 30 219
35 31 219
35 31 218
36 32 217
37 33 217
37 33 216
38 34 216
38 35 215
39 35 214
40 36 214
40 37 213
41 37 212
41 38 212
42 38 211
43 39 211
43 40 210
44 40 209
44 41 209
45 42 208
46 42 207
46 43 207
47 44 206
48 44 206
48 45 205
49 46 204
49 46 204
50 47 203
51 47 202
51 48 202
52 49 201
52 49 201
53 50 200
54 51 199
54 51 199
55 52 198
56 53 197
56 53 197
57 54 196
57 54 196
58 55 195
59 56 194
59 56 194
60 57 193
60 58 192
61 58 192
62 59 191
62 60 191
63 60 190
64 61 189
64 61 189
65 62 188
65 63 187
66 63 187
67 64 186
67 65 185
68 65 185
68 66 184
69 67 184
70 67 183
70 68 182
71 69 182
71 69 181
72 70 180
73 70 180
73 71 179
74 72 179
75 72 178
75 73 177
76 74 177
76 74 176
77 75 175
78 76 175
78 76 174
79 77 174
79 77 173
80 78 172
81 79 172
81 79 171
82 80 170
83 81 170
83 81 169
84 82 169
84 83 168
85 83 167
86 84 167
86 85 166
87 85 165
87 86 165
88 86 164
89 87 164
89 88 163
90 88 162
91 89 162
91 90 161
92 90 160
92 91 160
93 92 159
94 92 159
94 93 158
95 93 157
95 94 157
96 95 156
97 95 155
97 96 155
98 97 154
98 97 154
99 98 153
100 99 152
100 99 152
101 100 151
102 100 150
102 101 150
103 102 149
103 102 149
104 103 148
105 104 147
105 104 147
106 105 146
106 106 145
107 106 145
108 107 144
108 108 144
109 108 143
110 109 142
110 109 142
111 110 141
111 111 140
112 111 140
113 112 139
113 113 139
114 113 138
114 114 137
115 115 137
116 115 136
116 116 135
117 116 135
117 117 134
118 118 134
119 118 133
119 119 132
120 120 132
121 120 131
121 121 130
122 122 130
122 122 129
123 123 129
124 123 128
124 124 127
125 125 127
125 125 126
126 126 125
127 127 125
127 127 124
128 128 123
129 129 123
129 129 122
130 130 122
130 131 121
131 131 120
132 132 120
132 132 119
133 133 118
133 134 118
134 134 117
135 135 117
135 136 116
136 136 115
137 137 115
137 138 114
138 138 113
138 139 113
139 139 112
140 140 112
140 141 111
141 141 110
141 142 110
142 143 109
143 143 108
143 144 108
144 145 107
144 145 107
145 146 106
146 146 105
146 147 105
147 148 104
148 148 103
148 149 103
149 150 102
149 150 102
150 151 101
151 152 100
151 152 100
152 153 99
152 154 98
153 154 98
154 155 97
154 155 97
155 156 96
156 157 95
156 157 95
157 158 94
157 159 93
158 159 93
159 160 92
159 161 92
160 161 91
160 162 90
161 162 90
162 163 89
162 164 88
163 164 88
163 165 87
164 166 87
165 166 86
165 167 85
166 168 85
167 168 84
167 169 83
168 170 83
168 170 82
169 171 82
170 171 81
170 172 80
171 173 80
171 173 79
172 174 78
173 175 78
173 175 77
174 176 77
175 177 76
175 177 75
176 178 75
176 178 74
177 179 73
178 180 73
178 180 72
179 181 72
179 182 71
180 182 70
181 183 70
181 184 69
182 184 68
183 185 68
183 185 67
184 186 67
184 187 66
185 187 65
186 188 65
186 189 64
187 189 63
187 190 63
188 191 62
189 191 61
189 192 61
190 193 60
190 193 60
191 194 59
192 194 58
192 195 58
193 196 57
194 196 56
194 197 56
195 198 55
195 198 55
196 199 54
197 200 53
197 200 53
198 201 52
198 201 51
199 202 51
200 203 50
200 203 50
201 204 49
202 205 48
202 205 48
203 206 47
203 207 46
204 207 46
205 208 45
205 208 45
206 209 44
206 210 43
207 210 43
208 211 42
208 212 41
209 212 41
210 213 40
210 214 40
211 214 39
211 215 38
212 216 38
213 216 37
213 217 36
214 217 36
214 218 35
215 219 35
216 219 34
216 220 33
217 221 33
217 221 32
218 222 31
219 223 31
219 223 30
220 224 30
221 224 29
221 225 28
222 226 28
222 226 27
223 227 26
224 228 26
224 228 25
225 229 25
225 230 24
226 230 23
227 231 23
227 231 22
228 232 21
229 233 21
229 233 20
230 234 20
230 235 19
231 235 18
232 236 18
232 237 17
233 237 16
233 238 16
234 239 15
235 239 15
235 240 14
236 240 13
236 241 13
237 242 12
238 242 11
238 243 11
239 244 10
240 244 10
240 245 9
241 246 8
241 246 8
242 247 7
243 247 6
243 248 6
244 249 5
244 249 5
245 250 4
246 251 3
246 251 3
247 252 2
248 253 1
248 253 1
249 254 0
249 255 0
6 0 248
7 0 247
7 1 247
8 1 246
8 2 246
9 3 245
10 3 244
10 4 244
11 5 243
11 5 242
12 6 242
13 7 241
13 7 241
14 8 240
14 8 239
15 9 239
16 10 238
16 10 238
17 11 237
17 12 236
18 12 236
19 13 235
19 14 234
20 14 234
20 15 233
21 15 233
22 16 232
22 17 231
23 17 231
24 18 230
24 19 229
25 19 229
25 20 228
26 21 228
27 21 227
27 22 226
28 23 226
28 23 225
29 24 224
30 24 224
30 25 223
31 26 223
31 26 222
32 27 221
33 28 221
33 28 220
34 29 219
34 30 219
35 30 218
36 31 218
36 31 217
37 32 216
37 33 216
38 33 215
39 34 214
39 35 214
40 35 213
41 36 213
41 37 212
42 37 211
42 38 211
43 38 210
44 39 209
44 40 209
45 40 208
45 41 208
46 42 207
47 42 206
47 43 206
48 44 205
48 44 204
49 45 204
50 46 203
50 46 203
51 47 202
51 47 201
52 48 201
53 49 200
53 49 199
54 50 199
54 51 198
55 51 198
56 52 197
56 53 196
57 53 196
58 54 195
58 54 195
59 55 194
59 56 193
60 56 193
61 57 192
61 58 191
62 58 191
62 59 190
63 60 190
64 60 189
64 61 188
65 61 188
65 62 187
66 63 186
67 63 186
67 64 185
68 65 185
68 65 184
69 66 183
70 67 183
70 67 182
71 68 181
71 69 181
72 69 180
73 70 180
73 70 179
74 71 178
74 72 178
75 72 177
76 73 176
76 74 176
77 74 175
78 75 175
78 76 174
79 76 173
79 77 173
80 77 172
81 78 171
81 79 171
82 79 170
82 80 170
83 81 169
84 81 168
84 82 168
85 83 167
85 83 166
86 84 166
87 85 165
87 85 165
88 86 164
88 86 163
89 87 163
90 88 162
90 88 161
91 89 161
91 90 160
92 90 160
93 91 159
93 92 158
94 92 158
95 93 157
95 93 157
96 94 156
96 95 155
97 95 155
98 96 154
98 97 153
99 97 153
99 98 152
100 99 152
101 99 151
101 100 150
102 100 150
102 101 149
103 102 148
104 102 148
104 103 147
105 104 147
105 104 146
106 105 145
107 106 145
107 106 144
108 107 143
108 108 143
109 108 142
110 109 142
110 109 141
111 110 140
112 111 140
112 111 139
113 112 138
113 113 138
114 113 137
115 114 137
115 115 136
116 115 135
116 116 135
117 116 134
118 117 133
118 118 133
119 118 132
119 119 132
120 120 131
121 120 130
121 121 130
122 122 129
122 122 128
123 123 128
124 123 127
124 124 127
125 125 126
125 125 125
126 126 125
127 127 124
127 127 123
128 128 123
129 129 122
129 129 122
130 130 121
130 131 120
131 131 120
132 132 119
132 132 119
133 133 118
133 134 117
134 134 117
135 135 116
135 136 115
136 136 115
136 137 114
137 138 114
138 138 113
138 139 112
139 139 112
139 140 111
140 141 110
141 141 110
141 142 109
142 143 109
142 143 108
143 144 107
144 145 107
144 145 106
145 146 105
146 146 105
146 147 104
147 148 104
147 148 103
148 149 102
149 150 102
149 150 101
150 151 100
150 152 100
151 152 99
152 153 99
152 154 98
153 154 97
153 155 97
154 155 96
155 156 95
155 157 95
156 157 94
156 158 94
157 159 93
158 159 92
158 160 92
159 161 91
159 161 90
160 162 90
161 162 89
161 163 89
162 164 88
163 164 87
163 165 87
164 166 86
164 166 85
165 167 85
166 168 84
166 168 84
167 169 83
167 170 82
168 170 82
169 171 81
169 171 80
170 172 80
170 173 79
171 173 79
172 174 78
172 175 77
173 175 77
173 176 76
174 177 76
175 177 75
175 178 74
176 178 74
176 179 73
177 180 72
178 180 72
178 181 71
179 182 71
180 182 70
180 183 69
181 184 69
181 184 68
182 185 67
183 185 67
183 186 66
184 187 66
184 187 65
185 188 64
186 189 64
186 189 63
187 190 62
187 191 62
188 191 61
189 192 61
189 193 60
190 193 59
190 194 59
191 194 58
192 195 57
192 196 57
193 196 56
193 197 56
194 198 55
195 198 54
195 199 54
196 200 53
196 200 52
197 201 52
198 201 51
198 202 51
199 203 50
200 203 49
200 204 49
201 205 48
201 205 47
202 206 47
203 207 46
203 207 46
204 208 45
204 208 44
205 209 44
206 210 43
206 210 42
207 211 42
207 212 41
208 212 41
209 213 40
209 214 39
210 214 39
210 215 38
211 216 38
212 216 37
212 217 36
213 217 36
213 218 35
214 219 34
215 219 34
215 220 33
216 221 33
217 221 32
217 222 31
218 223 31
218 223 30
219 224 29
220 224 29
220 225 28
221 226 28
221 226 27
222 227 26
223 228 26
223 228 25
224 229 24
224 230 24
225 230 23
226 231 23
226 231 22
227 232 21
227 233 21
228 233 20
229 234 19
229 235 19
230 235 18
230 236 18
231 237 17
232 237 16
232 238 16
233 239 15
234 239 14
234 240 14
235 240 13
235 241 13
236 242 12
237 242 11
237 243 11
238 244 10
238 244 9
239 245 9
240 246 8
240 246 8
241 247 7
241 247 6
242 248 6
243 249 5
243 249 4
244 250 4
244 251 3
245 251 3
246 252 2
246 253 1
247 253 1
247 254 0
248 255 0
7 0 247
8 0 246
8 1 246
9 1 245
10 2 244
10 3 244
11 3 243
11 4 242
12 5 242
13 5 241
13 6 241
14 7 240
14 7 239
15 8 239
16 8 238
16 9 238
17 10 237
17 10 236
18 11 236
19 12 235
19 12 234
20 13 234
20 14 233
21 14 233
22 15 232
22 15 231
23 16 231
23 17 230
24 17 229
25 18 229
25 19 228
26 19 228
26 20 227
27 21 226
28 21 226
28 22 225
29 23 224
29 23 224
30 24 223
31 24 223
31 25 222
32 26 221
32 26 221
33 27 220
34 28 220
34 28 219
35 29 218
35 30 218
36 30 217
37 31 216
37 31 216
38 32 215
38 33 215
39 33 214
40 34 213
40 35 213
41 35 212
41 36 211
42 37 211
43 37 210
43 38 210
44 38 209
44 39 208
45 40 208
46 40 207
46 41 207
47 42 206
47 42 205
48 43 205
49 44 204
49 44 203
50 45 203
50 46 202
51 46 202
52 47 201
52 47 200
53 48 200
53 49 199
54 49 198
55 50 198
55 51 197
56 51 197
56 52 196
57 53 195
58 53 195
58 54 194
59 54 194
59 55 193
60 56 192
61 56 192
61 57 191
62 58 190
62 58 190
63 59 189
64 60 189
64 60 188
65 61 187
65 61 187
66 62 186
67 63 185
67 63 185
68 64 184
68 65 184
69 65 183
70 66 182
70 67 182
71 67 181
71 68 180
72 69 180
73 69 179
73 70 179
74 70 178
74 71 177
75 72 177
76 72 176
76 73 176
77 74 175
77 74 174
78 75 174
79 76 173
79 76 172
80 77 172
80 77 171
81 78 171
82 79 170
82 79 169
83 80 169
83 81 168
84 81 167
85 82 167
85 83 166
86 83 166
86 84 165
87 85 164
88 85 164
88 86 163
89 86 163
89 87 162
90 88 161
91 88 161
91 89 160
92 90 159
92 90 159
93 91 158
94 92 158
94 92 157
95 93 156
95 93 156
96 94 155
97 95 154
97 95 154
98 96 153
98 97 153
99 97 152
100 98 151
100 99 151
101 99 150
101 100 149
102 100 149
103 101 148
103 102 148
104 102 147
104 103 146
105 104 146
106 104 145
106 105 145
107 106 144
107 106 143
108 107 143
109 108 142
109 108 141
110 109 141
110 109 140
111 110 140
112 111 139
112 111 138
113 112 138
113 113 137
114 113 136
115 114 136
115 115 135
116 115 135
116 116 134
117 116 133
118 117 133
118 118 132
119 118 132
119 119 131
120 120 130
121 120 130
121 121 129
122 122 128
122 122 128
123 123 127
124 123 127
124 124 126
125 125 125
125 125 125
126 126 124
127 127 123
127 127 123
128 128 122
129 129 122
129 129 121
130 130 120
130 131 120
131 131 119
132 132 119
132 132 118
133 133 117
133 134 117
134 134 116
135 135 115
135 136 115
136 136 114
136 137 114
137 138 113
138 138 112
138 139 112
139 139 111
139 140 110
140 141 110
141 141 109
141 142 109
142 143 108
142 143 107
143 144 107
144 145 106
144 145 105
145 146 105
145 146 104
146 147 104
147 148 103
147 148 102
148 149 102
148 150 101
149 150 101
150 151 100
150 152 99
151 152 99
151 153 98
152 154 97
153 154 97
153 155 96
154 155 96
154 156 95
155 157 94
156 157 94
156 158 93
157 159 92
157 159 92
158 160 91
159 161 91
159 161 90
160 162 89
160 162 89
161 163 88
162 164 88
162 164 87
163 165 86
163 166 86
164 166 85
165 167 84
165 168 84
166 168 83
166 169 83
167 170 82
168 170 81
168 171 81
169 171 80
169 172 79
170 173 79
171 173 78
171 174 78
172 175 77
172 175 76
173 176 76
174 177 75
174 177 74
175 178 74
175 178 73
176 179 73
177 180 72
177 180 71
178 181 71
178 182 70
179 182 70
180 183 69
180 184 68
181 184 68
181 185 67
182 185 66
183 186 66
183 187 65
184 187 65
184 188 64
185 189 63
186 189 63
186 190 62
187 191 61
187 191 61
188 192 60
189 193 60
189 193 59
190 194 58
190 194 58
191 195 57
192 196 57
192 196 56
193 197 55
193 198 55
194 198 54
195 199 53
195 200 53
196 200 52
196 201 52
197 201 51
198 202 50
198 203 50
199 203 49
199 204 48
200 205 48
201 205 47
201 206 47
202 207 46
202 207 45
203 208 45
204 208 44
204 209 44
205 210 43
205 210 42
206 211 42
207 212 41
207 212 40
208 213 40
208 214 39
209 214 39
210 215 38
210 216 37
211 216 37
211 217 36
212 217 35
213 218 35
213 219 34
214 219 34
214 220 33
215 221 32
216 221 32
216 222 31
217 223 30
217 223 30
218 224 29
219 224 29
219 225 28
220 226 27
220 226 27
221 227 26
222 228 26
222 228 25
223 229 24
223 230 24
224 230 23
225 231 22
225 231 22
226 232 21
226 233 21
227 233 20
228 234 19
228 235 19
229 235 18
229 236 17
230 237 17
231 237 16
231 238 16
232 239 15
232 239 14
233 240 14
234 240 13
234 241 13
235 242 12
235 242 11
236 243 11
237 244 10
237 244 9
238 245 9
238 246 8
239 246 8
240 247 7
240 247 6
241 248 6
241 249 5
242 249 4
243 250 4
243 251 3
244 251 3
244 252 2
245 253 1
246 253 1
246 254 0
247 255 0
8 0 246
9 0 245
10 1 244
10 1 244
11 2 243
11 3 242
12 3 242
13 4 241
13 5 241
14 5 240
14 6 239
15 7 239
16 7 238
16 8 238
17 8 237
17 9 236
18 10 236
19 10 235
19 11 234
20 12 234
20 12 233
21 13 233
22 14 232
22 14 231
23 15 231
23 15 230
24 16 229
25 17 229
25 17 228
26 18 228
26 19 227
27 19 226
27 20 226
28 21 225
29 21 225
29 22 224
30 23 223
30 23 223
31 24 222
32 24 221
32 25 221
33 26 220
33 26 220
34 27 219
35 28 218
35 28 218
36 29 217
36 30 217
37 30 216
38 31 215
38 31 215
39 32 214
39 33 213
40 33 213
41 34 212
41 35 212
42 35 211
42 36 210
43 37 210
44 37 209
44 38 209
45 38 208
45 39 207
46 40 207
46 40 206
47 41 205
48 42 205
48 42 204
49 43 204
49 44 203
50 44 202
51 45 202
51 46 201
52 46 201
52 47 200
53 47 199
54 48 199
54 49 198
55 49 197
55 50 197
56 51 196
57 51 196
57 52 195
58 53 194
58 53 194
59 54 193
60 54 193
60 55 192
61 56 191
61 56 191
62 57 190
63 58 189
63 58 189
64 59 188
64 60 188
65 60 187
66 61 186
66 61 186
67 62 185
67 63 184
68 63 184
68 64 183
69 65 183
70 65 182
70 66 181
71 67 181
71 67 180
72 68 180
73 69 179
73 69 178
74 70 178
74 70 177
75 71 176
76 72 176
76 72 175
77 73 175
77 74 174
78 74 173
79 75 173
79 76 172
80 76 172
80 77 171
81 77 170
82 78 170
82 79 169
83 79 168
83 80 168
84 81 167
85 81 167
85 82 166
86 83 165
86 83 165
87 84 164
87 85 164
88 85 163
89 86 162
89 86 162
90 87 161
90 88 160
91 88 160
92 89 159
92 90 159
93 90 158
93 91 157
94 92 157
95 92 156
95 93 156
96 93 155
96 94 154
97 95 154
98 95 153
98 96 152
99 97 152
99 97 151
100 98 151
101 99 150
101 99 149
102 100 149
102 100 148
103 101 147
104 102 147
104 102 146
105 103 146
105 104 145
106 104 144
107 105 144
107 106 143
108 106 143
108 107 142
109 108 141
109 108 141
110 109 140
111 109 139
111 110 139
112 111 138
112 111 138
113 112 137
114 113 136
114 113 136
115 114 135
115 115 135
116 115 134
117 116 133
117 116 133
118 117 132
118 118 131
119 118 131
120 119 130
120 120 130
121 120 129
121 121 128
122 122 128
123 122 127
123 123 127
124 123 126
124 124 125
125 125 125
126 125 124
126 126 123
127 127 123
127 127 122
128 128 122
128 129 121
129 129 120
130 130 120
130 131 119
131 131 119
131 132 118
132 132 117
133 133 117
133 134 116
134 134 115
134 135 115
135 136 114
136 136 114
136 137 113
137 138 112
137 138 112
138 139 111
139 139 110
139 140 110
140 141 109
140 141 109
141 142 108
142 143 107
142 143 107
143 144 106
143 145 106
144 145 105
145 146 104
145 146 104
146 147 103
146 148 102
147 148 102
147 149 101
148 150 101
149 150 100
149 151 99
150 152 99
150 152 98
151 153 98
152 154 97
152 154 96
153 155 96
153 155 95
154 156 94
155 157 94
155 157 93
156 158 93
156 159 92
157 159 91
158 160 91
158 161 90
159 161 90
159 162 89
160 162 88
161 163 88
161 164 87
162 164 86
162 165 86
163 166 85
164 166 85
164 167 84
165 168 83
165 168 83
166 169 82
167 170 82
167 170 81
168 171 80
168 171 80
169 172 79
169 173 78
170 173 78
171 174 77
171 175 77
172 175 76
172 176 75
173 177 75
174 177 74
174 178 73
175 178 73
175 179 72
176 180 72
177 180 71
177 181 70
178 182 70
178 182 69
179 183 69
180 184 68
180 184 67
181 185 67
181 185 66
182 186 65
183 187 65
183 187 64
184 188 64
184 189 63
185 189 62
186 190 62
186 191 61
187 191 61
187 192 60
188 193 59
188 193 59
189 194 58
190 194 57
190 195 57
191 196 56
191 196 56
192 197 55
193 198 54
193 198 54
194 199 53
194 200 53
195 200 52
196 201 51
196 201 51
197 202 50
197 203 49
198 203 49
199 204 48
199 205 48
200 205 47
200 206 46
201 207 46
202 207 45
202 208 45
203 208 44
203 209 43
204 210 43
205 210 42
205 211 41
206 212 41
206 212 40
207 213 40
208 214 39
208 214 38
209 215 38
209 216 37
210 216 36
210 217 36
211 217 35
212 218 35
212 219 34
213 219 33
213 220 33
214 221 32
215 221 32
215 222 31
216 223 30
216 223 30
217 224 29
218 224 28
218 225 28
219 226 27
219 226 27
220 227 26
221 228 25
221 228 25
222 229 24
222 230 24
223 230 23
224 231 22
224 231 22
225 232 21
225 233 20
226 233 20
227 234 19
227 235 19
228 235 18
228 236 17
229 237 17
229 237 16
230 238 16
231 239 15
231 239 14
232 240 14
232 240 13
233 241 12
234 242 12
234 242 11
235 243 11
235 244 10
236 244 9
237 245 9
237 246 8
238 246 8
238 247 7
239 247 6
240 248 6
240 249 5
241 249 4
241 250 4
242 251 3
243 251 3
243 252 2
244 253 1
244 253 1
245 254 0
246 255 0
10 0 244
10 0 244
11 1 243
12 1 242
12 2 242
13 3 241
13 3 241
14 4 240
14 5 239
15 5 239
16 6 238
16 7 238
17 7 237
17 8 236
18 8 236
19 9 235
19 10 234
20 10 234
20 11 233
21 12 233
22 12 232
22 13 231
23 14 231
23 14 230
24 15 230
24 15 229
25 16 228
26 17 228
26 17 227
27 18 226
27 19 226
28 19 225
29 20 225
29 21 224
30 21 223
30 22 223
31 23 222
31 23 222
32 24 221
33 24 220
33 25 220
34 26 219
34 26 218
35 27 218
36 28 217
36 28 217
37 29 216
37 30 215
38 30 215
39 31 214
39 31 214
40 32 213
40 33 212
41 33 212
41 34 211
42 35 211
43 35 210
43 36 209
44 37 209
44 37 208
45 38 207
46 38 207
46 39 206
47 40 206
47 40 205
48 41 204
49 42 204
49 42 203
50 43 203
50 44 202
51 44 201
51 45 201
52 46 200
53 46 199
53 47 199
54 47 198
54 48 198
55 49 197
56 49 196
56 50 196
57 51 195
57 51 195
58 52 194
59 53 193
59 53 193
60 54 192
60 54 191
61 55 191
61 56 190
62 56 190
63 57 189
63 58 188
64 58 188
64 59 187
65 60 187
66 60 186
66 61 185
67 61 185
67 62 184
68 63 184
69 63 183
69 64 182
70 65 182
70 65 181
71 66 180
71 67 180
72 67 179
73 68 179
73 69 178
74 69 177
74 70 177
75 70 176
76 71 176
76 72 175
77 72 174
77 73 174
78 74 173
79 74 172
79 75 172
80 76 171
80 76 171
81 77 170
81 77 169
82 78 169
83 79 168
83 79 168
84 80 167
84 81 166
85 81 166
86 82 165
86 83 165
87 83 164
87 84 163
88 85 163
89 85 162
89 86 161
90 86 161
90 87 160
91 88 160
91 88 159
92 89 158
93 90 158
93 90 157
94 91 157
94 92 156
95 92 155
96 93 155
96 93 154
97 94 153
97 95 153
98 95 152
98 96 152
99 97 151
100 97 150
100 98 150
101 99 149
101 99 149
102 100 148
103 100 147
103 101 147
104 102 146
104 102 145
105 103 145
106 104 144
106 104 144
107 105 143
107 106 142
108 106 142
108 107 141
109 108 141
110 108 140
110 109 139
111 109 139
111 110 138
112 111 138
113 111 137
113 112 136
114 113 136
114 113 135
115 114 134
116 115 134
116 115 133
117 116 133
117 116 132
118 117 131
118 118 131
119 118 130
120 119 130
120 120 129
121 120 128
121 121 128
122 122 127
123 122 126
123 123 126
124 123 125
124 124 125
125 125 124
126 125 123
126 126 123
127 127 122
127 127 122
128 128 121
128 129 120
129 129 120
130 130 119
130 131 119
131 131 118
131 132 117
132 132 117
133 133 116
133 134 115
134 134 115
134 135 114
135 136 114
136 136 113
136 137 112
137 138 112
137 138 111
138 139 111
138 139 110
139 140 109
140 141 109
140 141 108
141 142 107
141 143 107
142 143 106
143 144 106
143 145 105
144 145 104
144 146 104
145 146 103
146 147 103
146 148 102
147 148 101
147 149 101
148 150 100
148 150 99
149 151 99
150 152 98
150 152 98
151 153 97
151 154 96
152 154 96
153 155 95
153 155 95
154 156 94
154 157 93
155 157 93
156 158 92
156 159 92
157 159 91
157 160 90
158 161 90
158 161 89
159 162 88
160 162 88
160 163 87
161 164 87
161 164 86
162 165 85
163 166 85
163 166 84
164 167 84
164 168 83
165 168 82
165 169 82
166 170 81
167 170 80
167 171 80
168 171 79
168 172 79
169 173 78
170 173 77
170 174 77
171 175 76
171 175 76
172 176 75
173 177 74
173 177 74
174 178 73
174 178 72
175 179 72
175 180 71
176 180 71
177 181 70
177 182 69
178 182 69
178 183 68
179 184 68
180 184 67
180 185 66
181 185 66
181 186 65
182 187 65
183 187 64
183 188 63
184 189 63
184 189 62
185 190 61
185 191 61
186 191 60
187 192 60
187 193 59
188 193 58
188 194 58
189 194 57
190 195 57
190 196 56
191 196 55
191 197 55
192 198 54
193 198 53
193 199 53
194 200 52
194 200 52
195 201 51
195 201 50
196 202 50
197 203 49
197 203 49
198 204 48
198 205 47
199 205 47
200 206 46
200 207 46
201 207 45
201 208 44
202 208 44
203 209 43
203 210 42
204 210 42
204 211 41
205 212 41
205 212 40
206 213 39
207 214 39
207 214 38
208 215 38
208 216 37
209 216 36
210 217 36
210 217 35
211 218 34
211 219 34
212 219 33
213 220 33
213 221 32
214 221 31
214 222 31
215 223 30
215 223 30
216 224 29
217 224 28
217 225 28
218 226 27
218 226 26
219 227 26
220 228 25
220 228 25
221 229 24
221 230 23
222 230 23
223 231 22
223 231 22
224 232 21
224 233 20
225 233 20
225 234 19
226 235 19
227 235 18
227 236 17
228 237 17
228 237 16
229 238 15
230 239 15
230 239 14
231 240 14
231 240 13
232 241 12
232 242 12
233 242 11
234 243 11
234 244 10
235 244 9
235 245 9
236 246 8
237 246 7
237 247 7
238 247 6
238 248 6
239 249 5
240 249 4
240 250 4
241 251 3
241 251 3
242 252 2
242 253 1
243 253 1
244 254 0
244 255 0
11 0 243
12 0 242
12 1 242
13 1 241
13 2 241
14 3 240
15 3 239
15 4 239
16 5 238
16 5 237
17 6 237
17 7 236
18 7 236
19 8 235
19 8 234
20 9 234
20 10 233
21 10 233
21 11 232
22 12 231
23 12 231
23 13 230
24 14 230
24 14 229
25 15 228
26 15 228
26 16 227
27 17 226
27 17 226
28 18 225
28 19 225
29 19 224
30 20 223
30 21 223
31 21 222
31 22 222
32 23 221
33 23 220
33 24 220
34 24 219
34 25 219
35 26 218
35 26 217
36 27 217
37 28 216
37 28 216
38 29 215
38 30 214
39 30 214
40 31 213
40 31 212
41 32 212
41 33 211
42 33 211
42 34 210
43 35 209
44 35 209
44 36 208
45 37 208
45 37 207
46 38 206
46 38 206
47 39 205
48 40 205
48 40 204
49 41 203
49 42 203
50 42 202
51 43 201
51 44 201
52 44 200
52 45 200
53 46 199
53 46 198
54 47 198
55 47 197
55 48 197
56 49 196
56 49 195
57 50 195
58 51 194
58 51 194
59 52 193
59 53 192
60 53 192
60 54 191
61 54 190
62 55 190
62 56 189
63 56 189
63 57 188
64 58 187
65 58 187
65 59 186
66 60 186
66 60 185
67 61 184
67 61 184
68 62 183
69 63 183
69 63 182
70 64 181
70 65 181
71 65 180
71 66 180
72 67 179
73 67 178
73 68 178
74 69 177
74 69 176
75 70 176
76 70 175
76 71 175
77 72 174
77 72 173
78 73 173
78 74 172
79 74 172
80 75 171
80 76 170
81 76 170
81 77 169
82 77 169
83 78 168
83 79 167
84 79 167
84 80 166
85 81 165
85 81 165
86 82 164
87 83 164
87 83 163
88 84 162
88 85 162
89 85 161
90 86 161
90 86 160
91 87 159
91 88 159
92 88 158
92 89 158
93 90 157
94 90 156
94 91 156
95 92 155
95 92 154
96 93 154
96 93 153
97 94 153
98 95 152
98 95 151
99 96 151
99 97 150
100 97 150
101 98 149
101 99 148
102 99 148
102 100 147
103 100 147
103 101 146
104 102 145
105 102 145
105 103 144
106 104 144
106 104 143
107 105 142
108 106 142
108 106 141
109 107 140
109 108 140
110 108 139
110 109 139
111 109 138
112 110 137
112 111 137
113 111 136
113 112 136
114 113 135
115 113 134
115 114 134
116 115 133
116 115 133
117 116 132
117 116 131
118 117 131
119 118 130
119 118 129
120 119 129
120 120 128
121 120 128
121 121 127
122 122 126
123 122 126
123 123 125
124 123 125
124 124 124
125 125 123
126 125 123
126 126 122
127 127 122
127 127 121
128 128 120
128 129 120
129 129 119
130 130 118
130 131 118
131 131 117
131 132 117
132 132 116
133 133 115
133 134 115
134 134 114
134 135 114
135 136 113
135 136 112
136 137 112
137 138 111
137 138 111
138 139 110
138 139 109
139 140 109
139 141 108
140 141 108
141 142 107
141 143 106
142 143 106
142 144 105
143 145 104
144 145 104
144 146 103
145 146 103
145 147 102
146 148 101
146 148 101
147 149 100
148 150 100
148 150 99
149 151 98
149 152 98
150 152 97
151 153 97
151 154 96
152 154 95
152 155 95
153 155 94
153 156 93
154 157 93
155 157 92
155 158 92
156 159 91
156 159 90
157 160 90
158 161 89
158 161 89
159 162 88
159 162 87
160 163 87
160 164 86
161 164 86
162 165 85
162 166 84
163 166 84
163 167 83
164 168 82
164 168 82
165 169 81
166 170 81
166 170 80
167 171 79
167 171 79
168 172 78
169 173 78
169 173 77
170 174 76
170 175 76
171 175 75
171 176 75
172 177 74
173 177 73
173 178 73
174 178 72
174 179 72
175 180 71
176 180 70
176 181 70
177 182 69
177 182 68
178 183 68
178 184 67
179 184 67
180 185 66
180 185 65
181 186 65
181 187 64
182 187 64
183 188 63
183 189 62
184 189 62
184 190 61
185 191 61
185 191 60
186 192 59
187 193 59
187 193 58
188 194 57
188 194 57
189 195 56
189 196 56
190 196 55
191 197 54
191 198 54
192 198 53
192 199 53
193 200 52
194 200 51
194 201 51
195 201 50
195 202 50
196 203 49
196 203 48
197 204 48
198 205 47
198 205 46
199 206 46
199 207 45
200 207 45
201 208 44
201 208 43
202 209 43
202 210 42
203 210 42
203 211 41
204 212 40
205 212 40
205 213 39
206 214 39
206 214 38
207 215 37
208 216 37
208 216 36
209 217 36
209 217 35
210 218 34
210 219 34
211 219 33
212 220 32
212 221 32
213 221 31
213 222 31
214 223 30
214 223 29
215 224 29
216 224 28
216 225 28
217 226 27
217 226 26
218 227 26
219 228 25
219 228 25
220 229 24
220 230 23
221 230 23
221 231 22
222 231 21
223 232 21
223 233 20
224 233 20
224 234 19
225 235 18
226 235 18
226 236 17
227 237 17
227 237 16
228 238 15
228 239 15
229 239 14
230 240 14
230 240 13
231 241 12
231 242 12
232 242 11
233 243 10
233 244 10
234 244 9
234 245 9
235 246 8
235 246 7
236 247 7
237 247 6
237 248 6
238 249 5
238 249 4
239 250 4
239 251 3
240 251 3
241 252 2
241 253 1
242 253 1
242 254 0
243 255 0
12 0 242
13 0 241
13 1 240
14 1 240
15 2 239
15 3 239
16 3 238
16 4 237
17 5 237
17 5 236
18 6 236
19 7 235
19 7 234
20 8 234
20 8 233
21 9 233
22 10 232
22 10 231
23 11 231
23 12 230
24 12 230
24 13 229
25 14 228
26 14 228
26 15 227
27 15 227
27 16 226
28 17 225
28 17 225
29 18 224
30 19 223
30 19 223
31 20 222
31 21 222
32 21 221
32 22 220
33 23 220
34 23 219
34 24 219
35 24 218
35 25 217
36 26 217
36 26 216
37 27 216
38 28 215
38 28 214
39 29 214
39 30 213
40 30 213
40 31 212
41 31 211
42 32 211
42 33 210
43 33 210
43 34 209
44 35 208
45 35 208
45 36 207
46 37 206
46 37 206
47 38 205
47 38 205
48 39 204
49 40 203
49 40 203
50 41 202
50 42 202
51 42 201
51 43 200
52 44 200
53 44 199
53 45 199
54 46 198
54 46 197
55 47 197
55 47 196
56 48 196
57 49 195
57 49 194
58 50 194
58 51 193
59 51 193
59 52 192
60 53 191
61 53 191
61 54 190
62 54 189
62 55 189
63 56 188
63 56 188
64 57 187
65 58 186
65 58 186
66 59 185
66 60 185
67 60 184
68 61 183
68 61 183
69 62 182
69 63 182
70 63 181
70 64 180
71 65 180
72 65 179
72 66 179
73 67 178
73 67 177
74 68 177
74 69 176
75 69 176
76 70 175
76 70 174
77 71 174
77 72 173
78 72 172
78 73 172
79 74 171
80 74 171
80 75 170
81 76 169
81 76 169
82 77 168
82 77 168
83 78 167
84 79 166
84 79 166
85 80 165
85 81 165
86 81 164
86 82 163
87 83 163
88 83 162
88 84 162
89 85 161
89 85 160
90 86 160
90 86 159
91 87 159
92 88 158
92 88 157
93 89 157
93 90 156
94 90 155
95 91 155
95 92 154
96 92 154
96 93 153
97 93 152
97 94 152
98 95 151
99 95 151
99 96 150
100 97 149
100 97 149
101 98 148
101 99 148
102 99 147
103 100 146
103 100 146
104 101 145
104 102 145
105 102 144
105 103 143
106 104 143
107 104 142
107 105 142
108 106 141
108 106 140
109 107 140
109 108 139
110 108 138
111 109 138
111 109 137
112 110 137
112 111 136
113 111 135
113 112 135
114 113 134
115 113 134
115 114 133
116 115 132
116 115 132
117 116 131
118 116 131
118 117 130
119 118 129
119 118 129
120 119 128
120 120 128
121 120 127
122 121 126
122 122 126
123 122 125
123 123 125
124 123 124
124 124 123
125 125 123
126 125 122
126 126 122
127 127 121
127 127 120
128 128 120
128 129 119
129 129 118
130 130 118
130 131 117
131 131 117
131 132 116
132 132 115
132 133 115
133 134 114
134 134 114
134 135 113
135 136 112
135 136 112
136 137 111
136 138 111
137 138 110
138 139 109
138 139 109
139 140 108
139 141 108
140 141 107
141 142 106
141 143 106
142 143 105
142 144 105
143 145 104
143 145 103
144 146 103
145 146 102
145 147 101
146 148 101
146 148 100
147 149 100
147 150 99
148 150 98
149 151 98
149 152 97
150 152 97
150 153 96
151 154 95
151 154 95
152 155 94
153 155 94
153 156 93
154 157 92
154 157 92
155 158 91
155 159 91
156 159 90
157 160 89
157 161 89
158 161 88
158 162 88
159 162 87
159 163 86
160 164 86
161 164 85
161 165 84
162 166 84
162 166 83
163 167 83
164 168 82
164 168 81
165 169 81
165 170 80
166 170 80
166 171 79
167 171 78
168 172 78
168 173 77
169 173 77
169 174 76
170 175 75
170 175 75
171 176 74
172 177 74
172 177 73
173 178 72
173 178 72
174 179 71
174 180 71
175 180 70
176 181 69
176 182 69
177 182 68
177 183 67
178 184 67
178 184 66
179 185 66
180 185 65
180 186 64
181 187 64
181 187 63
182 188 63
182 189 62
183 189 61
184 190 61
184 191 60
185 191 60
185 192 59
186 193 58
186 193 58
187 194 57
188 194 57
188 195 56
189 196 55
189 196 55
190 197 54
191 198 54
191 198 53
192 199 52
192 200 52
193 200 51
193 201 50
194 201 50
195 202 49
195 203 49
196 203 48
196 204 47
197 205 47
197 205 46
198 206 46
199 207 45
199 207 44
200 208 44
200 208 43
201 209 43
201 210 42
202 210 41
203 211 41
203 212 40
204 212 40
204 213 39
205 214 38
205 214 38
206 215 37
207 216 37
207 216 36
208 217 35
208 217 35
209 218 34
209 219 33
210 219 33
211 220 32
211 221 32
212 221 31
212 222 30
213 223 30
214 223 29
214 224 29
215 224 28
215 225 27
216 226 27
216 226 26
217 227 26
218 228 25
218 228 24
219 229 24
219 230 23
220 230 23
220 231 22
221 231 21
222 232 21
222 233 20
223 233 20
223 234 19
224 235 18
224 235 18
225 236 17
226 237 16
226 237 16
227 238 15
227 239 15
228 239 14
228 240 13
229 240 13
230 241 12
230 242 12
231 242 11
231 243 10
232 244 10
232 244 9
233 245 9
234 246 8
234 246 7
235 247 7
235 247 6
236 248 6
237 249 5
237 249 4
238 250 4
238 251 3
239 251 3
239 252 2
240 253 1
241 253 1
241 254 0
242 255 0
14 0 240
14 0 240
15 1 239
15 1 239
16 2 238
16 3 237
17 3 237
18 4 236
18 5 236
19 5 235
19 6 234
20 7 234
20 7 233
21 8 233
22 8 232
22 9 231
23 10 231
23 10 230
24 11 230
24 12 229
25 12 228
26 13 228
26 14 227
27 14 227
27 15 226
28 15 225
28 16 225
29 17 224
30 17 223
30 18 223
31 19 222
31 19 222
32 20 221
32 21 220
33 21 220
33 22 219
34 23 219
35 23 218
35 24 217
36 24 217
36 25 216
37 26 216
37 26 215
38 27 214
39 28 214
39 28 213
40 29 213
40 30 212
41 30 211
41 31 211
42 31 210
43 32 210
43 33 209
44 33 208
44 34 208
45 35 207
45 35 207
46 36 206
47 37 205
47 37 205
48 38 204
48 38 204
49 39 203
49 40 202
50 40 202
51 41 201
51 42 201
52 42 200
52 43 199
53 44 199
53 44 198
54 45 198
55 46 197
55 46 196
56 47 196
56 47 195
57 48 195
57 49 194
58 49 193
59 50 193
59 51 192
60 51 191
60 52 191
61 53 190
61 53 190
62 54 189
62 54 188
63 55 188
64 56 187
64 56 187
65 57 186
65 58 185
66 58 185
66 59 184
67 60 184
68 60 183
68 61 182
69 61 182
69 62 181
70 63 181
70 63 180
71 64 179
72 65 179
72 65 178
73 66 178
73 67 177
74 67 176
74 68 176
75 69 175
76 69 175
76 70 174
77 70 173
77 71 173
78 72 172
78 72 172
79 73 171
80 74 170
80 74 170
81 75 169
81 76 169
82 76 168
82 77 167
83 77 167
84 78 166
84 79 166
85 79 165
85 80 164
86 81 164
86 81 163
87 82 163
87 83 162
88 83 161
89 84 161
89 85 160
90 85 159
90 86 159
91 86 158
91 87 158
92 88 157
93 88 156
93 89 156
94 90 155
94 90 155
95 91 154
95 92 153
96 92 153
97 93 152
97 93 152
98 94 151
98 95 150
99 95 150
99 96 149
100 97 149
101 97 148
101 98 147
102 99 147
102 99 146
103 100 146
103 100 145
104 101 144
105 102 144
105 102 143
106 103 143
106 104 142
107 104 141
107 105 141
108 106 140
109 106 140
109 107 139
110 108 138
110 108 138
111 109 137
111 109 137
112 110 136
113 111 135
113 111 135
114 112 134
114 113 134
115 113 133
115 114 132
116 115 132
116 115 131
117 116 131
118 116 130
118 117 129
119 118 129
119 118 128
120 119 127
120 120 127
121 120 126
122 121 126
122 122 125
123 122 124
123 123 124
124 123 123
124 124 123
125 125 122
126 125 121
126 126 121
127 127 120
127 127 120
128 128 119
128 129 118
129 129 118
130 130 117
130 131 117
131 131 116
131 132 115
132 132 115
132 133 114
133 134 114
134 134 113
134 135 112
135 136 112
135 136 111
136 137 111
136 138 110
137 138 109
138 139 109
138 139 108
139 140 108
139 141 107
140 141 106
140 142 106
141 143 105
141 143 105
142 144 104
143 145 103
143 145 103
144 146 102
144 146 102
145 147 101
145 148 100
146 148 100
147 149 99
147 150 99
148 150 98
148 151 97
149 152 97
149 152 96
150 153 95
151 154 95
151 154 94
152 155 94
152 155 93
153 156 92
153 157 92
154 157 91
155 158 91
155 159 90
156 159 89
156 160 89
157 161 88
157 161 88
158 162 87
159 162 86
159 163 86
160 164 85
160 164 85
161 165 84
161 166 83
162 166 83
163 167 82
163 168 82
164 168 81
164 169 80
165 170 80
165 170 79
166 171 79
167 171 78
167 172 77
168 173 77
168 173 76
169 174 76
169 175 75
170 175 74
170 176 74
171 177 73
172 177 73
172 178 72
173 178 71
173 179 71
174 180 70
174 180 70
175 181 69
176 182 68
176 182 68
177 183 67
177 184 67
178 184 66
178 185 65
179 185 65
180 186 64
180 187 63
181 187 63
181 188 62
182 189 62
182 189 61
183 190 60
184 191 60
184 191 59
185 192 59
185 193 58
186 193 57
186 194 57
187 194 56
188 195 56
188 196 55
189 196 54
189 197 54
190 198 53
190 198 53
191 199 52
192 200 51
192 200 51
193 201 50
193 201 50
194 202 49
194 203 48
195 203 48
195 204 47
196 205 47
197 205 46
197 206 45
198 207 45
198 207 44
199 208 44
199 208 43
200 209 42
201 210 42
201 210 41
202 211 41
202 212 40
203 212 39
203 213 39
204 214 38
205 214 38
205 215 37
206 216 36
206 216 36
207 217 35
207 217 35
208 218 34
209 219 33
209 219 33
210 220 32
210 221 31
211 221 31
211 222 30
212 223 30
213 223 29
213 224 28
214 224 28
214 225 27
215 226 27
215 226 26
216 227 25
217 228 25
217 228 24
218 229 24
218 230 23
219 230 22
219 231 22
220 231 21
221 232 21
221 233 20
222 233 19
222 234 19
223 235 18
223 235 18
224 236 17
224 237 16
225 237 16
226 238 15
226 239 15
227 239 14
227 240 13
228 240 13
228 241 12
229 242 12
230 242 11
230 243 10
231 244 10
231 244 9
232 245 9
232 246 8
233 246 7
234 247 7
234 247 6
235 248 6
235 249 5
236 249 4
236 250 4
237 251 3
238 251 3
238 252 2
239 253 1
239 253 1
240 254 0
240 255 0
15 0 239
15 0 239
16 1 238
17 1 237
17 2 237
18 3 236
18 3 236
19 4 235
19 5 234
20 5 234
20 6 233
21 7 233
22 7 232
22 8 231
23 8 231
23 9 230
24 10 230
24 10 229
25 11 228
26 12 228
26 12 227
27 13 227
27 14 226
28 14 225
28 15 225
29 15 224
29 16 224
30 17 223
31 17 222
31 18 222
32 19 221
32 19 221
33 20 220
33 21 219
34 21 219
35 22 218
35 23 218
36 23 217
36 24 216
37 24 216
37 25 215
38 26 215
38 26 214
39 27 213
40 28 213
40 28 212
41 29 211
41 30 211
42 30 210
42 31 210
43 31 209
44 32 208
44 33 208
45 33 207
45 34 207
46 35 206
46 35 205
47 36 205
47 37 204
48 37 204
49 38 203
49 38 202
50 39 202
50 40 201
51 40 201
51 41 200
52 42 199
53 42 199
53 43 198
54 44 198
54 44 197
55 45 196
55 46 196
56 46 195
56 47 195
57 47 194
58 48 193
58 49 193
59 49 192
59 50 192
60 51 191
60 51 190
61 52 190
62 53 189
62 53 189
63 54 188
63 54 187
64 55 187
64 56 186
65 56 186
65 57 185
66 58 184
67 58 184
67 59 183
68 60 183
68 60 182
69 61 181
69 61 181
70 62 180
71 63 180
71 63 179
72 64 178
72 65 178
73 65 177
73 66 177
74 67 176
74 67 175
75 68 175
76 69 174
76 69 174
77 70 173
77 70 172
78 71 172
78 72 171
79 72 171
80 73 170
80 74 169
81 74 169
81 75 168
82 76 168
82 76 167
83 77 166
83 77 166
84 78 165
85 79 165
85 79 164
86 80 163
86 81 163
87 81 162
87 82 162
88 83 161
89 83 160
89 84 160
90 85 159
90 85 159
91 86 158
91 86 157
92 87 157
92 88 156
93 88 156
94 89 155
94 90 154
95 90 154
95 91 153
96 92 153
96 92 152
97 93 151
97 93 151
98 94 150
99 95 150
99 95 149
100 96 148
100 97 148
101 97 147
101 98 147
102 99 146
103 99 145
103 100 145
104 100 144
104 101 144
105 102 143
105 102 142
106 103 142
106 104 141
107 104 141
108 105 140
108 106 139
109 106 139
109 107 138
110 108 138
110 108 137
111 109 136
112 109 136
112 110 135
113 111 135
113 111 134
114 112 133
114 113 133
115 113 132
115 114 132
116 115 131
117 115 130
117 116 130
118 116 129
118 117 129
119 118 128
119 118 127
120 119 127
121 120 126
121 120 126
122 121 125
122 122 124
123 122 124
123 123 123
124 123 123
124 124 122
125 125 121
126 125 121
126 126 120
127 127 120
127 127 119
128 128 118
128 129 118
129 129 117
130 130 117
130 131 116
131 131 115
131 132 115
132 132 114
132 133 114
133 134 113
133 134 112
134 135 112
135 136 111
135 136 111
136 137 110
136 138 109
137 138 109
137 139 108
138 139 108
139 140 107
139 141 106
140 141 106
140 142 105
141 143 105
141 143 104
142 144 103
142 145 103
143 145 102
144 146 102
144 146 101
145 147 100
145 148 100
146 148 99
146 149 99
147 150 98
148 150 97
148 151 97
149 152 96
149 152 96
150 153 95
150 154 94
151 154 94
151 155 93
152 155 93
153 156 92
153 157 91
154 157 91
154 158 90
155 159 90
155 159 89
156 160 88
157 161 88
157 161 87
158 162 87
158 162 86
159 163 85
159 164 85
160 164 84
160 165 84
161 166 83
162 166 82
162 167 82
163 168 81
163 168 81
164 169 80
164 170 79
165 170 79
165 171 78
166 171 78
167 172 77
167 173 76
168 173 76
168 174 75
169 175 75
169 175 74
170 176 73
171 177 73
171 177 72
172 178 72
172 178 71
173 179 70
173 180 70
174 180 69
174 181 69
175 182 68
176 182 67
176 183 67
177 184 66
177 184 66
178 185 65
178 185 64
179 186 64
180 187 63
180 187 63
181 188 62
181 189 61
182 189 61
182 190 60
183 191 60
183 191 59
184 192 58
185 193 58
185 193 57
186 194 57
186 194 56
187 195 55
187 196 55
188 196 54
189 197 54
189 198 53
190 198 52
190 199 52
191 200 51
191 200 51
192 201 50
192 201 49
193 202 49
194 203 48
194 203 48
195 204 47
195 205 46
196 205 46
196 206 45
197 207 45
198 207 44
198 208 43
199 208 43
199 209 42
200 210 42
200 210 41
201 211 40
201 212 40
202 212 39
203 213 39
203 214 38
204 214 37
204 215 37
205 216 36
205 216 36
206 217 35
207 217 34
207 218 34
208 219 33
208 219 33
209 220 32
209 221 31
210 221 31
210 222 30
211 223 30
212 223 29
212 224 28
213 224 28
213 225 27
214 226 27
214 226 26
215 227 25
216 228 25
216 228 24
217 229 24
217 230 23
218 230 22
218 231 22
219 231 21
219 232 21
220 233 20
221 233 19
221 234 19
222 235 18
222 235 18
223 236 17
223 237 16
224 237 16
225 238 15
225 239 15
226 239 14
226 240 13
227 240 13
227 241 12
228 242 12
228 242 11
229 243 10
230 244 10
230 244 9
231 245 9
231 246 8
232 246 7
232 247 7
233 247 6
234 248 6
234 249 5
235 249 4
235 250 4
236 251 3
236 251 3
237 252 2
237 253 1
238 253 1
239 254 0
239 255 0
16 0 238
17 0 237
17 1 237
18 1 236
18 2 235
19 3 235
19 3 234
20 4 234
21 5 233
21 5 232
22 6 232
22 7 231
23 7 231
23 8 230
24 8 229
24 9 229
25 10 228
26 10 228
26 11 227
27 12 226
27 12 226
28 13 225
28 14 225
29 14 224
29 15 224
30 15 223
31 16 222
31 17 222
32 17 221
32 18 221
33 19 220
33 19 219
34 20 219
34 21 218
35 21 218
36 22 217
36 23 216
37 23 216
37 24 215
38 24 215
38 25 214
39 26 213
39 26 213
40 27 212
41 28 212
41 28 211
42 29 210
42 30 210
43 30 209
43 31 209
44 31 208
44 32 207
45 33 207
46 33 206
46 34 206
47 35 205
47 35 204
48 36 204
48 37 203
49 37 203
49 38 202
50 38 201
51 39 201
51 40 200
52 40 200
52 41 199
53 42 198
53 42 198
54 43 197
54 44 197
55 44 196
56 45 195
56 46 195
57 46 194
57 47 194
58 47 193
58 48 192
59 49 192
59 49 191
60 50 191
61 51 190
61 51 189
62 52 189
62 53 188
63 53 188
63 54 187
64 54 186
64 55 186
65 56 185
66 56 185
66 57 184
67 58 183
67 58 183
68 59 182
68 60 182
69 60 181
69 61 180
70 61 180
71 62 179
71 63 179
72 63 178
72 64 178
73 65 177
73 65 176
74 66 176
74 67 175
75 67 175
76 68 174
76 69 173
77 69 173
77 70 172
78 70 172
78 71 171
79 72 170
79 72 170
80 73 169
81 74 169
81 74 168
82 75 167
82 76 167
83 76 166
83 77 166
84 77 165
84 78 164
85 79 164
86 79 163
86 80 163
87 81 162
87 81 161
88 82 161
88 83 160
89 83 160
89 84 159
90 85 158
91 85 158
91 86 157
92 86 157
92 87 156
93 88 155
93 88 155
94 89 154
94 90 154
95 90 153
96 91 152
96 92 152
97 92 151
97 93 151
98 93 150
98 94 149
99 95 149
99 95 148
100 96 148
101 97 147
101 97 146
102 98 146
102 99 145
103 99 145
103 100 144
104 100 143
104 101 143
105 102 142
106 102 142
106 103 141
107 104 140
107 104 140
108 105 139
108 106 139
109 106 138
109 107 137
110 108 137
111 108 136
111 109 136
112 109 135
112 110 135
113 111 134
113 111 133
114 112 133
114 113 132
115 113 132
116 114 131
116 115 130
117 115 130
117 116 129
118 116 129
118 117 128
119 118 127
119 118 127
120 119 126
121 120 126
121 120 125
122 121 124
122 122 124
123 122 123
123 123 123
124 123 122
124 124 121
125 125 121
126 125 120
126 126 120
127 127 119
127 127 118
128 128 118
128 129 117
129 129 117
130 130 116
130 131 115
131 131 115
131 132 114
132 132 114
132 133 113
133 134 112
133 134 112
134 135 111
135 136 111
135 136 110
136 137 109
136 138 109
137 138 108
137 139 108
138 139 107
138 140 106
139 141 106
140 141 105
140 142 105
141 143 104
141 143 103
142 144 103
142 145 102
143 145 102
143 146 101
144 146 100
145 147 100
145 148 99
146 148 99
146 149 98
147 150 97
147 150 97
148 151 96
148 152 96
149 152 95
150 153 94
150 154 94
151 154 93
151 155 93
152 155 92
152 156 91
153 157 91
153 157 90
154 158 90
155 159 89
155 159 89
156 160 88
156 161 87
157 161 87
157 162 86
158 162 86
158 163 85
159 164 84
160 164 84
160 165 83
161 166 83
161 166 82
162 167 81
162 168 81
163 168 80
163 169 80
164 170 79
165 170 78
165 171 78
166 171 77
166 172 77
167 173 76
167 173 75
168 174 75
168 175 74
169 175 74
170 176 73
170 177 72
171 177 72
171 178 71
172 178 71
172 179 70
173 180 69
173 180 69
174 181 68
175 182 68
175 182 67
176 183 66
176 184 66
177 184 65
177 185 65
178 185 64
178 186 63
179 187 63
180 187 62
180 188 62
181 189 61
181 189 60
182 190 60
182 191 59
183 191 59
183 192 58
184 193 57
185 193 57
185 194 56
186 194 56
186 195 55
187 196 54
187 196 54
188 197 53
188 198 53
189 198 52
190 199 51
190 200 51
191 200 50
191 201 50
192 201 49
192 202 48
193 203 48
193 203 47
194 204 47
195 205 46
195 205 45
196 206 45
196 207 44
197 207 44
197 208 43
198 208 43
198 209 42
199 210 41
200 210 41
200 211 40
201 212 40
201 212 39
202 213 38
202 214 38
203 214 37
203 215 37
204 216 36
205 216 35
205 217 35
206 217 34
206 218 34
207 219 33
207 219 32
208 220 32
208 221 31
209 221 31
210 222 30
210 223 29
211 223 29
211 224 28
212 224 28
212 225 27
213 226 26
213 226 26
214 227 25
215 228 25
215 228 24
216 229 23
216 230 23
217 230 22
217 231 22
218 231 21
218 232 20
219 233 20
220 233 19
220 234 19
221 235 18
221 235 17
222 236 17
222 237 16
223 237 16
223 238 15
224 239 14
225 239 14
225 240 13
226 240 13
226 241 12
227 242 11
227 242 11
228 243 10
228 244 10
229 244 9
230 245 8
230 246 8
231 246 7
231 247 7
232 247 6
232 248 5
233 249 5
233 249 4
234 250 4
235 251 3
235 251 2
236 252 2
236 253 1
237 253 1
237 254 0
238 255 0
17 0 237
18 0 236
19 1 235
19 1 235
20 2 234
20 3 234
21 3 233
21 4 232
22 5 232
22 5 231
23 6 231
23 7 230
24 7 229
25 8 229
25 8 228
26 9 228
26 10 227
27 10 226
27 11 226
28 12 225
28 12 225
29 13 224
30 14 223
30 14 223
31 15 222
31 15 222
32 16 221
32 17 221
33 17 220
33 18 219
34 19 219
34 19 218
35 20 218
36 21 217
36 21 216
37 22 216
37 23 215
38 23 215
38 24 214
39 24 213
39 25 213
40 26 212
41 26 212
41 27 211
42 28 210
42 28 210
43 29 209
43 30 209
44 30 208
44 31 207
45 31 207
45 32 206
46 33 206
47 33 205
47 34 204
48 35 204
48 35 203
49 36 203
49 37 202
50 37 202
50 38 201
51 38 200
51 39 200
52 40 199
53 40 199
53 41 198
54 42 197
54 42 197
55 43 196
55 44 196
56 44 195
56 45 194
57 46 194
58 46 193
58 47 193
59 47 192
59 48 191
60 49 191
60 49 190
61 50 190
61 51 189
62 51 188
62 52 188
63 53 187
64 53 187
64 54 186
65 54 185
65 55 185
66 56 184
66 56 184
67 57 183
67 58 182
68 58 182
69 59 181
69 60 181
70 60 180
70 61 180
71 61 179
71 62 178
72 63 178
72 63 177
73 64 177
73 65 176
74 65 175
75 66 175
75 67 174
76 67 174
76 68 173
77 69 172
77 69 172
78 70 171
78 70 171
79 71 170
79 72 169
80 72 169
81 73 168
81 74 168
82 74 167
82 75 166
83 76 166
83 76 165
84 77 165
84 77 164
85 78 163
86 79 163
86 79 162
87 80 162
87 81 161
88 81 161
88 82 160
89 83 159
89 83 159
90 84 158
90 85 158
91 85 157
92 86 156
92 86 156
93 87 155
93 88 155
94 88 154
94 89 153
95 90 153
95 90 152
96 91 152
97 92 151
97 92 150
98 93 150
98 93 149
99 94 149
99 95 148
100 95 147
100 96 147
101 97 146
101 97 146
102 98 145
103 99 144
103 99 144
104 100 143
104 100 143
105 101 142
105 102 141
106 102 141
106 103 140
107 104 140
108 104 139
108 105 139
109 106 138
109 106 137
110 107 137
110 108 136
111 108 136
111 109 135
112 109 134
112 110 134
113 111 133
114 111 133
114 112 132
115 113 131
115 113 131
116 114 130
116 115 130
117 115 129
117 116 128
118 116 128
118 117 127
119 118 127
120 118 126
120 119 125
121 120 125
121 120 124
122 121 124
122 122 123
123 122 122
123 123 122
124 123 121
125 124 121
125 125 120
126 125 120
126 126 119
127 127 118
127 127 118
128 128 117
128 129 117
129 129 116
129 130 115
130 131 115
131 131 114
131 132 114
132 132 113
132 133 112
133 134 112
133 134 111
134 135 111
134 136 110
135 136 109
136 137 109
136 138 108
137 138 108
137 139 107
138 139 106
138 140 106
139 141 105
139 141 105
140 142 104
140 143 103
141 143 103
142 144 102
142 145 102
143 145 101
143 146 101
144 146 100
144 147 99
145 148 99
145 148 98
146 149 98
146 150 97
147 150 96
148 151 96
148 152 95
149 152 95
149 153 94
150 154 93
150 154 93
151 155 92
151 155 92
152 156 91
153 157 90
153 157 90
154 158 89
154 159 89
155 159 88
155 160 87
156 161 87
156 161 86
157 162 86
157 162 85
158 163 84
159 164 84
159 164 83
160 165 83
160 166 82
161 166 81
161 167 81
162 168 80
162 168 80
163 169 79
164 170 79
164 170 78
165 171 77
165 171 77
166 172 76
166 173 76
167 173 75
167 174 74
168 175 74
168 175 73
169 176 73
170 177 72
170 177 71
171 178 71
171 178 70
172 179 70
172 180 69
173 180 68
173 181 68
174 182 67
175 182 67
175 183 66
176 184 65
176 184 65
177 185 64
177 185 64
178 186 63
178 187 62
179 187 62
179 188 61
180 189 61
181 189 60
181 190 60
182 191 59
182 191 58
183 192 58
183 193 57
184 193 57
184 194 56
185 194 55
185 195 55
186 196 54
187 196 54
187 197 53
188 198 52
188 198 52
189 199 51
189 200 51
190 200 50
190 201 49
191 201 49
192 202 48
192 203 48
193 203 47
193 204 46
194 205 46
194 205 45
195 206 45
195 207 44
196 207 43
196 208 43
197 208 42
198 209 42
198 210 41
199 210 40
199 211 40
200 212 39
200 212 39
201 213 38
201 214 38
202 214 37
203 215 36
203 216 36
204 216 35
204 217 35
205 217 34
205 218 33
206 219 33
206 219 32
207 220 32
207 221 31
208 221 30
209 222 30
209 223 29
210 223 29
210 224 28
211 224 27
211 225 27
212 226 26
212 226 26
213 227 25
213 228 24
214 228 24
215 229 23
215 230 23
216 230 22
216 231 21
217 231 21
217 232 20
218 233 20
218 233 19
219 234 19
220 235 18
220 235 17
221 236 17
221 237 16
222 237 16
222 238 15
223 239 14
223 239 14
224 240 13
224 240 13
225 241 12
226 242 11
226 242 11
227 243 10
227 244 10
228 244 9
228 245 8
229 246 8
229 246 7
230 247 7
231 247 6
231 248 5
232 249 5
232 249 4
233 250 4
233 251 3
234 251 2
234 252 2
235 253 1
235 253 1
236 254 0
237 255 0
19 0 235
19 0 235
20 1 234
20 1 234
21 2 233
21 3 232
22 3 232
23 4 231
23 5 231
24 5 230
24 6 229
25 7 229
25 7 228
26 8 228
26 8 227
27 9 226
27 10 226
28 10 225
28 11 225
29 12 224
30 12 223
30 13 223
31 14 222
31 14 222
32 15 221
32 15 221
33 16 220
33 17 219
34 17 219
34 18 218
35 19 218
36 19 217
36 20 216
37 21 216
37 21 215
38 22 215
38 23 214
39 23 213
39 24 213
40 24 212
40 25 212
41 26 211
42 26 210
42 27 210
43 28 209
43 28 209
44 29 208
44 30 208
45 30 207
45 31 206
46 31 206
46 32 205
47 33 205
47 33 204
48 34 203
49 35 203
49 35 202
50 36 202
50 37 201
51 37 200
51 38 200
52 38 199
52 39 199
53 40 198
53 40 197
54 41 197
55 42 196
55 42 196
56 43 195
56 44 195
57 44 194
57 45 193
58 46 193
58 46 192
59 47 192
59 47 191
60 48 190
61 49 190
61 49 189
62 50 189
62 51 188
63 51 187
63 52 187
64 53 186
64 53 186
65 54 185
65 54 184
66 55 184
66 56 183
67 56 183
68 57 182
68 58 182
69 58 181
69 59 180
70 60 180
70 60 179
71 61 179
71 61 178
72 62 177
72 63 177
73 63 176
74 64 176
74 65 175
75 65 174
75 66 174
76 67 173
76 67 173
77 68 172
77 69 171
78 69 171
78 70 170
79 70 170
80 71 169
80 72 169
81 72 168
81 73 167
82 74 167
82 74 166
83 75 166
83 76 165
84 76 164
84 77 164
85 77 163
85 78 163
86 79 162
87 79 161
87 80 161
88 81 160
88 81 160
89 82 159
89 83 158
90 83 158
90 84 157
91 85 157
91 85 156
92 86 156
93 86 155
93 87 154
94 88 154
94 88 153
95 89 153
95 90 152
96 90 151
96 91 151
97 92 150
97 92 150
98 93 149
99 93 148
99 94 148
100 95 147
100 95 147
101 96 146
101 97 145
102 97 145
102 98 144
103 99 144
103 99 143
104 100 143
104 100 142
105 101 141
106 102 141
106 102 140
107 103 140
107 104 139
108 104 138
108 105 138
109 106 137
109 106 137
110 107 136
110 108 135
111 108 135
112 109 134
112 109 134
113 110 133
113 111 132
114 111 132
114 112 131
115 113 131
115 113 130
116 114 130
116 115 129
117 115 128
118 116 128
118 116 127
119 117 127
119 118 126
120 118 125
120 119 125
121 120 124
121 120 124
122 121 123
122 122 122
123 122 122
123 123 121
124 123 121
125 124 120
125 125 119
126 125 119
126 126 118
127 127 118
127 127 117
128 128 117
128 129 116
129 129 115
129 130 115
130 131 114
131 131 114
131 132 113
132 132 112
132 133 112
133 134 111
133 134 111
134 135 110
134 136 109
135 136 109
135 137 108
136 138 108
136 138 107
137 139 106
138 139 106
138 140 105
139 141 105
139 141 104
140 142 104
140 143 103
141 143 102
141 144 102
142 145 101
142 145 101
143 146 100
144 146 99
144 147 99
145 148 98
145 148 98
146 149 97
146 150 96
147 150 96
147 151 95
148 152 95
148 152 94
149 153 93
150 154 93
150 154 92
151 155 92
151 155 91
152 156 91
152 157 90
153 157 89
153 158 89
154 159 88
154 159 88
155 160 87
155 161 86
156 161 86
157 162 85
157 162 85
158 163 84
158 164 83
159 164 83
159 165 82
160 166 82
160 166 81
161 167 80
161 168 80
162 168 79
163 169 79
163 170 78
164 170 78
164 171 77
165 171 76
165 172 76
166 173 75
166 173 75
167 174 74
167 175 73
168 175 73
169 176 72
169 177 72
170 177 71
170 178 70
171 178 70
171 179 69
172 180 69
172 180 68
173 181 67
173 182 67
174 182 66
174 183 66
175 184 65
176 184 65
176 185 64
177 185 63
177 186 63
178 187 62
178 187 62
179 188 61
179 189 60
180 189 60
180 190 59
181 191 59
182 191 58
182 192 57
183 193 57
183 193 56
184 194 56
184 194 55
185 195 54
185 196 54
186 196 53
186 197 53
187 198 52
188 198 52
188 199 51
189 200 50
189 200 50
190 201 49
190 201 49
191 202 48
191 203 47
192 203 47
192 204 46
193 205 46
193 205 45
194 206 44
195 207 44
195 207 43
196 208 43
196 208 42
197 209 41
197 210 41
198 210 40
198 211 40
199 212 39
199 212 39
200 213 38
201 214 37
201 214 37
202 215 36
202 216 36
203 216 35
203 217 34
204 217 34
204 218 33
205 219 33
205 219 32
206 220 31
207 221 31
207 221 30
208 222 30
208 223 29
209 223 28
209 224 28
210 224 27
210 225 27
211 226 26
211 226 26
212 227 25
212 228 24
213 228 24
214 229 23
214 230 23
215 230 22
215 231 21
216 231 21
216 232 20
217 233 20
217 233 19
218 234 18
218 235 18
219 235 17
220 236 17
220 237 16
221 237 15
221 238 15
222 239 14
222 239 14
223 240 13
223 240 13
224 241 12
224 242 11
225 242 11
226 243 10
226 244 10
227 244 9
227 245 8
228 246 8
228 246 7
229 247 7
229 247 6
230 248 5
230 249 5
231 249 4
231 250 4
232 251 3
233 251 2
233 252 2
234 253 1
234 253 1
235 254 0
235 255 0
20 0 234
21 0 233
21 1 233
22 1 232
22 2 232
23 3 231
23 3 230
24 4 230
24 5 229
25 5 229
25 6 228
26 7 228
26 7 227
27 8 226
28 8 226
28 9 225
29 10 225
29 10 224
30 11 223
30 12 223
31 12 222
31 13 222
32 14 221
32 14 220
33 15 220
33 15 219
34 16 219
34 17 218
35 17 218
36 18 217
36 19 216
37 19 216
37 20 215
38 21 215
38 21 214
39 22 213
39 23 213
40 23 212
40 24 212
41 24 211
41 25 210
42 26 210
43 26 209
43 27 209
44 28 208
44 28 208
45 29 207
45 30 206
46 30 206
46 31 205
47 31 205
47 32 204
48 33 203
48 33 203
49 34 202
50 35 202
50 35 201
51 36 200
51 37 200
52 37 199
52 38 199
53 38 198
53 39 198
54 40 197
54 40 196
55 41 196
55 42 195
56 42 195
56 43 194
57 44 193
58 44 193
58 45 192
59 46 192
59 46 191
60 47 191
60 47 190
61 48 189
61 49 189
62 49 188
62 50 188
63 51 187
63 51 186
64 52 186
65 53 185
65 53 185
66 54 184
66 54 183
67 55 183
67 56 182
68 56 182
68 57 181
69 58 181
69 58 180
70 59 179
70 60 179
71 60 178
71 61 178
72 61 177
73 62 176
73 63 176
74 63 175
74 64 175
75 65 174
75 65 173
76 66 173
76 67 172
77 67 172
77 68 171
78 69 171
78 69 170
79 70 169
80 70 169
80 71 168
81 72 168
81 72 167
82 73 166
82 74 166
83 74 165
83 75 165
84 76 164
84 76 163
85 77 163
85 77 162
86 78 162
87 79 161
87 79 161
88 80 160
88 81 159
89 81 159
89 82 158
90 83 158
90 83 157
91 84 156
91 85 156
92 85 155
92 86 155
93 86 154
93 87 153
94 88 153
95 88 152
95 89 152
96 90 151
96 90 151
97 91 150
97 92 149
98 92 149
98 93 148
99 93 148
99 94 147
100 95 146
100 95 146
101 96 145
102 97 145
102 97 144
103 98 143
103 99 143
104 99 142
104 100 142
105 100 141
105 101 141
106 102 140
106 102 139
107 103 139
107 104 138
108 104 138
108 105 137
109 106 136
110 106 136
110 107 135
111 108 135
111 108 134
112 109 133
112 109 133
113 110 132
113 111 132
114 111 131
114 112 131
115 113 130
115 113 129
116 114 129
117 115 128
117 115 128
118 116 127
118 116 126
119 117 126
119 118 125
120 118 125
120 119 124
121 120 124
121 120 123
122 121 122
122 122 122
123 122 121
124 123 121
124 123 120
125 124 119
125 125 119
126 125 118
126 126 118
127 127 117
127 127 116
128 128 116
128 129 115
129 129 115
129 130 114
130 131 114
130 131 113
131 132 112
132 132 112
132 133 111
133 134 111
133 134 110
134 135 109
134 136 109
135 136 108
135 137 108
136 138 107
136 138 106
137 139 106
137 139 105
138 140 105
139 141 104
139 141 104
140 142 103
140 143 102
141 143 102
141 144 101
142 145 101
142 145 100
143 146 99
143 146 99
144 147 98
144 148 98
145 148 97
146 149 96
146 150 96
147 150 95
147 151 95
148 152 94
148 152 94
149 153 93
149 154 92
150 154 92
150 155 91
151 155 91
151 156 90
152 157 89
152 157 89
153 158 88
154 159 88
154 159 87
155 160 86
155 161 86
156 161 85
156 162 85
157 162 84
157 163 84
158 164 83
158 164 82
159 165 82
159 166 81
160 166 81
161 167 80
161 168 79
162 168 79
162 169 78
163 170 78
163 170 77
164 171 76
164 171 76
165 172 75
165 173 75
166 173 74
166 174 74
167 175 73
167 175 72
168 176 72
169 177 71
169 177 71
170 178 70
170 178 69
171 179 69
171 180 68
172 180 68
172 181 67
173 182 66
173 182 66
174 183 65
174 184 65
175 184 64
176 185 64
176 185 63
177 186 62
177 187 62
178 187 61
178 188 61
179 189 60
179 189 59
180 190 59
180 191 58
181 191 58
181 192 57
182 193 57
183 193 56
183 194 55
184 194 55
184 195 54
185 196 54
185 196 53
186 197 52
186 198 52
187 198 51
187 199 51
188 200 50
188 200 49
189 201 49
189 201 48
190 202 48
191 203 47
191 203 47
192 204 46
192 205 45
193 205 45
193 206 44
194 207 44
194 207 43
195 208 42
195 208 42
196 209 41
196 210 41
197 210 40
198 211 39
198 212 39
199 212 38
199 213 38
200 214 37
200 214 37
201 215 36
201 216 35
202 216 35
202 217 34
203 217 34
203 218 33
204 219 32
204 219 32
205 220 31
206 221 31
206 221 30
207 222 29
207 223 29
208 223 28
208 224 28
209 224 27
209 225 27
210 226 26
210 226 25
211 227 25
211 228 24
212 228 24
213 229 23
213 230 22
214 230 22
214 231 21
215 231 21
215 232 20
216 233 19
216 233 19
217 234 18
217 235 18
218 235 17
218 236 17
219 237 16
220 237 15
220 238 15
221 239 14
221 239 14
222 240 13
222 240 12
223 241 12
223 242 11
224 242 11
224 243 10
225 244 9
225 244 9
226 245 8
226 246 8
227 246 7
228 247 7
228 247 6
229 248 5
229 249 5
230 249 4
230 250 4
231 251 3
231 251 2
232 252 2
232 253 1
233 253 1
233 254 0
234 255 0
21 0 233
22 0 232
22 1 232
23 1 231
23 2 230
24 3 230
24 3 229
25 4 229
26 5 228
26 5 227
27 6 227
27 7 226
28 7 226
28 8 225
29 8 225
29 9 224
30 10 223
30 10 223
31 11 222
31 12 222
32 12 221
32 13 220
33 14 220
33 14 219
34 15 219
35 15 218
35 16 218
36 17 217
36 17 216
37 18 216
37 19 215
38 19 215
38 20 214
39 21 213
39 21 213
40 22 212
40 23 212
41 23 211
41 24 211
42 24 210
42 25 209
43 26 209
44 26 208
44 27 208
45 28 207
45 28 206
46 29 206
46 30 205
47 30 205
47 31 204
48 31 203
48 32 203
49 33 202
49 33 202
50 34 201
50 35 201
51 35 200
51 36 199
52 37 199
53 37 198
53 38 198
54 38 197
54 39 196
55 40 196
55 40 195
56 41 195
56 42 194
57 42 194
57 43 193
58 44 192
58 44 192
59 45 191
59 46 191
60 46 190
60 47 189
61 47 189
62 48 188
62 49 188
63 49 187
63 50 187
64 51 186
64 51 185
65 52 185
65 53 184
66 53 184
66 54 183
67 54 182
67 55 182
68 56 181
68 56 181
69 57 180
70 58 180
70 58 179
71 59 178
71 60 178
72 60 177
72 61 177
73 61 176
73 62 175
74 63 175
74 63 174
75 64 174
75 65 173
76 65 173
76 66 172
77 67 171
77 67 171
78 68 170
79 69 170
79 69 169
80 70 168
80 70 168
81 71 167
81 72 167
82 72 166
82 73 165
83 74 165
83 74 164
84 75 164
84 76 163
85 76 163
85 77 162
86 77 161
86 78 161
87 79 160
88 79 160
88 80 159
89 81 158
89 81 158
90 82 157
90 83 157
91 83 156
91 84 156
92 85 155
92 85 154
93 86 154
93 86 153
94 87 153
94 88 152
95 88 151
95 89 151
96 90 150
97 90 150
97 91 149
98 92 149
98 92 148
99 93 147
99 93 147
100 94 146
100 95 146
101 95 145
101 96 144
102 97 144
102 97 143
103 98 143
103 99 142
104 99 142
104 100 141
105 100 140
106 101 140
106 102 139
107 102 139
107 103 138
108 104 137
108 104 137
109 105 136
109 106 136
110 106 135
110 107 135
111 108 134
111 108 133
112 109 133
112 109 132
113 110 132
113 111 131
114 111 130
115 112 130
115 113 129
116 113 129
116 114 128
117 115 128
117 115 127
118 116 126
118 116 126
119 117 125
119 118 125
120 118 124
120 119 123
121 120 123
121 120 122
122 121 122
122 122 121
123 122 120
124 123 120
124 123 119
125 124 119
125 125 118
126 125 118
126 126 117
127 127 116
127 127 116
128 128 115
128 129 115
129 129 114
129 130 113
130 131 113
130 131 112
131 132 112
132 132 111
132 133 111
133 134 110
133 134 109
134 135 109
134 136 108
135 136 108
135 137 107
136 138 106
136 138 106
137 139 105
137 139 105
138 140 104
138 141 104
139 141 103
139 142 102
140 143 102
141 143 101
141 144 101
142 145 100
142 145 99
143 146 99
143 146 98
144 147 98
144 148 97
145 148 97
145 149 96
146 150 95
146 150 95
147 151 94
147 152 94
148 152 93
148 153 92
149 154 92
150 154 91
150 155 91
151 155 90
151 156 90
152 157 89
152 157 88
153 158 88
153 159 87
154 159 87
154 160 86
155 161 85
155 161 85
156 162 84
156 162 84
157 163 83
157 164 82
158 164 82
159 165 81
159 166 81
160 166 80
160 167 80
161 168 79
161 168 78
162 169 78
162 170 77
163 170 77
163 171 76
164 171 75
164 172 75
165 173 74
165 173 74
166 174 73
166 175 73
167 175 72
168 176 71
168 177 71
169 177 70
169 178 70
170 178 69
170 179 68
171 180 68
171 180 67
172 181 67
172 182 66
173 182 66
173 183 65
174 184 64
174 184 64
175 185 63
175 185 63
176 186 62
177 187 61
177 187 61
178 188 60
178 189 60
179 189 59
179 190 59
180 191 58
180 191 57
181 192 57
181 193 56
182 193 56
182 194 55
183 194 54
183 195 54
184 196 53
184 196 53
185 197 52
186 198 52
186 198 51
187 199 50
187 200 50
188 200 49
188 201 49
189 201 48
189 202 47
190 203 47
190 203 46
191 204 46
191 205 45
192 205 45
192 206 44
193 207 43
194 207 43
194 208 42
195 208 42
195 209 41
196 210 40
196 210 40
197 211 39
197 212 39
198 212 38
198 213 37
199 214 37
199 214 36
200 215 36
200 216 35
201 216 35
201 217 34
202 217 33
203 218 33
203 219 32
204 219 32
204 220 31
205 221 30
205 221 30
206 222 29
206 223 29
207 223 28
207 224 28
208 224 27
208 225 26
209 226 26
209 226 25
210 227 25
210 228 24
211 228 23
212 229 23
212 230 22
213 230 22
213 231 21
214 231 21
214 232 20
215 233 19
215 233 19
216 234 18
216 235 18
217 235 17
217 236 16
218 237 16
218 237 15
219 238 15
219 239 14
220 239 14
221 240 13
221 240 12
222 241 12
222 242 11
223 242 11
223 243 10
224 244 9
224 244 9
225 245 8
225 246 8
226 246 7
226 247 7
227 247 6
227 248 5
228 249 5
228 249 4
229 250 4
230 251 3
230 251 2
231 252 2
231 253 1
232 253 1
232 254 0
233 255 0
23 0 231
23 0 231
24 1 230
24 1 230
25 2 229
25 3 229
26 3 228
26 4 227
27 5 227
27 5 226
28 6 226
28 7 225
29 7 224
29 8 224
30 8 223
30 9 223
31 10 222
31 10 222
32 11 221
33 12 220
33 12 220
34 13 219
34 14 219
35 14 218
35 15 217
36 15 217
36 16 216
37 17 216
37 17 215
38 18 215
38 19 214
39 19 213
39 20 213
40 21 212
40 21 212
41 22 211
41 23 211
42 23 210
42 24 209
43 24 209
44 25 208
44 26 208
45 26 207
45 27 206
46 28 206
46 28 205
47 29 205
47 30 204
48 30 204
48 31 203
49 31 202
49 32 202
50 33 201
50 33 201
51 34 200
51 35 199
52 35 199
52 36 198
53 37 198
53 37 197
54 38 197
54 38 196
55 39 195
56 40 195
56 40 194
57 41 194
57 42 193
58 42 192
58 43 192
59 44 191
59 44 191
60 45 190
60 46 190
61 46 189
61 47 188
62 47 188
62 48 187
63 49 187
63 49 186
64 50 186
64 51 185
65 51 184
65 52 184
66 53 183
67 53 183
67 54 182
68 54 181
68 55 181
69 56 180
69 56 180
70 57 179
70 58 179
71 58 178
71 59 177
72 60 177
72 60 176
73 61 176
73 61 175
74 62 174
74 63 174
75 63 173
75 64 173
76 65 172
76 65 172
77 66 171
78 67 170
78 67 170
79 68 169
79 69 169
80 69 168
80 70 167
81 70 167
81 71 166
82 72 166
82 72 165
83 73 165
83 74 164
84 74 163
84 75 163
85 76 162
85 76 162
86 77 161
86 77 161
87 78 160
87 79 159
88 79 159
89 80 158
89 81 158
90 81 157
90 82 156
91 83 156
91 83 155
92 84 155
92 85 154
93 85 154
93 86 153
94 86 152
94 87 152
95 88 151
95 88 151
96 89 150
96 90 149
97 90 149
97 91 148
98 92 148
98 92 147
99 93 147
100 93 146
100 94 145
101 95 145
101 95 144
102 96 144
102 97 143
103 97 142
103 98 142
104 99 141
104 99 141
105 100 140
105 100 140
106 101 139
106 102 138
107 102 138
107 103 137
108 104 137
108 104 136
109 105 136
109 106 135
110 106 134
111 107 134
111 108 133
112 108 133
112 109 132
113 109 131
113 110 131
114 111 130
114 111 130
115 112 129
115 113 129
116 113 128
116 114 127
117 115 127
117 115 126
118 116 126
118 116 125
119 117 124
119 118 124
120 118 123
120 119 123
121 120 122
122 120 122
122 121 121
123 122 120
123 122 120
124 123 119
124 123 119
125 124 118
125 125 118
126 125 117
126 126 116
127 127 116
127 127 115
128 128 115
128 129 114
129 129 113
129 130 113
130 131 112
130 131 112
131 132 111
131 132 111
132 133 110
132 134 109
133 134 109
134 135 108
134 136 108
135 136 107
135 137 106
136 138 106
136 138 105
137 139 105
137 139 104
138 140 104
138 141 103
139 141 102
139 142 102
140 143 101
140 143 101
141 144 100
141 145 99
142 145 99
142 146 98
143 146 98
143 147 97
144 148 97
145 148 96
145 149 95
146 150 95
146 150 94
147 151 94
147 152 93
148 152 93
148 153 92
149 154 91
149 154 91
150 155 90
150 155 90
151 156 89
151 157 88
152 157 88
152 158 87
153 159 87
153 159 86
154 160 86
154 161 85
155 161 84
156 162 84
156 162 83
157 163 83
157 164 82
158 164 81
158 165 81
159 166 80
159 166 80
160 167 79
160 168 79
161 168 78
161 169 77
162 170 77
162 170 76
163 171 76
163 171 75
164 172 74
164 173 74
165 173 73
165 174 73
166 175 72
167 175 72
167 176 71
168 177 70
168 177 70
169 178 69
169 178 69
170 179 68
170 180 68
171 180 67
171 181 66
172 182 66
172 182 65
173 183 65
173 184 64
174 184 63
174 185 63
175 185 62
175 186 62
176 187 61
176 187 61
177 188 60
178 189 59
178 189 59
179 190 58
179 191 58
180 191 57
180 192 56
181 193 56
181 193 55
182 194 55
182 194 54
183 195 54
183 196 53
184 196 52
184 197 52
185 198 51
185 198 51
186 199 50
186 200 49
187 200 49
187 201 48
188 201 48
189 202 47
189 203 47
190 203 46
190 204 45
191 205 45
191 205 44
192 206 44
192 207 43
193 207 43
193 208 42
194 208 41
194 209 41
195 210 40
195 210 40
196 211 39
196 212 38
197 212 38
197 213 37
198 214 37
198 214 36
199 215 36
200 216 35
200 216 34
201 217 34
201 217 33
202 218 33
202 219 32
203 219 31
203 220 31
204 221 30
204 221 30
205 222 29
205 223 29
206 223 28
206 224 27
207 224 27
207 225 26
208 226 26
208 226 25
209 227 24
209 228 24
210 228 23
210 229 23
211 230 22
212 230 22
212 231 21
213 231 20
213 232 20
214 233 19
214 233 19
215 234 18
215 235 18
216 235 17
216 236 16
217 237 16
217 237 15
218 238 15
218 239 14
219 239 13
219 240 13
220 240 12
220 241 12
221 242 11
221 242 11
222 243 10
223 244 9
223 244 9
224 245 8
224 246 8
225 246 7
225 247 6
226 247 6
226 248 5
227 249 5
227 249 4
228 250 4
228 251 3
229 251 2
229 252 2
230 253 1
230 253 1
231 254 0
231 255 0
24 0 230
24 0 230
25 1 229
25 1 228
26 2 228
26 3 227
27 3 227
27 4 226
28 5 226
29 5 225
29 6 224
30 7 224
30 7 223
31 8 223
31 8 222
32 9 221
32 10 221
33 10 220
33 11 220
34 12 219
34 12 219
35 13 218
35 14 217
36 14 217
36 15 216
37 15 216
37 16 215
38 17 215
38 17 214
39 18 213
39 19 213
40 19 212
40 20 212
41 21 211
41 21 210
42 22 210
42 23 209
43 23 209
43 24 208
44 24 208
45 25 207
45 26 206
46 26 206
46 27 205
47 28 205
47 28 204
48 29 204
48 30 203
49 30 202
49 31 202
50 31 201
50 32 201
51 33 200
51 33 200
52 34 199
52 35 198
53 35 198
53 36 197
54 37 197
54 37 196
55 38 195
55 38 195
56 39 194
56 40 194
57 40 193
57 41 193
58 42 192
58 42 191
59 43 191
60 44 190
60 44 190
61 45 189
61 46 189
62 46 188
62 47 187
63 47 187
63 48 186
64 49 186
64 49 185
65 50 184
65 51 184
66 51 183
66 52 183
67 53 182
67 53 182
68 54 181
68 54 180
69 55 180
69 56 179
70 56 179
70 57 178
71 58 178
71 58 177
72 59 176
72 60 176
73 60 175
73 61 175
74 61 174
75 62 174
75 63 173
76 63 172
76 64 172
77 65 171
77 65 171
78 66 170
78 67 169
79 67 169
79 68 168
80 69 168
80 69 167
81 70 167
81 70 166
82 71 165
82 72 165
83 72 164
83 73 164
84 74 163
84 74 163
85 75 162
85 76 161
86 76 161
86 77 160
87 77 160
87 78 159
88 79 158
88 79 158
89 80 157
90 81 157
90 81 156
91 82 156
91 83 155
92 83 154
92 84 154
93 85 153
93 85 153
94 86 152
94 86 152
95 87 151
95 88 150
96 88 150
96 89 149
97 90 149
97 90 148
98 91 147
98 92 147
99 92 146
99 93 146
100 93 145
100 94 145
101 95 144
101 95 143
102 96 143
102 97 142
103 97 142
103 98 141
104 99 141
105 99 140
105 100 139
106 100 139
106 101 138
107 102 138
107 102 137
108 103 137
108 104 136
109 104 135
109 105 135
110 106 134
110 106 134
111 107 133
111 108 132
112 108 132
112 109 131
113 109 131
113 110 130
114 111 130
114 111 129
115 112 128
115 113 128
116 113 127
116 114 127
117 115 126
117 115 126
118 116 125
118 116 124
119 117 124
120 118 123
120 118 123
121 119 122
121 120 121
122 120 121
122 121 120
123 122 120
123 122 119
124 123 119
124 123 118
125 124 117
125 125 117
126 125 116
126 126 116
127 127 115
127 127 115
128 128 114
128 129 113
129 129 113
129 130 112
130 131 112
130 131 111
131 132 110
131 132 110
132 133 109
132 134 109
133 134 108
133 135 108
134 136 107
134 136 106
135 137 106
136 138 105
136 138 105
137 139 104
137 139 104
138 140 103
138 141 102
139 141 102
139 142 101
140 143 101
140 143 100
141 144 100
141 145 99
142 145 98
142 146 98
143 146 97
143 147 97
144 148 96
144 148 95
145 149 95
145 150 94
146 150 94
146 151 93
147 152 93
147 152 92
148 153 91
148 154 91
149 154 90
149 155 90
150 155 89
151 156 89
151 157 88
152 157 87
152 158 87
153 159 86
153 159 86
154 160 85
154 161 84
155 161 84
155 162 83
156 162 83
156 163 82
157 164 82
157 164 81
158 165 80
158 166 80
159 166 79
159 167 79
160 168 78
160 168 78
161 169 77
161 170 76
162 170 76
162 171 75
163 171 75
163 172 74
164 173 73
164 173 73
165 174 72
166 175 72
166 175 71
167 176 71
167 177 70
168 177 69
168 178 69
169 178 68
169 179 68
170 180 67
170 180 67
171 181 66
171 182 65
172 182 65
172 183 64
173 184 64
173 184 63
174 185 63
174 185 62
175 186 61
175 187 61
176 187 60
176 188 60
177 189 59
177 189 58
178 190 58
178 191 57
179 191 57
179 192 56
180 193 56
181 193 55
181 194 54
182 194 54
182 195 53
183 196 53
183 196 52
184 197 52
184 198 51
185 198 50
185 199 50
186 200 49
186 200 49
187 201 48
187 201 47
188 202 47
188 203 46
189 203 46
189 204 45
190 205 45
190 205 44
191 206 43
191 207 43
192 207 42
192 208 42
193 208 41
193 209 41
194 210 40
194 210 39
195 211 39
196 212 38
196 212 38
197 213 37
197 214 36
198 214 36
198 215 35
199 216 35
199 216 34
200 217 34
200 217 33
201 218 32
201 219 32
202 219 31
202 220 31
203 221 30
203 221 30
204 222 29
204 223 28
205 223 28
205 224 27
206 224 27
206 225 26
207 226 26
207 226 25
208 227 24
208 228 24
209 228 23
209 229 23
210 230 22
211 230 21
211 231 21
212 231 20
212 232 20
213 233 19
213 233 19
214 234 18
214 235 17
215 235 17
215 236 16
216 237 16
216 237 15
217 238 15
217 239 14
218 239 13
218 240 13
219 240 12
219 241 12
220 242 11
220 242 10
221 243 10
221 244 9
222 244 9
222 245 8
223 246 8
223 246 7
224 247 6
224 247 6
225 248 5
225 249 5
226 249 4
227 250 4
227 251 3
228 251 2
228 252 2
229 253 1
229 253 1
230 254 0
230 255 0
25 0 229
26 0 228
26 1 228
27 1 227
27 2 227
28 3 226
28 3 225
29 4 225
29 5 224
30 5 224
30 6 223
31 7 223
31 7 222
32 8 221
32 8 221
33 9 220
33 10 220
34 10 219
34 11 219
35 12 218
35 12 217
36 13 217
36 14 216
37 14 216
37 15 215
38 15 215
38 16 214
39 17 213
39 17 213
40 18 212
40 19 212
41 19 211
41 20 210
42 21 210
42 21 209
43 22 209
44 23 208
44 23 208
45 24 207
45 24 206
46 25 206
46 26 205
47 26 205
47 27 204
48 28 204
48 28 203
49 29 202
49 30 202
50 30 201
50 31 201
51 31 200
51 32 200
52 33 199
52 33 198
53 34 198
53 35 197
54 35 197
54 36 196
55 37 196
55 37 195
56 38 194
56 38 194
57 39 193
57 40 193
58 40 192
58 41 192
59 42 191
59 42 190
60 43 190
60 44 189
61 44 189
61 45 188
62 46 187
62 46 187
63 47 186
63 47 186
64 48 185
64 49 185
65 49 184
65 50 183
66 51 183
66 51 182
67 52 182
68 53 181
68 53 181
69 54 180
69 54 179
70 55 179
70 56 178
71 56 178
71 57 177
72 58 177
72 58 176
73 59 175
73 60 175
74 60 174
74 61 174
75 61 173
75 62 173
76 63 172
76 63 171
77 64 171
77 65 170
78 65 170
78 66 169
79 67 169
79 67 168
80 68 167
80 69 167
81 69 166
81 70 166
82 70 165
82 71 164
83 72 164
83 72 163
84 73 163
84 74 162
85 74 162
85 75 161
86 76 160
86 76 160
87 77 159
87 77 159
88 78 158
88 79 158
89 79 157
89 80 156
90 81 156
90 81 155
91 82 155
92 83 154
92 83 154
93 84 153
93 85 152
94 85 152
94 86 151
95 86 151
95 87 150
96 88 150
96 88 149
97 89 148
97 90 148
98 90 147
98 91 147
99 92 146
99 92 146
100 93 145
100 93 144
101 94 144
101 95 143
102 95 143
102 96 142
103 97 141
103 97 141
104 98 140
104 99 140
105 99 139
105 100 139
106 100 138
106 101 137
107 102 137
107 102 136
108 103 136
108 104 135
109 104 135
109 105 134
110 106 133
110 106 133
111 107 132
111 108 132
112 108 131
112 109 131
113 109 130
113 110 129
114 111 129
114 111 128
115 112 128
116 113 127
116 113 127
117 114 126
117 115 125
118 115 125
118 116 124
119 116 124
119 117 123
120 118 123
120 118 122
121 119 121
121 120 121
122 120 120
122 121 120
123 122 119
123 122 118
124 123 118
124 123 117
125 124 117
125 125 116
126 125 116
126 126 115
127 127 114
127 127 114
128 128 113
128 129 113
129 129 112
129 130 112
130 131 111
130 131 110
131 132 110
131 132 109
132 133 109
132 134 108
133 134 108
133 135 107
134 136 106
134 136 106
135 137 105
135 138 105
136 138 104
136 139 104
137 139 103
137 140 102
138 141 102
138 141 101
139 142 101
140 143 100
140 143 100
141 144 99
141 145 98
142 145 98
142 146 97
143 146 97
143 147 96
144 148 96
144 148 95
145 149 94
145 150 94
146 150 93
146 151 93
147 152 92
147 152 91
148 153 91
148 154 90
149 154 90
149 155 89
150 155 89
150 156 88
151 157 87
151 157 87
152 158 86
152 159 86
153 159 85
153 160 85
154 161 84
154 161 83
155 162 83
155 162 82
156 163 82
156 164 81
157 164 81
157 165 80
158 166 79
158 166 79
159 167 78
159 168 78
160 168 77
160 169 77
161 170 76
161 170 75
162 171 75
162 171 74
163 172 74
164 173 73
164 173 73
165 174 72
165 175 71
166 175 71
166 176 70
167 177 70
167 177 69
168 178 68
168 178 68
169 179 67
169 180 67
170 180 66
170 181 66
171 182 65
171 182 64
172 183 64
172 184 63
173 184 63
173 185 62
174 185 62
174 186 61
175 187 60
175 187 60
176 188 59
176 189 59
177 189 58
177 190 58
178 191 57
178 191 56
179 192 56
179 193 55
180 193 55
180 194 54
181 194 54
181 195 53
182 196 52
182 196 52
183 197 51
183 198 51
184 198 50
184 199 50
185 200 49
185 200 48
186 201 48
186 201 47
187 202 47
188 203 46
188 203 45
189 204 45
189 205 44
190 205 44
190 206 43
191 207 43
191 207 42
192 208 41
192 208 41
193 209 40
193 210 40
194 210 39
194 211 39
195 212 38
195 212 37
196 213 37
196 214 36
197 214 36
197 215 35
198 216 35
198 216 34
199 217 33
199 217 33
200 218 32
200 219 32
201 219 31
201 220 31
202 221 30
202 221 29
203 222 29
203 223 28
204 223 28
204 224 27
205 224 27
205 225 26
206 226 25
206 226 25
207 227 24
207 228 24
208 228 23
208 229 22
209 230 22
209 230 21
210 231 21
210 231 20
211 232 20
212 233 19
212 233 18
213 234 18
213 235 17
214 235 17
214 236 16
215 237 16
215 237 15
216 238 14
216 239 14
217 239 13
217 240 13
218 240 12
218 241 12
219 242 11
219 242 10
220 243 10
220 244 9
221 244 9
221 245 8
222 246 8
222 246 7
223 247 6
223 247 6
224 248 5
224 249 5
225 249 4
225 250 4
226 251 3
226 251 2
227 252 2
227 253 1
228 253 1
228 254 0
229 255 0
26 0 228
27 0 227
27 1 226
28 1 226
28 2 225
29 3 225
29 3 224
30 4 224
30 5 223
31 5 222
31 6 222
32 7 221
32 7 221
33 8 220
33 8 220
34 9 219
34 10 218
35 10 218
35 11 217
36 12 217
36 12 216
37 13 216
38 14 215
38 14 214
39 15 214
39 15 213
40 16 213
40 17 212
41 17 212
41 18 211
42 19 210
42 19 210
43 20 209
43 21 209
44 21 208
44 22 208
45 23 207
45 23 206
46 24 206
46 24 205
47 25 205
47 26 204
48 26 204
48 27 203
49 28 202
49 28 202
50 29 201
50 30 201
51 30 200
51 31 200
52 31 199
52 32 198
53 33 198
53 33 197
54 34 197
54 35 196
55 35 196
55 36 195
56 37 194
56 37 194
57 38 193
57 38 193
58 39 192
58 40 192
59 40 191
59 41 190
60 42 190
60 42 189
61 43 189
61 44 188
62 44 188
62 45 187
63 46 186
63 46 186
64 47 185
64 47 185
65 48 184
65 49 184
66 49 183
66 50 182
67 51 182
67 51 181
68 52 181
68 53 180
69 53 180
69 54 179
70 54 178
70 55 178
71 56 177
71 56 177
72 57 176
72 58 176
73 58 175
73 59 174
74 60 174
74 60 173
75 61 173
75 61 172
76 62 172
76 63 171
77 63 170
77 64 170
78 65 169
78 65 169
79 66 168
79 67 168
80 67 167
80 68 166
81 69 166
81 69 165
82 70 165
82 70 164
83 71 164
83 72 163
84 72 162
84 73 162
85 74 161
85 74 161
86 75 160
86 76 160
87 76 159
87 77 158
88 77 158
88 78 157
89 79 157
89 79 156
90 80 156
90 81 155
91 81 154
91 82 154
92 83 153
92 83 153
93 84 152
93 85 152
94 85 151
94 86 150
95 86 150
95 87 149
96 88 149
96 88 148
97 89 148
98 90 147
98 90 146
99 91 146
99 92 145
100 92 145
100 93 144
101 93 144
101 94 143
102 95 142
102 95 142
103 96 141
103 97 141
104 97 140
104 98 140
105 99 139
105 99 138
106 100 138
106 100 137
107 101 137
107 102 136
108 102 136
108 103 135
109 104 134
109 104 134
110 105 133
110 106 133
111 106 132
111 107 132
112 108 131
112 108 130
113 109 130
113 109 129
114 110 129
114 111 128
115 111 128
115 112 127
116 113 126
116 113 126
117 114 125
117 115 125
118 115 124
118 116 124
119 116 123
119 117 122
120 118 122
120 118 121
121 119 121
121 120 120
122 120 120
122 121 119
123 122 118
123 122 118
124 123 117
124 123 117
125 124 116
125 125 116
126 125 115
126 126 114
127 127 114
127 127 113
128 128 113
128 129 112
129 129 112
129 130 111
130 131 110
130 131 110
131 132 109
131 132 109
132 133 108
132 134 108
133 134 107
133 135 106
134 136 106
134 136 105
135 137 105
135 138 104
136 138 104
136 139 103
137 139 102
137 140 102
138 141 101
138 141 101
139 142 100
139 143 100
140 143 99
140 144 98
141 145 98
141 145 97
142 146 97
142 146 96
143 147 96
143 148 95
144 148 94
144 149 94
145 150 93
145 150 93
146 151 92
146 152 92
147 152 91
147 153 90
148 154 90
148 154 89
149 155 89
149 155 88
150 156 88
150 157 87
151 157 86
151 158 86
152 159 85
152 159 85
153 160 84
153 161 84
154 161 83
154 162 82
155 162 82
155 163 81
156 164 81
156 164 80
157 165 80
158 166 79
158 166 78
159 167 78
159 168 77
160 168 77
160 169 76
161 170 76
161 170 75
162 171 74
162 171 74
163 172 73
163 173 73
164 173 72
164 174 72
165 175 71
165 175 70
166 176 70
166 177 69
167 177 69
167 178 68
168 178 68
168 179 67
169 180 66
169 180 66
170 181 65
170 182 65
171 182 64
171 183 64
172 184 63
172 184 62
173 185 62
173 185 61
174 186 61
174 187 60
175 187 60
175 188 59
176 189 58
176 189 58
177 190 57
177 191 57
178 191 56
178 192 56
179 193 55
179 193 54
180 194 54
180 194 53
181 195 53
181 196 52
182 196 52
182 197 51
183 198 50
183 198 50
184 199 49
184 200 49
185 200 48
185 201 48
186 201 47
186 202 46
187 203 46
187 203 45
188 204 45
188 205 44
189 205 44
189 206 43
190 207 42
190 207 42
191 208 41
191 208 41
192 209 40
192 210 40
193 210 39
193 211 38
194 212 38
194 212 37
195 213 37
195 214 36
196 214 36
196 215 35
197 216 34
197 216 34
198 217 33
198 217 33
199 218 32
199 219 32
200 219 31
200 220 30
201 221 30
201 221 29
202 222 29
202 223 28
203 223 28
203 224 27
204 224 26
204 225 26
205 226 25
205 226 25
206 227 24
206 228 24
207 228 23
207 229 22
208 230 22
208 230 21
209 231 21
209 231 20
210 232 20
210 233 19
211 233 18
211 234 18
212 235 17
212 235 17
213 236 16
213 237 16
214 237 15
214 238 14
215 239 14
215 239 13
216 240 13
216 240 12
217 241 12
218 242 11
218 242 10
219 243 10
219 244 9
220 244 9
220 245 8
221 246 8
221 246 7
222 247 6
222 247 6
223 248 5
223 249 5
224 249 4
224 250 4
225 251 3
225 251 2
226 252 2
226 253 1
227 253 1
227 254 0
228 255 0
28 0 226
28 0 226
29 1 225
29 1 225
30 2 224
30 3 223
31 3 223
31 4 222
32 5 222
32 5 221
33 6 221
33 7 220
34 7 219
34 8 219
35 8 218
35 9 218
36 10 217
36 10 217
37 11 216
37 12 216
38 12 215
38 13 214
39 14 214
39 14 213
40 15 213
40 15 212
41 16 212
41 17 211
42 17 210
42 18 210
43 19 209
43 19 209
44 20 208
44 21 208
45 21 207
45 22 206
46 23 206
46 23 205
47 24 205
47 24 204
48 25 204
48 26 203
49 26 202
49 27 202
50 28 201
50 28 201
51 29 200
51 30 200
52 30 199
52 31 198
53 31 198
53 32 197
54 33 197
54 33 196
55 34 196
55 35 195
56 35 194
56 36 194
57 37 193
57 37 193
58 38 192
58 38 192
59 39 191
59 40 190
60 40 190
60 41 189
61 42 189
61 42 188
62 43 188
62 44 187
63 44 187
63 45 186
64 46 185
64 46 185
65 47 184
65 47 184
66 48 183
66 49 183
67 49 182
67 50 181
68 51 181
68 51 180
69 52 180
69 53 179
70 53 179
70 54 178
71 54 177
71 55 177
71 56 176
72 56 176
72 57 175
73 58 175
73 58 174
74 59 173
74 60 173
75 60 172
75 61 172
76 61 171
76 62 171
77 63 170
77 63 169
78 64 169
78 65 168
79 65 168
79 66 167
80 67 167
80 67 166
81 68 165
81 69 165
82 69 164
82 70 164
83 70 163
83 71 163
84 72 162
84 72 162
85 73 161
85 74 160
86 74 160
86 75 159
87 76 159
87 76 158
88 77 158
88 77 157
89 78 156
89 79 156
90 79 155
90 80 155
91 81 154
91 81 154
92 82 153
92 83 152
93 83 152
93 84 151
94 85 151
94 85 150
95 86 150
95 86 149
96 87 148
96 88 148
97 88 147
97 89 147
98 90 146
98 90 146
99 91 145
99 92 144
100 92 144
100 93 143
101 93 143
101 94 142
102 95 142
102 95 141
103 96 140
103 97 140
104 97 139
104 98 139
105 99 138
105 99 138
106 100 137
106 100 136
107 101 136
107 102 135
108 102 135
108 103 134
109 104 134
109 104 133
110 105 133
110 106 132
111 106 131
111 107 131
112 108 130
112 108 130
113 109 129
113 109 129
114 110 128
114 111 127
115 111 127
115 112 126
116 113 126
116 113 125
117 114 125
117 115 124
118 115 123
118 116 123
119 116 122
119 117 122
120 118 121
120 118 121
121 119 120
121 120 119
122 120 119
122 121 118
123 122 118
123 122 117
124 123 117
124 123 116
125 124 115
125 125 115
126 125 114
126 126 114
127 127 113
127 127 113
128 128 112
128 129 111
129 129 111
129 130 110
130 131 110
130 131 109
131 132 109
131 132 108
132 133 108
132 134 107
133 134 106
133 135 106
134 136 105
134 136 105
135 137 104
135 138 104
136 138 103
136 139 102
137 139 102
137 140 101
138 141 101
138 141 100
139 142 100
139 143 99
140 143 98
140 144 98
141 145 97
141 145 97
142 146 96
142 146 96
143 147 95
143 148 94
144 148 94
144 149 93
145 150 93
145 150 92
146 151 92
146 152 91
147 152 90
147 153 90
148 154 89
148 154 89
149 155 88
149 155 88
150 156 87
150 157 86
151 157 86
151 158 85
152 159 85
152 159 84
153 160 84
153 161 83
154 161 82
154 162 82
155 162 81
155 163 81
156 164 80
156 164 80
157 165 79
157 166 79
158 166 78
158 167 77
159 168 77
159 168 76
160 169 76
160 170 75
161 170 75
161 171 74
162 171 73
162 172 73
163 173 72
163 173 72
164 174 71
164 175 71
165 175 70
165 176 69
166 177 69
166 177 68
167 178 68
167 178 67
168 179 67
168 180 66
169 180 65
169 181 65
170 182 64
170 182 64
171 183 63
171 184 63
172 184 62
172 185 61
173 185 61
173 186 60
174 187 60
174 187 59
175 188 59
175 189 58
176 189 57
176 190 57
177 191 56
177 191 56
178 192 55
178 193 55
179 193 54
179 194 54
180 194 53
180 195 52
181 196 52
181 196 51
182 197 51
182 198 50
183 198 50
183 199 49
183 200 48
184 200 48
184 201 47
185 201 47
185 202 46
186 203 46
186 203 45
187 204 44
187 205 44
188 205 43
188 206 43
189 207 42
189 207 42
190 208 41
190 208 40
191 209 40
191 210 39
192 210 39
192 211 38
193 212 38
193 212 37
194 213 36
194 214 36
195 214 35
195 215 35
196 216 34
196 216 34
197 217 33
197 217 32
198 218 32
198 219 31
199 219 31
199 220 30
200 221 30
200 221 29
201 222 28
201 223 28
202 223 27
202 224 27
203 224 26
203 225 26
204 226 25
204 226 25
205 227 24
205 228 23
206 228 23
206 229 22
207 230 22
207 230 21
208 231 21
208 231 20
209 232 19
209 233 19
210 233 18
210 234 18
211 235 17
211 235 17
212 236 16
212 237 15
213 237 15
213 238 14
214 239 14
214 239 13
215 240 13
215 240 12
216 241 11
216 242 11
217 242 10
217 243 10
218 244 9
218 244 9
219 245 8
219 246 7
220 246 7
220 247 6
221 247 6
221 248 5
222 249 5
222 249 4
223 250 3
223 251 3
224 251 2
224 252 2
225 253 1
225 253 1
226 254 0
226 255 0
29 0 225
29 0 224
30 1 224
30 1 223
31 2 223
31 3 222
32 3 222
32 4 221
33 5 221
33 5 220
34 6 219
34 7 219
35 7 218
35 8 218
36 8 217
36 9 217
37 10 216
37 10 215
38 11 215
38 12 214
39 12 214
39 13 213
40 14 213
40 14 212
41 15 211
41 15 211
42 16 210
42 17 210
43 17 209
43 18 209
44 19 208
44 19 208
45 20 207
45 21 206
46 21 206
46 22 205
47 23 205
47 23 204
48 24 204
48 24 203
49 25 202
49 26 202
50 26 201
50 27 201
51 28 200
51 28 200
52 29 199
52 30 198
53 30 198
53 31 197
54 31 197
54 32 196
55 33 196
55 33 195
56 34 195
56 35 194
56 35 193
57 36 193
57 37 192
58 37 192
58 38 191
59 38 191
59 39 190
60 40 189
60 40 189
61 41 188
61 42 188
62 42 187
62 43 187
63 44 186
63 44 185
64 45 185
64 46 184
65 46 184
65 47 183
66 47 183
66 48 182
67 49 182
67 49 181
68 50 180
68 51 180
69 51 179
69 52 179
70 53 178
70 53 178
71 54 177
71 54 176
72 55 176
72 56 175
73 56 175
73 57 174
74 58 174
74 58 173
75 59 172
75 60 172
76 60 171
76 61 171
77 61 170
77 62 170
78 63 169
78 63 169
79 64 168
79 65 167
80 65 167
80 66 166
81 67 166
81 67 165
82 68 165
82 69 164
83 69 163
83 70 163
84 70 162
84 71 162
84 72 161
85 72 161
85 73 160
86 74 159
86 74 159
87 75 158
87 76 158
88 76 157
88 77 157
89 77 156
89 78 156
90 79 155
90 79 154
91 80 154
91 81 153
92 81 153
92 82 152
93 83 152
93 83 151
94 84 150
94 85 150
95 85 149
95 86 149
96 86 148
96 87 148
97 88 147
97 88 146
98 89 146
98 90 145
99 90 145
99 91 144
100 92 144
100 92 143
101 93 143
101 93 142
102 94 141
102 95 141
103 95 140
103 96 140
104 97 139
104 97 139
105 98 138
105 99 137
106 99 137
106 100 136
107 100 136
107 101 135
108 102 135
108 102 134
109 103 133
109 104 133
110 104 132
110 105 132
111 106 131
111 106 131
112 107 130
112 108 130
113 108 129
113 109 128
113 109 128
114 110 127
114 111 127
115 111 126
115 112 126
116 113 125
116 113 124
117 114 124
117 115 123
118 115 123
118 116 122
119 116 122
119 117 121
120 118 120
120 118 120
121 119 119
121 120 119
122 120 118
122 121 118
123 122 117
123 122 117
124 123 116
124 123 115
125 124 115
125 125 114
126 125 114
126 126 113
127 127 113
127 127 112
128 128 111
128 129 111
129 129 110
129 130 110
130 131 109
130 131 109
131 132 108
131 132 107
132 133 107
132 134 106
133 134 106
133 135 105
134 136 105
134 136 104
135 137 104
135 138 103
136 138 102
136 139 102
137 139 101
137 140 101
138 141 100
138 141 100
139 142 99
139 143 98
140 143 98
140 144 97
141 145 97
141 145 96
141 146 96
142 146 95
142 147 94
143 148 94
143 148 93
144 149 93
144 150 92
145 150 92
145 151 91
146 152 91
146 152 90
147 153 89
147 154 89
148 154 88
148 155 88
149 155 87
149 156 87
150 157 86
150 157 85
151 158 85
151 159 84
152 159 84
152 160 83
153 161 83
153 161 82
154 162 81
154 162 81
155 163 80
155 164 80
156 164 79
156 165 79
157 166 78
157 166 78
158 167 77
158 168 76
159 168 76
159 169 75
160 170 75
160 170 74
161 171 74
161 171 73
162 172 72
162 173 72
163 173 71
163 174 71
164 175 70
164 175 70
165 176 69
165 177 68
166 177 68
166 178 67
167 178 67
167 179 66
168 180 66
168 180 65
169 181 65
169 182 64
170 182 63
170 183 63
170 184 62
171 184 62
171 185 61
172 185 61
172 186 60
173 187 59
173 187 59
174 188 58
174 189 58
175 189 57
175 190 57
176 191 56
176 191 55
177 192 55
177 193 54
178 193 54
178 194 53
179 194 53
179 195 52
180 196 52
180 196 51
181 197 50
181 198 50
182 198 49
182 199 49
183 200 48
183 200 48
184 201 47
184 201 46
185 202 46
185 203 45
186 203 45
186 204 44
187 205 44
187 205 43
188 206 42
188 207 42
189 207 41
189 208 41
190 208 40
190 209 40
191 210 39
191 210 39
192 211 38
192 212 37
193 212 37
193 213 36
194 214 36
194 214 35
195 215 35
195 216 34
196 216 33
196 217 33
197 217 32
197 218 32
198 219 31
198 219 31
198 220 30
199 221 29
199 221 29
200 222 28
200 223 28
201 223 27
201 224 27
202 224 26
202 225 26
203 226 25
203 226 24
204 227 24
204 228 23
205 228 23
205 229 22
206 230 22
206 230 21
207 231 20
207 231 20
208 232 19
208 233 19
209 233 18
209 234 18
210 235 17
210 235 16
211 236 16
211 237 15
212 237 15
212 238 14
213 239 14
213 239 13
214 240 13
214 240 12
215 241 11
215 242 11
216 242 10
216 243 10
217 244 9
217 244 9
218 245 8
218 246 7
219 246 7
219 247 6
220 247 6
220 248 5
221 249 5
221 249 4
222 250 3
222 251 3
223 251 2
223 252 2
224 253 1
224 253 1
225 254 0
225 255 0
30 0 224
31 0 223
31 1 223
32 1 222
32 2 221
33 3 221
33 3 220
34 4 220
34 5 219
35 5 219
35 6 218
36 7 218
36 7 217
37 8 216
37 8 216
38 9 215
38 10 215
38 10 214
39 11 214
39 12 213
40 12 213
40 13 212
41 14 211
41 14 211
42 15 210
42 15 210
43 16 209
43 17 209
44 17 208
44 18 207
45 19 207
45 19 206
46 20 206
46 21 205
47 21 205
47 22 204
48 23 204
48 23 203
49 24 202
49 24 202
50 25 201
50 26 201
51 26 200
51 27 200
52 28 199
52 28 198
53 29 198
53 30 197
54 30 197
54 31 196
55 31 196
55 32 195
55 33 195
56 33 194
56 34 193
57 35 193
57 35 192
58 36 192
58 37 191
59 37 191
59 38 190
60 38 189
60 39 189
61 40 188
61 40 188
62 41 187
62 42 187
63 42 186
63 43 186
64 44 185
64 44 184
65 45 184
65 46 183
66 46 183
66 47 182
67 47 182
67 48 181
68 49 180
68 49 180
69 50 179
69 51 179
70 51 178
70 52 178
71 53 177
71 53 177
71 54 176
72 54 175
72 55 175
73 56 174
73 56 174
74 57 173
74 58 173
75 58 172
75 59 171
76 60 171
76 60 170
77 61 170
77 61 169
78 62 169
78 63 168
79 63 168
79 64 167
80 65 166
80 65 166
81 66 165
81 67 165
82 67 164
82 68 164
83 69 163
83 69 162
84 70 162
84 70 161
85 71 161
85 72 160
86 72 160
86 73 159
87 74 159
87 74 158
87 75 157
88 76 157
88 76 156
89 77 156
89 77 155
90 78 155
90 79 154
91 79 153
91 80 153
92 81 152
92 81 152
93 82 151
93 83 151
94 83 150
94 84 150
95 85 149
95 85 148
96 86 148
96 86 147
97 87 147
97 88 146
98 88 146
98 89 145
99 90 145
99 90 144
100 91 143
100 92 143
101 92 142
101 93 142
102 93 141
102 94 141
103 95 140
103 95 139
103 96 139
104 97 138
104 97 138
105 98 137
105 99 137
106 99 136
106 100 136
107 100 135
107 101 134
108 102 134
108 102 133
109 103 133
109 104 132
110 104 132
110 105 131
111 106 130
111 106 130
112 107 129
112 108 129
113 108 128
113 109 128
114 109 127
114 110 127
115 111 126
115 111 125
116 112 125
116 113 124
117 113 124
117 114 123
118 115 123
118 115 122
119 116 121
119 116 121
119 117 120
120 118 120
120 118 119
121 119 119
121 120 118
122 120 118
122 121 117
123 122 116
123 122 116
124 123 115
124 123 115
125 124 114
125 125 114
126 125 113
126 126 112
127 127 112
127 127 111
128 128 111
128 129 110
129 129 110
129 130 109
130 131 109
130 131 108
131 132 107
131 132 107
132 133 106
132 134 106
133 134 105
133 135 105
134 136 104
134 136 103
135 137 103
135 138 102
135 138 102
136 139 101
136 139 101
137 140 100
137 141 100
138 141 99
138 142 98
139 143 98
139 143 97
140 144 97
140 145 96
141 145 96
141 146 95
142 146 94
142 147 94
143 148 93
143 148 93
144 149 92
144 150 92
145 150 91
145 151 91
146 152 90
146 152 89
147 153 89
147 154 88
148 154 88
148 155 87
149 155 87
149 156 86
150 157 85
150 157 85
151 158 84
151 159 84
151 159 83
152 160 83
152 161 82
153 161 82
153 162 81
154 162 80
154 163 80
155 164 79
155 164 79
156 165 78
156 166 78
157 166 77
157 167 76
158 168 76
158 168 75
159 169 75
159 170 74
160 170 74
160 171 73
161 171 73
161 172 72
162 173 71
162 173 71
163 174 70
163 175 70
164 175 69
164 176 69
165 177 68
165 177 68
166 178 67
166 178 66
167 179 66
167 180 65
167 180 65
168 181 64
168 182 64
169 182 63
169 183 62
170 184 62
170 184 61
171 185 61
171 185 60
172 186 60
172 187 59
173 187 59
173 188 58
174 189 57
174 189 57
175 190 56
175 191 56
176 191 55
176 192 55
177 193 54
177 193 53
178 194 53
178 194 52
179 195 52
179 196 51
180 196 51
180 197 50
181 198 50
181 198 49
182 199 48
182 200 48
183 200 47
183 201 47
183 201 46
184 202 46
184 203 45
185 203 44
185 204 44
186 205 43
186 205 43
187 206 42
187 207 42
188 207 41
188 208 41
189 208 40
189 209 39
190 210 39
190 210 38
191 211 38
191 212 37
192 212 37
192 213 36
193 214 35
193 214 35
194 215 34
194 216 34
195 216 33
195 217 33
196 217 32
196 218 32
197 219 31
197 219 30
198 220 30
198 221 29
199 221 29
199 222 28
199 223 28
200 223 27
200 224 26
201 224 26
201 225 25
202 226 25
202 226 24
203 227 24
203 228 23
204 228 23
204 229 22
205 230 21
205 230 21
206 231 20
206 231 20
207 232 19
207 233 19
208 233 18
208 234 17
209 235 17
209 235 16
210 236 16
210 237 15
211 237 15
211 238 14
212 239 14
212 239 13
213 240 12
213 240 12
214 241 11
214 242 11
215 242 10
215 243 10
216 244 9
216 244 8
216 245 8
217 246 7
217 246 7
218 247 6
218 247 6
219 248 5
219 249 5
220 249 4
220 250 3
221 251 3
221 251 2
222 252 2
222 253 1
223 253 1
223 254 0
224 255 0
32 0 222
32 0 222
32 1 221
33 1 221
33 2 220
34 3 220
34 3 219
35 4 219
35 5 218
36 5 217
36 6 217
37 7 216
37 7 216
38 8 215
38 8 215
39 9 214
39 10 214
40 10 213
40 11 212
41 12 212
41 12 211
42 13 211
42 14 210
43 14 210
43 15 209
43 15 208
44 16 208
44 17 207
45 17 207
45 18 206
46 19 206
46 19 205
47 20 205
47 21 204
48 21 203
48 22 203
49 23 202
49 23 202
50 24 201
50 24 201
51 25 200
51 26 200
52 26 199
52 27 198
53 28 198
53 28 197
54 29 197
54 30 196
55 30 196
55 31 195
55 31 195
56 32 194
56 33 193
57 33 193
57 34 192
58 35 192
58 35 191
59 36 191
59 37 190
60 37 189
60 38 189
61 38 188
61 39 188
62 40 187
62 40 187
63 41 186
63 42 186
64 42 185
64 43 184
65 44 184
65 44 183
66 45 183
66 46 182
66 46 182
67 47 181
67 47 181
68 48 180
68 49 179
69 49 179
69 50 178
70 51 178
70 51 177
71 52 177
71 53 176
72 53 176
72 54 175
73 54 174
73 55 174
74 56 173
74 56 173
75 57 172
75 58 172
76 58 171
76 59 170
77 60 170
77 60 169
77 61 169
78 61 168
78 62 168
79 63 167
79 63 167
80 64 166
80 65 165
81 65 165
81 66 164
82 67 164
82 67 163
83 68 163
83 69 162
84 69 162
84 70 161
85 70 160
85 71 160
86 72 159
86 72 159
87 73 158
87 74 158
88 74 157
88 75 157
88 76 156
89 76 155
89 77 155
90 77 154
90 78 154
91 79 153
91 79 153
92 80 152
92 81 151
93 81 151
93 82 150
94 83 150
94 83 149
95 84 149
95 85 148
96 85 148
96 86 147
97 86 146
97 87 146
98 88 145
98 88 145
99 89 144
99 90 144
99 90 143
100 91 143
100 92 142
101 92 141
101 93 141
102 93 140
102 94 140
103 95 139
103 95 139
104 96 138
104 97 138
105 97 137
105 98 136
106 99 136
106 99 135
107 100 135
107 100 134
108 101 134
108 102 133
109 102 132
109 103 132
110 104 131
110 104 131
110 105 130
111 106 130
111 106 129
112 107 129
112 108 128
113 108 127
113 109 127
114 109 126
114 110 126
115 111 125
115 111 125
116 112 124
116 113 124
117 113 123
117 114 122
118 115 122
118 115 121
119 116 121
119 116 120
120 117 120
120 118 119
121 118 119
121 119 118
121 120 117
122 120 117
122 121 116
123 122 116
123 122 115
124 123 115
124 123 114
125 124 113
125 125 113
126 125 112
126 126 112
127 127 111
127 127 111
128 128 110
128 129 110
129 129 109
129 130 108
130 131 108
130 131 107
131 132 107
131 132 106
132 133 106
132 134 105
133 134 105
133 135 104
133 136 103
134 136 103
134 137 102
135 138 102
135 138 101
136 139 101
136 139 100
137 140 100
137 141 99
138 141 98
138 142 98
139 143 97
139 143 97
140 144 96
140 145 96
141 145 95
141 146 94
142 146 94
142 147 93
143 148 93
143 148 92
144 149 92
144 150 91
144 150 91
145 151 90
145 152 89
146 152 89
146 153 88
147 154 88
147 154 87
148 155 87
148 155 86
149 156 86
149 157 85
150 157 84
150 158 84
151 159 83
151 159 83
152 160 82
152 161 82
153 161 81
153 162 81
154 162 80
154 163 79
155 164 79
155 164 78
155 165 78
156 166 77
156 166 77
157 167 76
157 168 75
158 168 75
158 169 74
159 170 74
159 170 73
160 171 73
160 171 72
161 172 72
161 173 71
162 173 70
162 174 70
163 175 69
163 175 69
164 176 68
164 177 68
165 177 67
165 178 67
166 178 66
166 179 65
166 180 65
167 180 64
167 181 64
168 182 63
168 182 63
169 183 62
169 184 62
170 184 61
170 185 60
171 185 60
171 186 59
172 187 59
172 187 58
173 188 58
173 189 57
174 189 56
174 190 56
175 191 55
175 191 55
176 192 54
176 193 54
177 193 53
177 194 53
177 194 52
178 195 51
178 196 51
179 196 50
179 197 50
180 198 49
180 198 49
181 199 48
181 200 48
182 200 47
182 201 46
183 201 46
183 202 45
184 203 45
184 203 44
185 204 44
185 205 43
186 205 43
186 206 42
187 207 41
187 207 41
188 208 40
188 208 40
188 209 39
189 210 39
189 210 38
190 211 37
190 212 37
191 212 36
191 213 36
192 214 35
192 214 35
193 215 34
193 216 34
194 216 33
194 217 32
195 217 32
195 218 31
196 219 31
196 219 30
197 220 30
197 221 29
198 221 29
198 222 28
199 223 27
199 223 27
199 224 26
200 224 26
200 225 25
201 226 25
201 226 24
202 227 24
202 228 23
203 228 22
203 229 22
204 230 21
204 230 21
205 231 20
205 231 20
206 232 19
206 233 18
207 233 18
207 234 17
208 235 17
208 235 16
209 236 16
209 237 15
210 237 15
210 238 14
211 239 13
211 239 13
211 240 12
212 240 12
212 241 11
213 242 11
213 242 10
214 243 10
214 244 9
215 244 8
215 245 8
216 246 7
216 246 7
217 247 6
217 247 6
218 248 5
218 249 5
219 249 4
219 250 3
220 251 3
220 251 2
221 252 2
221 253 1
222 253 1
222 254 0
222 255 0
33 0 221
33 0 221
34 1 220
34 1 220
35 2 219
35 3 218
36 3 218
36 4 217
37 5 217
37 5 216
38 6 216
38 7 215
38 7 215
39 8 214
39 8 213
40 9 213
40 10 212
41 10 212
41 11 211
42 12 211
42 12 210
43 13 210
43 14 209
44 14 208
44 15 208
45 15 207
45 16 207
46 17 206
46 17 206
47 18 205
47 19 205
47 19 204
48 20 203
48 21 203
49 21 202
49 22 202
50 23 201
50 23 201
51 24 200
51 24 200
52 25 199
52 26 198
53 26 198
53 27 197
54 28 197
54 28 196
55 29 196
55 30 195
55 30 195
56 31 194
56 31 193
57 32 193
57 33 192
58 33 192
58 34 191
59 35 191
59 35 190
60 36 190
60 37 189
61 37 188
61 38 188
62 38 187
62 39 187
63 40 186
63 40 186
64 41 185
64 42 185
64 42 184
65 43 183
65 44 183
66 44 182
66 45 182
67 46 181
67 46 181
68 47 180
68 47 180
69 48 179
69 49 178
70 49 178
70 50 177
71 51 177
71 51 176
72 52 176
72 53 175
72 53 175
73 54 174
73 54 173
74 55 173
74 56 172
75 56 172
75 57 171
76 58 171
76 58 170
77 59 170
77 60 169
78 60 168
78 61 168
79 61 167
79 62 167
80 63 166
80 63 166
80 64 165
81 65 165
81 65 164
82 66 163
82 67 163
83 67 162
83 68 162
84 69 161
84 69 161
85 70 160
85 70 160
86 71 159
86 72 158
87 72 158
87 73 157
88 74 157
88 74 156
89 75 156
89 76 155
89 76 155
90 77 154
90 77 153
91 78 153
91 79 152
92 79 152
92 80 151
93 81 151
93 81 150
94 82 150
94 83 149
95 83 148
95 84 148
96 85 147
96 85 147
97 86 146
97 86 146
97 87 145
98 88 145
98 88 144
99 89 143
99 90 143
100 90 142
100 91 142
101 92 141
101 92 141
102 93 140
102 93 140
103 94 139
103 95 138
104 95 138
104 96 137
105 97 137
105 97 136
106 98 136
106 99 135
106 99 135
107 100 134
107 100 133
108 101 133
108 102 132
109 102 132
109 103 131
110 104 131
110 104 130
111 105 130
111 106 129
112 106 128
112 107 128
113 108 127
113 108 127
114 109 126
114 109 126
114 110 125
115 111 125
115 111 124
116 112 123
116 113 123
117 113 122
117 114 122
118 115 121
118 115 121
119 116 120
119 116 120
120 117 119
120 118 118
121 118 118
121 119 117
122 120 117
122 120 116
123 121 116
123 122 115
123 122 115
124 123 114
124 123 113
125 124 113
125 125 112
126 125 112
126 126 111
127 127 111
127 127 110
128 128 110
128 129 109
129 129 108
129 130 108
130 131 107
130 131 107
131 132 106
131 132 106
131 133 105
132 134 105
132 134 104
133 135 103
133 136 103
134 136 102
134 137 102
135 138 101
135 138 101
136 139 100
136 139 100
137 140 99
137 141 98
138 141 98
138 142 97
139 143 97
139 143 96
140 144 96
140 145 95
140 145 95
141 146 94
141 146 93
142 147 93
142 148 92
143 148 92
143 149 91
144 150 91
144 150 90
145 151 90
145 152 89
146 152 88
146 153 88
147 154 87
147 154 87
148 155 86
148 155 86
148 156 85
149 157 85
149 157 84
150 158 83
150 159 83
151 159 82
151 160 82
152 161 81
152 161 81
153 162 80
153 162 80
154 163 79
154 164 78
155 164 78
155 165 77
156 166 77
156 166 76
157 167 76
157 168 75
157 168 75
158 169 74
158 170 73
159 170 73
159 171 72
160 171 72
160 172 71
161 173 71
161 173 70
162 174 70
162 175 69
163 175 68
163 176 68
164 177 67
164 177 67
165 178 66
165 178 66
165 179 65
166 180 65
166 180 64
167 181 63
167 182 63
168 182 62
168 183 62
169 184 61
169 184 61
170 185 60
170 185 60
171 186 59
171 187 58
172 187 58
172 188 57
173 189 57
173 189 56
174 190 56
174 191 55
174 191 55
175 192 54
175 193 53
176 193 53
176 194 52
177 194 52
177 195 51
178 196 51
178 196 50
179 197 50
179 198 49
180 198 48
180 199 48
181 200 47
181 200 47
182 201 46
182 201 46
182 202 45
183 203 45
183 203 44
184 204 43
184 205 43
185 205 42
185 206 42
186 207 41
186 207 41
187 208 40
187 208 40
188 209 39
188 210 38
189 210 38
189 211 37
190 212 37
190 212 36
190 213 36
191 214 35
191 214 35
192 215 34
192 216 33
193 216 33
193 217 32
194 217 32
194 218 31
195 219 31
195 219 30
196 220 30
196 221 29
197 221 28
197 222 28
198 223 27
198 223 27
199 224 26
199 224 26
199 225 25
200 226 25
200 226 24
201 227 23
201 228 23
202 228 22
202 229 22
203 230 21
203 230 21
204 231 20
204 231 20
205 232 19
205 233 18
206 233 18
206 234 17
207 235 17
207 235 16
207 236 16
208 237 15
208 237 15
209 238 14
209 239 13
210 239 13
210 240 12
211 240 12
211 241 11
212 242 11
212 242 10
213 243 10
213 244 9
214 244 8
214 245 8
215 246 7
215 246 7
216 247 6
216 247 6
216 248 5
217 249 5
217 249 4
218 250 3
218 251 3
219 251 2
219 252 2
220 253 1
220 253 1
221 254 0
221 255 0
34 0 220
35 0 219
35 1 219
35 1 218
36 2 218
36 3 217
37 3 217
37 4 216
38 5 215
38 5 215
39 6 214
39 7 214
40 7 213
40 8 213
41 8 212
41 9 212
42 10 211
42 10 211
42 11 210
43 12 209
43 12 209
44 13 208
44 14 208
45 14 207
45 15 207
46 15 206
46 16 206
47 17 205
47 17 204
48 18 204
48 19 203
49 19 203
49 20 202
49 21 202
50 21 201
50 22 201
51 23 200
51 23 199
52 24 199
52 24 198
53 25 198
53 26 197
54 26 197
54 27 196
55 28 196
55 28 195
56 29 194
56 30 194
56 30 193
57 31 193
57 31 192
58 32 192
58 33 191
59 33 191
59 34 190
60 35 190
60 35 189
61 36 188
61 37 188
62 37 187
62 38 187
63 38 186
63 39 186
63 40 185
64 40 185
64 41 184
65 42 183
65 42 183
66 43 182
66 44 182
67 44 181
67 45 181
68 46 180
68 46 180
69 47 179
69 47 178
69 48 178
70 49 177
70 49 177
71 50 176
71 51 176
72 51 175
72 52 175
73 53 174
73 53 174
74 54 173
74 54 172
75 55 172
75 56 171
76 56 171
76 57 170
76 58 170
77 58 169
77 59 169
78 60 168
78 60 167
79 61 167
79 61 166
80 62 166
80 63 165
81 63 165
81 64 164
82 65 164
82 65 163
83 66 162
83 67 162
83 67 161
84 68 161
84 69 160
85 69 160
85 70 159
86 70 159
86 71 158
87 72 157
87 72 157
88 73 156
88 74 156
89 74 155
89 75 155
90 76 154
90 76 154
90 77 153
91 77 153
91 78 152
92 79 151
92 79 151
93 80 150
93 81 150
94 81 149
94 82 149
95 83 148
95 83 148
96 84 147
96 85 146
96 85 146
97 86 145
97 86 145
98 87 144
98 88 144
99 88 143
99 89 143
100 90 142
100 90 141
101 91 141
101 92 140
102 92 140
102 93 139
103 93 139
103 94 138
103 95 138
104 95 137
104 96 136
105 97 136
105 97 135
106 98 135
106 99 134
107 99 134
107 100 133
108 100 133
108 101 132
109 102 132
109 102 131
110 103 130
110 104 130
110 104 129
111 105 129
111 106 128
112 106 128
112 107 127
113 108 127
113 108 126
114 109 125
114 109 125
115 110 124
115 111 124
116 111 123
116 112 123
117 113 122
117 113 122
117 114 121
118 115 120
118 115 120
119 116 119
119 116 119
120 117 118
120 118 118
121 118 117
121 119 117
122 120 116
122 120 116
123 121 115
123 122 114
124 122 114
124 123 113
124 123 113
125 124 112
125 125 112
126 125 111
126 126 111
127 127 110
127 127 109
128 128 109
128 129 108
129 129 108
129 130 107
130 131 107
130 131 106
130 132 106
131 132 105
131 133 104
132 134 104
132 134 103
133 135 103
133 136 102
134 136 102
134 137 101
135 138 101
135 138 100
136 139 99
136 139 99
137 140 98
137 141 98
137 141 97
138 142 97
138 143 96
139 143 96
139 144 95
140 145 95
140 145 94
141 146 93
141 146 93
142 147 92
142 148 92
143 148 91
143 149 91
144 150 90
144 150 90
144 151 89
145 152 88
145 152 88
146 153 87
146 154 87
147 154 86
147 155 86
148 155 85
148 156 85
149 157 84
149 157 83
150 158 83
150 159 82
151 159 82
151 160 81
151 161 81
152 161 80
152 162 80
153 162 79
153 163 78
154 164 78
154 164 77
155 165 77
155 166 76
156 166 76
156 167 75
157 168 75
157 168 74
158 169 74
158 170 73
158 170 72
159 171 72
159 171 71
160 172 71
160 173 70
161 173 70
161 174 69
162 175 69
162 175 68
163 176 67
163 177 67
164 177 66
164 178 66
164 178 65
165 179 65
165 180 64
166 180 64
166 181 63
167 182 62
167 182 62
168 183 61
168 184 61
169 184 60
169 185 60
170 185 59
170 186 59
171 187 58
171 187 58
171 188 57
172 189 56
172 189 56
173 190 55
173 191 55
174 191 54
174 192 54
175 193 53
175 193 53
176 194 52
176 194 51
177 195 51
177 196 50
178 196 50
178 197 49
178 198 49
179 198 48
179 199 48
180 200 47
180 200 46
181 201 46
181 201 45
182 202 45
182 203 44
183 203 44
183 204 43
184 205 43
184 205 42
185 206 41
185 207 41
185 207 40
186 208 40
186 208 39
187 209 39
187 210 38
188 210 38
188 211 37
189 212 37
189 212 36
190 213 35
190 214 35
191 214 34
191 215 34
191 216 33
192 216 33
192 217 32
193 217 32
193 218 31
194 219 30
194 219 30
195 220 29
195 221 29
196 221 28
196 222 28
197 223 27
197 223 27
198 224 26
198 224 25
198 225 25
199 226 24
199 226 24
200 227 23
200 228 23
201 228 22
201 229 22
202 230 21
202 230 20
203 231 20
203 231 19
204 232 19
204 233 18
205 233 18
205 234 17
205 235 17
206 235 16
206 236 16
207 237 15
207 237 14
208 238 14
208 239 13
209 239 13
209 240 12
210 240 12
210 241 11
211 242 11
211 242 10
212 243 9
212 244 9
212 244 8
213 245 8
213 246 7
214 246 7
214 247 6
215 247 6
215 248 5
216 249 4
216 249 4
217 250 3
217 251 3
218 251 2
218 252 2
219 253 1
219 253 1
219 254 0
220 255 0
35 0 219
36 0 218
36 1 218
37 1 217
37 2 216
38 3 216
38 3 215
39 4 215
39 5 214
40 5 214
40 6 213
40 7 213
41 7 212
41 8 211
42 8 211
42 9 210
43 10 210
43 10 209
44 11 209
44 12 208
45 12 208
45 13 207
45 14 207
46 14 206
46 15 205
47 15 205
47 16 204
48 17 204
48 17 203
49 18 203
49 19 202
50 19 202
50 20 201
51 21 200
51 21 200
51 22 199
52 23 199
52 23 198
53 24 198
53 24 197
54 25 197
54 26 196
55 26 196
55 27 195
56 28 194
56 28 194
57 29 193
57 30 193
57 30 192
58 31 192
58 31 191
59 32 191
59 33 190
60 33 190
60 34 189
61 35 188
61 35 188
62 36 187
62 37 187
62 37 186
63 38 186
63 38 185
64 39 185
64 40 184
65 40 183
65 41 183
66 42 182
66 42 182
67 43 181
67 44 181
68 44 180
68 45 180
68 46 179
69 46 179
69 47 178
70 47 177
70 48 177
71 49 176
71 49 176
72 50 175
72 51 175
73 51 174
73 52 174
73 53 173
74 53 172
74 54 172
75 54 171
75 55 171
76 56 170
76 56 170
77 57 169
77 58 169
78 58 168
78 59 168
79 60 167
79 60 166
79 61 166
80 61 165
80 62 165
81 63 164
81 63 164
82 64 163
82 65 163
83 65 162
83 66 162
84 67 161
84 67 160
85 68 160
85 69 159
85 69 159
86 70 158
86 70 158
87 71 157
87 72 157
88 72 156
88 73 155
89 74 155
89 74 154
90 75 154
90 76 153
90 76 153
91 77 152
91 77 152
92 78 151
92 79 151
93 79 150
93 80 149
94 81 149
94 81 148
95 82 148
95 83 147
96 83 147
96 84 146
96 85 146
97 85 145
97 86 144
98 86 144
98 87 143
99 88 143
99 88 142
100 89 142
100 90 141
101 90 141
101 91 140
102 92 140
102 92 139
102 93 138
103 93 138
103 94 137
104 95 137
104 95 136
105 96 136
105 97 135
106 97 135
106 98 134
107 99 133
107 99 133
107 100 132
108 100 132
108 101 131
109 102 131
109 102 130
110 103 130
110 104 129
111 104 129
111 105 128
112 106 127
112 106 127
113 107 126
113 108 126
113 108 125
114 109 125
114 109 124
115 110 124
115 111 123
116 111 123
116 112 122
117 113 121
117 113 121
118 114 120
118 115 120
119 115 119
119 116 119
119 116 118
120 117 118
120 118 117
121 118 116
121 119 116
122 120 115
122 120 115
123 121 114
123 122 114
124 122 113
124 123 113
124 123 112
125 124 112
125 125 111
126 125 110
126 126 110
127 127 109
127 127 109
128 128 108
128 129 108
129 129 107
129 130 107
130 131 106
130 131 105
130 132 105
131 132 104
131 133 104
132 134 103
132 134 103
133 135 102
133 136 102
134 136 101
134 137 101
135 138 100
135 138 99
135 139 99
136 139 98
136 140 98
137 141 97
137 141 97
138 142 96
138 143 96
139 143 95
139 144 95
140 145 94
140 145 93
141 146 93
141 146 92
141 147 92
142 148 91
142 148 91
143 149 90
143 150 90
144 150 89
144 151 88
145 152 88
145 152 87
146 153 87
146 154 86
147 154 86
147 155 85
147 155 85
148 156 84
148 157 84
149 157 83
149 158 82
150 159 82
150 159 81
151 160 81
151 161 80
152 161 80
152 162 79
152 162 79
153 163 78
153 164 77
154 164 77
154 165 76
155 166 76
155 166 75
156 167 75
156 168 74
157 168 74
157 169 73
158 170 73
158 170 72
158 171 71
159 171 71
159 172 70
160 173 70
160 173 69
161 174 69
161 175 68
162 175 68
162 176 67
163 177 66
163 177 66
164 178 65
164 178 65
164 179 64
165 180 64
165 180 63
166 181 63
166 182 62
167 182 62
167 183 61
168 184 60
168 184 60
169 185 59
169 185 59
169 186 58
170 187 58
170 187 57
171 188 57
171 189 56
172 189 56
172 190 55
173 191 54
173 191 54
174 192 53
174 193 53
175 193 52
175 194 52
175 194 51
176 195 51
176 196 50
177 196 49
177 197 49
178 198 48
178 198 48
179 199 47
179 200 47
180 200 46
180 201 46
181 201 45
181 202 45
181 203 44
182 203 43
182 204 43
183 205 42
183 205 42
184 206 41
184 207 41
185 207 40
185 208 40
186 208 39
186 209 38
186 210 38
187 210 37
187 211 37
188 212 36
188 212 36
189 213 35
189 214 35
190 214 34
190 215 34
191 216 33
191 216 32
192 217 32
192 217 31
192 218 31
193 219 30
193 219 30
194 220 29
194 221 29
195 221 28
195 222 28
196 223 27
196 223 26
197 224 26
197 224 25
197 225 25
198 226 24
198 226 24
199 227 23
199 228 23
200 228 22
200 229 21
201 230 21
201 230 20
202 231 20
202 231 19
203 232 19
203 233 18
203 233 18
204 234 17
204 235 17
205 235 16
205 236 15
206 237 15
206 237 14
207 238 14
207 239 13
208 239 13
208 240 12
209 240 12
209 241 11
209 242 10
210 242 10
210 243 9
211 244 9
211 244 8
212 245 8
212 246 7
213 246 7
213 247 6
214 247 6
214 248 5
214 249 4
215 249 4
215 250 3
216 251 3
216 251 2
217 252 2
217 253 1
218 253 1
218 254 0
219 255 0
37 0 217
37 0 217
38 1 216
38 1 216
38 2 215
39 3 215
39 3 214
40 4 214
40 5 213
41 5 212
41 6 212
42 7 211
42 7 211
43 8 210
43 8 210
43 9 209
44 10 209
44 10 208
45 11 208
45 12 207
46 12 206
46 13 206
47 14 205
47 14 205
48 15 204
48 15 204
48 16 203
49 17 203
49 17 202
50 18 202
50 19 201
51 19 200
51 20 200
52 21 199
52 21 199
53 22 198
53 23 198
53 23 197
54 24 197
54 24 196
55 25 196
55 26 195
56 26 194
56 27 194
57 28 193
57 28 193
57 29 192
58 30 192
58 30 191
59 31 191
59 31 190
60 32 189
60 33 189
61 33 188
61 34 188
62 35 187
62 35 187
62 36 186
63 37 186
63 37 185
64 38 185
64 38 184
65 39 183
65 40 183
66 40 182
66 41 182
67 42 181
67 42 181
67 43 180
68 44 180
68 44 179
69 45 179
69 46 178
70 46 177
70 47 177
71 47 176
71 48 176
72 49 175
72 49 175
72 50 174
73 51 174
73 51 173
74 52 173
74 53 172
75 53 171
75 54 171
76 54 170
76 55 170
77 56 169
77 56 169
77 57 168
78 58 168
78 58 167
79 59 167
79 60 166
80 60 165
80 61 165
81 61 164
81 62 164
81 63 163
82 63 163
82 64 162
83 65 162
83 65 161
84 66 161
84 67 160
85 67 159
85 68 159
86 69 158
86 69 158
86 70 157
87 70 157
87 71 156
88 72 156
88 72 155
89 73 155
89 74 154
90 74 153
90 75 153
91 76 152
91 76 152
91 77 151
92 77 151
92 78 150
93 79 150
93 79 149
94 80 149
94 81 148
95 81 147
95 82 147
96 83 146
96 83 146
96 84 145
97 85 145
97 85 144
98 86 144
98 86 143
99 87 143
99 88 142
100 88 141
100 89 141
101 90 140
101 90 140
101 91 139
102 92 139
102 92 138
103 93 138
103 93 137
104 94 137
104 95 136
105 95 135
105 96 135
105 97 134
106 97 134
106 98 133
107 99 133
107 99 132
108 100 132
108 100 131
109 101 131
109 102 130
110 102 129
110 103 129
110 104 128
111 104 128
111 105 127
112 106 127
112 106 126
113 107 126
113 108 125
114 108 125
114 109 124
115 109 123
115 110 123
115 111 122
116 111 122
116 112 121
117 113 121
117 113 120
118 114 120
118 115 119
119 115 119
119 116 118
120 116 117
120 117 117
120 118 116
121 118 116
121 119 115
122 120 115
122 120 114
123 121 114
123 122 113
124 122 113
124 123 112
125 123 111
125 124 111
125 125 110
126 125 110
126 126 109
127 127 109
127 127 108
128 128 108
128 129 107
129 129 107
129 130 106
129 131 105
130 131 105
130 132 104
131 132 104
131 133 103
132 134 103
132 134 102
133 135 102
133 136 101
134 136 101
134 137 100
134 138 99
135 138 99
135 139 98
136 139 98
136 140 97
137 141 97
137 141 96
138 142 96
138 143 95
139 143 94
139 144 94
139 145 93
140 145 93
140 146 92
141 146 92
141 147 91
142 148 91
142 148 90
143 149 90
143 150 89
144 150 88
144 151 88
144 152 87
145 152 87
145 153 86
146 154 86
146 154 85
147 155 85
147 155 84
148 156 84
148 157 83
149 157 82
149 158 82
149 159 81
150 159 81
150 160 80
151 161 80
151 161 79
152 162 79
152 162 78
153 163 78
153 164 77
153 164 76
154 165 76
154 166 75
155 166 75
155 167 74
156 168 74
156 168 73
157 169 73
157 170 72
158 170 72
158 171 71
158 171 70
159 172 70
159 173 69
160 173 69
160 174 68
161 175 68
161 175 67
162 176 67
162 177 66
163 177 66
163 178 65
163 178 64
164 179 64
164 180 63
165 180 63
165 181 62
166 182 62
166 182 61
167 183 61
167 184 60
168 184 60
168 185 59
168 185 58
169 186 58
169 187 57
170 187 57
170 188 56
171 189 56
171 189 55
172 190 55
172 191 54
173 191 54
173 192 53
173 193 52
174 193 52
174 194 51
175 194 51
175 195 50
176 196 50
176 196 49
177 197 49
177 198 48
177 198 48
178 199 47
178 200 46
179 200 46
179 201 45
180 201 45
180 202 44
181 203 44
181 203 43
182 204 43
182 205 42
182 205 42
183 206 41
183 207 40
184 207 40
184 208 39
185 208 39
185 209 38
186 210 38
186 210 37
187 211 37
187 212 36
187 212 36
188 213 35
188 214 34
189 214 34
189 215 33
190 216 33
190 216 32
191 217 32
191 217 31
192 218 31
192 219 30
192 219 30
193 220 29
193 221 28
194 221 28
194 222 27
195 223 27
195 223 26
196 224 26
196 224 25
197 225 25
197 226 24
197 226 24
198 227 23
198 228 22
199 228 22
199 229 21
200 230 21
200 230 20
201 231 20
201 231 19
201 232 19
202 233 18
202 233 18
203 234 17
203 235 16
204 235 16
204 236 15
205 237 15
205 237 14
206 238 14
206 239 13
206 239 13
207 240 12
207 240 12
208 241 11
208 242 10
209 242 10
209 243 9
210 244 9
210 244 8
211 245 8
211 246 7
211 246 7
212 247 6
212 247 6
213 248 5
213 249 4
214 249 4
214 250 3
215 251 3
215 251 2
216 252 2
216 253 1
216 253 1
217 254 0
217 255 0
38 0 216
38 0 216
39 1 215
39 1 214
40 2 214
40 3 213
41 3 213
41 4 212
42 5 212
42 5 211
42 6 211
43 7 210
43 7 210
44 8 209
44 8 208
45 9 208
45 10 207
46 10 207
46 11 206
46 12 206
47 12 205
47 13 205
48 14 204
48 14 204
49 15 203
49 15 202
50 16 202
50 17 201
50 17 201
51 18 200
51 19 200
52 19 199
52 20 199
53 21 198
53 21 198
54 22 197
54 23 197
54 23 196
55 24 195
55 24 195
56 25 194
56 26 194
57 26 193
57 27 193
58 28 192
58 28 192
58 29 191
59 30 191
59 30 190
60 31 189
60 31 189
61 32 188
61 33 188
62 33 187
62 34 187
62 35 186
63 35 186
63 36 185
64 37 185
64 37 184
65 38 183
65 38 183
66 39 182
66 40 182
67 40 181
67 41 181
67 42 180
68 42 180
68 43 179
69 44 179
69 44 178
70 45 178
70 46 177
71 46 176
71 47 176
71 47 175
72 48 175
72 49 174
73 49 174
73 50 173
74 51 173
74 51 172
75 52 172
75 53 171
75 53 170
76 54 170
76 54 169
77 55 169
77 56 168
78 56 168
78 57 167
79 58 167
79 58 166
79 59 166
80 60 165
80 60 164
81 61 164
81 61 163
82 62 163
82 63 162
83 63 162
83 64 161
83 65 161
84 65 160
84 66 160
85 67 159
85 67 159
86 68 158
86 69 157
87 69 157
87 70 156
87 70 156
88 71 155
88 72 155
89 72 154
89 73 154
90 74 153
90 74 153
91 75 152
91 76 151
92 76 151
92 77 150
92 77 150
93 78 149
93 79 149
94 79 148
94 80 148
95 81 147
95 81 147
96 82 146
96 83 146
96 83 145
97 84 144
97 85 144
98 85 143
98 86 143
99 86 142
99 87 142
100 88 141
100 88 141
100 89 140
101 90 140
101 90 139
102 91 138
102 92 138
103 92 137
103 93 137
104 93 136
104 94 136
104 95 135
105 95 135
105 96 134
106 97 134
106 97 133
107 98 132
107 99 132
108 99 131
108 100 131
108 100 130
109 101 130
109 102 129
110 102 129
110 103 128
111 104 128
111 104 127
112 105 127
112 106 126
112 106 125
113 107 125
113 108 124
114 108 124
114 109 123
115 109 123
115 110 122
116 111 122
116 111 121
117 112 121
117 113 120
117 113 119
118 114 119
118 115 118
119 115 118
119 116 117
120 116 117
120 117 116
121 118 116
121 118 115
121 119 115
122 120 114
122 120 113
123 121 113
123 122 112
124 122 112
124 123 111
125 123 111
125 124 110
125 125 110
126 125 109
126 126 109
127 127 108
127 127 108
128 128 107
128 129 106
129 129 106
129 130 105
129 131 105
130 131 104
130 132 104
131 132 103
131 133 103
132 134 102
132 134 102
133 135 101
133 136 100
133 136 100
134 137 99
134 138 99
135 138 98
135 139 98
136 139 97
136 140 97
137 141 96
137 141 96
137 142 95
138 143 94
138 143 94
139 144 93
139 145 93
140 145 92
140 146 92
141 146 91
141 147 91
142 148 90
142 148 90
142 149 89
143 150 89
143 150 88
144 151 87
144 152 87
145 152 86
145 153 86
146 154 85
146 154 85
146 155 84
147 155 84
147 156 83
148 157 83
148 157 82
149 158 81
149 159 81
150 159 80
150 160 80
150 161 79
151 161 79
151 162 78
152 162 78
152 163 77
153 164 77
153 164 76
154 165 75
154 166 75
154 166 74
155 167 74
155 168 73
156 168 73
156 169 72
157 170 72
157 170 71
158 171 71
158 171 70
158 172 70
159 173 69
159 173 68
160 174 68
160 175 67
161 175 67
161 176 66
162 177 66
162 177 65
162 178 65
163 178 64
163 179 64
164 180 63
164 180 62
165 181 62
165 182 61
166 182 61
166 183 60
167 184 60
167 184 59
167 185 59
168 185 58
168 186 58
169 187 57
169 187 56
170 188 56
170 189 55
171 189 55
171 190 54
171 191 54
172 191 53
172 192 53
173 193 52
173 193 52
174 194 51
174 194 51
175 195 50
175 196 49
175 196 49
176 197 48
176 198 48
177 198 47
177 199 47
178 200 46
178 200 46
179 201 45
179 201 45
179 202 44
180 203 43
180 203 43
181 204 42
181 205 42
182 205 41
182 206 41
183 207 40
183 207 40
183 208 39
184 208 39
184 209 38
185 210 37
185 210 37
186 211 36
186 212 36
187 212 35
187 213 35
187 214 34
188 214 34
188 215 33
189 216 33
189 216 32
190 217 32
190 217 31
191 218 30
191 219 30
192 219 29
192 220 29
192 221 28
193 221 28
193 222 27
194 223 27
194 223 26
195 224 26
195 224 25
196 225 24
196 226 24
196 226 23
197 227 23
197 228 22
198 228 22
198 229 21
199 230 21
199 230 20
200 231 20
200 231 19
200 232 18
201 233 18
201 233 17
202 234 17
202 235 16
203 235 16
203 236 15
204 237 15
204 237 14
204 238 14
205 239 13
205 239 13
206 240 12
206 240 11
207 241 11
207 242 10
208 242 10
208 243 9
208 244 9
209 244 8
209 245 8
210 246 7
210 246 7
211 247 6
211 247 5
212 248 5
212 249 4
212 249 4
213 250 3
213 251 3
214 251 2
214 252 2
215 253 1
215 253 1
216 254 0
216 255 0
39 0 215
40 0 214
40 1 214
41 1 213
41 2 213
41 3 212
42 3 212
42 4 211
43 5 210
43 5 210
44 6 209
44 7 209
45 7 208
45 8 208
45 8 207
46 9 207
46 10 206
47 10 206
47 11 205
48 12 205
48 12 204
48 13 203
49 14 203
49 14 202
50 15 202
50 15 201
51 16 201
51 17 200
52 17 200
52 18 199
52 19 199
53 19 198
53 20 198
54 21 197
54 21 196
55 22 196
55 23 195
56 23 195
56 24 194
56 24 194
57 25 193
57 26 193
58 26 192
58 27 192
59 28 191
59 28 190
59 29 190
60 30 189
60 30 189
61 31 188
61 31 188
62 32 187
62 33 187
63 33 186
63 34 186
63 35 185
64 35 185
64 36 184
65 37 183
65 37 183
66 38 182
66 38 182
67 39 181
67 40 181
67 40 180
68 41 180
68 42 179
69 42 179
69 43 178
70 44 178
70 44 177
70 45 176
71 46 176
71 46 175
72 47 175
72 47 174
73 48 174
73 49 173
74 49 173
74 50 172
74 51 172
75 51 171
75 52 171
76 53 170
76 53 169
77 54 169
77 54 168
78 55 168
78 56 167
78 56 167
79 57 166
79 58 166
80 58 165
80 59 165
81 60 164
81 60 164
81 61 163
82 61 162
82 62 162
83 63 161
83 63 161
84 64 160
84 65 160
85 65 159
85 66 159
85 67 158
86 67 158
86 68 157
87 69 157
87 69 156
88 70 155
88 70 155
89 71 154
89 72 154
89 72 153
90 73 153
90 74 152
91 74 152
91 75 151
92 76 151
92 76 150
92 77 149
93 77 149
93 78 148
94 79 148
94 79 147
95 80 147
95 81 146
96 81 146
96 82 145
96 83 145
97 83 144
97 84 144
98 85 143
98 85 142
99 86 142
99 86 141
100 87 141
100 88 140
100 88 140
101 89 139
101 90 139
102 90 138
102 91 138
103 92 137
103 92 137
103 93 136
104 93 135
104 94 135
105 95 134
105 95 134
106 96 133
106 97 133
107 97 132
107 98 132
107 99 131
108 99 131
108 100 130
109 100 130
109 101 129
110 102 128
110 102 128
111 103 127
111 104 127
111 104 126
112 105 126
112 106 125
113 106 125
113 107 124
114 108 124
114 108 123
114 109 123
115 109 122
115 110 121
116 111 121
116 111 120
117 112 120
117 113 119
118 113 119
118 114 118
118 115 118
119 115 117
119 116 117
120 116 116
120 117 116
121 118 115
121 118 114
122 119 114
122 120 113
122 120 113
123 121 112
123 122 112
124 122 111
124 123 111
125 123 110
125 124 110
125 125 109
126 125 108
126 126 108
127 127 107
127 127 107
128 128 106
128 129 106
129 129 105
129 130 105
129 131 104
130 131 104
130 132 103
131 132 103
131 133 102
132 134 101
132 134 101
132 135 100
133 136 100
133 136 99
134 137 99
134 138 98
135 138 98
135 139 97
136 139 97
136 140 96
136 141 96
137 141 95
137 142 94
138 143 94
138 143 93
139 144 93
139 145 92
140 145 92
140 146 91
140 146 91
141 147 90
141 148 90
142 148 89
142 149 89
143 150 88
143 150 87
143 151 87
144 152 86
144 152 86
145 153 85
145 154 85
146 154 84
146 155 84
147 155 83
147 156 83
147 157 82
148 157 82
148 158 81
149 159 80
149 159 80
150 160 79
150 161 79
151 161 78
151 162 78
151 162 77
152 163 77
152 164 76
153 164 76
153 165 75
154 166 74
154 166 74
154 167 73
155 168 73
155 168 72
156 169 72
156 170 71
157 170 71
157 171 70
158 171 70
158 172 69
158 173 69
159 173 68
159 174 67
160 175 67
160 175 66
161 176 66
161 177 65
162 177 65
162 178 64
162 178 64
163 179 63
163 180 63
164 180 62
164 181 62
165 182 61
165 182 60
165 183 60
166 184 59
166 184 59
167 185 58
167 185 58
168 186 57
168 187 57
169 187 56
169 188 56
169 189 55
170 189 55
170 190 54
171 191 53
171 191 53
172 192 52
172 193 52
173 193 51
173 194 51
173 194 50
174 195 50
174 196 49
175 196 49
175 197 48
176 198 48
176 198 47
176 199 46
177 200 46
177 200 45
178 201 45
178 201 44
179 202 44
179 203 43
180 203 43
180 204 42
180 205 42
181 205 41
181 206 41
182 207 40
182 207 39
183 208 39
183 208 38
184 209 38
184 210 37
184 210 37
185 211 36
185 212 36
186 212 35
186 213 35
187 214 34
187 214 33
187 215 33
188 216 32
188 216 32
189 217 31
189 217 31
190 218 30
190 219 30
191 219 29
191 220 29
191 221 28
192 221 28
192 222 27
193 223 26
193 223 26
194 224 25
194 224 25
195 225 24
195 226 24
195 226 23
196 227 23
196 228 22
197 228 22
197 229 21
198 230 21
198 230 20
198 231 19
199 231 19
199 232 18
200 233 18
200 233 17
201 234 17
201 235 16
202 235 16
202 236 15
202 237 15
203 237 14
203 238 14
204 239 13
204 239 12
205 240 12
205 240 11
206 241 11
206 242 10
206 242 10
207 243 9
207 244 9
208 244 8
208 245 8
209 246 7
209 246 7
209 247 6
210 247 5
210 248 5
211 249 4
211 249 4
212 250 3
212 251 3
213 251 2
213 252 2
213 253 1
214 253 1
214 254 0
215 255 0
41 0 213
41 0 213
41 1 212
42 1 212
42 2 211
43 3 211
43 3 210
44 4 210
44 5 209
44 5 209
45 6 208
45 7 208
46 7 207
46 8 207
47 8 206
47 9 205
47 10 205
48 10 204
48 11 204
49 12 203
49 12 203
50 13 202
50 14 202
50 14 201
51 15 201
51 15 200
52 16 200
52 17 199
53 17 198
53 18 198
54 19 197
54 19 197
54 20 196
55 21 196
55 21 195
56 22 195
56 23 194
57 23 194
57 24 193
57 24 193
58 25 192
58 26 192
59 26 191
59 27 190
60 28 190
60 28 189
60 29 189
61 30 188
61 30 188
62 31 187
62 31 187
63 32 186
63 33 186
63 33 185
64 34 185
64 35 184
65 35 183
65 36 183
66 37 182
66 37 182
67 38 181
67 38 181
67 39 180
68 40 180
68 40 179
69 41 179
69 42 178
70 42 178
70 43 177
70 44 176
71 44 176
71 45 175
72 46 175
72 46 174
73 47 174
73 47 173
73 48 173
74 49 172
74 49 172
75 50 171
75 51 171
76 51 170
76 52 170
76 53 169
77 53 168
77 54 168
78 54 167
78 55 167
79 56 166
79 56 166
80 57 165
80 58 165
80 58 164
81 59 164
81 60 163
82 60 163
82 61 162
83 61 161
83 62 161
83 63 160
84 63 160
84 64 159
85 65 159
85 65 158
86 66 158
86 67 157
86 67 157
87 68 156
87 69 156
88 69 155
88 70 154
89 70 154
89 71 153
89 72 153
90 72 152
90 73 152
91 74 151
91 74 151
92 75 150
92 76 150
93 76 149
93 77 149
93 77 148
94 78 148
94 79 147
95 79 146
95 80 146
96 81 145
96 81 145
96 82 144
97 83 144
97 83 143
98 84 143
98 85 142
99 85 142
99 86 141
99 86 141
100 87 140
100 88 139
101 88 139
101 89 138
102 90 138
102 90 137
103 91 137
103 92 136
103 92 136
104 93 135
104 93 135
105 94 134
105 95 134
106 95 133
106 96 133
106 97 132
107 97 131
107 98 131
108 99 130
108 99 130
109 100 129
109 100 129
109 101 128
110 102 128
110 102 127
111 103 127
111 104 126
112 104 126
112 105 125
112 106 124
113 106 124
113 107 123
114 108 123
114 108 122
115 109 122
115 109 121
116 110 121
116 111 120
116 111 120
117 112 119
117 113 119
118 113 118
118 114 117
119 115 117
119 115 116
119 116 116
120 116 115
120 117 115
121 118 114
121 118 114
122 119 113
122 120 113
122 120 112
123 121 112
123 122 111
124 122 111
124 123 110
125 123 109
125 124 109
125 125 108
126 125 108
126 126 107
127 127 107
127 127 106
128 128 106
128 129 105
129 129 105
129 130 104
129 131 104
130 131 103
130 132 102
131 132 102
131 133 101
132 134 101
132 134 100
132 135 100
133 136 99
133 136 99
134 137 98
134 138 98
135 138 97
135 139 97
135 139 96
136 140 96
136 141 95
137 141 94
137 142 94
138 143 93
138 143 93
138 144 92
139 145 92
139 145 91
140 146 91
140 146 90
141 147 90
141 148 89
142 148 89
142 149 88
142 150 87
143 150 87
143 151 86
144 152 86
144 152 85
145 153 85
145 154 84
145 154 84
146 155 83
146 155 83
147 156 82
147 157 82
148 157 81
148 158 80
148 159 80
149 159 79
149 160 79
150 161 78
150 161 78
151 162 77
151 162 77
151 163 76
152 164 76
152 164 75
153 165 75
153 166 74
154 166 74
154 167 73
155 168 72
155 168 72
155 169 71
156 170 71
156 170 70
157 171 70
157 171 69
158 172 69
158 173 68
158 173 68
159 174 67
159 175 67
160 175 66
160 176 65
161 177 65
161 177 64
161 178 64
162 178 63
162 179 63
163 180 62
163 180 62
164 181 61
164 182 61
165 182 60
165 183 60
165 184 59
166 184 58
166 185 58
167 185 57
167 186 57
168 187 56
168 187 56
168 188 55
169 189 55
169 189 54
170 190 54
170 191 53
171 191 53
171 192 52
171 193 52
172 193 51
172 194 50
173 194 50
173 195 49
174 196 49
174 196 48
174 197 48
175 198 47
175 198 47
176 199 46
176 200 46
177 200 45
177 201 45
178 201 44
178 202 43
178 203 43
179 203 42
179 204 42
180 205 41
180 205 41
181 206 40
181 207 40
181 207 39
182 208 39
182 208 38
183 209 38
183 210 37
184 210 37
184 211 36
184 212 35
185 212 35
185 213 34
186 214 34
186 214 33
187 215 33
187 216 32
187 216 32
188 217 31
188 217 31
189 218 30
189 219 30
190 219 29
190 220 28
191 221 28
191 221 27
191 222 27
192 223 26
192 223 26
193 224 25
193 224 25
194 225 24
194 226 24
194 226 23
195 227 23
195 228 22
196 228 21
196 229 21
197 230 20
197 230 20
197 231 19
198 231 19
198 232 18
199 233 18
199 233 17
200 234 17
200 235 16
200 235 16
201 236 15
201 237 15
202 237 14
202 238 13
203 239 13
203 239 12
204 240 12
204 240 11
204 241 11
205 242 10
205 242 10
206 243 9
206 244 9
207 244 8
207 245 8
207 246 7
208 246 6
208 247 6
209 247 5
209 248 5
210 249 4
210 249 4
210 250 3
211 251 3
211 251 2
212 252 2
212 253 1
213 253 1
213 254 0
213 255 0
42 0 212
42 0 212
43 1 211
43 1 211
43 2 210
44 3 210
44 3 209
45 4 208
45 5 208
46 5 207
46 6 207
46 7 206
47 7 206
47 8 205
48 8 205
48 9 204
49 10 204
49 10 203
49 11 203
50 12 202
50 12 202
51 13 201
51 14 200
52 14 200
52 15 199
52 15 199
53 16 198
53 17 198
54 17 197
54 18 197
55 19 196
55 19 196
55 20 195
56 21 195
56 21 194
57 22 194
57 23 193
58 23 192
58 24 192
58 24 191
59 25 191
59 26 190
60 26 190
60 27 189
61 28 189
61 28 188
61 29 188
62 30 187
62 30 187
63 31 186
63 31 186
64 32 185
64 33 184
64 33 184
65 34 183
65 35 183
66 35 182
66 36 182
67 37 181
67 37 181
67 38 180
68 38 180
68 39 179
69 40 179
69 40 178
70 41 178
70 42 177
70 42 176
71 43 176
71 44 175
72 44 175
72 45 174
73 46 174
73 46 173
73 47 173
74 47 172
74 48 172
75 49 171
75 49 171
76 50 170
76 51 170
76 51 169
77 52 168
77 53 168
78 53 167
78 54 167
79 54 166
79 55 166
79 56 165
80 56 165
80 57 164
81 58 164
81 58 163
82 59 163
82 60 162
82 60 162
83 61 161
83 61 161
84 62 160
84 63 159
85 63 159
85 64 158
85 65 158
86 65 157
86 66 157
87 67 156
87 67 156
87 68 155
88 69 155
88 69 154
89 70 154
89 70 153
90 71 153
90 72 152
90 72 151
91 73 151
91 74 150
92 74 150
92 75 149
93 76 149
93 76 148
93 77 148
94 77 147
94 78 147
95 79 146
95 79 146
96 80 145
96 81 145
96 81 144
97 82 143
97 83 143
98 83 142
98 84 142
99 85 141
99 85 141
99 86 140
100 86 140
100 87 139
101 88 139
101 88 138
102 89 138
102 90 137
102 90 137
103 91 136
103 92 135
104 92 135
104 93 134
105 93 134
105 94 133
105 95 133
106 95 132
106 96 132
107 97 131
107 97 131
108 98 130
108 99 130
108 99 129
109 100 129
109 100 128
110 101 127
110 102 127
111 102 126
111 103 126
111 104 125
112 104 125
112 105 124
113 106 124
113 106 123
114 107 123
114 108 122
114 108 122
115 109 121
115 109 121
116 110 120
116 111 119
117 111 119
117 112 118
117 113 118
118 113 117
118 114 117
119 115 116
119 115 116
120 116 115
120 116 115
120 117 114
121 118 114
121 118 113
122 119 113
122 120 112
123 120 111
123 121 111
123 122 110
124 122 110
124 123 109
125 123 109
125 124 108
126 125 108
126 125 107
126 126 107
127 127 106
127 127 106
128 128 105
128 129 105
128 129 104
129 130 103
129 131 103
130 131 102
130 132 102
131 132 101
131 133 101
131 134 100
132 134 100
132 135 99
133 136 99
133 136 98
134 137 98
134 138 97
134 138 97
135 139 96
135 139 95
136 140 95
136 141 94
137 141 94
137 142 93
137 143 93
138 143 92
138 144 92
139 145 91
139 145 91
140 146 90
140 146 90
140 147 89
141 148 89
141 148 88
142 149 87
142 150 87
143 150 86
143 151 86
143 152 85
144 152 85
144 153 84
145 154 84
145 154 83
146 155 83
146 155 82
146 156 82
147 157 81
147 157 81
148 158 80
148 159 79
149 159 79
149 160 78
149 161 78
150 161 77
150 162 77
151 162 76
151 163 76
152 164 75
152 164 75
152 165 74
153 166 74
153 166 73
154 167 73
154 168 72
155 168 71
155 169 71
155 170 70
156 170 70
156 171 69
157 171 69
157 172 68
158 173 68
158 173 67
158 174 67
159 175 66
159 175 66
160 176 65
160 177 65
161 177 64
161 178 63
161 178 63
162 179 62
162 180 62
163 180 61
163 181 61
164 182 60
164 182 60
164 183 59
165 184 59
165 184 58
166 185 58
166 185 57
167 186 57
167 187 56
167 187 55
168 188 55
168 189 54
169 189 54
169 190 53
169 191 53
170 191 52
170 192 52
171 193 51
171 193 51
172 194 50
172 194 50
172 195 49
173 196 49
173 196 48
174 197 47
174 198 47
175 198 46
175 199 46
175 200 45
176 200 45
176 201 44
177 201 44
177 202 43
178 203 43
178 203 42
178 204 42
179 205 41
179 205 41
180 206 40
180 207 39
181 207 39
181 208 38
181 208 38
182 209 37
182 210 37
183 210 36
183 211 36
184 212 35
184 212 35
184 213 34
185 214 34
185 214 33
186 215 33
186 216 32
187 216 31
187 217 31
187 217 30
188 218 30
188 219 29
189 219 29
189 220 28
190 221 28
190 221 27
190 222 27
191 223 26
191 223 26
192 224 25
192 224 25
193 225 24
193 226 23
193 226 23
194 227 22
194 228 22
195 228 21
195 229 21
196 230 20
196 230 20
196 231 19
197 231 19
197 232 18
198 233 18
198 233 17
199 234 17
199 235 16
199 235 15
200 236 15
200 237 14
201 237 14
201 238 13
202 239 13
202 239 12
202 240 12
203 240 11
203 241 11
204 242 10
204 242 10
205 243 9
205 244 9
205 244 8
206 245 7
206 246 7
207 246 6
207 247 6
208 247 5
208 248 5
208 249 4
209 249 4
209 250 3
210 251 3
210 251 2
211 252 2
211 253 1
211 253 1
212 254 0
212 255 0
43 0 211
43 0 210
44 1 210
44 1 209
45 2 209
45 3 208
46 3 208
46 4 207
46 5 207
47 5 206
47 6 206
48 7 205
48 7 205
49 8 204
49 8 204
49 9 203
50 10 202
50 10 202
51 11 201
51 12 201
51 12 200
52 13 200
52 14 199
53 14 199
53 15 198
54 15 198
54 16 197
54 17 197
55 17 196
55 18 196
56 19 195
56 19 195
57 20 194
57 21 193
57 21 193
58 22 192
58 23 192
59 23 191
59 24 191
59 24 190
60 25 190
60 26 189
61 26 189
61 27 188
62 28 188
62 28 187
62 29 187
63 30 186
63 30 185
64 31 185
64 31 184
65 32 184
65 33 183
65 33 183
66 34 182
66 35 182
67 35 181
67 36 181
67 37 180
68 37 180
68 38 179
69 38 179
69 39 178
70 40 178
70 40 177
70 41 176
71 42 176
71 42 175
72 43 175
72 44 174
73 44 174
73 45 173
73 46 173
74 46 172
74 47 172
75 47 171
75 48 171
75 49 170
76 49 170
76 50 169
77 51 169
77 51 168
78 52 167
78 53 167
78 53 166
79 54 166
79 54 165
80 55 165
80 56 164
81 56 164
81 57 163
81 58 163
82 58 162
82 59 162
83 60 161
83 60 161
83 61 160
84 61 160
84 62 159
85 63 158
85 63 158
86 64 157
86 65 157
86 65 156
87 66 156
87 67 155
88 67 155
88 68 154
89 69 154
89 69 153
89 70 153
90 70 152
90 71 152
91 72 151
91 72 151
91 73 150
92 74 149
92 74 149
93 75 148
93 76 148
94 76 147
94 77 147
94 77 146
95 78 146
95 79 145
96 79 145
96 80 144
96 81 144
97 81 143
97 82 143
98 83 142
98 83 142
99 84 141
99 85 140
99 85 140
100 86 139
100 86 139
101 87 138
101 88 138
102 88 137
102 89 137
102 90 136
103 90 136
103 91 135
104 92 135
104 92 134
104 93 134
105 93 133
105 94 133
106 95 132
106 95 131
107 96 131
107 97 130
107 97 130
108 98 129
108 99 129
109 99 128
109 100 128
110 100 127
110 101 127
110 102 126
111 102 126
111 103 125
112 104 125
112 104 124
112 105 123
113 106 123
113 106 122
114 107 122
114 108 121
115 108 121
115 109 120
115 109 120
116 110 119
116 111 119
117 111 118
117 112 118
118 113 117
118 113 117
118 114 116
119 115 116
119 115 115
120 116 114
120 116 114
120 117 113
121 118 113
121 118 112
122 119 112
122 120 111
123 120 111
123 121 110
123 122 110
124 122 109
124 123 109
125 123 108
125 124 108
126 125 107
126 125 107
126 126 106
127 127 105
127 127 105
128 128 104
128 129 104
128 129 103
129 130 103
129 131 102
130 131 102
130 132 101
131 132 101
131 133 100
131 134 100
132 134 99
132 135 99
133 136 98
133 136 98
134 137 97
134 138 96
134 138 96
135 139 95
135 139 95
136 140 94
136 141 94
136 141 93
137 142 93
137 143 92
138 143 92
138 144 91
139 145 91
139 145 90
139 146 90
140 146 89
140 147 89
141 148 88
141 148 87
142 149 87
142 150 86
142 150 86
143 151 85
143 152 85
144 152 84
144 153 84
144 154 83
145 154 83
145 155 82
146 155 82
146 156 81
147 157 81
147 157 80
147 158 80
148 159 79
148 159 78
149 160 78
149 161 77
150 161 77
150 162 76
150 162 76
151 163 75
151 164 75
152 164 74
152 165 74
152 166 73
153 166 73
153 167 72
154 168 72
154 168 71
155 169 71
155 170 70
155 170 69
156 171 69
156 171 68
157 172 68
157 173 67
158 173 67
158 174 66
158 175 66
159 175 65
159 176 65
160 177 64
160 177 64
160 178 63
161 178 63
161 179 62
162 180 61
162 180 61
163 181 60
163 182 60
163 182 59
164 183 59
164 184 58
165 184 58
165 185 57
165 185 57
166 186 56
166 187 56
167 187 55
167 188 55
168 189 54
168 189 54
168 190 53
169 191 52
169 191 52
170 192 51
170 193 51
171 193 50
171 194 50
171 194 49
172 195 49
172 196 48
173 196 48
173 197 47
173 198 47
174 198 46
174 199 46
175 200 45
175 200 45
176 201 44
176 201 43
176 202 43
177 203 42
177 203 42
178 204 41
178 205 41
179 205 40
179 206 40
179 207 39
180 207 39
180 208 38
181 208 38
181 209 37
181 210 37
182 210 36
182 211 36
183 212 35
183 212 34
184 213 34
184 214 33
184 214 33
185 215 32
185 216 32
186 216 31
186 217 31
187 217 30
187 218 30
187 219 29
188 219 29
188 220 28
189 221 28
189 221 27
189 222 27
190 223 26
190 223 25
191 224 25
191 224 24
192 225 24
192 226 23
192 226 23
193 227 22
193 228 22
194 228 21
194 229 21
195 230 20
195 230 20
195 231 19
196 231 19
196 232 18
197 233 18
197 233 17
197 234 16
198 235 16
198 235 15
199 236 15
199 237 14
200 237 14
200 238 13
200 239 13
201 239 12
201 240 12
202 240 11
202 241 11
203 242 10
203 242 10
203 243 9
204 244 9
204 244 8
205 245 7
205 246 7
205 246 6
206 247 6
206 247 5
207 248 5
207 249 4
208 249 4
208 250 3
208 251 3
209 251 2
209 252 2
210 253 1
210 253 1
211 254 0
211 255 0
44 0 210
45 0 209
45 1 209
46 1 208
46 2 208
46 3 207
47 3 206
47 4 206
48 5 205
48 5 205
48 6 204
49 7 204
49 7 203
50 8 203
50 8 202
51 9 202
51 10 201
51 10 201
52 11 200
52 12 200
53 12 199
53 13 199
53 14 198
54 14 198
54 15 197
55 15 196
55 16 196
56 17 195
56 17 195
56 18 194
57 19 194
57 19 193
58 20 193
58 21 192
58 21 192
59 22 191
59 23 191
60 23 190
60 24 190
61 24 189
61 25 189
61 26 188
62 26 188
62 27 187
63 28 186
63 28 186
63 29 185
64 30 185
64 30 184
65 31 184
65 31 183
65 32 183
66 33 182
66 33 182
67 34 181
67 35 181
68 35 180
68 36 180
68 37 179
69 37 179
69 38 178
70 38 178
70 39 177
70 40 176
71 40 176
71 41 175
72 42 175
72 42 174
73 43 174
73 44 173
73 44 173
74 45 172
74 46 172
75 46 171
75 47 171
75 47 170
76 48 170
76 49 169
77 49 169
77 50 168
77 51 168
78 51 167
78 52 166
79 53 166
79 53 165
80 54 165
80 54 164
80 55 164
81 56 163
81 56 163
82 57 162
82 58 162
82 58 161
83 59 161
83 60 160
84 60 160
84 61 159
85 61 159
85 62 158
85 63 158
86 63 157
86 64 156
87 65 156
87 65 155
87 66 155
88 67 154
88 67 154
89 68 153
89 69 153
90 69 152
90 70 152
90 70 151
91 71 151
91 72 150
92 72 150
92 73 149
92 74 149
93 74 148
93 75 148
94 76 147
94 76 146
94 77 146
95 77 145
95 78 145
96 79 144
96 79 144
97 80 143
97 81 143
97 81 142
98 82 142
98 83 141
99 83 141
99 84 140
99 85 140
100 85 139
100 86 139
101 86 138
101 87 137
102 88 137
102 88 136
102 89 136
103 90 135
103 90 135
104 91 134
104 92 134
104 92 133
105 93 133
105 93 132
106 94 132
106 95 131
106 95 131
107 96 130
107 97 130
108 97 129
108 98 129
109 99 128
109 99 127
109 100 127
110 100 126
110 101 126
111 102 125
111 102 125
111 103 124
112 104 124
112 104 123
113 105 123
113 106 122
114 106 122
114 107 121
114 108 121
115 108 120
115 109 120
116 109 119
116 110 119
116 111 118
117 111 117
117 112 117
118 113 116
118 113 116
119 114 115
119 115 115
119 115 114
120 116 114
120 116 113
121 117 113
121 118 112
121 118 112
122 119 111
122 120 111
123 120 110
123 121 110
123 122 109
124 122 109
124 123 108
125 123 107
125 124 107
126 125 106
126 125 106
126 126 105
127 127 105
127 127 104
128 128 104
128 129 103
128 129 103
129 130 102
129 131 102
130 131 101
130 132 101
131 132 100
131 133 100
131 134 99
132 134 99
132 135 98
133 136 97
133 136 97
133 137 96
134 138 96
134 138 95
135 139 95
135 139 94
135 140 94
136 141 93
136 141 93
137 142 92
137 143 92
138 143 91
138 144 91
138 145 90
139 145 90
139 146 89
140 146 89
140 147 88
140 148 87
141 148 87
141 149 86
142 150 86
142 150 85
143 151 85
143 152 84
143 152 84
144 153 83
144 154 83
145 154 82
145 155 82
145 155 81
146 156 81
146 157 80
147 157 80
147 158 79
148 159 79
148 159 78
148 160 77
149 161 77
149 161 76
150 162 76
150 162 75
150 163 75
151 164 74
151 164 74
152 165 73
152 166 73
152 166 72
153 167 72
153 168 71
154 168 71
154 169 70
155 170 70
155 170 69
155 171 68
156 171 68
156 172 67
157 173 67
157 173 66
157 174 66
158 175 65
158 175 65
159 176 64
159 177 64
160 177 63
160 178 63
160 178 62
161 179 62
161 180 61
162 180 61
162 181 60
162 182 60
163 182 59
163 183 58
164 184 58
164 184 57
164 185 57
165 185 56
165 186 56
166 187 55
166 187 55
167 188 54
167 189 54
167 189 53
168 190 53
168 191 52
169 191 52
169 192 51
169 193 51
170 193 50
170 194 50
171 194 49
171 195 48
172 196 48
172 196 47
172 197 47
173 198 46
173 198 46
174 199 45
174 200 45
174 200 44
175 201 44
175 201 43
176 202 43
176 203 42
177 203 42
177 204 41
177 205 41
178 205 40
178 206 40
179 207 39
179 207 38
179 208 38
180 208 37
180 209 37
181 210 36
181 210 36
181 211 35
182 212 35
182 212 34
183 213 34
183 214 33
184 214 33
184 215 32
184 216 32
185 216 31
185 217 31
186 217 30
186 218 30
186 219 29
187 219 28
187 220 28
188 221 27
188 221 27
189 222 26
189 223 26
189 223 25
190 224 25
190 224 24
191 225 24
191 226 23
191 226 23
192 227 22
192 228 22
193 228 21
193 229 21
193 230 20
194 230 20
194 231 19
195 231 18
195 232 18
196 233 17
196 233 17
196 234 16
197 235 16
197 235 15
198 236 15
198 237 14
198 237 14
199 238 13
199 239 13
200 239 12
200 240 12
201 240 11
201 241 11
201 242 10
202 242 10
202 243 9
203 244 8
203 244 8
203 245 7
204 246 7
204 246 6
205 247 6
205 247 5
206 248 5
206 249 4
206 249 4
207 250 3
207 251 3
208 251 2
208 252 2
208 253 1
209 253 1
209 254 0
210 255 0
46 0 208
46 0 208
46 1 207
47 1 207
47 2 206
48 3 206
48 3 205
48 4 205
49 5 204
49 5 204
50 6 203
50 7 203
51 7 202
51 8 202
51 8 201
52 9 201
52 10 200
53 10 199
53 11 199
53 12 198
54 12 198
54 13 197
55 14 197
55 14 196
55 15 196
56 15 195
56 16 195
57 17 194
57 17 194
57 18 193
58 19 193
58 19 192
59 20 192
59 21 191
59 21 191
60 22 190
60 23 190
61 23 189
61 24 188
62 24 188
62 25 187
62 26 187
63 26 186
63 27 186
64 28 185
64 28 185
64 29 184
65 30 184
65 30 183
66 31 183
66 31 182
66 32 182
67 33 181
67 33 181
68 34 180
68 35 180
68 35 179
69 36 179
69 37 178
70 37 177
70 38 177
71 38 176
71 39 176
71 40 175
72 40 175
72 41 174
73 42 174
73 42 173
73 43 173
74 44 172
74 44 172
75 45 171
75 46 171
75 46 170
76 47 170
76 47 169
77 48 169
77 49 168
77 49 168
78 50 167
78 51 166
79 51 166
79 52 165
79 53 165
80 53 164
80 54 164
81 54 163
81 55 163
82 56 162
82 56 162
82 57 161
83 58 161
83 58 160
84 59 160
84 60 159
84 60 159
85 61 158
85 61 158
86 62 157
86 63 157
86 63 156
87 64 155
87 65 155
88 65 154
88 66 154
88 67 153
89 67 153
89 68 152
90 69 152
90 69 151
90 70 151
91 70 150
91 71 150
92 72 149
92 72 149
93 73 148
93 74 148
93 74 147
94 75 147
94 76 146
95 76 146
95 77 145
95 77 145
96 78 144
96 79 143
97 79 143
97 80 142
97 81 142
98 81 141
98 82 141
99 83 140
99 83 140
99 84 139
100 85 139
100 85 138
101 86 138
101 86 137
102 87 137
102 88 136
102 88 136
103 89 135
103 90 135
104 90 134
104 91 134
104 92 133
105 92 132
105 93 132
106 93 131
106 94 131
106 95 130
107 95 130
107 96 129
108 97 129
108 97 128
108 98 128
109 99 127
109 99 127
110 100 126
110 100 126
110 101 125
111 102 125
111 102 124
112 103 124
112 104 123
113 104 123
113 105 122
113 106 121
114 106 121
114 107 120
115 108 120
115 108 119
115 109 119
116 109 118
116 110 118
117 111 117
117 111 117
117 112 116
118 113 116
118 113 115
119 114 115
119 115 114
119 115 114
120 116 113
120 116 113
121 117 112
121 118 112
121 118 111
122 119 110
122 120 110
123 120 109
123 121 109
124 122 108
124 122 108
124 123 107
125 123 107
125 124 106
126 125 106
126 125 105
126 126 105
127 127 104
127 127 104
128 128 103
128 129 103
128 129 102
129 130 102
129 131 101
130 131 101
130 132 100
130 132 99
131 133 99
131 134 98
132 134 98
132 135 97
133 136 97
133 136 96
133 137 96
134 138 95
134 138 95
135 139 94
135 139 94
135 140 93
136 141 93
136 141 92
137 142 92
137 143 91
137 143 91
138 144 90
138 145 90
139 145 89
139 146 88
139 146 88
140 147 87
140 148 87
141 148 86
141 149 86
141 150 85
142 150 85
142 151 84
143 152 84
143 152 83
144 153 83
144 154 82
144 154 82
145 155 81
145 155 81
146 156 80
146 157 80
146 157 79
147 158 79
147 159 78
148 159 77
148 160 77
148 161 76
149 161 76
149 162 75
150 162 75
150 163 74
150 164 74
151 164 73
151 165 73
152 166 72
152 166 72
152 167 71
153 168 71
153 168 70
154 169 70
154 170 69
155 170 69
155 171 68
155 171 68
156 172 67
156 173 67
157 173 66
157 174 65
157 175 65
158 175 64
158 176 64
159 177 63
159 177 63
159 178 62
160 178 62
160 179 61
161 180 61
161 180 60
161 181 60
162 182 59
162 182 59
163 183 58
163 184 58
164 184 57
164 185 57
164 185 56
165 186 56
165 187 55
166 187 54
166 188 54
166 189 53
167 189 53
167 190 52
168 191 52
168 191 51
168 192 51
169 193 50
169 193 50
170 194 49
170 194 49
170 195 48
171 196 48
171 196 47
172 197 47
172 198 46
172 198 46
173 199 45
173 200 45
174 200 44
174 201 43
175 201 43
175 202 42
175 203 42
176 203 41
176 204 41
177 205 40
177 205 40
177 206 39
178 207 39
178 207 38
179 208 38
179 208 37
179 209 37
180 210 36
180 210 36
181 211 35
181 212 35
181 212 34
182 213 34
182 214 33
183 214 32
183 215 32
183 216 31
184 216 31
184 217 30
185 217 30
185 218 29
186 219 29
186 219 28
186 220 28
187 221 27
187 221 27
188 222 26
188 223 26
188 223 25
189 224 25
189 224 24
190 225 24
190 226 23
190 226 23
191 227 22
191 228 21
192 228 21
192 229 20
192 230 20
193 230 19
193 231 19
194 231 18
194 232 18
195 233 17
195 233 17
195 234 16
196 235 16
196 235 15
197 236 15
197 237 14
197 237 14
198 238 13
198 239 13
199 239 12
199 240 12
199 240 11
200 241 10
200 242 10
201 242 9
201 243 9
201 244 8
202 244 8
202 245 7
203 246 7
203 246 6
203 247 6
204 247 5
204 248 5
205 249 4
205 249 4
206 250 3
206 251 3
206 251 2
207 252 2
207 253 1
208 253 1
208 254 0
208 255 0
47 0 207
47 0 207
48 1 206
48 1 206
49 2 205
49 3 204
49 3 204
50 4 203
50 5 203
51 5 202
51 6 202
51 7 201
52 7 201
52 8 200
53 8 200
53 9 199
53 10 199
54 10 198
54 11 198
55 12 197
55 12 197
55 13 196
56 14 196
56 14 195
57 15 195
57 15 194
57 16 194
58 17 193
58 17 193
59 18 192
59 19 191
59 19 191
60 20 190
60 21 190
61 21 189
61 22 189
61 23 188
62 23 188
62 24 187
63 24 187
63 25 186
63 26 186
64 26 185
64 27 185
65 28 184
65 28 184
65 29 183
66 30 183
66 30 182
67 31 182
67 31 181
67 32 181
68 33 180
68 33 180
69 34 179
69 35 178
69 35 178
70 36 177
70 37 177
71 37 176
71 38 176
71 38 175
72 39 175
72 40 174
73 40 174
73 41 173
73 42 173
74 42 172
74 43 172
75 44 171
75 44 171
75 45 170
76 46 170
76 46 169
77 47 169
77 47 168
77 48 168
78 49 167
78 49 167
79 50 166
79 51 165
79 51 165
80 52 164
80 53 164
81 53 163
81 54 163
81 54 162
82 55 162
82 56 161
83 56 161
83 57 160
83 58 160
84 58 159
84 59 159
85 60 158
85 60 158
85 61 157
86 61 157
86 62 156
87 63 156
87 63 155
87 64 155
88 65 154
88 65 154
89 66 153
89 67 152
89 67 152
90 68 151
90 69 151
91 69 150
91 70 150
91 70 149
92 71 149
92 72 148
93 72 148
93 73 147
93 74 147
94 74 146
94 75 146
95 76 145
95 76 145
95 77 144
96 77 144
96 78 143
97 79 143
97 79 142
97 80 142
98 81 141
98 81 140
99 82 140
99 83 139
100 83 139
100 84 138
100 85 138
101 85 137
101 86 137
102 86 136
102 87 136
102 88 135
103 88 135
103 89 134
104 90 134
104 90 133
104 91 133
105 92 132
105 92 132
106 93 131
106 93 131
106 94 130
107 95 130
107 95 129
108 96 129
108 97 128
108 97 127
109 98 127
109 99 126
110 99 126
110 100 125
110 100 125
111 101 124
111 102 124
112 102 123
112 103 123
112 104 122
113 104 122
113 105 121
114 106 121
114 106 120
114 107 120
115 108 119
115 108 119
116 109 118
116 109 118
116 110 117
117 111 117
117 111 116
118 112 116
118 113 115
118 113 114
119 114 114
119 115 113
120 115 113
120 116 112
120 116 112
121 117 111
121 118 111
122 118 110
122 119 110
122 120 109
123 120 109
123 121 108
124 122 108
124 122 107
124 123 107
125 123 106
125 124 106
126 125 105
126 125 105
126 126 104
127 127 104
127 127 103
128 128 103
128 129 102
128 129 101
129 130 101
129 131 100
130 131 100
130 132 99
130 132 99
131 133 98
131 134 98
132 134 97
132 135 97
132 136 96
133 136 96
133 137 95
134 138 95
134 138 94
134 139 94
135 139 93
135 140 93
136 141 92
136 141 92
136 142 91
137 143 91
137 143 90
138 144 90
138 145 89
138 145 88
139 146 88
139 146 87
140 147 87
140 148 86
140 148 86
141 149 85
141 150 85
142 150 84
142 151 84
142 152 83
143 152 83
143 153 82
144 154 82
144 154 81
144 155 81
145 155 80
145 156 80
146 157 79
146 157 79
146 158 78
147 159 78
147 159 77
148 160 77
148 161 76
148 161 75
149 162 75
149 162 74
150 163 74
150 164 73
150 164 73
151 165 72
151 166 72
152 166 71
152 167 71
152 168 70
153 168 70
153 169 69
154 170 69
154 170 68
154 171 68
155 171 67
155 172 67
156 173 66
156 173 66
157 174 65
157 175 65
157 175 64
158 176 63
158 177 63
159 177 62
159 178 62
159 178 61
160 179 61
160 180 60
161 180 60
161 181 59
161 182 59
162 182 58
162 183 58
163 184 57
163 184 57
163 185 56
164 185 56
164 186 55
165 187 55
165 187 54
165 188 54
166 189 53
166 189 53
167 190 52
167 191 52
167 191 51
168 192 50
168 193 50
169 193 49
169 194 49
169 194 48
170 195 48
170 196 47
171 196 47
171 197 46
171 198 46
172 198 45
172 199 45
173 200 44
173 200 44
173 201 43
174 201 43
174 202 42
175 203 42
175 203 41
175 204 41
176 205 40
176 205 40
177 206 39
177 207 39
177 207 38
178 208 37
178 208 37
179 209 36
179 210 36
179 210 35
180 211 35
180 212 34
181 212 34
181 213 33
181 214 33
182 214 32
182 215 32
183 216 31
183 216 31
183 217 30
184 217 30
184 218 29
185 219 29
185 219 28
185 220 28
186 221 27
186 221 27
187 222 26
187 223 26
187 223 25
188 224 24
188 224 24
189 225 23
189 226 23
189 226 22
190 227 22
190 228 21
191 228 21
191 229 20
191 230 20
192 230 19
192 231 19
193 231 18
193 232 18
193 233 17
194 233 17
194 234 16
195 235 16
195 235 15
195 236 15
196 237 14
196 237 14
197 238 13
197 239 13
197 239 12
198 240 11
198 240 11
199 241 10
199 242 10
199 242 9
200 243 9
200 244 8
201 244 8
201 245 7
201 246 7
202 246 6
202 247 6
203 247 5
203 248 5
203 249 4
204 249 4
204 250 3
205 251 3
205 251 2
205 252 2
206 253 1
206 253 1
207 254 0
207 255 0
48 0 206
49 0 205
49 1 205
49 1 204
50 2 204
50 3 203
51 3 203
51 4 202
51 5 202
52 5 201
52 6 201
53 7 200
53 7 200
53 8 199
54 8 199
54 9 198
55 10 198
55 10 197
55 11 196
56 12 196
56 12 195
56 13 195
57 14 194
57 14 194
58 15 193
58 15 193
58 16 192
59 17 192
59 17 191
60 18 191
60 19 190
60 19 190
61 20 189
61 21 189
62 21 188
62 22 188
62 23 187
63 23 187
63 24 186
64 24 186
64 25 185
64 26 185
65 26 184
65 27 184
66 28 183
66 28 183
66 29 182
67 30 182
67 30 181
68 31 180
68 31 180
68 32 179
69 33 179
69 33 178
70 34 178
70 35 177
70 35 177
71 36 176
71 37 176
71 37 175
72 38 175
72 38 174
73 39 174
73 40 173
73 40 173
74 41 172
74 42 172
75 42 171
75 43 171
75 44 170
76 44 170
76 45 169
77 46 169
77 46 168
77 47 168
78 47 167
78 48 167
79 49 166
79 49 165
79 50 165
80 51 164
80 51 164
81 52 163
81 53 163
81 53 162
82 54 162
82 54 161
83 55 161
83 56 160
83 56 160
84 57 159
84 58 159
85 58 158
85 59 158
85 60 157
86 60 157
86 61 156
87 61 156
87 62 155
87 63 155
88 63 154
88 64 154
88 65 153
89 65 153
89 66 152
90 67 152
90 67 151
90 68 150
91 69 150
91 69 149
92 70 149
92 70 148
92 71 148
93 72 147
93 72 147
94 73 146
94 74 146
94 74 145
95 75 145
95 76 144
96 76 144
96 77 143
96 77 143
97 78 142
97 79 142
98 79 141
98 80 141
98 81 140
99 81 140
99 82 139
100 83 139
100 83 138
100 84 138
101 85 137
101 85 137
102 86 136
102 86 135
102 87 135
103 88 134
103 88 134
103 89 133
104 90 133
104 90 132
105 91 132
105 92 131
105 92 131
106 93 130
106 93 130
107 94 129
107 95 129
107 95 128
108 96 128
108 97 127
109 97 127
109 98 126
109 99 126
110 99 125
110 100 125
111 100 124
111 101 124
111 102 123
112 102 123
112 103 122
113 104 122
113 104 121
113 105 120
114 106 120
114 106 119
115 107 119
115 108 118
115 108 118
116 109 117
116 109 117
117 110 116
117 111 116
117 111 115
118 112 115
118 113 114
119 113 114
119 114 113
119 115 113
120 115 112
120 116 112
120 116 111
121 117 111
121 118 110
122 118 110
122 119 109
122 120 109
123 120 108
123 121 108
124 122 107
124 122 107
124 123 106
125 123 105
125 124 105
126 125 104
126 125 104
126 126 103
127 127 103
127 127 102
128 128 102
128 129 101
128 129 101
129 130 100
129 131 100
130 131 99
130 132 99
130 132 98
131 133 98
131 134 97
132 134 97
132 135 96
132 136 96
133 136 95
133 137 95
134 138 94
134 138 94
134 139 93
135 139 93
135 140 92
135 141 92
136 141 91
136 142 91
137 143 90
137 143 89
137 144 89
138 145 88
138 145 88
139 146 87
139 146 87
139 147 86
140 148 86
140 148 85
141 149 85
141 150 84
141 150 84
142 151 83
142 152 83
143 152 82
143 153 82
143 154 81
144 154 81
144 155 80
145 155 80
145 156 79
145 157 79
146 157 78
146 158 78
147 159 77
147 159 77
147 160 76
148 161 76
148 161 75
149 162 74
149 162 74
149 163 73
150 164 73
150 164 72
151 165 72
151 166 71
151 166 71
152 167 70
152 168 70
152 168 69
153 169 69
153 170 68
154 170 68
154 171 67
154 171 67
155 172 66
155 173 66
156 173 65
156 174 65
156 175 64
157 175 64
157 176 63
158 177 63
158 177 62
158 178 62
159 178 61
159 179 61
160 180 60
160 180 59
160 181 59
161 182 58
161 182 58
162 183 57
162 184 57
162 184 56
163 185 56
163 185 55
164 186 55
164 187 54
164 187 54
165 188 53
165 189 53
166 189 52
166 190 52
166 191 51
167 191 51
167 192 50
167 193 50
168 193 49
168 194 49
169 194 48
169 195 48
169 196 47
170 196 47
170 197 46
171 198 46
171 198 45
171 199 44
172 200 44
172 200 43
173 201 43
173 201 42
173 202 42
174 203 41
174 203 41
175 204 40
175 205 40
175 205 39
176 206 39
176 207 38
177 207 38
177 208 37
177 208 37
178 209 36
178 210 36
179 210 35
179 211 35
179 212 34
180 212 34
180 213 33
181 214 33
181 214 32
181 215 32
182 216 31
182 216 31
183 217 30
183 217 29
183 218 29
184 219 28
184 219 28
184 220 27
185 221 27
185 221 26
186 222 26
186 223 25
186 223 25
187 224 24
187 224 24
188 225 23
188 226 23
188 226 22
189 227 22
189 228 21
190 228 21
190 229 20
190 230 20
191 230 19
191 231 19
192 231 18
192 232 18
192 233 17
193 233 17
193 234 16
194 235 16
194 235 15
194 236 14
195 237 14
195 237 13
196 238 13
196 239 12
196 239 12
197 240 11
197 240 11
198 241 10
198 242 10
198 242 9
199 243 9
199 244 8
199 244 8
200 245 7
200 246 7
201 246 6
201 247 6
201 247 5
202 248 5
202 249 4
203 249 4
203 250 3
203 251 3
204 251 2
204 252 2
205 253 1
205 253 1
205 254 0
206 255 0
49 0 205
50 0 204
50 1 203
51 1 203
51 2 202
51 3 202
52 3 201
52 4 201
53 5 200
53 5 200
53 6 199
54 7 199
54 7 198
55 8 198
55 8 197
55 9 197
56 10 196
56 10 196
56 11 195
57 12 195
57 12 194
58 13 194
58 14 193
58 14 193
59 15 192
59 15 192
60 16 191
60 17 191
60 17 190
61 18 190
61 19 189
62 19 189
62 20 188
62 21 188
63 21 187
63 22 187
63 23 186
64 23 186
64 24 185
65 24 184
65 25 184
65 26 183
66 26 183
66 27 182
67 28 182
67 28 181
67 29 181
68 30 180
68 30 180
69 31 179
69 31 179
69 32 178
70 33 178
70 33 177
70 34 177
71 35 176
71 35 176
72 36 175
72 37 175
72 37 174
73 38 174
73 38 173
74 39 173
74 40 172
74 40 172
75 41 171
75 42 171
76 42 170
76 43 170
76 44 169
77 44 169
77 45 168
77 46 168
78 46 167
78 47 167
79 47 166
79 48 165
79 49 165
80 49 164
80 50 164
81 51 163
81 51 163
81 52 162
82 53 162
82 53 161
83 54 161
83 54 160
83 55 160
84 56 159
84 56 159
84 57 158
85 58 158
85 58 157
86 59 157
86 60 156
86 60 156
87 61 155
87 61 155
88 62 154
88 63 154
88 63 153
89 64 153
89 65 152
90 65 152
90 66 151
90 67 151
91 67 150
91 68 150
91 69 149
92 69 149
92 70 148
93 70 147
93 71 147
93 72 146
94 72 146
94 73 145
95 74 145
95 74 144
95 75 144
96 76 143
96 76 143
96 77 142
97 77 142
97 78 141
98 79 141
98 79 140
98 80 140
99 81 139
99 81 139
100 82 138
100 83 138
100 83 137
101 84 137
101 85 136
102 85 136
102 86 135
102 86 135
103 87 134
103 88 134
103 88 133
104 89 133
104 90 132
105 90 132
105 91 131
105 92 131
106 92 130
106 93 130
107 93 129
107 94 128
107 95 128
108 95 127
108 96 127
109 97 126
109 97 126
109 98 125
110 99 125
110 99 124
110 100 124
111 100 123
111 101 123
112 102 122
112 102 122
112 103 121
113 104 121
113 104 120
114 105 120
114 106 119
114 106 119
115 107 118
115 108 118
116 108 117
116 109 117
116 109 116
117 110 116
117 111 115
117 111 115
118 112 114
118 113 114
119 113 113
119 114 113
119 115 112
120 115 112
120 116 111
121 116 110
121 117 110
121 118 109
122 118 109
122 119 108
123 120 108
123 120 107
123 121 107
124 122 106
124 122 106
124 123 105
125 123 105
125 124 104
126 125 104
126 125 103
126 126 103
127 127 102
127 127 102
128 128 101
128 129 101
128 129 100
129 130 100
129 131 99
130 131 99
130 132 98
130 132 98
131 133 97
131 134 97
131 134 96
132 135 96
132 136 95
133 136 95
133 137 94
133 138 94
134 138 93
134 139 93
135 139 92
135 140 91
135 141 91
136 141 90
136 142 90
137 143 89
137 143 89
137 144 88
138 145 88
138 145 87
138 146 87
139 146 86
139 147 86
140 148 85
140 148 85
140 149 84
141 150 84
141 150 83
142 151 83
142 152 82
142 152 82
143 153 81
143 154 81
144 154 80
144 155 80
144 155 79
145 156 79
145 157 78
145 157 78
146 158 77
146 159 77
147 159 76
147 160 76
147 161 75
148 161 75
148 162 74
149 162 73
149 163 73
149 164 72
150 164 72
150 165 71
151 166 71
151 166 70
151 167 70
152 168 69
152 168 69
152 169 68
153 170 68
153 170 67
154 171 67
154 171 66
154 172 66
155 173 65
155 173 65
156 174 64
156 175 64
156 175 63
157 176 63
157 177 62
158 177 62
158 178 61
158 178 61
159 179 60
159 180 60
159 180 59
160 181 59
160 182 58
161 182 58
161 183 57
161 184 57
162 184 56
162 185 56
163 185 55
163 186 54
163 187 54
164 187 53
164 188 53
164 189 52
165 189 52
165 190 51
166 191 51
166 191 50
166 192 50
167 193 49
167 193 49
168 194 48
168 194 48
168 195 47
169 196 47
169 196 46
170 197 46
170 198 45
170 198 45
171 199 44
171 200 44
171 200 43
172 201 43
172 201 42
173 202 42
173 203 41
173 203 41
174 204 40
174 205 40
175 205 39
175 206 39
175 207 38
176 207 38
176 208 37
177 208 36
177 209 36
177 210 35
178 210 35
178 211 34
178 212 34
179 212 33
179 213 33
180 214 32
180 214 32
180 215 31
181 216 31
181 216 30
182 217 30
182 217 29
182 218 29
183 219 28
183 219 28
184 220 27
184 221 27
184 221 26
185 222 26
185 223 25
185 223 25
186 224 24
186 224 24
187 225 23
187 226 23
187 226 22
188 227 22
188 228 21
189 228 21
189 229 20
189 230 20
190 230 19
190 231 19
191 231 18
191 232 17
191 233 17
192 233 16
192 234 16
192 235 15
193 235 15
193 236 14
194 237 14
194 237 13
194 238 13
195 239 12
195 239 12
196 240 11
196 240 11
196 241 10
197 242 10
197 242 9
198 243 9
198 244 8
198 244 8
199 245 7
199 246 7
199 246 6
200 247 6
200 247 5
201 248 5
201 249 4
201 249 4
202 250 3
202 251 3
203 251 2
203 252 2
203 253 1
204 253 1
204 254 0
205 255 0
51 0 203
51 0 203
52 1 202
52 1 202
52 2 201
53 3 201
53 3 200
53 4 200
54 5 199
54 5 199
55 6 198
55 7 198
55 7 197
56 8 197
56 8 196
56 9 196
57 10 195
57 10 195
58 11 194
58 12 194
58 12 193
59 13 193
59 14 192
60 14 191
60 15 191
60 15 190
61 16 190
61 17 189
61 17 189
62 18 188
62 19 188
63 19 187
63 20 187
63 21 186
64 21 186
64 22 185
65 23 185
65 23 184
65 24 184
66 24 183
66 25 183
66 26 182
67 26 182
67 27 181
68 28 181
68 28 180
68 29 180
69 30 179
69 30 179
69 31 178
70 31 178
70 32 177
71 33 177
71 33 176
71 34 176
72 35 175
72 35 175
73 36 174
73 37 174
73 37 173
74 38 173
74 38 172
74 39 172
75 40 171
75 40 171
76 41 170
76 42 170
76 42 169
77 43 169
77 44 168
78 44 167
78 45 167
78 46 166
79 46 166
79 47 165
79 47 165
80 48 164
80 49 164
81 49 163
81 50 163
81 51 162
82 51 162
82 52 161
82 53 161
83 53 160
83 54 160
84 54 159
84 55 159
84 56 158
85 56 158
85 57 157
86 58 157
86 58 156
86 59 156
87 60 155
87 60 155
87 61 154
88 61 154
88 62 153
89 63 153
89 63 152
89 64 152
90 65 151
90 65 151
91 66 150
91 67 150
91 67 149
92 68 149
92 69 148
92 69 148
93 70 147
93 70 147
94 71 146
94 72 146
94 72 145
95 73 145
95 74 144
95 74 143
96 75 143
96 76 142
97 76 142
97 77 141
97 77 141
98 78 140
98 79 140
99 79 139
99 80 139
99 81 138
100 81 138
100 82 137
100 83 137
101 83 136
101 84 136
102 85 135
102 85 135
102 86 134
103 86 134
103 87 133
103 88 133
104 88 132
104 89 132
105 90 131
105 90 131
105 91 130
106 92 130
106 92 129
107 93 129
107 93 128
107 94 128
108 95 127
108 95 127
108 96 126
109 97 126
109 97 125
110 98 125
110 99 124
110 99 124
111 100 123
111 100 123
112 101 122
112 102 122
112 102 121
113 103 121
113 104 120
113 104 119
114 105 119
114 106 118
115 106 118
115 107 117
115 108 117
116 108 116
116 109 116
116 109 115
117 110 115
117 111 114
118 111 114
118 112 113
118 113 113
119 113 112
119 114 112
120 115 111
120 115 111
120 116 110
121 116 110
121 117 109
121 118 109
122 118 108
122 119 108
123 120 107
123 120 107
123 121 106
124 122 106
124 122 105
125 123 105
125 123 104
125 124 104
126 125 103
126 125 103
126 126 102
127 127 102
127 127 101
128 128 101
128 129 100
128 129 100
129 130 99
129 131 99
129 131 98
130 132 98
130 132 97
131 133 97
131 134 96
131 134 95
132 135 95
132 136 94
133 136 94
133 137 93
133 138 93
134 138 92
134 139 92
134 139 91
135 140 91
135 141 90
136 141 90
136 142 89
136 143 89
137 143 88
137 144 88
138 145 87
138 145 87
138 146 86
139 146 86
139 147 85
139 148 85
140 148 84
140 149 84
141 150 83
141 150 83
141 151 82
142 152 82
142 152 81
142 153 81
143 154 80
143 154 80
144 155 79
144 155 79
144 156 78
145 157 78
145 157 77
146 158 77
146 159 76
146 159 76
147 160 75
147 161 75
147 161 74
148 162 74
148 162 73
149 163 73
149 164 72
149 164 71
150 165 71
150 166 70
151 166 70
151 167 69
151 168 69
152 168 68
152 169 68
152 170 67
153 170 67
153 171 66
154 171 66
154 172 65
154 173 65
155 173 64
155 174 64
155 175 63
156 175 63
156 176 62
157 177 62
157 177 61
157 178 61
158 178 60
158 179 60
159 180 59
159 180 59
159 181 58
160 182 58
160 182 57
160 183 57
161 184 56
161 184 56
162 185 55
162 185 55
162 186 54
163 187 54
163 187 53
163 188 53
164 189 52
164 189 52
165 190 51
165 191 51
165 191 50
166 192 50
166 193 49
167 193 49
167 194 48
167 194 47
168 195 47
168 196 46
168 196 46
169 197 45
169 198 45
170 198 44
170 199 44
170 200 43
171 200 43
171 201 42
172 201 42
172 202 41
172 203 41
173 203 40
173 204 40
173 205 39
174 205 39
174 206 38
175 207 38
175 207 37
175 208 37
176 208 36
176 209 36
176 210 35
177 210 35
177 211 34
178 212 34
178 212 33
178 213 33
179 214 32
179 214 32
180 215 31
180 216 31
180 216 30
181 217 30
181 217 29
181 218 29
182 219 28
182 219 28
183 220 27
183 221 27
183 221 26
184 222 26
184 223 25
185 223 25
185 224 24
185 224 23
186 225 23
186 226 22
186 226 22
187 227 21
187 228 21
188 228 20
188 229 20
188 230 19
189 230 19
189 231 18
189 231 18
190 232 17
190 233 17
191 233 16
191 234 16
191 235 15
192 235 15
192 236 14
193 237 14
193 237 13
193 238 13
194 239 12
194 239 12
194 240 11
195 240 11
195 241 10
196 242 10
196 242 9
196 243 9
197 244 8
197 244 8
198 245 7
198 246 7
198 246 6
199 247 6
199 247 5
199 248 5
200 249 4
200 249 4
201 250 3
201 251 3
201 251 2
202 252 2
202 253 1
202 253 1
203 254 0
203 255 0
52 0 202
52 0 201
53 1 201
53 1 200
54 2 200
54 3 199
54 3 199
55 4 198
55 5 198
55 5 197
56 6 197
56 7 196
57 7 196
57 8 195
57 8 195
58 9 194
58 10 194
58 10 193
59 11 193
59 12 192
60 12 192
60 13 191
60 14 191
61 14 190
61 15 190
61 15 189
62 16 189
62 17 188
63 17 188
63 18 187
63 19 187
64 19 186
64 20 186
64 21 185
65 21 185
65 22 184
66 23 184
66 23 183
66 24 183
67 24 182
67 25 182
67 26 181
68 26 181
68 27 180
69 28 180
69 28 179
69 29 179
70 30 178
70 30 178
70 31 177
71 31 177
71 32 176
72 33 176
72 33 175
72 34 175
73 35 174
73 35 174
73 36 173
74 37 173
74 37 172
75 38 172
75 38 171
75 39 171
76 40 170
76 40 169
76 41 169
77 42 168
77 42 168
78 43 167
78 44 167
78 44 166
79 45 166
79 46 165
79 46 165
80 47 164
80 47 164
81 48 163
81 49 163
81 49 162
82 50 162
82 51 161
82 51 161
83 52 160
83 53 160
84 53 159
84 54 159
84 54 158
85 55 158
85 56 157
85 56 157
86 57 156
86 58 156
87 58 155
87 59 155
87 60 154
88 60 154
88 61 153
88 61 153
89 62 152
89 63 152
90 63 151
90 64 151
90 65 150
91 65 150
91 66 149
91 67 149
92 67 148
92 68 148
93 69 147
93 69 147
93 70 146
94 70 146
94 71 145
94 72 145
95 72 144
95 73 144
96 74 143
96 74 143
96 75 142
97 76 142
97 76 141
98 77 141
98 77 140
98 78 140
99 79 139
99 79 139
99 80 138
100 81 138
100 81 137
101 82 137
101 83 136
101 83 135
102 84 135
102 85 134
102 85 134
103 86 133
103 86 133
104 87 132
104 88 132
104 88 131
105 89 131
105 90 130
105 90 130
106 91 129
106 92 129
107 92 128
107 93 128
107 93 127
108 94 127
108 95 126
108 95 126
109 96 125
109 97 125
110 97 124
110 98 124
110 99 123
111 99 123
111 100 122
111 100 122
112 101 121
112 102 121
113 102 120
113 103 120
113 104 119
114 104 119
114 105 118
114 106 118
115 106 117
115 107 117
116 108 116
116 108 116
116 109 115
117 109 115
117 110 114
117 111 114
118 111 113
118 112 113
119 113 112
119 113 112
119 114 111
120 115 111
120 115 110
120 116 110
121 116 109
121 117 109
122 118 108
122 118 108
122 119 107
123 120 107
123 120 106
123 121 106
124 122 105
124 122 105
125 123 104
125 123 104
125 124 103
126 125 103
126 125 102
126 126 101
127 127 101
127 127 100
128 128 100
128 129 99
128 129 99
129 130 98
129 131 98
129 131 97
130 132 97
130 132 96
131 133 96
131 134 95
131 134 95
132 135 94
132 136 94
132 136 93
133 137 93
133 138 92
134 138 92
134 139 91
134 139 91
135 140 90
135 141 90
135 141 89
136 142 89
136 143 88
137 143 88
137 144 87
137 145 87
138 145 86
138 146 86
138 146 85
139 147 85
139 148 84
140 148 84
140 149 83
140 150 83
141 150 82
141 151 82
141 152 81
142 152 81
142 153 80
143 154 80
143 154 79
143 155 79
144 155 78
144 156 78
144 157 77
145 157 77
145 158 76
146 159 76
146 159 75
146 160 75
147 161 74
147 161 74
147 162 73
148 162 73
148 163 72
149 164 72
149 164 71
149 165 71
150 166 70
150 166 70
150 167 69
151 168 69
151 168 68
152 169 67
152 170 67
152 170 66
153 171 66
153 171 65
153 172 65
154 173 64
154 173 64
155 174 63
155 175 63
155 175 62
156 176 62
156 177 61
156 177 61
157 178 60
157 178 60
158 179 59
158 180 59
158 180 58
159 181 58
159 182 57
160 182 57
160 183 56
160 184 56
161 184 55
161 185 55
161 185 54
162 186 54
162 187 53
163 187 53
163 188 52
163 189 52
164 189 51
164 190 51
164 191 50
165 191 50
165 192 49
166 193 49
166 193 48
166 194 48
167 194 47
167 195 47
167 196 46
168 196 46
168 197 45
169 198 45
169 198 44
169 199 44
170 200 43
170 200 43
170 201 42
171 201 42
171 202 41
172 203 41
172 203 40
172 204 40
173 205 39
173 205 39
173 206 38
174 207 38
174 207 37
175 208 37
175 208 36
175 209 36
176 210 35
176 210 35
176 211 34
177 212 33
177 212 33
178 213 32
178 214 32
178 214 31
179 215 31
179 216 30
179 216 30
180 217 29
180 217 29
181 218 28
181 219 28
181 219 27
182 220 27
182 221 26
182 221 26
183 222 25
183 223 25
184 223 24
184 224 24
184 224 23
185 225 23
185 226 22
185 226 22
186 227 21
186 228 21
187 228 20
187 229 20
187 230 19
188 230 19
188 231 18
188 231 18
189 232 17
189 233 17
190 233 16
190 234 16
190 235 15
191 235 15
191 236 14
191 237 14
192 237 13
192 238 13
193 239 12
193 239 12
193 240 11
194 240 11
194 241 10
194 242 10
195 242 9
195 243 9
196 244 8
196 244 8
196 245 7
197 246 7
197 246 6
197 247 6
198 247 5
198 248 5
199 249 4
199 249 4
199 250 3
200 251 3
200 251 2
200 252 2
201 253 1
201 253 1
202 254 0
202 255 0
53 0 201
54 0 200
54 1 200
54 1 199
55 2 199
55 3 198
56 3 198
56 4 197
56 5 197
57 5 196
57 6 196
57 7 195
58 7 195
58 8 194
58 8 194
59 9 193
59 10 193
60 10 192
60 11 192
60 12 191
61 12 191
61 13 190
61 14 190
62 14 189
62 15 189
63 15 188
63 16 188
63 17 187
64 17 187
64 18 186
64 19 186
65 19 185
65 20 185
66 21 184
66 21 184
66 22 183
67 23 183
67 23 182
67 24 182
68 24 181
68 25 181
68 26 180
69 26 180
69 27 179
70 28 178
70 28 178
70 29 177
71 30 177
71 30 176
71 31 176
72 31 175
72 32 175
73 33 174
73 33 174
73 34 173
74 35 173
74 35 172
74 36 172
75 37 171
75 37 171
75 38 170
76 38 170
76 39 169
77 40 169
77 40 168
77 41 168
78 42 167
78 42 167
78 43 166
79 44 166
79 44 165
80 45 165
80 46 164
80 46 164
81 47 163
81 47 163
81 48 162
82 49 162
82 49 161
82 50 161
83 51 160
83 51 160
84 52 159
84 53 159
84 53 158
85 54 158
85 54 157
85 55 157
86 56 156
86 56 156
87 57 155
87 58 155
87 58 154
88 59 154
88 60 153
88 60 153
89 61 152
89 61 152
90 62 151
90 63 151
90 63 150
91 64 150
91 65 149
91 65 149
92 66 148
92 67 148
92 67 147
93 68 147
93 69 146
94 69 146
94 70 145
94 70 145
95 71 144
95 72 144
95 72 143
96 73 143
96 74 142
97 74 142
97 75 141
97 76 141
98 76 140
98 77 140
98 77 139
99 78 139
99 79 138
99 79 138
100 80 137
100 81 137
101 81 136
101 82 136
101 83 135
102 83 135
102 84 134
102 85 134
103 85 133
103 86 133
104 86 132
104 87 132
104 88 131
105 88 131
105 89 130
105 90 130
106 90 129
106 91 129
107 92 128
107 92 128
107 93 127
108 93 127
108 94 126
108 95 126
109 95 125
109 96 125
109 97 124
110 97 124
110 98 123
111 99 123
111 99 122
111 100 122
112 100 121
112 101 121
112 102 120
113 102 120
113 103 119
114 104 118
114 104 118
114 105 117
115 106 117
115 106 116
115 107 116
116 108 115
116 108 115
116 109 114
117 109 114
117 110 113
118 111 113
118 111 112
118 112 112
119 113 111
119 113 111
119 114 110
120 115 110
120 115 109
121 116 109
121 116 108
121 117 108
122 118 107
122 118 107
122 119 106
123 120 106
123 120 105
123 121 105
124 122 104
124 122 104
125 123 103
125 123 103
125 124 102
126 125 102
126 125 101
126 126 101
127 127 100
127 127 100
128 128 99
128 129 99
128 129 98
129 130 98
129 131 97
129 131 97
130 132 96
130 132 96
131 133 95
131 134 95
131 134 94
132 135 94
132 136 93
132 136 93
133 137 92
133 138 92
133 138 91
134 139 91
134 139 90
135 140 90
135 141 89
135 141 89
136 142 88
136 143 88
136 143 87
137 144 87
137 145 86
138 145 86
138 146 85
138 146 85
139 147 84
139 148 84
139 148 83
140 149 83
140 150 82
140 150 82
141 151 81
141 152 81
142 152 80
142 153 80
142 154 79
143 154 79
143 155 78
143 155 78
144 156 77
144 157 77
145 157 76
145 158 76
145 159 75
146 159 75
146 160 74
146 161 74
147 161 73
147 162 73
147 162 72
148 163 72
148 164 71
149 164 71
149 165 70
149 166 70
150 166 69
150 167 69
150 168 68
151 168 68
151 169 67
152 170 67
152 170 66
152 171 66
153 171 65
153 172 65
153 173 64
154 173 64
154 174 63
155 175 63
155 175 62
155 176 62
156 177 61
156 177 61
156 178 60
157 178 60
157 179 59
157 180 58
158 180 58
158 181 57
159 182 57
159 182 56
159 183 56
160 184 55
160 184 55
160 185 54
161 185 54
161 186 53
162 187 53
162 187 52
162 188 52
163 189 51
163 189 51
163 190 50
164 191 50
164 191 49
164 192 49
165 193 48
165 193 48
166 194 47
166 194 47
166 195 46
167 196 46
167 196 45
167 197 45
168 198 44
168 198 44
169 199 43
169 200 43
169 200 42
170 201 42
170 201 41
170 202 41
171 203 40
171 203 40
172 204 39
172 205 39
172 205 38
173 206 38
173 207 37
173 207 37
174 208 36
174 208 36
174 209 35
175 210 35
175 210 34
176 211 34
176 212 33
176 212 33
177 213 32
177 214 32
177 214 31
178 215 31
178 216 30
179 216 30
179 217 29
179 217 29
180 218 28
180 219 28
180 219 27
181 220 27
181 221 26
181 221 26
182 222 25
182 223 25
183 223 24
183 224 24
183 224 23
184 225 23
184 226 22
184 226 22
185 227 21
185 228 21
186 228 20
186 229 20
186 230 19
187 230 19
187 231 18
187 231 18
188 232 17
188 233 17
188 233 16
189 234 16
189 235 15
190 235 15
190 236 14
190 237 14
191 237 13
191 238 13
191 239 12
192 239 12
192 240 11
193 240 11
193 241 10
193 242 10
194 242 9
194 243 9
194 244 8
195 244 8
195 245 7
196 246 7
196 246 6
196 247 6
197 247 5
197 248 5
197 249 4
198 249 4
198 250 3
198 251 3
199 251 2
199 252 2
200 253 1
200 253 1
200 254 0
201 255 0
55 0 199
55 0 199
55 1 198
56 1 198
56 2 197
56 3 197
57 3 196
57 4 196
58 5 195
58 5 195
58 6 194
59 7 194
59 7 193
59 8 193
60 8 192
60 9 192
60 10 191
61 10 191
61 11 190
61 12 190
62 12 189
62 13 189
63 14 188
63 14 188
63 15 187
64 15 187
64 16 186
64 17 186
65 17 185
65 18 185
65 19 184
66 19 184
66 20 183
67 21 183
67 21 182
67 22 182
68 23 181
68 23 181
68 24 180
69 24 180
69 25 179
69 26 179
70 26 178
70 27 178
71 28 177
71 28 177
71 29 176
72 30 176
72 30 175
72 31 175
73 31 174
73 32 174
73 33 173
74 33 173
74 34 172
75 35 172
75 35 171
75 36 171
76 37 170
76 37 170
76 38 169
77 38 169
77 39 168
77 40 168
78 40 167
78 41 167
79 42 166
79 42 166
79 43 165
80 44 165
80 44 164
80 45 164
81 46 163
81 46 163
81 47 162
82 47 162
82 48 161
83 49 161
83 49 160
83 50 160
84 51 159
84 51 159
84 52 158
85 53 158
85 53 157
85 54 157
86 54 156
86 55 156
87 56 155
87 56 155
87 57 154
88 58 154
88 58 153
88 59 153
89 60 152
89 60 152
89 61 151
90 61 151
90 62 150
91 63 150
91 63 149
91 64 149
92 65 148
92 65 148
92 66 147
93 67 147
93 67 146
93 68 146
94 69 145
94 69 145
95 70 144
95 70 144
95 71 143
96 72 143
96 72 142
96 73 142
97 74 141
97 74 141
97 75 140
98 76 140
98 76 139
99 77 139
99 77 138
99 78 138
100 79 137
100 79 137
100 80 136
101 81 136
101 81 135
101 82 135
102 83 134
102 83 134
103 84 133
103 85 133
103 85 132
104 86 132
104 86 131
104 87 131
105 88 130
105 88 130
105 89 129
106 90 129
106 90 128
106 91 128
107 92 127
107 92 127
108 93 126
108 93 126
108 94 125
109 95 125
109 95 124
109 96 124
110 97 123
110 97 123
110 98 122
111 99 122
111 99 121
112 100 121
112 100 120
112 101 120
113 102 119
113 102 119
113 103 118
114 104 118
114 104 117
114 105 117
115 106 116
115 106 116
116 107 115
116 108 115
116 108 114
117 109 114
117 109 113
117 110 113
118 111 112
118 111 112
118 112 111
119 113 111
119 113 110
120 114 110
120 115 109
120 115 109
121 116 108
121 116 108
121 117 107
122 118 107
122 118 106
122 119 106
123 120 105
123 120 105
124 121 104
124 122 104
124 122 103
125 123 103
125 123 102
125 124 102
126 125 101
126 125 101
126 126 100
127 127 100
127 127 99
128 128 99
128 129 98
128 129 98
129 130 97
129 131 97
129 131 96
130 132 96
130 132 95
130 133 95
131 134 94
131 134 94
132 135 93
132 136 93
132 136 92
133 137 92
133 138 91
133 138 91
134 139 90
134 139 90
134 140 89
135 141 89
135 141 88
136 142 88
136 143 87
136 143 87
137 144 86
137 145 86
137 145 85
138 146 85
138 146 84
138 147 84
139 148 83
139 148 83
140 149 82
140 150 82
140 150 81
141 151 81
141 152 80
141 152 80
142 153 79
142 154 79
142 154 78
143 155 78
143 155 77
144 156 77
144 157 76
144 157 76
145 158 75
145 159 75
145 159 74
146 160 74
146 161 73
146 161 73
147 162 72
147 162 72
148 163 71
148 164 71
148 164 70
149 165 70
149 166 69
149 166 69
150 167 68
150 168 68
150 168 67
151 169 67
151 170 66
151 170 66
152 171 65
152 171 65
153 172 64
153 173 64
153 173 63
154 174 63
154 175 62
154 175 62
155 176 61
155 177 61
155 177 60
156 178 60
156 178 59
157 179 59
157 180 58
157 180 58
158 181 57
158 182 57
158 182 56
159 183 56
159 184 55
159 184 55
160 185 54
160 185 54
161 186 53
161 187 53
161 187 52
162 188 52
162 189 51
162 189 51
163 190 50
163 191 50
163 191 49
164 192 49
164 193 48
165 193 48
165 194 47
165 194 47
166 195 46
166 196 46
166 196 45
167 197 45
167 198 44
167 198 44
168 199 43
168 200 43
169 200 42
169 201 42
169 201 41
170 202 41
170 203 40
170 203 40
171 204 39
171 205 39
171 205 38
172 206 38
172 207 37
173 207 37
173 208 36
173 208 36
174 209 35
174 210 35
174 210 34
175 211 34
175 212 33
175 212 33
176 213 32
176 214 32
177 214 31
177 215 31
177 216 30
178 216 30
178 217 29
178 217 29
179 218 28
179 219 28
179 219 27
180 220 27
180 221 26
181 221 26
181 222 25
181 223 25
182 223 24
182 224 24
182 224 23
183 225 23
183 226 22
183 226 22
184 227 21
184 228 21
185 228 20
185 229 20
185 230 19
186 230 19
186 231 18
186 231 18
187 232 17
187 233 17
187 233 16
188 234 16
188 235 15
189 235 15
189 236 14
189 237 14
190 237 13
190 238 13
190 239 12
191 239 12
191 240 11
191 240 11
192 241 10
192 242 10
193 242 9
193 243 9
193 244 8
194 244 8
194 245 7
194 246 7
195 246 6
195 247 6
195 247 5
196 248 5
196 249 4
196 249 4
197 250 3
197 251 3
198 251 2
198 252 2
198 253 1
199 253 1
199 254 0
199 255 0
56 0 198
56 0 198
57 1 197
57 1 197
57 2 196
58 3 196
58 3 195
58 4 195
59 5 194
59 5 194
59 6 193
60 7 193
60 7 192
61 8 192
61 8 191
61 9 191
62 10 190
62 10 190
62 11 189
63 12 189
63 12 188
63 13 188
64 14 187
64 14 187
64 15 186
65 15 186
65 16 185
66 17 185
66 17 184
66 18 184
67 19 183
67 19 183
67 20 182
68 21 182
68 21 181
68 22 181
69 23 180
69 23 180
69 24 179
70 24 179
70 25 178
70 26 178
71 26 177
71 27 177
72 28 176
72 28 176
72 29 175
73 30 175
73 30 174
73 31 174
74 31 173
74 32 173
74 33 172
75 33 172
75 34 171
75 35 171
76 35 170
76 36 170
77 37 169
77 37 169
77 38 168
78 38 168
78 39 167
78 40 167
79 40 166
79 41 166
79 42 165
80 42 165
80 43 164
80 44 164
81 44 163
81 45 163
82 46 162
82 46 162
82 47 161
83 47 161
83 48 160
83 49 160
84 49 159
84 50 159
84 51 158
85 51 158
85 52 157
85 53 157
86 53 156
86 54 156
87 54 155
87 55 155
87 56 154
88 56 154
88 57 153
88 58 153
89 58 152
89 59 152
89 60 151
90 60 151
90 61 150
90 61 150
91 62 149
91 63 149
92 63 148
92 64 148
92 65 147
93 65 147
93 66 146
93 67 146
94 67 145
94 68 145
94 69 144
95 69 144
95 70 143
95 70 143
96 71 142
96 72 142
97 72 141
97 73 141
97 74 140
98 74 140
98 75 139
98 76 139
99 76 138
99 77 138
99 77 137
100 78 137
100 79 136
100 79 136
101 80 135
101 81 135
102 81 134
102 82 134
102 83 133
103 83 133
103 84 132
103 85 132
104 85 131
104 86 131
104 86 130
105 87 130
105 88 129
105 88 129
106 89 128
106 90 128
107 90 127
107 91 127
107 92 126
108 92 126
108 93 125
108 93 125
109 94 124
109 95 124
109 95 123
110 96 123
110 97 122
110 97 122
111 98 121
111 99 121
111 99 120
112 100 120
112 100 119
113 101 119
113 102 118
113 102 118
114 103 117
114 104 117
114 104 116
115 105 116
115 106 115
115 106 115
116 107 114
116 108 114
116 108 113
117 109 113
117 109 112
118 110 112
118 111 112
118 111 111
119 112 111
119 113 110
119 113 110
120 114 109
120 115 109
120 115 108
121 116 108
121 116 107
121 117 107
122 118 106
122 118 106
123 119 105
123 120 105
123 120 104
124 121 104
124 122 103
124 122 103
125 123 102
125 123 102
125 124 101
126 125 101
126 125 100
126 126 100
127 127 99
127 127 99
128 128 98
128 129 98
128 129 97
129 130 97
129 131 96
129 131 96
130 132 95
130 132 95
130 133 94
131 134 94
131 134 93
131 135 93
132 136 92
132 136 92
133 137 91
133 138 91
133 138 90
134 139 90
134 139 89
134 140 89
135 141 88
135 141 88
135 142 87
136 143 87
136 143 86
136 144 86
137 145 85
137 145 85
138 146 84
138 146 84
138 147 83
139 148 83
139 148 82
139 149 82
140 150 81
140 150 81
140 151 80
141 152 80
141 152 79
141 153 79
142 154 78
142 154 78
143 155 77
143 155 77
143 156 76
144 157 76
144 157 75
144 158 75
145 159 74
145 159 74
145 160 73
146 161 73
146 161 72
146 162 72
147 162 71
147 163 71
147 164 70
148 164 70
148 165 69
149 166 69
149 166 68
149 167 68
150 168 67
150 168 67
150 169 66
151 170 66
151 170 65
151 171 65
152 171 64
152 172 64
152 173 63
153 173 63
153 174 62
154 175 62
154 175 61
154 176 61
155 177 60
155 177 60
155 178 59
156 178 59
156 179 58
156 180 58
157 180 57
157 181 57
157 182 56
158 182 56
158 183 55
159 184 55
159 184 54
159 185 54
160 185 53
160 186 53
160 187 52
161 187 52
161 188 51
161 189 51
162 189 50
162 190 50
162 191 49
163 191 49
163 192 48
164 193 48
164 193 47
164 194 47
165 194 46
165 195 46
165 196 45
166 196 45
166 197 44
166 198 44
167 198 43
167 199 43
167 200 42
168 200 42
168 201 41
169 201 41
169 202 40
169 203 40
170 203 39
170 204 39
170 205 38
171 205 38
171 206 37
171 207 37
172 207 36
172 208 36
172 208 35
173 209 35
173 210 34
174 210 34
174 211 33
174 212 33
175 212 32
175 213 32
175 214 31
176 214 31
176 215 30
176 216 30
177 216 29
177 217 29
177 217 28
178 218 28
178 219 27
179 219 27
179 220 26
179 221 26
180 221 25
180 222 25
180 223 24
181 223 24
181 224 23
181 224 23
182 225 22
182 226 22
182 226 21
183 227 21
183 228 20
184 228 20
184 229 19
184 230 19
185 230 18
185 231 18
185 231 17
186 232 17
186 233 16
186 233 16
187 234 15
187 235 15
187 235 14
188 236 14
188 237 13
188 237 13
189 238 12
189 239 12
190 239 11
190 240 11
190 240 10
191 241 10
191 242 9
191 242 9
192 243 8
192 244 8
192 244 7
193 245 7
193 246 6
193 246 6
194 247 5
194 247 5
195 248 4
195 249 4
195 249 3
196 250 3
196 251 2
196 251 2
197 252 1
197 253 1
197 253 0
198 254 0
198 255 0
57 0 197
58 0 196
58 1 196
58 1 195
59 2 195
59 3 194
59 3 194
60 4 193
60 5 193
60 5 192
61 6 192
61 7 191
61 7 191
62 8 190
62 8 190
62 9 189
63 10 189
63 10 188
63 11 188
64 12 187
64 12 187
65 13 186
65 14 186
65 14 185
66 15 185
66 15 184
66 16 184
67 17 183
67 17 183
67 18 182
68 19 182
68 19 182
68 20 181
69 21 181
69 21 180
69 22 180
70 23 179
70 23 179
70 24 178
71 24 178
71 25 177
72 26 177
72 26 176
72 27 176
73 28 175
73 28 175
73 29 174
74 30 174
74 30 173
74 31 173
75 31 172
75 32 172
75 33 171
76 33 171
76 34 170
76 35 170
77 35 169
77 36 169
77 37 168
78 37 168
78 38 167
79 38 167
79 39 166
79 40 166
80 40 165
80 41 165
80 42 164
81 42 164
81 43 163
81 44 163
82 44 162
82 45 162
82 46 161
83 46 161
83 47 160
83 47 160
84 48 159
84 49 159
84 49 158
85 50 158
85 51 157
86 51 157
86 52 156
86 53 156
87 53 155
87 54 155
87 54 154
88 55 154
88 56 153
88 56 153
89 57 152
89 58 152
89 58 151
90 59 151
90 60 150
90 60 150
91 61 149
91 61 149
91 62 148
92 63 148
92 63 147
93 64 147
93 65 146
93 65 146
94 66 145
94 67 145
94 67 144
95 68 144
95 69 143
95 69 143
96 70 142
96 70 142
96 71 141
97 72 141
97 72 140
97 73 140
98 74 139
98 74 139
98 75 138
99 76 138
99 76 137
100 77 137
100 77 136
100 78 136
101 79 136
101 79 135
101 80 135
102 81 134
102 81 134
102 82 133
103 83 133
103 83 132
103 84 132
104 85 131
104 85 131
104 86 130
105 86 130
105 87 129
105 88 129
106 88 128
106 89 128
107 90 127
107 90 127
107 91 126
108 92 126
108 92 125
108 93 125
109 93 124
109 94 124
109 95 123
110 95 123
110 96 122
110 97 122
111 97 121
111 98 121
111 99 120
112 99 120
112 100 119
112 100 119
113 101 118
113 102 118
114 102 117
114 103 117
114 104 116
115 104 116
115 105 115
115 106 115
116 106 114
116 107 114
116 108 113
117 108 113
117 109 112
117 109 112
118 110 111
118 111 111
118 111 110
119 112 110
119 113 109
119 113 109
120 114 108
120 115 108
121 115 107
121 116 107
121 116 106
122 117 106
122 118 105
122 118 105
123 119 104
123 120 104
123 120 103
124 121 103
124 122 102
124 122 102
125 123 101
125 123 101
125 124 100
126 125 100
126 125 99
126 126 99
127 127 98
127 127 98
128 128 97
128 129 97
128 129 96
129 130 96
129 131 95
129 131 95
130 132 94
130 132 94
130 133 93
131 134 93
131 134 92
131 135 92
132 136 91
132 136 91
132 137 91
133 138 90
133 138 90
133 139 89
134 139 89
134 140 88
135 141 88
135 141 87
135 142 87
136 143 86
136 143 86
136 144 85
137 145 85
137 145 84
137 146 84
138 146 83
138 147 83
138 148 82
139 148 82
139 149 81
139 150 81
140 150 80
140 151 80
140 152 79
141 152 79
141 153 78
142 154 78
142 154 77
142 155 77
143 155 76
143 156 76
143 157 75
144 157 75
144 158 74
144 159 74
145 159 73
145 160 73
145 161 72
146 161 72
146 162 71
146 162 71
147 163 70
147 164 70
147 164 69
148 165 69
148 166 68
149 166 68
149 167 67
149 168 67
150 168 66
150 169 66
150 170 65
151 170 65
151 171 64
151 171 64
152 172 63
152 173 63
152 173 62
153 174 62
153 175 61
153 175 61
154 176 60
154 177 60
154 177 59
155 178 59
155 178 58
156 179 58
156 180 57
156 180 57
157 181 56
157 182 56
157 182 55
158 183 55
158 184 54
158 184 54
159 185 53
159 185 53
159 186 52
160 187 52
160 187 51
160 188 51
161 189 50
161 189 50
161 190 49
162 191 49
162 191 48
163 192 48
163 193 47
163 193 47
164 194 46
164 194 46
164 195 45
165 196 45
165 196 45
165 197 44
166 198 44
166 198 43
166 199 43
167 200 42
167 200 42
167 201 41
168 201 41
168 202 40
168 203 40
169 203 39
169 204 39
170 205 38
170 205 38
170 206 37
171 207 37
171 207 36
171 208 36
172 208 35
172 209 35
172 210 34
173 210 34
173 211 33
173 212 33
174 212 32
174 213 32
174 214 31
175 214 31
175 215 30
175 216 30
176 216 29
176 217 29
177 217 28
177 218 28
177 219 27
178 219 27
178 220 26
178 221 26
179 221 25
179 222 25
179 223 24
180 223 24
180 224 23
180 224 23
181 225 22
181 226 22
181 226 21
182 227 21
182 228 20
182 228 20
183 229 19
183 230 19
184 230 18
184 231 18
184 231 17
185 232 17
185 233 16
185 233 16
186 234 15
186 235 15
186 235 14
187 236 14
187 237 13
187 237 13
188 238 12
188 239 12
188 239 11
189 240 11
189 240 10
189 241 10
190 242 9
190 242 9
191 243 8
191 244 8
191 244 7
192 245 7
192 246 6
192 246 6
193 247 5
193 247 5
193 248 4
194 249 4
194 249 3
194 250 3
195 251 2
195 251 2
195 252 1
196 253 1
196 253 0
196 254 0
197 255 0
58 0 196
59 0 195
59 1 195
59 1 194
60 2 194
60 3 193
61 3 193
61 4 192
61 5 192
62 5 191
62 6 191
62 7 190
63 7 190
63 8 189
63 8 189
64 9 188
64 10 188
64 10 187
65 11 187
65 12 186
65 12 186
66 13 185
66 14 185
66 14 184
67 15 184
67 15 183
67 16 183
68 17 182
68 17 182
68 18 181
69 19 181
69 19 180
69 20 180
70 21 179
70 21 179
70 22 178
71 23 178
71 23 177
72 24 177
72 24 176
72 25 176
73 26 175
73 26 175
73 27 174
74 28 174
74 28 173
74 29 173
75 30 172
75 30 172
75 31 171
76 31 171
76 32 170
76 33 170
77 33 170
77 34 169
77 35 169
78 35 168
78 36 168
78 37 167
79 37 167
79 38 166
79 38 166
80 39 165
80 40 165
80 40 164
81 41 164
81 42 163
81 42 163
82 43 162
82 44 162
82 44 161
83 45 161
83 46 160
84 46 160
84 47 159
84 47 159
85 48 158
85 49 158
85 49 157
86 50 157
86 51 156
86 51 156
87 52 155
87 53 155
87 53 154
88 54 154
88 54 153
88 55 153
89 56 152
89 56 152
89 57 151
90 58 151
90 58 150
90 59 150
91 60 149
91 60 149
91 61 148
92 61 148
92 62 147
92 63 147
93 63 146
93 64 146
93 65 145
94 65 145
94 66 144
95 67 144
95 67 143
95 68 143
96 69 142
96 69 142
96 70 142
97 70 141
97 71 141
97 72 140
98 72 140
98 73 139
98 74 139
99 74 138
99 75 138
99 76 137
100 76 137
100 77 136
100 77 136
101 78 135
101 79 135
101 79 134
102 80 134
102 81 133
102 81 133
103 82 132
103 83 132
103 83 131
104 84 131
104 85 130
104 85 130
105 86 129
105 86 129
106 87 128
106 88 128
106 88 127
107 89 127
107 90 126
107 90 126
108 91 125
108 92 125
108 92 124
109 93 124
109 93 123
109 94 123
110 95 122
110 95 122
110 96 121
111 97 121
111 97 120
111 98 120
112 99 119
112 99 119
112 100 118
113 100 118
113 101 117
113 102 117
114 102 116
114 103 116
114 104 115
115 104 115
115 105 114
115 106 114
116 106 113
116 107 113
117 108 113
117 108 112
117 109 112
118 109 111
118 110 111
118 111 110
119 111 110
119 112 109
119 113 109
120 113 108
120 114 108
120 115 107
121 115 107
121 116 106
121 116 106
122 117 105
122 118 105
122 118 104
123 119 104
123 120 103
123 120 103
124 121 102
124 122 102
124 122 101
125 123 101
125 123 100
125 124 100
126 125 99
126 125 99
126 126 98
127 127 98
127 127 97
128 128 97
128 129 96
128 129 96
129 130 95
129 131 95
129 131 94
130 132 94
130 132 93
130 133 93
131 134 92
131 134 92
131 135 91
132 136 91
132 136 90
132 137 90
133 138 89
133 138 89
133 139 88
134 139 88
134 140 87
134 141 87
135 141 86
135 142 86
135 143 85
136 143 85
136 144 85
136 145 84
137 145 84
137 146 83
137 146 83
138 147 82
138 148 82
139 148 81
139 149 81
139 150 80
140 150 80
140 151 79
140 152 79
141 152 78
141 153 78
141 154 77
142 154 77
142 155 76
142 155 76
143 156 75
143 157 75
143 157 74
144 158 74
144 159 73
144 159 73
145 160 72
145 161 72
145 161 71
146 162 71
146 162 70
146 163 70
147 164 69
147 164 69
147 165 68
148 166 68
148 166 67
148 167 67
149 168 66
149 168 66
150 169 65
150 170 65
150 170 64
151 171 64
151 171 63
151 172 63
152 173 62
152 173 62
152 174 61
153 175 61
153 175 60
153 176 60
154 177 59
154 177 59
154 178 58
155 178 58
155 179 57
155 180 57
156 180 56
156 181 56
156 182 56
157 182 55
157 183 55
157 184 54
158 184 54
158 185 53
158 185 53
159 186 52
159 187 52
159 187 51
160 188 51
160 189 50
161 189 50
161 190 49
161 191 49
162 191 48
162 192 48
162 193 47
163 193 47
163 194 46
163 194 46
164 195 45
164 196 45
164 196 44
165 197 44
165 198 43
165 198 43
166 199 42
166 200 42
166 200 41
167 201 41
167 201 40
167 202 40
168 203 39
168 203 39
168 204 38
169 205 38
169 205 37
169 206 37
170 207 36
170 207 36
170 208 35
171 208 35
171 209 34
172 210 34
172 210 33
172 211 33
173 212 32
173 212 32
173 213 31
174 214 31
174 214 30
174 215 30
175 216 29
175 216 29
175 217 28
176 217 28
176 218 28
176 219 27
177 219 27
177 220 26
177 221 26
178 221 25
178 222 25
178 223 24
179 223 24
179 224 23
179 224 23
180 225 22
180 226 22
180 226 21
181 227 21
181 228 20
181 228 20
182 229 19
182 230 19
182 230 18
183 231 18
183 231 17
184 232 17
184 233 16
184 233 16
185 234 15
185 235 15
185 235 14
186 236 14
186 237 13
186 237 13
187 238 12
187 239 12
187 239 11
188 240 11
188 240 10
188 241 10
189 242 9
189 242 9
189 243 8
190 244 8
190 244 7
190 245 7
191 246 6
191 246 6
191 247 5
192 247 5
192 248 4
192 249 4
193 249 3
193 250 3
193 251 2
194 251 2
194 252 1
195 253 1
195 253 0
195 254 0
196 255 0
60 0 194
60 0 194
60 1 193
61 1 193
61 2 192
61 3 192
62 3 191
62 4 191
62 5 190
63 5 190
63 6 189
63 7 189
64 7 188
64 8 188
64 8 187
65 9 187
65 10 186
65 10 186
66 11 185
66 12 185
66 12 185
67 13 184
67 14 184
67 14 183
68 15 183
68 15 182
68 16 182
69 17 181
69 17 181
70 18 180
70 19 180
70 19 179
71 20 179
71 21 178
71 21 178
72 22 177
72 23 177
72 23 176
73 24 176
73 24 175
73 25 175
74 26 174
74 26 174
74 27 173
75 28 173
75 28 172
75 29 172
76 30 171
76 30 171
76 31 170
77 31 170
77 32 169
77 33 169
78 33 168
78 34 168
78 35 167
79 35 167
79 36 166
79 37 166
80 37 165
80 38 165
80 38 164
81 39 164
81 40 164
81 40 163
82 41 163
82 42 162
82 42 162
83 43 161
83 44 161
83 44 160
84 45 160
84 46 159
84 46 159
85 47 158
85 47 158
85 48 157
86 49 157
86 49 156
86 50 156
87 51 155
87 51 155
87 52 154
88 53 154
88 53 153
88 54 153
89 54 152
89 55 152
89 56 151
90 56 151
90 57 150
90 58 150
91 58 149
91 59 149
91 60 148
92 60 148
92 61 147
92 61 147
93 62 146
93 63 146
93 63 145
94 64 145
94 65 144
94 65 144
95 66 144
95 67 143
95 67 143
96 68 142
96 69 142
96 69 141
97 70 141
97 70 140
97 71 140
98 72 139
98 72 139
99 73 138
99 74 138
99 74 137
100 75 137
100 76 136
100 76 136
101 77 135
101 77 135
101 78 134
102 79 134
102 79 133
102 80 133
103 81 132
103 81 132
103 82 131
104 83 131
104 83 130
104 84 130
105 85 129
105 85 129
105 86 128
106 86 128
106 87 127
106 88 127
107 88 126
107 89 126
107 90 125
108 90 125
108 91 124
108 92 124
109 92 123
109 93 123
109 93 123
110 94 122
110 95 122
110 95 121
111 96 121
111 97 120
111 97 120
112 98 119
112 99 119
112 99 118
113 100 118
113 100 117
113 101 117
114 102 116
114 102 116
114 103 115
115 104 115
115 104 114
115 105 114
116 106 113
116 106 113
116 107 112
117 108 112
117 108 111
117 109 111
118 109 110
118 110 110
118 111 109
119 111 109
119 112 108
119 113 108
120 113 107
120 114 107
120 115 106
121 115 106
121 116 105
121 116 105
122 117 104
122 118 104
122 118 103
123 119 103
123 120 103
123 120 102
124 121 102
124 122 101
124 122 101
125 123 100
125 123 100
125 124 99
126 125 99
126 125 98
126 126 98
127 127 97
127 127 97
128 128 96
128 129 96
128 129 95
129 130 95
129 131 94
129 131 94
130 132 93
130 132 93
130 133 92
131 134 92
131 134 91
131 135 91
132 136 90
132 136 90
132 137 89
133 138 89
133 138 88
133 139 88
134 139 87
134 140 87
134 141 86
135 141 86
135 142 85
135 143 85
136 143 84
136 144 84
136 145 83
137 145 83
137 146 82
137 146 82
138 147 82
138 148 81
138 148 81
139 149 80
139 150 80
139 150 79
140 151 79
140 152 78
140 152 78
141 153 77
141 154 77
141 154 76
142 155 76
142 155 75
142 156 75
143 157 74
143 157 74
143 158 73
144 159 73
144 159 72
144 160 72
145 161 71
145 161 71
145 162 70
146 162 70
146 163 69
146 164 69
147 164 68
147 165 68
147 166 67
148 166 67
148 167 66
148 168 66
149 168 65
149 169 65
149 170 64
150 170 64
150 171 63
150 171 63
151 172 62
151 173 62
151 173 61
152 174 61
152 175 61
152 175 60
153 176 60
153 177 59
153 177 59
154 178 58
154 178 58
154 179 57
155 180 57
155 180 56
155 181 56
156 182 55
156 182 55
157 183 54
157 184 54
157 184 53
158 185 53
158 185 52
158 186 52
159 187 51
159 187 51
159 188 50
160 189 50
160 189 49
160 190 49
161 191 48
161 191 48
161 192 47
162 193 47
162 193 46
162 194 46
163 194 45
163 195 45
163 196 44
164 196 44
164 197 43
164 198 43
165 198 42
165 199 42
165 200 41
166 200 41
166 201 41
166 201 40
167 202 40
167 203 39
167 203 39
168 204 38
168 205 38
168 205 37
169 206 37
169 207 36
169 207 36
170 208 35
170 208 35
170 209 34
171 210 34
171 210 33
171 211 33
172 212 32
172 212 32
172 213 31
173 214 31
173 214 30
173 215 30
174 216 29
174 216 29
174 217 28
175 217 28
175 218 27
175 219 27
176 219 26
176 220 26
176 221 25
177 221 25
177 222 24
177 223 24
178 223 23
178 224 23
178 224 22
179 225 22
179 226 21
179 226 21
180 227 20
180 228 20
180 228 20
181 229 19
181 230 19
181 230 18
182 231 18
182 231 17
182 232 17
183 233 16
183 233 16
183 234 15
184 235 15
184 235 14
184 236 14
185 237 13
185 237 13
186 238 12
186 239 12
186 239 11
187 240 11
187 240 10
187 241 10
188 242 9
188 242 9
188 243 8
189 244 8
189 244 7
189 245 7
190 246 6
190 246 6
190 247 5
191 247 5
191 248 4
191 249 4
192 249 3
192 250 3
192 251 2
193 251 2
193 252 1
193 253 1
194 253 0
194 254 0
194 255 0
61 0 193
61 0 193
62 1 192
62 1 192
62 2 191
63 3 191
63 3 190
63 4 190
64 5 189
64 5 189
64 6 188
65 7 188
65 7 187
65 8 187
66 8 186
66 9 186
66 10 185
67 10 185
67 11 184
67 12 184
68 12 183
68 13 183
68 14 182
69 14 182
69 15 181
69 15 181
70 16 180
70 17 180
70 17 179
71 18 179
71 19 178
71 19 178
72 20 177
72 21 177
72 21 177
73 22 176
73 23 176
73 23 175
74 24 175
74 24 174
74 25 174
75 26 173
75 26 173
75 27 172
76 28 172
76 28 171
76 29 171
77 30 170
77 30 170
77 31 169
78 31 169
78 32 168
78 33 168
79 33 167
79 34 167
79 35 166
80 35 166
80 36 165
80 37 165
81 37 164
81 38 164
81 38 163
82 39 163
82 40 162
82 40 162
83 41 161
83 42 161
83 42 161
84 43 160
84 44 160
84 44 159
84 45 159
85 46 158
85 46 158
85 47 157
86 47 157
86 48 156
86 49 156
87 49 155
87 50 155
87 51 154
88 51 154
88 52 153
88 53 153
89 53 152
89 54 152
89 54 151
90 55 151
90 56 150
90 56 150
91 57 149
91 58 149
91 58 148
92 59 148
92 60 147
92 60 147
93 61 146
93 61 146
93 62 145
94 63 145
94 63 144
94 64 144
95 65 144
95 65 143
95 66 143
96 67 142
96 67 142
96 68 141
97 69 141
97 69 140
97 70 140
98 70 139
98 71 139
98 72 138
99 72 138
99 73 137
99 74 137
100 74 136
100 75 136
100 76 135
101 76 135
101 77 134
101 77 134
102 78 133
102 79 133
102 79 132
103 80 132
103 81 131
103 81 131
104 82 130
104 83 130
104 83 129
105 84 129
105 85 128
105 85 128
106 86 128
106 86 127
106 87 127
107 88 126
107 88 126
107 89 125
108 90 125
108 90 124
108 91 124
109 92 123
109 92 123
109 93 122
110 93 122
110 94 121
110 95 121
111 95 120
111 96 120
111 97 119
112 97 119
112 98 118
112 99 118
113 99 117
113 100 117
113 100 116
114 101 116
114 102 115
114 102 115
115 103 114
115 104 114
115 104 113
116 105 113
116 106 112
116 106 112
117 107 112
117 108 111
117 108 111
118 109 110
118 109 110
118 110 109
119 111 109
119 111 108
119 112 108
120 113 107
120 113 107
120 114 106
121 115 106
121 115 105
121 116 105
122 116 104
122 117 104
122 118 103
123 118 103
123 119 102
123 120 102
124 120 101
124 121 101
124 122 100
125 122 100
125 123 99
125 123 99
126 124 98
126 125 98
126 125 97
127 126 97
127 127 96
127 127 96
127 128 96
128 129 95
128 129 95
128 130 94
129 131 94
129 131 93
129 132 93
130 132 92
130 133 92
130 134 91
131 134 91
131 135 90
131 136 90
132 136 89
132 137 89
132 138 88
133 138 88
133 139 87
133 139 87
134 140 86
134 141 86
134 141 85
135 142 85
135 143 84
135 143 84
136 144 83
136 145 83
136 145 82
137 146 82
137 146 81
137 147 81
138 148 80
138 148 80
138 149 80
139 150 79
139 150 79
139 151 78
140 152 78
140 152 77
140 153 77
141 154 76
141 154 76
141 155 75
142 155 75
142 156 74
142 157 74
143 157 73
143 158 73
143 159 72
144 159 72
144 160 71
144 161 71
145 161 70
145 162 70
145 162 69
146 163 69
146 164 68
146 164 68
147 165 67
147 166 67
147 166 66
148 167 66
148 168 65
148 168 65
149 169 64
149 170 64
149 170 64
150 171 63
150 171 63
150 172 62
151 173 62
151 173 61
151 174 61
152 175 60
152 175 60
152 176 59
153 177 59
153 177 58
153 178 58
154 178 57
154 179 57
154 180 56
155 180 56
155 181 55
155 182 55
156 182 54
156 183 54
156 184 53
157 184 53
157 185 52
157 185 52
158 186 51
158 187 51
158 187 50
159 188 50
159 189 49
159 189 49
160 190 48
160 191 48
160 191 48
161 192 47
161 193 47
161 193 46
162 194 46
162 194 45
162 195 45
163 196 44
163 196 44
163 197 43
164 198 43
164 198 42
164 199 42
165 200 41
165 200 41
165 201 40
166 201 40
166 202 39
166 203 39
167 203 38
167 204 38
167 205 37
168 205 37
168 206 36
168 207 36
169 207 35
169 208 35
169 208 34
170 209 34
170 210 33
170 210 33
170 211 32
171 212 32
171 212 32
171 213 31
172 214 31
172 214 30
172 215 30
173 216 29
173 216 29
173 217 28
174 217 28
174 218 27
174 219 27
175 219 26
175 220 26
175 221 25
176 221 25
176 222 24
176 223 24
177 223 23
177 224 23
177 224 22
178 225 22
178 226 21
178 226 21
179 227 20
179 228 20
179 228 19
180 229 19
180 230 18
180 230 18
181 231 17
181 231 17
181 232 16
182 233 16
182 233 16
182 234 15
183 235 15
183 235 14
183 236 14
184 237 13
184 237 13
184 238 12
185 239 12
185 239 11
185 240 11
186 240 10
186 241 10
186 242 9
187 242 9
187 243 8
187 244 8
188 244 7
188 245 7
188 246 6
189 246 6
189 247 5
189 247 5
190 248 4
190 249 4
190 249 3
191 250 3
191 251 2
191 251 2
192 252 1
192 253 1
192 253 0
193 254 0
193 255 0
62 0 192
63 0 191
63 1 191
63 1 190
64 2 190
64 3 189
64 3 189
65 4 188
65 5 188
65 5 187
66 6 187
66 7 186
66 7 186
67 8 185
67 8 185
67 9 184
67 10 184
68 10 184
68 11 183
68 12 183
69 12 182
69 13 182
69 14 181
70 14 181
70 15 180
70 15 180
71 16 179
71 17 179
71 17 178
72 18 178
72 19 177
72 19 177
73 20 176
73 21 176
73 21 175
74 22 175
74 23 174
74 23 174
75 24 173
75 24 173
75 25 172
76 26 172
76 26 171
76 27 171
77 28 171
77 28 170
77 29 170
78 30 169
78 30 169
78 31 168
79 31 168
79 32 167
79 33 167
79 33 166
80 34 166
80 35 165
80 35 165
81 36 164
81 37 164
81 37 163
82 38 163
82 38 162
82 39 162
83 40 161
83 40 161
83 41 160
84 42 160
84 42 159
84 43 159
85 44 158
85 44 158
85 45 158
86 46 157
86 46 157
86 47 156
87 47 156
87 48 155
87 49 155
88 49 154
88 50 154
88 51 153
89 51 153
89 52 152
89 53 152
90 53 151
90 54 151
90 54 150
91 55 150
91 56 149
91 56 149
91 57 148
92 58 148
92 58 147
92 59 147
93 60 146
93 60 146
93 61 145
94 61 145
94 62 145
94 63 144
95 63 144
95 64 143
95 65 143
96 65 142
96 66 142
96 67 141
97 67 141
97 68 140
97 69 140
98 69 139
98 70 139
98 70 138
99 71 138
99 72 137
99 72 137
100 73 136
100 74 136
100 74 135
101 75 135
101 76 134
101 76 134
102 77 133
102 77 133
102 78 132
103 79 132
103 79 131
103 80 131
103 81 131
104 81 130
104 82 130
104 83 129
105 83 129
105 84 128
105 85 128
106 85 127
106 86 127
106 86 126
107 87 126
107 88 125
107 88 125
108 89 124
108 90 124
108 90 123
109 91 123
109 92 122
109 92 122
110 93 121
110 93 121
110 94 120
111 95 120
111 95 119
111 96 119
112 97 118
112 97 118
112 98 118
113 99 117
113 99 117
113 100 116
114 100 116
114 101 115
114 102 115
115 102 114
115 103 114
115 104 113
115 104 113
116 105 112
116 106 112
116 106 111
117 107 111
117 108 110
117 108 110
118 109 109
118 109 109
118 110 108
119 111 108
119 111 107
119 112 107
120 113 106
120 113 106
120 114 105
121 115 105
121 115 105
121 116 104
122 116 104
122 117 103
122 118 103
123 118 102
123 119 102
123 120 101
124 120 101
124 121 100
124 122 100
125 122 99
125 123 99
125 123 98
126 124 98
126 125 97
126 125 97
127 126 96
127 127 96
127 127 95
127 128 95
128 129 94
128 129 94
128 130 93
129 131 93
129 131 92
129 132 92
130 132 92
130 133 91
130 134 91
131 134 90
131 135 90
131 136 89
132 136 89
132 137 88
132 138 88
133 138 87
133 139 87
133 139 86
134 140 86
134 141 85
134 141 85
135 142 84
135 143 84
135 143 83
136 144 83
136 145 82
136 145 82
137 146 81
137 146 81
137 147 80
138 148 80
138 148 79
138 149 79
139 150 79
139 150 78
139 151 78
139 152 77
140 152 77
140 153 76
140 154 76
141 154 75
141 155 75
141 155 74
142 156 74
142 157 73
142 157 73
143 158 72
143 159 72
143 159 71
144 160 71
144 161 70
144 161 70
145 162 69
145 162 69
145 163 68
146 164 68
146 164 67
146 165 67
147 166 66
147 166 66
147 167 65
148 168 65
148 168 65
148 169 64
149 170 64
149 170 63
149 171 63
150 171 62
150 172 62
150 173 61
151 173 61
151 174 60
151 175 60
151 175 59
152 176 59
152 177 58
152 177 58
153 178 57
153 178 57
153 179 56
154 180 56
154 180 55
154 181 55
155 182 54
155 182 54
155 183 53
156 184 53
156 184 52
156 185 52
157 185 52
157 186 51
157 187 51
158 187 50
158 188 50
158 189 49
159 189 49
159 190 48
159 191 48
160 191 47
160 192 47
160 193 46
161 193 46
161 194 45
161 194 45
162 195 44
162 196 44
162 196 43
163 197 43
163 198 42
163 198 42
163 199 41
164 200 41
164 200 40
164 201 40
165 201 39
165 202 39
165 203 39
166 203 38
166 204 38
166 205 37
167 205 37
167 206 36
167 207 36
168 207 35
168 208 35
168 208 34
169 209 34
169 210 33
169 210 33
170 211 32
170 212 32
170 212 31
171 213 31
171 214 30
171 214 30
172 215 29
172 216 29
172 216 28
173 217 28
173 217 27
173 218 27
174 219 26
174 219 26
174 220 26
175 221 25
175 221 25
175 222 24
175 223 24
176 223 23
176 224 23
176 224 22
177 225 22
177 226 21
177 226 21
178 227 20
178 228 20
178 228 19
179 229 19
179 230 18
179 230 18
180 231 17
180 231 17
180 232 16
181 233 16
181 233 15
181 234 15
182 235 14
182 235 14
182 236 13
183 237 13
183 237 13
183 238 12
184 239 12
184 239 11
184 240 11
185 240 10
185 241 10
185 242 9
186 242 9
186 243 8
186 244 8
187 244 7
187 245 7
187 246 6
187 246 6
188 247 5
188 247 5
188 248 4
189 249 4
189 249 3
189 250 3
190 251 2
190 251 2
190 252 1
191 253 1
191 253 0
191 254 0
192 255 0
64 0 190
64 0 190
64 1 189
65 1 189
65 2 189
65 3 188
65 3 188
66 4 187
66 5 187
66 5 186
67 6 186
67 7 185
67 7 185
68 8 184
68 8 184
68 9 183
69 10 183
69 10 182
69 11 182
70 12 181
70 12 181
70 13 180
71 14 180
71 14 179
71 15 179
72 15 178
72 16 178
72 17 178
72 17 177
73 18 177
73 19 176
73 19 176
74 20 175
74 21 175
74 21 174
75 22 174
75 23 173
75 23 173
76 24 172
76 24 172
76 25 171
77 26 171
77 26 170
77 27 170
78 28 169
78 28 169
78 29 168
79 30 168
79 30 167
79 31 167
79 31 167
80 32 166
80 33 166
80 33 165
81 34 165
81 35 164
81 35 164
82 36 163
82 37 163
82 37 162
83 38 162
83 38 161
83 39 161
84 40 160
84 40 160
84 41 159
85 42 159
85 42 158
85 43 158
86 44 157
86 44 157
86 45 156
86 46 156
87 46 155
87 47 155
87 47 155
88 48 154
88 49 154
88 49 153
89 50 153
89 51 152
89 51 152
90 52 151
90 53 151
90 53 150
91 54 150
91 54 149
91 55 149
92 56 148
92 56 148
92 57 147
93 58 147
93 58 146
93 59 146
93 60 145
94 60 145
94 61 144
94 61 144
95 62 144
95 63 143
95 63 143
96 64 142
96 65 142
96 65 141
97 66 141
97 67 140
97 67 140
98 68 139
98 69 139
98 69 138
99 70 138
99 70 137
99 71 137
99 72 136
100 72 136
100 73 135
100 74 135
101 74 134
101 75 134
101 76 133
102 76 133
102 77 133
102 77 132
103 78 132
103 79 131
103 79 131
104 80 130
104 81 130
104 81 129
105 82 129
105 83 128
105 83 128
106 84 127
106 85 127
106 85 126
106 86 126
107 86 125
107 87 125
107 88 124
108 88 124
108 89 123
108 90 123
109 90 122
109 91 122
109 92 122
110 92 121
110 93 121
110 93 120
111 94 120
111 95 119
111 95 119
112 96 118
112 97 118
112 97 117
113 98 117
113 99 116
113 99 116
113 100 115
114 100 115
114 101 114
114 102 114
115 102 113
115 103 113
115 104 112
116 104 112
116 105 111
116 106 111
117 106 111
117 107 110
117 108 110
118 108 109
118 109 109
118 109 108
119 110 108
119 111 107
119 111 107
120 112 106
120 113 106
120 113 105
120 114 105
121 115 104
121 115 104
121 116 103
122 116 103
122 117 102
122 118 102
123 118 101
123 119 101
123 120 100
124 120 100
124 121 100
124 122 99
125 122 99
125 123 98
125 123 98
126 124 97
126 125 97
126 125 96
127 126 96
127 127 95
127 127 95
127 128 94
128 129 94
128 129 93
128 130 93
129 131 92
129 131 92
129 132 91
130 132 91
130 133 90
130 134 90
131 134 89
131 135 89
131 136 89
132 136 88
132 137 88
132 138 87
133 138 87
133 139 86
133 139 86
134 140 85
134 141 85
134 141 84
134 142 84
135 143 83
135 143 83
135 144 82
136 145 82
136 145 81
136 146 81
137 146 80
137 147 80
137 148 79
138 148 79
138 149 78
138 150 78
139 150 77
139 151 77
139 152 77
140 152 76
140 153 76
140 154 75
141 154 75
141 155 74
141 155 74
141 156 73
142 157 73
142 157 72
142 158 72
143 159 71
143 159 71
143 160 70
144 161 70
144 161 69
144 162 69
145 162 68
145 163 68
145 164 67
146 164 67
146 165 66
146 166 66
147 166 66
147 167 65
147 168 65
148 168 64
148 169 64
148 170 63
148 170 63
149 171 62
149 171 62
149 172 61
150 173 61
150 173 60
150 174 60
151 175 59
151 175 59
151 176 58
152 177 58
152 177 57
152 178 57
153 178 56
153 179 56
153 180 55
154 180 55
154 181 55
154 182 54
155 182 54
155 183 53
155 184 53
155 184 52
156 185 52
156 185 51
156 186 51
157 187 50
157 187 50
157 188 49
158 189 49
158 189 48
158 190 48
159 191 47
159 191 47
159 192 46
160 193 46
160 193 45
160 194 45
161 194 44
161 195 44
161 196 44
161 196 43
162 197 43
162 198 42
162 198 42
163 199 41
163 200 41
163 200 40
164 201 40
164 201 39
164 202 39
165 203 38
165 203 38
165 204 37
166 205 37
166 205 36
166 206 36
167 207 35
167 207 35
167 208 34
168 208 34
168 209 33
168 210 33
168 210 33
169 211 32
169 212 32
169 212 31
170 213 31
170 214 30
170 214 30
171 215 29
171 216 29
171 216 28
172 217 28
172 217 27
172 218 27
173 219 26
173 219 26
173 220 25
174 221 25
174 221 24
174 222 24
175 223 23
175 223 23
175 224 22
175 224 22
176 225 22
176 226 21
176 226 21
177 227 20
177 228 20
177 228 19
178 229 19
178 230 18
178 230 18
179 231 17
179 231 17
179 232 16
180 233 16
180 233 15
180 234 15
181 235 14
181 235 14
181 236 13
182 237 13
182 237 12
182 238 12
182 239 11
183 239 11
183 240 11
183 240 10
184 241 10
184 242 9
184 242 9
185 243 8
185 244 8
185 244 7
186 245 7
186 246 6
186 246 6
187 247 5
187 247 5
187 248 4
188 249 4
188 249 3
188 250 3
189 251 2
189 251 2
189 252 1
189 253 1
190 253 0
190 254 0
190 255 0
65 0 189
65 0 189
65 1 188
66 1 188
66 2 187
66 3 187
67 3 186
67 4 186
67 5 185
68 5 185
68 6 184
68 7 184
69 7 183
69 8 183
69 8 182
70 9 182
70 10 182
70 10 181
70 11 181
71 12 180
71 12 180
71 13 179
72 14 179
72 14 178
72 15 178
73 15 177
73 16 177
73 17 176
74 17 176
74 18 175
74 19 175
75 19 174
75 20 174
75 21 173
75 21 173
76 22 173
76 23 172
76 23 172
77 24 171
77 24 171
77 25 170
78 26 170
78 26 169
78 27 169
79 28 168
79 28 168
79 29 167
79 30 167
80 30 166
80 31 166
80 31 165
81 32 165
81 33 164
81 33 164
82 34 163
82 35 163
82 35 163
83 36 162
83 37 162
83 37 161
84 38 161
84 38 160
84 39 160
84 40 159
85 40 159
85 41 158
85 42 158
86 42 157
86 43 157
86 44 156
87 44 156
87 45 155
87 46 155
88 46 154
88 47 154
88 47 154
89 48 153
89 49 153
89 49 152
89 50 152
90 51 151
90 51 151
90 52 150
91 53 150
91 53 149
91 54 149
92 54 148
92 55 148
92 56 147
93 56 147
93 57 146
93 58 146
94 58 145
94 59 145
94 60 144
94 60 144
95 61 144
95 61 143
95 62 143
96 63 142
96 63 142
96 64 141
97 65 141
97 65 140
97 66 140
98 67 139
98 67 139
98 68 138
98 69 138
99 69 137
99 70 137
99 70 136
100 71 136
100 72 135
100 72 135
101 73 134
101 74 134
101 74 134
102 75 133
102 76 133
102 76 132
103 77 132
103 77 131
103 78 131
103 79 130
104 79 130
104 80 129
104 81 129
105 81 128
105 82 128
105 83 127
106 83 127
106 84 126
106 85 126
107 85 125
107 86 125
107 86 125
108 87 124
108 88 124
108 88 123
108 89 123
109 90 122
109 90 122
109 91 121
110 92 121
110 92 120
110 93 120
111 93 119
111 94 119
111 95 118
112 95 118
112 96 117
112 97 117
113 97 116
113 98 116
113 99 115
113 99 115
114 100 115
114 100 114
114 101 114
115 102 113
115 102 113
115 103 112
116 104 112
116 104 111
116 105 111
117 106 110
117 106 110
117 107 109
117 108 109
118 108 108
118 109 108
118 109 107
119 110 107
119 111 106
119 111 106
120 112 105
120 113 105
120 113 105
121 114 104
121 115 104
121 115 103
122 116 103
122 116 102
122 117 102
122 118 101
123 118 101
123 119 100
123 120 100
124 120 99
124 121 99
124 122 98
125 122 98
125 123 97
125 123 97
126 124 96
126 125 96
126 125 96
127 126 95
127 127 95
127 127 94
127 128 94
128 129 93
128 129 93
128 130 92
129 131 92
129 131 91
129 132 91
130 132 90
130 133 90
130 134 89
131 134 89
131 135 88
131 136 88
132 136 87
132 137 87
132 138 86
132 138 86
133 139 86
133 139 85
133 140 85
134 141 84
134 141 84
134 142 83
135 143 83
135 143 82
135 144 82
136 145 81
136 145 81
136 146 80
137 146 80
137 147 79
137 148 79
137 148 78
138 149 78
138 150 77
138 150 77
139 151 77
139 152 76
139 152 76
140 153 75
140 154 75
140 154 74
141 155 74
141 155 73
141 156 73
141 157 72
142 157 72
142 158 71
142 159 71
143 159 70
143 160 70
143 161 69
144 161 69
144 162 68
144 162 68
145 163 67
145 164 67
145 164 67
146 165 66
146 166 66
146 166 65
146 167 65
147 168 64
147 168 64
147 169 63
148 170 63
148 170 62
148 171 62
149 171 61
149 172 61
149 173 60
150 173 60
150 174 59
150 175 59
151 175 58
151 176 58
151 177 57
151 177 57
152 178 57
152 178 56
152 179 56
153 180 55
153 180 55
153 181 54
154 182 54
154 182 53
154 183 53
155 184 52
155 184 52
155 185 51
156 185 51
156 186 50
156 187 50
156 187 49
157 188 49
157 189 48
157 189 48
158 190 48
158 191 47
158 191 47
159 192 46
159 193 46
159 193 45
160 194 45
160 194 44
160 195 44
160 196 43
161 196 43
161 197 42
161 198 42
162 198 41
162 199 41
162 200 40
163 200 40
163 201 39
163 201 39
164 202 38
164 203 38
164 203 38
165 204 37
165 205 37
165 205 36
165 206 36
166 207 35
166 207 35
166 208 34
167 208 34
167 209 33
167 210 33
168 210 32
168 211 32
168 212 31
169 212 31
169 213 30
169 214 30
170 214 29
170 215 29
170 216 28
170 216 28
171 217 28
171 217 27
171 218 27
172 219 26
172 219 26
172 220 25
173 221 25
173 221 24
173 222 24
174 223 23
174 223 23
174 224 22
175 224 22
175 225 21
175 226 21
175 226 20
176 227 20
176 228 19
176 228 19
177 229 19
177 230 18
177 230 18
178 231 17
178 231 17
178 232 16
179 233 16
179 233 15
179 234 15
179 235 14
180 235 14
180 236 13
180 237 13
181 237 12
181 238 12
181 239 11
182 239 11
182 240 10
182 240 10
183 241 9
183 242 9
183 242 9
184 243 8
184 244 8
184 244 7
184 245 7
185 246 6
185 246 6
185 247 5
186 247 5
186 248 4
186 249 4
187 249 3
187 250 3
187 251 2
188 251 2
188 252 1
188 253 1
189 253 0
189 254 0
189 255 0
66 0 188
66 0 187
67 1 187
67 1 186
67 2 186
68 3 186
68 3 185
68 4 185
69 5 184
69 5 184
69 6 183
69 7 183
70 7 182
70 8 182
70 8 181
71 9 181
71 10 180
71 10 180
72 11 179
72 12 179
72 12 178
73 13 178
73 14 177
73 14 177
73 15 177
74 15 176
74 16 176
74 17 175
75 17 175
75 18 174
75 19 174
76 19 173
76 20 173
76 21 172
77 21 172
77 22 171
77 23 171
77 23 170
78 24 170
78 24 169
78 25 169
79 26 169
79 26 168
79 27 168
80 28 167
80 28 167
80 29 166
80 30 166
81 30 165
81 31 165
81 31 164
82 32 164
82 33 163
82 33 163
83 34 162
83 35 162
83 35 161
84 36 161
84 37 160
84 37 160
84 38 160
85 38 159
85 39 159
85 40 158
86 40 158
86 41 157
86 42 157
87 42 156
87 43 156
87 44 155
87 44 155
88 45 154
88 46 154
88 46 153
89 47 153
89 47 152
89 48 152
90 49 152
90 49 151
90 50 151
91 51 150
91 51 150
91 52 149
91 53 149
92 53 148
92 54 148
92 54 147
93 55 147
93 56 146
93 56 146
94 57 145
94 58 145
94 58 144
95 59 144
95 60 143
95 60 143
95 61 143
96 61 142
96 62 142
96 63 141
97 63 141
97 64 140
97 65 140
98 65 139
98 66 139
98 67 138
98 67 138
99 68 137
99 69 137
99 69 136
100 70 136
100 70 135
100 71 135
101 72 135
101 72 134
101 73 134
102 74 133
102 74 133
102 75 132
102 76 132
103 76 131
103 77 131
103 77 130
104 78 130
104 79 129
104 79 129
105 80 128
105 81 128
105 81 127
105 82 127
106 83 126
106 83 126
106 84 126
107 85 125
107 85 125
107 86 124
108 86 124
108 87 123
108 88 123
109 88 122
109 89 122
109 90 121
109 90 121
110 91 120
110 92 120
110 92 119
111 93 119
111 93 118
111 94 118
112 95 118
112 95 117
112 96 117
113 97 116
113 97 116
113 98 115
113 99 115
114 99 114
114 100 114
114 100 113
115 101 113
115 102 112
115 102 112
116 103 111
116 104 111
116 104 110
116 105 110
117 106 109
117 106 109
117 107 109
118 108 108
118 108 108
118 109 107
119 109 107
119 110 106
119 111 106
120 111 105
120 112 105
120 113 104
120 113 104
121 114 103
121 115 103
121 115 102
122 116 102
122 116 101
122 117 101
123 118 101
123 118 100
123 119 100
123 120 99
124 120 99
124 121 98
124 122 98
125 122 97
125 123 97
125 123 96
126 124 96
126 125 95
126 125 95
127 126 94
127 127 94
127 127 93
127 128 93
128 129 93
128 129 92
128 130 92
129 131 91
129 131 91
129 132 90
130 132 90
130 133 89
130 134 89
131 134 88
131 135 88
131 136 87
131 136 87
132 137 86
132 138 86
132 138 85
133 139 85
133 139 84
133 140 84
134 141 84
134 141 83
134 142 83
134 143 82
135 143 82
135 144 81
135 145 81
136 145 80
136 146 80
136 146 79
137 147 79
137 148 78
137 148 78
138 149 77
138 150 77
138 150 76
138 151 76
139 152 76
139 152 75
139 153 75
140 154 74
140 154 74
140 155 73
141 155 73
141 156 72
141 157 72
141 157 71
142 158 71
142 159 70
142 159 70
143 160 69
143 161 69
143 161 68
144 162 68
144 162 67
144 163 67
145 164 67
145 164 66
145 165 66
145 166 65
146 166 65
146 167 64
146 168 64
147 168 63
147 169 63
147 170 62
148 170 62
148 171 61
148 171 61
149 172 60
149 173 60
149 173 59
149 174 59
150 175 59
150 175 58
150 176 58
151 177 57
151 177 57
151 178 56
152 178 56
152 179 55
152 180 55
152 180 54
153 181 54
153 182 53
153 182 53
154 183 52
154 184 52
154 184 51
155 185 51
155 185 50
155 186 50
156 187 50
156 187 49
156 188 49
156 189 48
157 189 48
157 190 47
157 191 47
158 191 46
158 192 46
158 193 45
159 193 45
159 194 44
159 194 44
159 195 43
160 196 43
160 196 42
160 197 42
161 198 42
161 198 41
161 199 41
162 200 40
162 200 40
162 201 39
163 201 39
163 202 38
163 203 38
163 203 37
164 204 37
164 205 36
164 205 36
165 206 35
165 207 35
165 207 34
166 208 34
166 208 33
166 209 33
167 210 33
167 210 32
167 211 32
167 212 31
168 212 31
168 213 30
168 214 30
169 214 29
169 215 29
169 216 28
170 216 28
170 217 27
170 217 27
170 218 26
171 219 26
171 219 25
171 220 25
172 221 25
172 221 24
172 222 24
173 223 23
173 223 23
173 224 22
174 224 22
174 225 21
174 226 21
174 226 20
175 227 20
175 228 19
175 228 19
176 229 18
176 230 18
176 230 17
177 231 17
177 231 16
177 232 16
177 233 16
178 233 15
178 234 15
178 235 14
179 235 14
179 236 13
179 237 13
180 237 12
180 238 12
180 239 11
181 239 11
181 240 10
181 240 10
181 241 9
182 242 9
182 242 8
182 243 8
183 244 8
183 244 7
183 245 7
184 246 6
184 246 6
184 247 5
185 247 5
185 248 4
185 249 4
185 249 3
186 250 3
186 251 2
186 251 2
187 252 1
187 253 1
187 253 0
188 254 0
188 255 0
67 0 187
68 0 186
68 1 186
68 1 185
69 2 185
69 3 184
69 3 184
70 4 183
70 5 183
70 5 182
70 6 182
71 7 181
71 7 181
71 8 180
72 8 180
72 9 180
72 10 179
72 10 179
73 11 178
73 12 178
73 12 177
74 13 177
74 14 176
74 14 176
75 15 175
75 15 175
75 16 174
75 17 174
76 17 173
76 18 173
76 19 173
77 19 172
77 20 172
77 21 171
78 21 171
78 22 170
78 23 170
78 23 169
79 24 169
79 24 168
79 25 168
80 26 167
80 26 167
80 27 166
81 28 166
81 28 165
81 29 165
81 30 165
82 30 164
82 31 164
82 31 163
83 32 163
83 33 162
83 33 162
84 34 161
84 35 161
84 35 160
84 36 160
85 37 159
85 37 159
85 38 158
86 38 158
86 39 158
86 40 157
87 40 157
87 41 156
87 42 156
87 42 155
88 43 155
88 44 154
88 44 154
89 45 153
89 46 153
89 46 152
90 47 152
90 47 151
90 48 151
90 49 150
91 49 150
91 50 150
91 51 149
92 51 149
92 52 148
92 53 148
93 53 147
93 54 147
93 54 146
93 55 146
94 56 145
94 56 145
94 57 144
95 58 144
95 58 143
95 59 143
95 60 143
96 60 142
96 61 142
96 61 141
97 62 141
97 63 140
97 63 140
98 64 139
98 65 139
98 65 138
98 66 138
99 67 137
99 67 137
99 68 136
100 69 136
100 69 135
100 70 135
101 70 135
101 71 134
101 72 134
101 72 133
102 73 133
102 74 132
102 74 132
103 75 131
103 76 131
103 76 130
104 77 130
104 77 129
104 78 129
104 79 128
105 79 128
105 80 128
105 81 127
106 81 127
106 82 126
106 83 126
107 83 125
107 84 125
107 85 124
107 85 124
108 86 123
108 86 123
108 87 122
109 88 122
109 88 121
109 89 121
110 90 120
110 90 120
110 91 120
110 92 119
111 92 119
111 93 118
111 93 118
112 94 117
112 95 117
112 95 116
113 96 116
113 97 115
113 97 115
113 98 114
114 99 114
114 99 113
114 100 113
115 100 113
115 101 112
115 102 112
116 102 111
116 103 111
116 104 110
116 104 110
117 105 109
117 106 109
117 106 108
118 107 108
118 108 107
118 108 107
118 109 106
119 109 106
119 110 105
119 111 105
120 111 105
120 112 104
120 113 104
121 113 103
121 114 103
121 115 102
121 115 102
122 116 101
122 116 101
122 117 100
123 118 100
123 118 99
123 119 99
124 120 98
124 120 98
124 121 97
124 122 97
125 122 97
125 123 96
125 123 96
126 124 95
126 125 95
126 125 94
127 126 94
127 127 93
127 127 93
127 128 92
128 129 92
128 129 91
128 130 91
129 131 90
129 131 90
129 132 90
130 132 89
130 133 89
130 134 88
130 134 88
131 135 87
131 136 87
131 136 86
132 137 86
132 138 85
132 138 85
133 139 84
133 139 84
133 140 83
133 141 83
134 141 82
134 142 82
134 143 82
135 143 81
135 144 81
135 145 80
136 145 80
136 146 79
136 146 79
136 147 78
137 148 78
137 148 77
137 149 77
138 150 76
138 150 76
138 151 75
138 152 75
139 152 75
139 153 74
139 154 74
140 154 73
140 155 73
140 155 72
141 156 72
141 157 71
141 157 71
141 158 70
142 159 70
142 159 69
142 160 69
143 161 68
143 161 68
143 162 67
144 162 67
144 163 67
144 164 66
144 164 66
145 165 65
145 166 65
145 166 64
146 167 64
146 168 63
146 168 63
147 169 62
147 170 62
147 170 61
147 171 61
148 171 60
148 172 60
148 173 60
149 173 59
149 174 59
149 175 58
150 175 58
150 176 57
150 177 57
150 177 56
151 178 56
151 178 55
151 179 55
152 180 54
152 180 54
152 181 53
153 182 53
153 182 52
153 183 52
153 184 52
154 184 51
154 185 51
154 185 50
155 186 50
155 187 49
155 187 49
156 188 48
156 189 48
156 189 47
156 190 47
157 191 46
157 191 46
157 192 45
158 193 45
158 193 45
158 194 44
159 194 44
159 195 43
159 196 43
159 196 42
160 197 42
160 198 41
160 198 41
161 199 40
161 200 40
161 200 39
161 201 39
162 201 38
162 202 38
162 203 37
163 203 37
163 204 37
163 205 36
164 205 36
164 206 35
164 207 35
164 207 34
165 208 34
165 208 33
165 209 33
166 210 32
166 210 32
166 211 31
167 212 31
167 212 30
167 213 30
167 214 30
168 214 29
168 215 29
168 216 28
169 216 28
169 217 27
169 217 27
170 218 26
170 219 26
170 219 25
170 220 25
171 221 24
171 221 24
171 222 23
172 223 23
172 223 22
172 224 22
173 224 22
173 225 21
173 226 21
173 226 20
174 227 20
174 228 19
174 228 19
175 229 18
175 230 18
175 230 17
176 231 17
176 231 16
176 232 16
176 233 15
177 233 15
177 234 15
177 235 14
178 235 14
178 236 13
178 237 13
179 237 12
179 238 12
179 239 11
179 239 11
180 240 10
180 240 10
180 241 9
181 242 9
181 242 8
181 243 8
182 244 7
182 244 7
182 245 7
182 246 6
183 246 6
183 247 5
183 247 5
184 248 4
184 249 4
184 249 3
184 250 3
185 251 2
185 251 2
185 252 1
186 253 1
186 253 0
186 254 0
187 255 0
69 0 185
69 0 185
69 1 184
70 1 184
70 2 183
70 3 183
70 3 183
71 4 182
71 5 182
71 5 181
72 6 181
72 7 180
72 7 180
72 8 179
73 8 179
73 9 178
73 10 178
74 10 177
74 11 177
74 12 176
75 12 176
75 13 176
75 14 175
75 14 175
76 15 174
76 15 174
76 16 173
77 17 173
77 17 172
77 18 172
77 19 171
78 19 171
78 20 170
78 21 170
79 21 169
79 22 169
79 23 169
80 23 168
80 24 168
80 24 167
80 25 167
81 26 166
81 26 166
81 27 165
82 28 165
82 28 164
82 29 164
82 30 163
83 30 163
83 31 162
83 31 162
84 32 162
84 33 161
84 33 161
84 34 160
85 35 160
85 35 159
85 36 159
86 37 158
86 37 158
86 38 157
87 38 157
87 39 156
87 40 156
87 40 156
88 41 155
88 42 155
88 42 154
89 43 154
89 44 153
89 44 153
89 45 152
90 46 152
90 46 151
90 47 151
91 47 150
91 48 150
91 49 149
91 49 149
92 50 149
92 51 148
92 51 148
93 52 147
93 53 147
93 53 146
94 54 146
94 54 145
94 55 145
94 56 144
95 56 144
95 57 143
95 58 143
96 58 142
96 59 142
96 60 142
96 60 141
97 61 141
97 61 140
97 62 140
98 63 139
98 63 139
98 64 138
99 65 138
99 65 137
99 66 137
99 67 136
100 67 136
100 68 135
100 69 135
101 69 135
101 70 134
101 70 134
101 71 133
102 72 133
102 72 132
102 73 132
103 74 131
103 74 131
103 75 130
103 76 130
104 76 129
104 77 129
104 77 128
105 78 128
105 79 128
105 79 127
106 80 127
106 81 126
106 81 126
106 82 125
107 83 125
107 83 124
107 84 124
108 85 123
108 85 123
108 86 122
108 86 122
109 87 122
109 88 121
109 88 121
110 89 120
110 90 120
110 90 119
110 91 119
111 92 118
111 92 118
111 93 117
112 93 117
112 94 116
112 95 116
113 95 115
113 96 115
113 97 115
113 97 114
114 98 114
114 99 113
114 99 113
115 100 112
115 100 112
115 101 111
115 102 111
116 102 110
116 103 110
116 104 109
117 104 109
117 105 108
117 106 108
118 106 108
118 107 107
118 108 107
118 108 106
119 109 106
119 109 105
119 110 105
120 111 104
120 111 104
120 112 103
120 113 103
121 113 102
121 114 102
121 115 101
122 115 101
122 116 101
122 116 100
122 117 100
123 118 99
123 118 99
123 119 98
124 120 98
124 120 97
124 121 97
125 122 96
125 122 96
125 123 95
125 123 95
126 124 94
126 125 94
126 125 94
127 126 93
127 127 93
127 127 92
127 128 92
128 129 91
128 129 91
128 130 90
129 131 90
129 131 89
129 132 89
129 132 88
130 133 88
130 134 88
130 134 87
131 135 87
131 136 86
131 136 86
132 137 85
132 138 85
132 138 84
132 139 84
133 139 83
133 140 83
133 141 82
134 141 82
134 142 81
134 143 81
134 143 81
135 144 80
135 145 80
135 145 79
136 146 79
136 146 78
136 147 78
136 148 77
137 148 77
137 149 76
137 150 76
138 150 75
138 151 75
138 152 74
139 152 74
139 153 74
139 154 73
139 154 73
140 155 72
140 155 72
140 156 71
141 157 71
141 157 70
141 158 70
141 159 69
142 159 69
142 160 68
142 161 68
143 161 67
143 162 67
143 162 67
144 163 66
144 164 66
144 164 65
144 165 65
145 166 64
145 166 64
145 167 63
146 168 63
146 168 62
146 169 62
146 170 61
147 170 61
147 171 61
147 171 60
148 172 60
148 173 59
148 173 59
148 174 58
149 175 58
149 175 57
149 176 57
150 177 56
150 177 56
150 178 55
151 178 55
151 179 54
151 180 54
151 180 54
152 181 53
152 182 53
152 182 52
153 183 52
153 184 51
153 184 51
153 185 50
154 185 50
154 186 49
154 187 49
155 187 48
155 188 48
155 189 47
155 189 47
156 190 47
156 191 46
156 191 46
157 192 45
157 193 45
157 193 44
158 194 44
158 194 43
158 195 43
158 196 42
159 196 42
159 197 41
159 198 41
160 198 40
160 199 40
160 200 40
160 200 39
161 201 39
161 201 38
161 202 38
162 203 37
162 203 37
162 204 36
163 205 36
163 205 35
163 206 35
163 207 34
164 207 34
164 208 33
164 208 33
165 209 33
165 210 32
165 210 32
165 211 31
166 212 31
166 212 30
166 213 30
167 214 29
167 214 29
167 215 28
167 216 28
168 216 27
168 217 27
168 217 27
169 218 26
169 219 26
169 219 25
170 220 25
170 221 24
170 221 24
170 222 23
171 223 23
171 223 22
171 224 22
172 224 21
172 225 21
172 226 20
172 226 20
173 227 20
173 228 19
173 228 19
174 229 18
174 230 18
174 230 17
174 231 17
175 231 16
175 232 16
175 233 15
176 233 15
176 234 14
176 235 14
177 235 13
177 236 13
177 237 13
177 237 12
178 238 12
178 239 11
178 239 11
179 240 10
179 240 10
179 241 9
179 242 9
180 242 8
180 243 8
180 244 7
181 244 7
181 245 6
181 246 6
182 246 6
182 247 5
182 247 5
182 248 4
183 249 4
183 249 3
183 250 3
184 251 2
184 251 2
184 252 1
184 253 1
185 253 0
185 254 0
185 255 0
70 0 184
70 0 184
71 1 183
71 1 183
71 2 182
71 3 182
72 3 181
72 4 181
72 5 180
73 5 180
73 6 179
73 7 179
73 7 178
74 8 178
74 8 178
74 9 177
75 10 177
75 10 176
75 11 176
75 12 175
76 12 175
76 13 174
76 14 174
77 14 173
77 15 173
77 15 172
77 16 172
78 17 172
78 17 171
78 18 171
79 19 170
79 19 170
79 20 169
79 21 169
80 21 168
80 22 168
80 23 167
81 23 167
81 24 166
81 24 166
81 25 166
82 26 165
82 26 165
82 27 164
83 28 164
83 28 163
83 29 163
83 30 162
84 30 162
84 31 161
84 31 161
85 32 160
85 33 160
85 33 160
85 34 159
86 35 159
86 35 158
86 36 158
87 37 157
87 37 157
87 38 156
87 38 156
88 39 155
88 40 155
88 40 154
89 41 154
89 42 154
89 42 153
89 43 153
90 44 152
90 44 152
90 45 151
91 46 151
91 46 150
91 47 150
91 47 149
92 48 149
92 49 148
92 49 148
93 50 147
93 51 147
93 51 147
93 52 146
94 53 146
94 53 145
94 54 145
95 54 144
95 55 144
95 56 143
95 56 143
96 57 142
96 58 142
96 58 141
97 59 141
97 60 141
97 60 140
97 61 140
98 61 139
98 62 139
98 63 138
99 63 138
99 64 137
99 65 137
99 65 136
100 66 136
100 67 135
100 67 135
101 68 135
101 69 134
101 69 134
101 70 133
102 70 133
102 71 132
102 72 132
103 72 131
103 73 131
103 74 130
103 74 130
104 75 129
104 76 129
104 76 129
105 77 128
105 77 128
105 78 127
105 79 127
106 79 126
106 80 126
106 81 125
107 81 125
107 82 124
107 83 124
107 83 123
108 84 123
108 85 123
108 85 122
109 86 122
109 86 121
109 87 121
109 88 120
110 88 120
110 89 119
110 90 119
111 90 118
111 91 118
111 92 117
111 92 117
112 93 117
112 93 116
112 94 116
113 95 115
113 95 115
113 96 114
113 97 114
114 97 113
114 98 113
114 99 112
115 99 112
115 100 111
115 100 111
115 101 110
116 102 110
116 102 110
116 103 109
117 104 109
117 104 108
117 105 108
117 106 107
118 106 107
118 107 106
118 108 106
119 108 105
119 109 105
119 109 104
119 110 104
120 111 104
120 111 103
120 112 103
121 113 102
121 113 102
121 114 101
121 115 101
122 115 100
122 116 100
122 116 99
123 117 99
123 118 98
123 118 98
123 119 98
124 120 97
124 120 97
124 121 96
125 122 96
125 122 95
125 123 95
125 123 94
126 124 94
126 125 93
126 125 93
127 126 92
127 127 92
127 127 92
127 128 91
128 129 91
128 129 90
128 130 90
129 131 89
129 131 89
129 132 88
129 132 88
130 133 87
130 134 87
130 134 86
131 135 86
131 136 86
131 136 85
131 137 85
132 138 84
132 138 84
132 139 83
133 139 83
133 140 82
133 141 82
133 141 81
134 142 81
134 143 80
134 143 80
135 144 80
135 145 79
135 145 79
135 146 78
136 146 78
136 147 77
136 148 77
137 148 76
137 149 76
137 150 75
137 150 75
138 151 74
138 152 74
138 152 73
139 153 73
139 154 73
139 154 72
139 155 72
140 155 71
140 156 71
140 157 70
141 157 70
141 158 69
141 159 69
141 159 68
142 160 68
142 161 67
142 161 67
143 162 67
143 162 66
143 163 66
143 164 65
144 164 65
144 165 64
144 166 64
145 166 63
145 167 63
145 168 62
145 168 62
146 169 61
146 170 61
146 170 61
147 171 60
147 171 60
147 172 59
147 173 59
148 173 58
148 174 58
148 175 57
149 175 57
149 176 56
149 177 56
149 177 55
150 178 55
150 178 55
150 179 54
151 180 54
151 180 53
151 181 53
151 182 52
152 182 52
152 183 51
152 184 51
153 184 50
153 185 50
153 185 49
153 186 49
154 187 49
154 187 48
154 188 48
155 189 47
155 189 47
155 190 46
155 191 46
156 191 45
156 192 45
156 193 44
157 193 44
157 194 43
157 194 43
157 195 43
158 196 42
158 196 42
158 197 41
159 198 41
159 198 40
159 199 40
159 200 39
160 200 39
160 201 38
160 201 38
161 202 37
161 203 37
161 203 36
161 204 36
162 205 36
162 205 35
162 206 35
163 207 34
163 207 34
163 208 33
163 208 33
164 209 32
164 210 32
164 210 31
165 211 31
165 212 30
165 212 30
165 213 30
166 214 29
166 214 29
166 215 28
167 216 28
167 216 27
167 217 27
167 217 26
168 218 26
168 219 25
168 219 25
169 220 24
169 221 24
169 221 24
169 222 23
170 223 23
170 223 22
170 224 22
171 224 21
171 225 21
171 226 20
171 226 20
172 227 19
172 228 19
172 228 18
173 229 18
173 230 18
173 230 17
173 231 17
174 231 16
174 232 16
174 233 15
175 233 15
175 234 14
175 235 14
175 235 13
176 236 13
176 237 12
176 237 12
177 238 12
177 239 11
177 239 11
177 240 10
178 240 10
178 241 9
178 242 9
179 242 8
179 243 8
179 244 7
179 244 7
180 245 6
180 246 6
180 246 6
181 247 5
181 247 5
181 248 4
181 249 4
182 249 3
182 250 3
182 251 2
183 251 2
183 252 1
183 253 1
183 253 0
184 254 0
184 255 0
71 0 183
72 0 182
72 1 182
72 1 181
72 2 181
73 3 180
73 3 180
73 4 180
73 5 179
74 5 179
74 6 178
74 7 178
75 7 177
75 8 177
75 8 176
75 9 176
76 10 175
76 10 175
76 11 174
77 12 174
77 12 174
77 13 173
77 14 173
78 14 172
78 15 172
78 15 171
79 16 171
79 17 170
79 17 170
79 18 169
80 19 169
80 19 169
80 20 168
80 21 168
81 21 167
81 22 167
81 23 166
82 23 166
82 24 165
82 24 165
82 25 164
83 26 164
83 26 163
83 27 163
84 28 163
84 28 162
84 29 162
84 30 161
85 30 161
85 31 160
85 31 160
86 32 159
86 33 159
86 33 158
86 34 158
87 35 157
87 35 157
87 36 157
87 37 156
88 37 156
88 38 155
88 38 155
89 39 154
89 40 154
89 40 153
89 41 153
90 42 152
90 42 152
90 43 152
91 44 151
91 44 151
91 45 150
91 46 150
92 46 149
92 47 149
92 47 148
92 48 148
93 49 147
93 49 147
93 50 146
94 51 146
94 51 146
94 52 145
94 53 145
95 53 144
95 54 144
95 54 143
96 55 143
96 56 142
96 56 142
96 57 141
97 58 141
97 58 140
97 59 140
98 60 140
98 60 139
98 61 139
98 61 138
99 62 138
99 63 137
99 63 137
99 64 136
100 65 136
100 65 135
100 66 135
101 67 135
101 67 134
101 68 134
101 69 133
102 69 133
102 70 132
102 70 132
103 71 131
103 72 131
103 72 130
103 73 130
104 74 129
104 74 129
104 75 129
105 76 128
105 76 128
105 77 127
105 77 127
106 78 126
106 79 126
106 79 125
106 80 125
107 81 124
107 81 124
107 82 123
108 83 123
108 83 123
108 84 122
108 85 122
109 85 121
109 86 121
109 86 120
110 87 120
110 88 119
110 88 119
110 89 118
111 90 118
111 90 118
111 91 117
111 92 117
112 92 116
112 93 116
112 93 115
113 94 115
113 95 114
113 95 114
113 96 113
114 97 113
114 97 112
114 98 112
115 99 112
115 99 111
115 100 111
115 100 110
116 101 110
116 102 109
116 102 109
117 103 108
117 104 108
117 104 107
117 105 107
118 106 107
118 106 106
118 107 106
118 108 105
119 108 105
119 109 104
119 109 104
120 110 103
120 111 103
120 111 102
120 112 102
121 113 101
121 113 101
121 114 101
122 115 100
122 115 100
122 116 99
122 116 99
123 117 98
123 118 98
123 118 97
124 119 97
124 120 96
124 120 96
124 121 95
125 122 95
125 122 95
125 123 94
125 123 94
126 124 93
126 125 93
126 125 92
127 126 92
127 127 91
127 127 91
127 128 90
128 129 90
128 129 90
128 130 89
129 131 89
129 131 88
129 132 88
129 132 87
130 133 87
130 134 86
130 134 86
130 135 85
131 136 85
131 136 84
131 137 84
132 138 84
132 138 83
132 139 83
132 139 82
133 140 82
133 141 81
133 141 81
134 142 80
134 143 80
134 143 79
134 144 79
135 145 78
135 145 78
135 146 78
136 146 77
136 147 77
136 148 76
136 148 76
137 149 75
137 150 75
137 150 74
137 151 74
138 152 73
138 152 73
138 153 73
139 154 72
139 154 72
139 155 71
139 155 71
140 156 70
140 157 70
140 157 69
141 158 69
141 159 68
141 159 68
141 160 67
142 161 67
142 161 67
142 162 66
143 162 66
143 163 65
143 164 65
143 164 64
144 165 64
144 166 63
144 166 63
144 167 62
145 168 62
145 168 61
145 169 61
146 170 61
146 170 60
146 171 60
146 171 59
147 172 59
147 173 58
147 173 58
148 174 57
148 175 57
148 175 56
148 176 56
149 177 56
149 177 55
149 178 55
149 178 54
150 179 54
150 180 53
150 180 53
151 181 52
151 182 52
151 182 51
151 183 51
152 184 50
152 184 50
152 185 50
153 185 49
153 186 49
153 187 48
153 187 48
154 188 47
154 189 47
154 189 46
155 190 46
155 191 45
155 191 45
155 192 45
156 193 44
156 193 44
156 194 43
156 194 43
157 195 42
157 196 42
157 196 41
158 197 41
158 198 40
158 198 40
158 199 39
159 200 39
159 200 39
159 201 38
160 201 38
160 202 37
160 203 37
160 203 36
161 204 36
161 205 35
161 205 35
162 206 34
162 207 34
162 207 33
162 208 33
163 208 33
163 209 32
163 210 32
163 210 31
164 211 31
164 212 30
164 212 30
165 213 29
165 214 29
165 214 28
165 215 28
166 216 28
166 216 27
166 217 27
167 217 26
167 218 26
167 219 25
167 219 25
168 220 24
168 221 24
168 221 23
168 222 23
169 223 22
169 223 22
169 224 22
170 224 21
170 225 21
170 226 20
170 226 20
171 227 19
171 228 19
171 228 18
172 229 18
172 230 17
172 230 17
172 231 16
173 231 16
173 232 16
173 233 15
174 233 15
174 234 14
174 235 14
174 235 13
175 236 13
175 237 12
175 237 12
175 238 11
176 239 11
176 239 11
176 240 10
177 240 10
177 241 9
177 242 9
177 242 8
178 243 8
178 244 7
178 244 7
179 245 6
179 246 6
179 246 5
179 247 5
180 247 5
180 248 4
180 249 4
181 249 3
181 250 3
181 251 2
181 251 2
182 252 1
182 253 1
182 253 0
182 254 0
183 255 0
73 0 181
73 0 181
73 1 181
73 1 180
74 2 180
74 3 179
74 3 179
74 4 178
75 5 178
75 5 177
75 6 177
76 7 176
76 7 176
76 8 176
76 8 175
77 9 175
77 10 174
77 10 174
77 11 173
78 12 173
78 12 172
78 13 172
79 14 171
79 14 171
79 15 171
79 15 170
80 16 170
80 17 169
80 17 169
80 18 168
81 19 168
81 19 167
81 20 167
82 21 166
82 21 166
82 22 165
82 23 165
83 23 165
83 24 164
83 24 164
83 25 163
84 26 163
84 26 162
84 27 162
85 28 161
85 28 161
85 29 160
85 30 160
86 30 160
86 31 159
86 31 159
86 32 158
87 33 158
87 33 157
87 34 157
88 35 156
88 35 156
88 36 155
88 37 155
89 37 155
89 38 154
89 38 154
89 39 153
90 40 153
90 40 152
90 41 152
91 42 151
91 42 151
91 43 150
91 44 150
92 44 150
92 45 149
92 46 149
92 46 148
93 47 148
93 47 147
93 48 147
94 49 146
94 49 146
94 50 145
94 51 145
95 51 145
95 52 144
95 53 144
95 53 143
96 54 143
96 54 142
96 55 142
97 56 141
97 56 141
97 57 140
97 58 140
98 58 140
98 59 139
98 60 139
98 60 138
99 61 138
99 61 137
99 62 137
100 63 136
100 63 136
100 64 135
100 65 135
101 65 134
101 66 134
101 67 134
101 67 133
102 68 133
102 69 132
102 69 132
103 70 131
103 70 131
103 71 130
103 72 130
104 72 129
104 73 129
104 74 129
104 74 128
105 75 128
105 76 127
105 76 127
106 77 126
106 77 126
106 78 125
106 79 125
107 79 124
107 80 124
107 81 124
107 81 123
108 82 123
108 83 122
108 83 122
109 84 121
109 85 121
109 85 120
109 86 120
110 86 119
110 87 119
110 88 119
110 88 118
111 89 118
111 90 117
111 90 117
112 91 116
112 92 116
112 92 115
112 93 115
113 93 114
113 94 114
113 95 114
113 95 113
114 96 113
114 97 112
114 97 112
115 98 111
115 99 111
115 99 110
115 100 110
116 100 109
116 101 109
116 102 108
116 102 108
117 103 108
117 104 107
117 104 107
118 105 106
118 106 106
118 106 105
118 107 105
119 108 104
119 108 104
119 109 103
119 109 103
120 110 103
120 111 102
120 111 102
121 112 101
121 113 101
121 113 100
121 114 100
122 115 99
122 115 99
122 116 98
122 116 98
123 117 98
123 118 97
123 118 97
124 119 96
124 120 96
124 120 95
124 121 95
125 122 94
125 122 94
125 123 93
125 123 93
126 124 93
126 125 92
126 125 92
127 126 91
127 127 91
127 127 90
127 128 90
128 129 89
128 129 89
128 130 88
129 131 88
129 131 88
129 132 87
129 132 87
130 133 86
130 134 86
130 134 85
130 135 85
131 136 84
131 136 84
131 137 83
132 138 83
132 138 82
132 139 82
132 139 82
133 140 81
133 141 81
133 141 80
133 142 80
134 143 79
134 143 79
134 144 78
135 145 78
135 145 77
135 146 77
135 146 77
136 147 76
136 148 76
136 148 75
136 149 75
137 150 74
137 150 74
137 151 73
138 152 73
138 152 72
138 153 72
138 154 72
139 154 71
139 155 71
139 155 70
139 156 70
140 157 69
140 157 69
140 158 68
141 159 68
141 159 67
141 160 67
141 161 67
142 161 66
142 162 66
142 162 65
142 163 65
143 164 64
143 164 64
143 165 63
144 166 63
144 166 62
144 167 62
144 168 62
145 168 61
145 169 61
145 170 60
145 170 60
146 171 59
146 171 59
146 172 58
147 173 58
147 173 57
147 174 57
147 175 57
148 175 56
148 176 56
148 177 55
148 177 55
149 178 54
149 178 54
149 179 53
150 180 53
150 180 52
150 181 52
150 182 51
151 182 51
151 183 51
151 184 50
151 184 50
152 185 49
152 185 49
152 186 48
153 187 48
153 187 47
153 188 47
153 189 46
154 189 46
154 190 46
154 191 45
154 191 45
155 192 44
155 193 44
155 193 43
156 194 43
156 194 42
156 195 42
156 196 41
157 196 41
157 197 41
157 198 40
157 198 40
158 199 39
158 200 39
158 200 38
159 201 38
159 201 37
159 202 37
159 203 36
160 203 36
160 204 36
160 205 35
160 205 35
161 206 34
161 207 34
161 207 33
162 208 33
162 208 32
162 209 32
162 210 31
163 210 31
163 211 31
163 212 30
163 212 30
164 213 29
164 214 29
164 214 28
165 215 28
165 216 27
165 216 27
165 217 26
166 217 26
166 218 25
166 219 25
166 219 25
167 220 24
167 221 24
167 221 23
168 222 23
168 223 22
168 223 22
168 224 21
169 224 21
169 225 20
169 226 20
169 226 20
170 227 19
170 228 19
170 228 18
171 229 18
171 230 17
171 230 17
171 231 16
172 231 16
172 232 15
172 233 15
172 233 15
173 234 14
173 235 14
173 235 13
174 236 13
174 237 12
174 237 12
174 238 11
175 239 11
175 239 10
175 240 10
175 240 10
176 241 9
176 242 9
176 242 8
177 243 8
177 244 7
177 244 7
177 245 6
178 246 6
178 246 5
178 247 5
178 247 5
179 248 4
179 249 4
179 249 3
180 250 3
180 251 2
180 251 2
180 252 1
181 253 1
181 253 0
181 254 0
181 255 0
74 0 180
74 0 180
74 1 179
75 1 179
75 2 178
75 3 178
75 3 177
76 4 177
76 5 177
76 5 176
76 6 176
77 7 175
77 7 175
77 8 174
78 8 174
78 9 173
78 10 173
78 10 172
79 11 172
79 12 172
79 12 171
79 13 171
80 14 170
80 14 170
80 15 169
80 15 169
81 16 168
81 17 168
81 17 167
82 18 167
82 19 167
82 19 166
82 20 166
83 21 165
83 21 165
83 22 164
83 23 164
84 23 163
84 24 163
84 24 163
84 25 162
85 26 162
85 26 161
85 27 161
86 28 160
86 28 160
86 29 159
86 30 159
87 30 158
87 31 158
87 31 158
87 32 157
88 33 157
88 33 156
88 34 156
88 35 155
89 35 155
89 36 154
89 37 154
90 37 153
90 38 153
90 38 153
90 39 152
91 40 152
91 40 151
91 41 151
91 42 150
92 42 150
92 43 149
92 44 149
92 44 148
93 45 148
93 46 148
93 46 147
94 47 147
94 47 146
94 48 146
94 49 145
95 49 145
95 50 144
95 51 144
95 51 143
96 52 143
96 53 143
96 53 142
96 54 142
97 54 141
97 55 141
97 56 140
98 56 140
98 57 139
98 58 139
98 58 139
99 59 138
99 60 138
99 60 137
99 61 137
100 61 136
100 62 136
100 63 135
100 63 135
101 64 134
101 65 134
101 65 134
102 66 133
102 67 133
102 67 132
102 68 132
103 69 131
103 69 131
103 70 130
103 70 130
104 71 129
104 72 129
104 72 129
104 73 128
105 74 128
105 74 127
105 75 127
106 76 126
106 76 126
106 77 125
106 77 125
107 78 124
107 79 124
107 79 124
107 80 123
108 81 123
108 81 122
108 82 122
108 83 121
109 83 121
109 84 120
109 85 120
110 85 119
110 86 119
110 86 119
110 87 118
111 88 118
111 88 117
111 89 117
111 90 116
112 90 116
112 91 115
112 92 115
112 92 115
113 93 114
113 93 114
113 94 113
114 95 113
114 95 112
114 96 112
114 97 111
115 97 111
115 98 110
115 99 110
115 99 110
116 100 109
116 100 109
116 101 108
116 102 108
117 102 107
117 103 107
117 104 106
118 104 106
118 105 105
118 106 105
118 106 105
119 107 104
119 108 104
119 108 103
119 109 103
120 109 102
120 110 102
120 111 101
120 111 101
121 112 100
121 113 100
121 113 100
122 114 99
122 115 99
122 115 98
122 116 98
123 116 97
123 117 97
123 118 96
123 118 96
124 119 95
124 120 95
124 120 95
124 121 94
125 122 94
125 122 93
125 123 93
126 123 92
126 124 92
126 125 91
126 125 91
127 126 91
127 127 90
127 127 90
127 128 89
128 129 89
128 129 88
128 130 88
128 131 87
129 131 87
129 132 86
129 132 86
130 133 86
130 134 85
130 134 85
130 135 84
131 136 84
131 136 83
131 137 83
131 138 82
132 138 82
132 139 81
132 139 81
132 140 81
133 141 80
133 141 80
133 142 79
134 143 79
134 143 78
134 144 78
134 145 77
135 145 77
135 146 76
135 146 76
135 147 76
136 148 75
136 148 75
136 149 74
136 150 74
137 150 73
137 151 73
137 152 72
138 152 72
138 153 71
138 154 71
138 154 71
139 155 70
139 155 70
139 156 69
139 157 69
140 157 68
140 158 68
140 159 67
140 159 67
141 160 67
141 161 66
141 161 66
142 162 65
142 162 65
142 163 64
142 164 64
143 164 63
143 165 63
143 166 62
143 166 62
144 167 62
144 168 61
144 168 61
144 169 60
145 170 60
145 170 59
145 171 59
146 171 58
146 172 58
146 173 57
146 173 57
147 174 57
147 175 56
147 175 56
147 176 55
148 177 55
148 177 54
148 178 54
148 178 53
149 179 53
149 180 52
149 180 52
150 181 52
150 182 51
150 182 51
150 183 50
151 184 50
151 184 49
151 185 49
151 185 48
152 186 48
152 187 47
152 187 47
152 188 47
153 189 46
153 189 46
153 190 45
154 191 45
154 191 44
154 192 44
154 193 43
155 193 43
155 194 43
155 194 42
155 195 42
156 196 41
156 196 41
156 197 40
156 198 40
157 198 39
157 199 39
157 200 38
158 200 38
158 201 38
158 201 37
158 202 37
159 203 36
159 203 36
159 204 35
159 205 35
160 205 34
160 206 34
160 207 33
160 207 33
161 208 33
161 208 32
161 209 32
162 210 31
162 210 31
162 211 30
162 212 30
163 212 29
163 213 29
163 214 28
163 214 28
164 215 28
164 216 27
164 216 27
164 217 26
165 217 26
165 218 25
165 219 25
166 219 24
166 220 24
166 221 23
166 221 23
167 222 23
167 223 22
167 223 22
167 224 21
168 224 21
168 225 20
168 226 20
168 226 19
169 227 19
169 228 19
169 228 18
170 229 18
170 230 17
170 230 17
170 231 16
171 231 16
171 232 15
171 233 15
171 233 14
172 234 14
172 235 14
172 235 13
172 236 13
173 237 12
173 237 12
173 238 11
174 239 11
174 239 10
174 240 10
174 240 9
175 241 9
175 242 9
175 242 8
175 243 8
176 244 7
176 244 7
176 245 6
176 246 6
177 246 5
177 247 5
177 247 4
178 248 4
178 249 4
178 249 3
178 250 3
179 251 2
179 251 2
179 252 1
179 253 1
180 253 0
180 254 0
180 255 0
75 0 179
75 0 178
76 1 178
76 1 178
76 2 177
76 3 177
77 3 176
77 4 176
77 5 175
77 5 175
78 6 174
78 7 174
78 7 174
78 8 173
79 8 173
79 9 172
79 10 172
80 10 171
80 11 171
80 12 170
80 12 170
81 13 169
81 14 169
81 14 169
81 15 168
82 15 168
82 16 167
82 17 167
82 17 166
83 18 166
83 19 165
83 19 165
83 20 165
84 21 164
84 21 164
84 22 163
84 23 163
85 23 162
85 24 162
85 24 161
86 25 161
86 26 160
86 26 160
86 27 160
87 28 159
87 28 159
87 29 158
87 30 158
88 30 157
88 31 157
88 31 156
88 32 156
89 33 156
89 33 155
89 34 155
89 35 154
90 35 154
90 36 153
90 37 153
90 37 152
91 38 152
91 38 151
91 39 151
91 40 151
92 40 150
92 41 150
92 42 149
93 42 149
93 43 148
93 44 148
93 44 147
94 45 147
94 46 147
94 46 146
94 47 146
95 47 145
95 48 145
95 49 144
95 49 144
96 50 143
96 51 143
96 51 142
96 52 142
97 53 142
97 53 141
97 54 141
97 54 140
98 55 140
98 56 139
98 56 139
99 57 138
99 58 138
99 58 138
99 59 137
100 60 137
100 60 136
100 61 136
100 61 135
101 62 135
101 63 134
101 63 134
101 64 133
102 65 133
102 65 133
102 66 132
102 67 132
103 67 131
103 68 131
103 69 130
103 69 130
104 70 129
104 70 129
104 71 129
104 72 128
105 72 128
105 73 127
105 74 127
106 74 126
106 75 126
106 76 125
106 76 125
107 77 124
107 77 124
107 78 124
107 79 123
108 79 123
108 80 122
108 81 122
108 81 121
109 82 121
109 83 120
109 83 120
109 84 120
110 85 119
110 85 119
110 86 118
110 86 118
111 87 117
111 88 117
111 88 116
112 89 116
112 90 116
112 90 115
112 91 115
113 92 114
113 92 114
113 93 113
113 93 113
114 94 112
114 95 112
114 95 111
114 96 111
115 97 111
115 97 110
115 98 110
115 99 109
116 99 109
116 100 108
116 100 108
116 101 107
117 102 107
117 102 107
117 103 106
118 104 106
118 104 105
118 105 105
118 106 104
119 106 104
119 107 103
119 108 103
119 108 102
120 109 102
120 109 102
120 110 101
120 111 101
121 111 100
121 112 100
121 113 99
121 113 99
122 114 98
122 115 98
122 115 98
122 116 97
123 116 97
123 117 96
123 118 96
123 118 95
124 119 95
124 120 94
124 120 94
125 121 93
125 122 93
125 122 93
125 123 92
126 123 92
126 124 91
126 125 91
126 125 90
127 126 90
127 127 89
127 127 89
127 128 89
128 129 88
128 129 88
128 130 87
128 131 87
129 131 86
129 132 86
129 132 85
129 133 85
130 134 84
130 134 84
130 135 84
131 136 83
131 136 83
131 137 82
131 138 82
132 138 81
132 139 81
132 139 80
132 140 80
133 141 80
133 141 79
133 142 79
133 143 78
134 143 78
134 144 77
134 145 77
134 145 76
135 146 76
135 146 75
135 147 75
135 148 75
136 148 74
136 149 74
136 150 73
136 150 73
137 151 72
137 152 72
137 152 71
138 153 71
138 154 71
138 154 70
138 155 70
139 155 69
139 156 69
139 157 68
139 157 68
140 158 67
140 159 67
140 159 66
140 160 66
141 161 66
141 161 65
141 162 65
141 162 64
142 163 64
142 164 63
142 164 63
142 165 62
143 166 62
143 166 62
143 167 61
144 168 61
144 168 60
144 169 60
144 170 59
145 170 59
145 171 58
145 171 58
145 172 58
146 173 57
146 173 57
146 174 56
146 175 56
147 175 55
147 176 55
147 177 54
147 177 54
148 178 53
148 178 53
148 179 53
148 180 52
149 180 52
149 181 51
149 182 51
150 182 50
150 183 50
150 184 49
150 184 49
151 185 49
151 185 48
151 186 48
151 187 47
152 187 47
152 188 46
152 189 46
152 189 45
153 190 45
153 191 44
153 191 44
153 192 44
154 193 43
154 193 43
154 194 42
154 194 42
155 195 41
155 196 41
155 196 40
155 197 40
156 198 40
156 198 39
156 199 39
157 200 38
157 200 38
157 201 37
157 201 37
158 202 36
158 203 36
158 203 35
158 204 35
159 205 35
159 205 34
159 206 34
159 207 33
160 207 33
160 208 32
160 208 32
160 209 31
161 210 31
161 210 31
161 211 30
161 212 30
162 212 29
162 213 29
162 214 28
163 214 28
163 215 27
163 216 27
163 216 26
164 217 26
164 217 26
164 218 25
164 219 25
165 219 24
165 220 24
165 221 23
165 221 23
166 222 22
166 223 22
166 223 22
166 224 21
167 224 21
167 225 20
167 226 20
167 226 19
168 227 19
168 228 18
168 228 18
168 229 17
169 230 17
169 230 17
169 231 16
170 231 16
170 232 15
170 233 15
170 233 14
171 234 14
171 235 13
171 235 13
171 236 13
172 237 12
172 237 12
172 238 11
172 239 11
173 239 10
173 240 10
173 240 9
173 241 9
174 242 8
174 242 8
174 243 8
174 244 7
175 244 7
175 245 6
175 246 6
176 246 5
176 247 5
176 247 4
176 248 4
177 249 4
177 249 3
177 250 3
177 251 2
178 251 2
178 252 1
178 253 1
178 253 0
179 254 0
179 255 0
76 0 178
77 0 177
77 1 177
77 1 176
77 2 176
78 3 175
78 3 175
78 4 174
78 5 174
79 5 174
79 6 173
79 7 173
79 7 172
80 8 172
80 8 171
80 9 171
80 10 170
81 10 170
81 11 170
81 12 169
81 12 169
82 13 168
82 14 168
82 14 167
82 15 167
83 15 166
83 16 166
83 17 166
83 17 165
84 18 165
84 19 164
84 19 164
85 20 163
85 21 163
85 21 162
85 22 162
86 23 162
86 23 161
86 24 161
86 24 160
87 25 160
87 26 159
87 26 159
87 27 158
88 28 158
88 28 158
88 29 157
88 30 157
89 30 156
89 31 156
89 31 155
89 32 155
90 33 154
90 33 154
90 34 154
90 35 153
91 35 153
91 36 152
91 37 152
91 37 151
92 38 151
92 38 150
92 39 150
92 40 149
93 40 149
93 41 149
93 42 148
93 42 148
94 43 147
94 44 147
94 44 146
94 45 146
95 46 145
95 46 145
95 47 145
95 47 144
96 48 144
96 49 143
96 49 143
96 50 142
97 51 142
97 51 141
97 52 141
97 53 141
98 53 140
98 54 140
98 54 139
98 55 139
99 56 138
99 56 138
99 57 137
99 58 137
100 58 137
100 59 136
100 60 136
100 60 135
101 61 135
101 61 134
101 62 134
102 63 133
102 63 133
102 64 133
102 65 132
103 65 132
103 66 131
103 67 131
103 67 130
104 68 130
104 69 129
104 69 129
104 70 129
105 70 128
105 71 128
105 72 127
105 72 127
106 73 126
106 74 126
106 74 125
106 75 125
107 76 124
107 76 124
107 77 124
107 77 123
108 78 123
108 79 122
108 79 122
108 80 121
109 81 121
109 81 120
109 82 120
109 83 120
110 83 119
110 84 119
110 85 118
110 85 118
111 86 117
111 86 117
111 87 116
111 88 116
112 88 116
112 89 115
112 90 115
112 90 114
113 91 114
113 92 113
113 92 113
113 93 112
114 93 112
114 94 112
114 95 111
114 95 111
115 96 110
115 97 110
115 97 109
115 98 109
116 99 108
116 99 108
116 100 108
116 100 107
117 101 107
117 102 106
117 102 106
117 103 105
118 104 105
118 104 104
118 105 104
119 106 104
119 106 103
119 107 103
119 108 102
120 108 102
120 109 101
120 109 101
120 110 100
121 111 100
121 111 99
121 112 99
121 113 99
122 113 98
122 114 98
122 115 97
122 115 97
123 116 96
123 116 96
123 117 95
123 118 95
124 118 95
124 119 94
124 120 94
124 120 93
125 121 93
125 122 92
125 122 92
125 123 91
126 123 91
126 124 91
126 125 90
126 125 90
127 126 89
127 127 89
127 127 88
127 128 88
128 129 87
128 129 87
128 130 87
128 131 86
129 131 86
129 132 85
129 132 85
129 133 84
130 134 84
130 134 83
130 135 83
130 136 83
131 136 82
131 137 82
131 138 81
131 138 81
132 139 80
132 139 80
132 140 79
132 141 79
133 141 79
133 142 78
133 143 78
133 143 77
134 144 77
134 145 76
134 145 76
134 146 75
135 146 75
135 147 74
135 148 74
135 148 74
136 149 73
136 150 73
136 150 72
137 151 72
137 152 71
137 152 71
137 153 70
138 154 70
138 154 70
138 155 69
138 155 69
139 156 68
139 157 68
139 157 67
139 158 67
140 159 66
140 159 66
140 160 66
140 161 65
141 161 65
141 162 64
141 162 64
141 163 63
142 164 63
142 164 62
142 165 62
142 166 62
143 166 61
143 167 61
143 168 60
143 168 60
144 169 59
144 170 59
144 170 58
144 171 58
145 171 58
145 172 57
145 173 57
145 173 56
146 174 56
146 175 55
146 175 55
146 176 54
147 177 54
147 177 54
147 178 53
147 178 53
148 179 52
148 180 52
148 180 51
148 181 51
149 182 50
149 182 50
149 183 49
149 184 49
150 184 49
150 185 48
150 185 48
150 186 47
151 187 47
151 187 46
151 188 46
151 189 45
152 189 45
152 190 45
152 191 44
152 191 44
153 192 43
153 193 43
153 193 42
154 194 42
154 194 41
154 195 41
154 196 41
155 196 40
155 197 40
155 198 39
155 198 39
156 199 38
156 200 38
156 200 37
156 201 37
157 201 37
157 202 36
157 203 36
157 203 35
158 204 35
158 205 34
158 205 34
158 206 33
159 207 33
159 207 33
159 208 32
159 208 32
160 209 31
160 210 31
160 210 30
160 211 30
161 212 29
161 212 29
161 213 29
161 214 28
162 214 28
162 215 27
162 216 27
162 216 26
163 217 26
163 217 25
163 218 25
163 219 24
164 219 24
164 220 24
164 221 23
164 221 23
165 222 22
165 223 22
165 223 21
165 224 21
166 224 20
166 225 20
166 226 20
166 226 19
167 227 19
167 228 18
167 228 18
167 229 17
168 230 17
168 230 16
168 231 16
168 231 16
169 232 15
169 233 15
169 233 14
169 234 14
170 235 13
170 235 13
170 236 12
171 237 12
171 237 12
171 238 11
171 239 11
172 239 10
172 240 10
172 240 9
172 241 9
173 242 8
173 242 8
173 243 8
173 244 7
174 244 7
174 245 6
174 246 6
174 246 5
175 247 5
175 247 4
175 248 4
175 249 4
176 249 3
176 250 3
176 251 2
176 251 2
177 252 1
177 253 1
177 253 0
177 254 0
178 255 0
78 0 176
78 0 176
78 1 175
78 1 175
79 2 175
79 3 174
79 3 174
79 4 173
80 5 173
80 5 172
80 6 172
80 7 171
81 7 171
81 8 171
81 8 170
81 9 170
82 10 169
82 10 169
82 11 168
82 12 168
83 12 167
83 13 167
83 14 167
83 14 166
84 15 166
84 15 165
84 16 165
84 17 164
85 17 164
85 18 163
85 19 163
85 19 163
86 20 162
86 21 162
86 21 161
86 22 161
87 23 160
87 23 160
87 24 159
87 24 159
88 25 159
88 26 158
88 26 158
88 27 157
89 28 157
89 28 156
89 29 156
89 30 156
90 30 155
90 31 155
90 31 154
90 32 154
91 33 153
91 33 153
91 34 152
91 35 152
92 35 152
92 36 151
92 37 151
92 37 150
93 38 150
93 38 149
93 39 149
93 40 148
93 40 148
94 41 148
94 42 147
94 42 147
94 43 146
95 44 146
95 44 145
95 45 145
95 46 144
96 46 144
96 47 144
96 47 143
96 48 143
97 49 142
97 49 142
97 50 141
97 51 141
98 51 140
98 52 140
98 53 140
98 53 139
99 54 139
99 54 138
99 55 138
99 56 137
100 56 137
100 57 136
100 58 136
100 58 136
101 59 135
101 60 135
101 60 134
101 61 134
102 61 133
102 62 133
102 63 132
102 63 132
103 64 132
103 65 131
103 65 131
103 66 130
104 67 130
104 67 129
104 68 129
104 69 128
105 69 128
105 70 128
105 70 127
105 71 127
106 72 126
106 72 126
106 73 125
106 74 125
107 74 124
107 75 124
107 76 124
107 76 123
108 77 123
108 77 122
108 78 122
108 79 121
109 79 121
109 80 120
109 81 120
109 81 120
110 82 119
110 83 119
110 83 118
110 84 118
111 85 117
111 85 117
111 86 117
111 86 116
112 87 116
112 88 115
112 88 115
112 89 114
113 90 114
113 90 113
113 91 113
113 92 113
114 92 112
114 93 112
114 93 111
114 94 111
115 95 110
115 95 110
115 96 109
115 97 109
116 97 109
116 98 108
116 99 108
116 99 107
116 100 107
117 100 106
117 101 106
117 102 105
117 102 105
118 103 105
118 104 104
118 104 104
118 105 103
119 106 103
119 106 102
119 107 102
119 108 101
120 108 101
120 109 101
120 109 100
120 110 100
121 111 99
121 111 99
121 112 98
121 113 98
122 113 97
122 114 97
122 115 97
122 115 96
123 116 96
123 116 95
123 117 95
123 118 94
124 118 94
124 119 93
124 120 93
124 120 93
125 121 92
125 122 92
125 122 91
125 123 91
126 123 90
126 124 90
126 125 89
126 125 89
127 126 89
127 127 88
127 127 88
127 128 87
128 129 87
128 129 86
128 130 86
128 131 85
129 131 85
129 132 85
129 132 84
129 133 84
130 134 83
130 134 83
130 135 82
130 136 82
131 136 81
131 137 81
131 138 81
131 138 80
132 139 80
132 139 79
132 140 79
132 141 78
133 141 78
133 142 78
133 143 77
133 143 77
134 144 76
134 145 76
134 145 75
134 146 75
135 146 74
135 147 74
135 148 74
135 148 73
136 149 73
136 150 72
136 150 72
136 151 71
137 152 71
137 152 70
137 153 70
137 154 70
138 154 69
138 155 69
138 155 68
138 156 68
138 157 67
139 157 67
139 158 66
139 159 66
139 159 66
140 160 65
140 161 65
140 161 64
140 162 64
141 162 63
141 163 63
141 164 62
141 164 62
142 165 62
142 166 61
142 166 61
142 167 60
143 168 60
143 168 59
143 169 59
143 170 58
144 170 58
144 171 58
144 171 57
144 172 57
145 173 56
145 173 56
145 174 55
145 175 55
146 175 54
146 176 54
146 177 54
146 177 53
147 178 53
147 178 52
147 179 52
147 180 51
148 180 51
148 181 50
148 182 50
148 182 50
149 183 49
149 184 49
149 184 48
149 185 48
150 185 47
150 186 47
150 187 46
150 187 46
151 188 46
151 189 45
151 189 45
151 190 44
152 191 44
152 191 43
152 192 43
152 193 42
153 193 42
153 194 42
153 194 41
153 195 41
154 196 40
154 196 40
154 197 39
154 198 39
155 198 39
155 199 38
155 200 38
155 200 37
156 201 37
156 201 36
156 202 36
156 203 35
157 203 35
157 204 35
157 205 34
157 205 34
158 206 33
158 207 33
158 207 32
158 208 32
159 208 31
159 209 31
159 210 31
159 210 30
160 211 30
160 212 29
160 212 29
160 213 28
161 214 28
161 214 27
161 215 27
161 216 27
161 216 26
162 217 26
162 217 25
162 218 25
162 219 24
163 219 24
163 220 23
163 221 23
163 221 23
164 222 22
164 223 22
164 223 21
164 224 21
165 224 20
165 225 20
165 226 19
165 226 19
166 227 19
166 228 18
166 228 18
166 229 17
167 230 17
167 230 16
167 231 16
167 231 15
168 232 15
168 233 15
168 233 14
168 234 14
169 235 13
169 235 13
169 236 12
169 237 12
170 237 11
170 238 11
170 239 11
170 239 10
171 240 10
171 240 9
171 241 9
171 242 8
172 242 8
172 243 7
172 244 7
172 244 7
173 245 6
173 246 6
173 246 5
173 247 5
174 247 4
174 248 4
174 249 3
174 249 3
175 250 3
175 251 2
175 251 2
175 252 1
176 253 1
176 253 0
176 254 0
176 255 0
79 0 175
79 0 175
79 1 174
80 1 174
80 2 173
80 3 173
80 3 172
81 4 172
81 5 172
81 5 171
81 6 171
82 7 170
82 7 170
82 8 169
82 8 169
83 9 168
83 10 168
83 10 168
83 11 167
84 12 167
84 12 166
84 13 166
84 14 165
84 14 165
85 15 164
85 15 164
85 16 164
85 17 163
86 17 163
86 18 162
86 19 162
86 19 161
87 20 161
87 21 161
87 21 160
87 22 160
88 23 159
88 23 159
88 24 158
88 24 158
89 25 157
89 26 157
89 26 157
89 27 156
90 28 156
90 28 155
90 29 155
90 30 154
91 30 154
91 31 153
91 31 153
91 32 153
91 33 152
92 33 152
92 34 151
92 35 151
92 35 150
93 36 150
93 37 150
93 37 149
93 38 149
94 38 148
94 39 148
94 40 147
94 40 147
95 41 146
95 42 146
95 42 146
95 43 145
96 44 145
96 44 144
96 45 144
96 46 143
97 46 143
97 47 142
97 47 142
97 48 142
97 49 141
98 49 141
98 50 140
98 51 140
98 51 139
99 52 139
99 53 139
99 53 138
99 54 138
100 54 137
100 55 137
100 56 136
100 56 136
101 57 135
101 58 135
101 58 135
101 59 134
102 60 134
102 60 133
102 61 133
102 61 132
103 62 132
103 63 131
103 63 131
103 64 131
104 65 130
104 65 130
104 66 129
104 67 129
104 67 128
105 68 128
105 69 128
105 69 127
105 70 127
106 70 126
106 71 126
106 72 125
106 72 125
107 73 124
107 74 124
107 74 124
107 75 123
108 76 123
108 76 122
108 77 122
108 77 121
109 78 121
109 79 120
109 79 120
109 80 120
110 81 119
110 81 119
110 82 118
110 83 118
111 83 117
111 84 117
111 85 117
111 85 116
111 86 116
112 86 115
112 87 115
112 88 114
112 88 114
113 89 113
113 90 113
113 90 113
113 91 112
114 92 112
114 92 111
114 93 111
114 93 110
115 94 110
115 95 109
115 95 109
115 96 109
116 97 108
116 97 108
116 98 107
116 99 107
117 99 106
117 100 106
117 100 106
117 101 105
117 102 105
118 102 104
118 103 104
118 104 103
118 104 103
119 105 102
119 106 102
119 106 102
119 107 101
120 108 101
120 108 100
120 109 100
120 109 99
121 110 99
121 111 98
121 111 98
121 112 98
122 113 97
122 113 97
122 114 96
122 115 96
123 115 95
123 116 95
123 116 95
123 117 94
124 118 94
124 118 93
124 119 93
124 120 92
124 120 92
125 121 91
125 122 91
125 122 91
125 123 90
126 123 90
126 124 89
126 125 89
126 125 88
127 126 88
127 127 87
127 127 87
127 128 87
128 129 86
128 129 86
128 130 85
128 131 85
129 131 84
129 132 84
129 132 84
129 133 83
130 134 83
130 134 82
130 135 82
130 136 81
130 136 81
131 137 80
131 138 80
131 138 80
131 139 79
132 139 79
132 140 78
132 141 78
132 141 77
133 142 77
133 143 76
133 143 76
133 144 76
134 145 75
134 145 75
134 146 74
134 146 74
135 147 73
135 148 73
135 148 73
135 149 72
136 150 72
136 150 71
136 151 71
136 152 70
137 152 70
137 153 69
137 154 69
137 154 69
137 155 68
138 155 68
138 156 67
138 157 67
138 157 66
139 158 66
139 159 65
139 159 65
139 160 65
140 161 64
140 161 64
140 162 63
140 162 63
141 163 62
141 164 62
141 164 62
141 165 61
142 166 61
142 166 60
142 167 60
142 168 59
143 168 59
143 169 58
143 170 58
143 170 58
143 171 57
144 171 57
144 172 56
144 173 56
144 173 55
145 174 55
145 175 54
145 175 54
145 176 54
146 177 53
146 177 53
146 178 52
146 178 52
147 179 51
147 180 51
147 180 51
147 181 50
148 182 50
148 182 49
148 183 49
148 184 48
149 184 48
149 185 47
149 185 47
149 186 47
150 187 46
150 187 46
150 188 45
150 189 45
150 189 44
151 190 44
151 191 43
151 191 43
151 192 43
152 193 42
152 193 42
152 194 41
152 194 41
153 195 40
153 196 40
153 196 40
153 197 39
154 198 39
154 198 38
154 199 38
154 200 37
155 200 37
155 201 36
155 201 36
155 202 36
156 203 35
156 203 35
156 204 34
156 205 34
157 205 33
157 206 33
157 207 32
157 207 32
157 208 32
158 208 31
158 209 31
158 210 30
158 210 30
159 211 29
159 212 29
159 212 29
159 213 28
160 214 28
160 214 27
160 215 27
160 216 26
161 216 26
161 217 25
161 217 25
161 218 25
162 219 24
162 219 24
162 220 23
162 221 23
163 221 22
163 222 22
163 223 21
163 223 21
163 224 21
164 224 20
164 225 20
164 226 19
164 226 19
165 227 18
165 228 18
165 228 18
165 229 17
166 230 17
166 230 16
166 231 16
166 231 15
167 232 15
167 233 14
167 233 14
167 234 14
168 235 13
168 235 13
168 236 12
168 237 12
169 237 11
169 238 11
169 239 10
169 239 10
170 240 10
170 240 9
170 241 9
170 242 8
170 242 8
171 243 7
171 244 7
171 244 7
171 245 6
172 246 6
172 246 5
172 247 5
172 247 4
173 248 4
173 249 3
173 249 3
173 250 3
174 251 2
174 251 2
174 252 1
174 253 1
175 253 0
175 254 0
175 255 0
80 0 174
80 0 173
81 1 173
81 1 172
81 2 172
81 3 172
82 3 171
82 4 171
82 5 170
82 5 170
83 6 169
83 7 169
83 7 169
83 8 168
84 8 168
84 9 167
84 10 167
84 10 166
84 11 166
85 12 165
85 12 165
85 13 165
85 14 164
86 14 164
86 15 163
86 15 163
86 16 162
87 17 162
87 17 162
87 18 161
87 19 161
87 19 160
88 20 160
88 21 159
88 21 159
88 22 158
89 23 158
89 23 158
89 24 157
89 24 157
90 25 156
90 26 156
90 26 155
90 27 155
91 28 155
91 28 154
91 29 154
91 30 153
91 30 153
92 31 152
92 31 152
92 32 151
92 33 151
93 33 151
93 34 150
93 35 150
93 35 149
94 36 149
94 37 148
94 37 148
94 38 148
95 38 147
95 39 147
95 40 146
95 40 146
95 41 145
96 42 145
96 42 145
96 43 144
96 44 144
97 44 143
97 45 143
97 46 142
97 46 142
98 47 141
98 47 141
98 48 141
98 49 140
99 49 140
99 50 139
99 51 139
99 51 138
99 52 138
100 53 138
100 53 137
100 54 137
100 54 136
101 55 136
101 56 135
101 56 135
101 57 134
102 58 134
102 58 134
102 59 133
102 60 133
103 60 132
103 61 132
103 61 131
103 62 131
103 63 131
104 63 130
104 64 130
104 65 129
104 65 129
105 66 128
105 67 128
105 67 127
105 68 127
106 69 127
106 69 126
106 70 126
106 70 125
106 71 125
107 72 124
107 72 124
107 73 124
107 74 123
108 74 123
108 75 122
108 76 122
108 76 121
109 77 121
109 77 120
109 78 120
109 79 120
110 79 119
110 80 119
110 81 118
110 81 118
110 82 117
111 83 117
111 83 117
111 84 116
111 85 116
112 85 115
112 86 115
112 86 114
112 87 114
113 88 113
113 88 113
113 89 113
113 90 112
114 90 112
114 91 111
114 92 111
114 92 110
114 93 110
115 93 110
115 94 109
115 95 109
115 95 108
116 96 108
116 97 107
116 97 107
116 98 107
117 99 106
117 99 106
117 100 105
117 100 105
118 101 104
118 102 104
118 102 103
118 103 103
118 104 103
119 104 102
119 105 102
119 106 101
119 106 101
120 107 100
120 108 100
120 108 100
120 109 99
121 109 99
121 110 98
121 111 98
121 111 97
121 112 97
122 113 96
122 113 96
122 114 96
122 115 95
123 115 95
123 116 94
123 116 94
123 117 93
124 118 93
124 118 93
124 119 92
124 120 92
125 120 91
125 121 91
125 122 90
125 122 90
125 123 89
126 123 89
126 124 89
126 125 88
126 125 88
127 126 87
127 127 87
127 127 86
127 128 86
128 129 86
128 129 85
128 130 85
128 131 84
129 131 84
129 132 83
129 132 83
129 133 82
129 134 82
130 134 82
130 135 81
130 136 81
130 136 80
131 137 80
131 138 79
131 138 79
131 139 79
132 139 78
132 140 78
132 141 77
132 141 77
133 142 76
133 143 76
133 143 75
133 144 75
133 145 75
134 145 74
134 146 74
134 146 73
134 147 73
135 148 72
135 148 72
135 149 72
135 150 71
136 150 71
136 151 70
136 152 70
136 152 69
136 153 69
137 154 69
137 154 68
137 155 68
137 155 67
138 156 67
138 157 66
138 157 66
138 158 65
139 159 65
139 159 65
139 160 64
139 161 64
140 161 63
140 162 63
140 162 62
140 163 62
140 164 62
141 164 61
141 165 61
141 166 60
141 166 60
142 167 59
142 168 59
142 168 58
142 169 58
143 170 58
143 170 57
143 171 57
143 171 56
144 172 56
144 173 55
144 173 55
144 174 55
144 175 54
145 175 54
145 176 53
145 177 53
145 177 52
146 178 52
146 178 51
146 179 51
146 180 51
147 180 50
147 181 50
147 182 49
147 182 49
148 183 48
148 184 48
148 184 48
148 185 47
148 185 47
149 186 46
149 187 46
149 187 45
149 188 45
150 189 44
150 189 44
150 190 44
150 191 43
151 191 43
151 192 42
151 193 42
151 193 41
151 194 41
152 194 41
152 195 40
152 196 40
152 196 39
153 197 39
153 198 38
153 198 38
153 199 37
154 200 37
154 200 37
154 201 36
154 201 36
155 202 35
155 203 35
155 203 34
155 204 34
155 205 34
156 205 33
156 206 33
156 207 32
156 207 32
157 208 31
157 208 31
157 209 31
157 210 30
158 210 30
158 211 29
158 212 29
158 212 28
159 213 28
159 214 27
159 214 27
159 215 27
159 216 26
160 216 26
160 217 25
160 217 25
160 218 24
161 219 24
161 219 24
161 220 23
161 221 23
162 221 22
162 222 22
162 223 21
162 223 21
163 224 20
163 224 20
163 225 20
163 226 19
163 226 19
164 227 18
164 228 18
164 228 17
164 229 17
165 230 17
165 230 16
165 231 16
165 231 15
166 232 15
166 233 14
166 233 14
166 234 13
167 235 13
167 235 13
167 236 12
167 237 12
167 237 11
168 238 11
168 239 10
168 239 10
168 240 10
169 240 9
169 241 9
169 242 8
169 242 8
170 243 7
170 244 7
170 244 6
170 245 6
170 246 6
171 246 5
171 247 5
171 247 4
171 248 4
172 249 3
172 249 3
172 250 3
172 251 2
173 251 2
173 252 1
173 253 1
173 253 0
174 254 0
174 255 0
82 0 172
82 0 172
82 1 172
82 1 171
82 2 171
83 3 170
83 3 170
83 4 169
83 5 169
84 5 169
84 6 168
84 7 168
84 7 167
84 8 167
85 8 166
85 9 166
85 10 166
85 10 165
86 11 165
86 12 164
86 12 164
86 13 163
87 14 163
87 14 163
87 15 162
87 15 162
87 16 161
88 17 161
88 17 160
88 18 160
88 19 159
89 19 159
89 20 159
89 21 158
89 21 158
89 22 157
90 23 157
90 23 156
90 24 156
90 24 156
91 25 155
91 26 155
91 26 154
91 27 154
92 28 153
92 28 153
92 29 153
92 30 152
92 30 152
93 31 151
93 31 151
93 32 150
93 33 150
94 33 150
94 34 149
94 35 149
94 35 148
95 36 148
95 37 147
95 37 147
95 38 146
95 38 146
96 39 146
96 40 145
96 40 145
96 41 144
97 42 144
97 42 143
97 43 143
97 44 143
97 44 142
98 45 142
98 46 141
98 46 141
98 47 140
99 47 140
99 48 140
99 49 139
99 49 139
100 50 138
100 51 138
100 51 137
100 52 137
100 53 137
101 53 136
101 54 136
101 54 135
101 55 135
102 56 134
102 56 134
102 57 133
102 58 133
102 58 133
103 59 132
103 60 132
103 60 131
103 61 131
104 61 130
104 62 130
104 63 130
104 63 129
105 64 129
105 65 128
105 65 128
105 66 127
105 67 127
106 67 127
106 68 126
106 69 126
106 69 125
107 70 125
107 70 124
107 71 124
107 72 123
108 72 123
108 73 123
108 74 122
108 74 122
108 75 121
109 76 121
109 76 120
109 77 120
109 77 120
110 78 119
110 79 119
110 79 118
110 80 118
110 81 117
111 81 117
111 82 117
111 83 116
111 83 116
112 84 115
112 85 115
112 85 114
112 86 114
113 86 114
113 87 113
113 88 113
113 88 112
113 89 112
114 90 111
114 90 111
114 91 110
114 92 110
115 92 110
115 93 109
115 93 109
115 94 108
115 95 108
116 95 107
116 96 107
116 97 107
116 97 106
117 98 106
117 99 105
117 99 105
117 100 104
118 100 104
118 101 104
118 102 103
118 102 103
118 103 102
119 104 102
119 104 101
119 105 101
119 106 101
120 106 100
120 107 100
120 108 99
120 108 99
121 109 98
121 109 98
121 110 97
121 111 97
121 111 97
122 112 96
122 113 96
122 113 95
122 114 95
123 115 94
123 115 94
123 116 94
123 116 93
123 117 93
124 118 92
124 118 92
124 119 91
124 120 91
125 120 91
125 121 90
125 122 90
125 122 89
126 123 89
126 123 88
126 124 88
126 125 88
126 125 87
127 126 87
127 127 86
127 127 86
127 128 85
128 129 85
128 129 84
128 130 84
128 131 84
128 131 83
129 132 83
129 132 82
129 133 82
129 134 81
130 134 81
130 135 81
130 136 80
130 136 80
131 137 79
131 138 79
131 138 78
131 139 78
131 139 78
132 140 77
132 141 77
132 141 76
132 142 76
133 143 75
133 143 75
133 144 75
133 145 74
133 145 74
134 146 73
134 146 73
134 147 72
134 148 72
135 148 71
135 149 71
135 150 71
135 150 70
136 151 70
136 152 69
136 152 69
136 153 68
136 154 68
137 154 68
137 155 67
137 155 67
137 156 66
138 157 66
138 157 65
138 158 65
138 159 65
139 159 64
139 160 64
139 161 63
139 161 63
139 162 62
140 162 62
140 163 61
140 164 61
140 164 61
141 165 60
141 166 60
141 166 59
141 167 59
141 168 58
142 168 58
142 169 58
142 170 57
142 170 57
143 171 56
143 171 56
143 172 55
143 173 55
144 173 55
144 174 54
144 175 54
144 175 53
144 176 53
145 177 52
145 177 52
145 178 52
145 178 51
146 179 51
146 180 50
146 180 50
146 181 49
146 182 49
147 182 48
147 183 48
147 184 48
147 184 47
148 185 47
148 185 46
148 186 46
148 187 45
149 187 45
149 188 45
149 189 44
149 189 44
149 190 43
150 191 43
150 191 42
150 192 42
150 193 42
151 193 41
151 194 41
151 194 40
151 195 40
152 196 39
152 196 39
152 197 39
152 198 38
152 198 38
153 199 37
153 200 37
153 200 36
153 201 36
154 201 35
154 202 35
154 203 35
154 203 34
154 204 34
155 205 33
155 205 33
155 206 32
155 207 32
156 207 32
156 208 31
156 208 31
156 209 30
157 210 30
157 210 29
157 211 29
157 212 29
157 212 28
158 213 28
158 214 27
158 214 27
158 215 26
159 216 26
159 216 26
159 217 25
159 217 25
159 218 24
160 219 24
160 219 23
160 220 23
160 221 22
161 221 22
161 222 22
161 223 21
161 223 21
162 224 20
162 224 20
162 225 19
162 226 19
162 226 19
163 227 18
163 228 18
163 228 17
163 229 17
164 230 16
164 230 16
164 231 16
164 231 15
165 232 15
165 233 14
165 233 14
165 234 13
165 235 13
166 235 13
166 236 12
166 237 12
166 237 11
167 238 11
167 239 10
167 239 10
167 240 9
167 240 9
168 241 9
168 242 8
168 242 8
168 243 7
169 244 7
169 244 6
169 245 6
169 246 6
170 246 5
170 247 5
170 247 4
170 248 4
170 249 3
171 249 3
171 250 3
171 251 2
171 251 2
172 252 1
172 253 1
172 253 0
172 254 0
172 255 0
83 0 171
83 0 171
83 1 170
83 1 170
84 2 169
84 3 169
84 3 169
84 4 168
85 5 168
85 5 167
85 6 167
85 7 166
85 7 166
86 8 166
86 8 165
86 9 165
86 10 164
87 10 164
87 11 163
87 12 163
87 12 163
87 13 162
88 14 162
88 14 161
88 15 161
88 15 160
89 16 160
89 17 160
89 17 159
89 18 159
89 19 158
90 19 158
90 20 157
90 21 157
90 21 157
91 22 156
91 23 156
91 23 155
91 24 155
91 24 154
92 25 154
92 26 154
92 26 153
92 27 153
93 28 152
93 28 152
93 29 151
93 30 151
93 30 151
94 31 150
94 31 150
94 32 149
94 33 149
95 33 148
95 34 148
95 35 148
95 35 147
95 36 147
96 37 146
96 37 146
96 38 145
96 38 145
97 39 145
97 40 144
97 40 144
97 41 143
97 42 143
98 42 142
98 43 142
98 44 142
98 44 141
99 45 141
99 46 140
99 46 140
99 47 139
99 47 139
100 48 139
100 49 138
100 49 138
100 50 137
101 51 137
101 51 136
101 52 136
101 53 135
101 53 135
102 54 135
102 54 134
102 55 134
102 56 133
103 56 133
103 57 132
103 58 132
103 58 132
103 59 131
104 60 131
104 60 130
104 61 130
104 61 129
105 62 129
105 63 129
105 63 128
105 64 128
105 65 127
106 65 127
106 66 126
106 67 126
106 67 126
107 68 125
107 69 125
107 69 124
107 70 124
107 70 123
108 71 123
108 72 123
108 72 122
108 73 122
108 74 121
109 74 121
109 75 120
109 76 120
109 76 120
110 77 119
110 77 119
110 78 118
110 79 118
110 79 117
111 80 117
111 81 117
111 81 116
111 82 116
112 83 115
112 83 115
112 84 114
112 85 114
112 85 114
113 86 113
113 86 113
113 87 112
113 88 112
114 88 111
114 89 111
114 90 111
114 90 110
114 91 110
115 92 109
115 92 109
115 93 108
115 93 108
116 94 108
116 95 107
116 95 107
116 96 106
116 97 106
117 97 105
117 98 105
117 99 105
117 99 104
118 100 104
118 100 103
118 101 103
118 102 102
118 102 102
119 103 101
119 104 101
119 104 101
119 105 100
120 106 100
120 106 99
120 107 99
120 108 98
120 108 98
121 109 98
121 109 97
121 110 97
121 111 96
122 111 96
122 112 95
122 113 95
122 113 95
122 114 94
123 115 94
123 115 93
123 116 93
123 116 92
124 117 92
124 118 92
124 118 91
124 119 91
124 120 90
125 120 90
125 121 89
125 122 89
125 122 89
126 123 88
126 123 88
126 124 87
126 125 87
126 125 86
127 126 86
127 127 86
127 127 85
127 128 85
128 129 84
128 129 84
128 130 83
128 131 83
128 131 83
129 132 82
129 132 82
129 133 81
129 134 81
130 134 80
130 135 80
130 136 80
130 136 79
130 137 79
131 138 78
131 138 78
131 139 77
131 139 77
132 140 77
132 141 76
132 141 76
132 142 75
132 143 75
133 143 74
133 144 74
133 145 74
133 145 73
134 146 73
134 146 72
134 147 72
134 148 71
134 148 71
135 149 71
135 150 70
135 150 70
135 151 69
136 152 69
136 152 68
136 153 68
136 154 67
136 154 67
137 155 67
137 155 66
137 156 66
137 157 65
138 157 65
138 158 64
138 159 64
138 159 64
138 160 63
139 161 63
139 161 62
139 162 62
139 162 61
140 163 61
140 164 61
140 164 60
140 165 60
140 166 59
141 166 59
141 167 58
141 168 58
141 168 58
142 169 57
142 170 57
142 170 56
142 171 56
142 171 55
143 172 55
143 173 55
143 173 54
143 174 54
144 175 53
144 175 53
144 176 52
144 177 52
144 177 52
145 178 51
145 178 51
145 179 50
145 180 50
146 180 49
146 181 49
146 182 49
146 182 48
146 183 48
147 184 47
147 184 47
147 185 46
147 185 46
147 186 46
148 187 45
148 187 45
148 188 44
148 189 44
149 189 43
149 190 43
149 191 43
149 191 42
149 192 42
150 193 41
150 193 41
150 194 40
150 194 40
151 195 40
151 196 39
151 196 39
151 197 38
151 198 38
152 198 37
152 199 37
152 200 37
152 200 36
153 201 36
153 201 35
153 202 35
153 203 34
153 203 34
154 204 33
154 205 33
154 205 33
154 206 32
155 207 32
155 207 31
155 208 31
155 208 30
155 209 30
156 210 30
156 210 29
156 211 29
156 212 28
157 212 28
157 213 27
157 214 27
157 214 27
157 215 26
158 216 26
158 216 25
158 217 25
158 217 24
159 218 24
159 219 24
159 219 23
159 220 23
159 221 22
160 221 22
160 222 21
160 223 21
160 223 21
161 224 20
161 224 20
161 225 19
161 226 19
161 226 18
162 227 18
162 228 18
162 228 17
162 229 17
163 230 16
163 230 16
163 231 15
163 231 15
163 232 15
164 233 14
164 233 14
164 234 13
164 235 13
165 235 12
165 236 12
165 237 12
165 237 11
165 238 11
166 239 10
166 239 10
166 240 9
166 240 9
167 241 9
167 242 8
167 242 8
167 243 7
167 244 7
168 244 6
168 245 6
168 246 6
168 246 5
169 247 5
169 247 4
169 248 4
169 249 3
169 249 3
170 250 3
170 251 2
170 251 2
170 252 1
171 253 1
171 253 0
171 254 0
171 255 0
84 0 170
84 0 170
85 1 169
85 1 169
85 2 168
85 3 168
85 3 167
86 4 167
86 5 167
86 5 166
86 6 166
86 7 165
87 7 165
87 8 164
87 8 164
87 9 164
88 10 163
88 10 163
88 11 162
88 12 162
88 12 161
89 13 161
89 14 161
89 14 160
89 15 160
89 15 159
90 16 159
90 17 158
90 17 158
90 18 158
91 19 157
91 19 157
91 20 156
91 21 156
91 21 155
92 22 155
92 23 155
92 23 154
92 24 154
92 24 153
93 25 153
93 26 152
93 26 152
93 27 152
94 28 151
94 28 151
94 29 150
94 30 150
94 30 149
95 31 149
95 31 149
95 32 148
95 33 148
95 33 147
96 34 147
96 35 146
96 35 146
96 36 146
97 37 145
97 37 145
97 38 144
97 38 144
97 39 143
98 40 143
98 40 143
98 41 142
98 42 142
98 42 141
99 43 141
99 44 140
99 44 140
99 45 140
100 46 139
100 46 139
100 47 138
100 47 138
100 48 137
101 49 137
101 49 137
101 50 136
101 51 136
102 51 135
102 52 135
102 53 134
102 53 134
102 54 134
103 54 133
103 55 133
103 56 132
103 56 132
103 57 131
104 58 131
104 58 131
104 59 130
104 60 130
105 60 129
105 61 129
105 61 128
105 62 128
105 63 128
106 63 127
106 64 127
106 65 126
106 65 126
106 66 126
107 67 125
107 67 125
107 68 124
107 69 124
108 69 123
108 70 123
108 70 123
108 71 122
108 72 122
109 72 121
109 73 121
109 74 120
109 74 120
109 75 120
110 76 119
110 76 119
110 77 118
110 77 118
111 78 117
111 79 117
111 79 117
111 80 116
111 81 116
112 81 115
112 82 115
112 83 114
112 83 114
112 84 114
113 85 113
113 85 113
113 86 112
113 86 112
114 87 111
114 88 111
114 88 111
114 89 110
114 90 110
115 90 109
115 91 109
115 92 108
115 92 108
115 93 108
116 93 107
116 94 107
116 95 106
116 95 106
117 96 105
117 97 105
117 97 105
117 98 104
117 99 104
118 99 103
118 100 103
118 100 102
118 101 102
119 102 102
119 102 101
119 103 101
119 104 100
119 104 100
120 105 99
120 106 99
120 106 99
120 107 98
120 108 98
121 108 97
121 109 97
121 109 96
121 110 96
122 111 96
122 111 95
122 112 95
122 113 94
122 113 94
123 114 93
123 115 93
123 115 93
123 116 92
123 116 92
124 117 91
124 118 91
124 118 90
124 119 90
125 120 90
125 120 89
125 121 89
125 122 88
125 122 88
126 123 87
126 123 87
126 124 87
126 125 86
126 125 86
127 126 85
127 127 85
127 127 85
127 128 84
128 129 84
128 129 83
128 130 83
128 131 82
128 131 82
129 132 82
129 132 81
129 133 81
129 134 80
129 134 80
130 135 79
130 136 79
130 136 79
130 137 78
131 138 78
131 138 77
131 139 77
131 139 76
131 140 76
132 141 76
132 141 75
132 142 75
132 143 74
132 143 74
133 144 73
133 145 73
133 145 73
133 146 72
134 146 72
134 147 71
134 148 71
134 148 70
134 149 70
135 150 70
135 150 69
135 151 69
135 152 68
135 152 68
136 153 67
136 154 67
136 154 67
136 155 66
137 155 66
137 156 65
137 157 65
137 157 64
137 158 64
138 159 64
138 159 63
138 160 63
138 161 62
139 161 62
139 162 61
139 162 61
139 163 61
139 164 60
140 164 60
140 165 59
140 166 59
140 166 58
140 167 58
141 168 58
141 168 57
141 169 57
141 170 56
142 170 56
142 171 55
142 171 55
142 172 55
142 173 54
143 173 54
143 174 53
143 175 53
143 175 52
143 176 52
144 177 52
144 177 51
144 178 51
144 178 50
145 179 50
145 180 49
145 180 49
145 181 49
145 182 48
146 182 48
146 183 47
146 184 47
146 184 46
146 185 46
147 185 46
147 186 45
147 187 45
147 187 44
148 188 44
148 189 43
148 189 43
148 190 43
148 191 42
149 191 42
149 192 41
149 193 41
149 193 41
149 194 40
150 194 40
150 195 39
150 196 39
150 196 38
151 197 38
151 198 38
151 198 37
151 199 37
151 200 36
152 200 36
152 201 35
152 201 35
152 202 35
152 203 34
153 203 34
153 204 33
153 205 33
153 205 32
154 206 32
154 207 32
154 207 31
154 208 31
154 208 30
155 209 30
155 210 29
155 210 29
155 211 29
156 212 28
156 212 28
156 213 27
156 214 27
156 214 26
157 215 26
157 216 26
157 216 25
157 217 25
157 217 24
158 218 24
158 219 23
158 219 23
158 220 23
159 221 22
159 221 22
159 222 21
159 223 21
159 223 20
160 224 20
160 224 20
160 225 19
160 226 19
160 226 18
161 227 18
161 228 17
161 228 17
161 229 17
162 230 16
162 230 16
162 231 15
162 231 15
162 232 14
163 233 14
163 233 14
163 234 13
163 235 13
163 235 12
164 236 12
164 237 11
164 237 11
164 238 11
165 239 10
165 239 10
165 240 9
165 240 9
165 241 8
166 242 8
166 242 8
166 243 7
166 244 7
166 244 6
167 245 6
167 246 5
167 246 5
167 247 5
168 247 4
168 248 4
168 249 3
168 249 3
168 250 2
169 251 2
169 251 2
169 252 1
169 253 1
169 253 0
170 254 0
170 255 0
85 0 169
86 0 168
86 1 168
86 1 167
86 2 167
86 3 167
87 3 166
87 4 166
87 5 165
87 5 165
87 6 164
88 7 164
88 7 164
88 8 163
88 8 163
88 9 162
89 10 162
89 10 161
89 11 161
89 12 161
90 12 160
90 13 160
90 14 159
90 14 159
90 15 158
91 15 158
91 16 158
91 17 157
91 17 157
91 18 156
92 19 156
92 19 156
92 20 155
92 21 155
92 21 154
93 22 154
93 23 153
93 23 153
93 24 153
93 24 152
94 25 152
94 26 151
94 26 151
94 27 150
95 28 150
95 28 150
95 29 149
95 30 149
95 30 148
96 31 148
96 31 147
96 32 147
96 33 147
96 33 146
97 34 146
97 35 145
97 35 145
97 36 144
97 37 144
98 37 144
98 38 143
98 38 143
98 39 142
99 40 142
99 40 142
99 41 141
99 42 141
99 42 140
100 43 140
100 44 139
100 44 139
100 45 139
100 46 138
101 46 138
101 47 137
101 47 137
101 48 136
101 49 136
102 49 136
102 50 135
102 51 135
102 51 134
102 52 134
103 53 133
103 53 133
103 54 133
103 54 132
104 55 132
104 56 131
104 56 131
104 57 130
104 58 130
105 58 130
105 59 129
105 60 129
105 60 128
105 61 128
106 61 128
106 62 127
106 63 127
106 63 126
106 64 126
107 65 125
107 65 125
107 66 125
107 67 124
107 67 124
108 68 123
108 69 123
108 69 122
108 70 122
109 70 122
109 71 121
109 72 121
109 72 120
109 73 120
110 74 119
110 74 119
110 75 119
110 76 118
110 76 118
111 77 117
111 77 117
111 78 117
111 79 116
111 79 116
112 80 115
112 81 115
112 81 114
112 82 114
112 83 114
113 83 113
113 84 113
113 85 112
113 85 112
114 86 111
114 86 111
114 87 111
114 88 110
114 88 110
115 89 109
115 90 109
115 90 108
115 91 108
115 92 108
116 92 107
116 93 107
116 93 106
116 94 106
116 95 105
117 95 105
117 96 105
117 97 104
117 97 104
118 98 103
118 99 103
118 99 103
118 100 102
118 100 102
119 101 101
119 102 101
119 102 100
119 103 100
119 104 100
120 104 99
120 105 99
120 106 98
120 106 98
120 107 97
121 108 97
121 108 97
121 109 96
121 109 96
121 110 95
122 111 95
122 111 94
122 112 94
122 113 94
123 113 93
123 114 93
123 115 92
123 115 92
123 116 91
124 116 91
124 117 91
124 118 90
124 118 90
124 119 89
125 120 89
125 120 89
125 121 88
125 122 88
125 122 87
126 123 87
126 123 86
126 124 86
126 125 86
126 125 85
127 126 85
127 127 84
127 127 84
127 128 83
128 129 83
128 129 83
128 130 82
128 131 82
128 131 81
129 132 81
129 132 80
129 133 80
129 134 80
129 134 79
130 135 79
130 136 78
130 136 78
130 137 78
130 138 77
131 138 77
131 139 76
131 139 76
131 140 75
131 141 75
132 141 75
132 142 74
132 143 74
132 143 73
133 144 73
133 145 72
133 145 72
133 146 72
133 146 71
134 147 71
134 148 70
134 148 70
134 149 69
134 150 69
135 150 69
135 151 68
135 152 68
135 152 67
135 153 67
136 154 66
136 154 66
136 155 66
136 155 65
136 156 65
137 157 64
137 157 64
137 158 64
137 159 63
138 159 63
138 160 62
138 161 62
138 161 61
138 162 61
139 162 61
139 163 60
139 164 60
139 164 59
139 165 59
140 166 58
140 166 58
140 167 58
140 168 57
140 168 57
141 169 56
141 170 56
141 170 55
141 171 55
142 171 55
142 172 54
142 173 54
142 173 53
142 174 53
143 175 52
143 175 52
143 176 52
143 177 51
143 177 51
144 178 50
144 178 50
144 179 50
144 180 49
144 180 49
145 181 48
145 182 48
145 182 47
145 183 47
145 184 47
146 184 46
146 185 46
146 185 45
146 186 45
147 187 44
147 187 44
147 188 44
147 189 43
147 189 43
148 190 42
148 191 42
148 191 41
148 192 41
148 193 41
149 193 40
149 194 40
149 194 39
149 195 39
149 196 39
150 196 38
150 197 38
150 198 37
150 198 37
150 199 36
151 200 36
151 200 36
151 201 35
151 201 35
152 202 34
152 203 34
152 203 33
152 204 33
152 205 33
153 205 32
153 206 32
153 207 31
153 207 31
153 208 30
154 208 30
154 209 30
154 210 29
154 210 29
154 211 28
155 212 28
155 212 27
155 213 27
155 214 27
155 214 26
156 215 26
156 216 25
156 216 25
156 217 25
157 217 24
157 218 24
157 219 23
157 219 23
157 220 22
158 221 22
158 221 22
158 222 21
158 223 21
158 223 20
159 224 20
159 224 19
159 225 19
159 226 19
159 226 18
160 227 18
160 228 17
160 228 17
160 229 16
161 230 16
161 230 16
161 231 15
161 231 15
161 232 14
162 233 14
162 233 13
162 234 13
162 235 13
162 235 12
163 236 12
163 237 11
163 237 11
163 238 11
163 239 10
164 239 10
164 240 9
164 240 9
164 241 8
164 242 8
165 242 8
165 243 7
165 244 7
165 244 6
166 245 6
166 246 5
166 246 5
166 247 5
166 247 4
167 248 4
167 249 3
167 249 3
167 250 2
167 251 2
168 251 2
168 252 1
168 253 1
168 253 0
168 254 0
169 255 0
87 0 167
87 0 167
87 1 167
87 1 166
87 2 166
88 3 165
88 3 165
88 4 164
88 5 164
88 5 164
89 6 163
89 7 163
89 7 162
89 8 162
89 8 161
90 9 161
90 10 161
90 10 160
90 11 160
90 12 159
91 12 159
91 13 159
91 14 158
91 14 158
91 15 157
92 15 157
92 16 156
92 17 156
92 17 156
93 18 155
93 19 155
93 19 154
93 20 154
93 21 153
94 21 153
94 22 153
94 23 152
94 23 152
94 24 151
95 24 151
95 25 151
95 26 150
95 26 150
95 27 149
96 28 149
96 28 148
96 29 148
96 30 148
96 30 147
97 31 147
97 31 146
97 32 146
97 33 145
97 33 145
98 34 145
98 35 144
98 35 144
98 36 143
98 37 143
99 37 143
99 38 142
99 38 142
99 39 141
99 40 141
100 40 140
100 41 140
100 42 140
100 42 139
100 43 139
101 44 138
101 44 138
101 45 137
101 46 137
101 46 137
102 47 136
102 47 136
102 48 135
102 49 135
102 49 135
103 50 134
103 51 134
103 51 133
103 52 133
103 53 132
104 53 132
104 54 132
104 54 131
104 55 131
104 56 130
105 56 130
105 57 130
105 58 129
105 58 129
105 59 128
106 60 128
106 60 127
106 61 127
106 61 127
106 62 126
107 63 126
107 63 125
107 64 125
107 65 124
107 65 124
108 66 124
108 67 123
108 67 123
108 68 122
108 69 122
109 69 122
109 70 121
109 70 121
109 71 120
109 72 120
110 72 119
110 73 119
110 74 119
110 74 118
111 75 118
111 76 117
111 76 117
111 77 116
111 77 116
112 78 116
112 79 115
112 79 115
112 80 114
112 81 114
113 81 114
113 82 113
113 83 113
113 83 112
113 84 112
114 85 111
114 85 111
114 86 111
114 86 110
114 87 110
115 88 109
115 88 109
115 89 108
115 90 108
115 90 108
116 91 107
116 92 107
116 92 106
116 93 106
116 93 106
117 94 105
117 95 105
117 95 104
117 96 104
117 97 103
118 97 103
118 98 103
118 99 102
118 99 102
118 100 101
119 100 101
119 101 100
119 102 100
119 102 100
119 103 99
120 104 99
120 104 98
120 105 98
120 106 98
120 106 97
121 107 97
121 108 96
121 108 96
121 109 95
121 109 95
122 110 95
122 111 94
122 111 94
122 112 93
122 113 93
123 113 92
123 114 92
123 115 92
123 115 91
123 116 91
124 116 90
124 117 90
124 118 90
124 118 89
124 119 89
125 120 88
125 120 88
125 121 87
125 122 87
125 122 87
126 123 86
126 123 86
126 124 85
126 125 85
126 125 84
127 126 84
127 127 84
127 127 83
127 128 83
128 129 82
128 129 82
128 130 82
128 131 81
128 131 81
129 132 80
129 132 80
129 133 79
129 134 79
129 134 79
130 135 78
130 136 78
130 136 77
130 137 77
130 138 76
131 138 76
131 139 76
131 139 75
131 140 75
131 141 74
132 141 74
132 142 74
132 143 73
132 143 73
132 144 72
133 145 72
133 145 71
133 146 71
133 146 71
133 147 70
134 148 70
134 148 69
134 149 69
134 150 68
134 150 68
135 151 68
135 152 67
135 152 67
135 153 66
135 154 66
136 154 66
136 155 65
136 155 65
136 156 64
136 157 64
137 157 63
137 158 63
137 159 63
137 159 62
137 160 62
138 161 61
138 161 61
138 162 61
138 162 60
138 163 60
139 164 59
139 164 59
139 165 58
139 166 58
139 166 58
140 167 57
140 168 57
140 168 56
140 169 56
140 170 55
141 170 55
141 171 55
141 171 54
141 172 54
141 173 53
142 173 53
142 174 53
142 175 52
142 175 52
142 176 51
143 177 51
143 177 50
143 178 50
143 178 50
143 179 49
144 180 49
144 180 48
144 181 48
144 182 47
145 182 47
145 183 47
145 184 46
145 184 46
145 185 45
146 185 45
146 186 45
146 187 44
146 187 44
146 188 43
147 189 43
147 189 42
147 190 42
147 191 42
147 191 41
148 192 41
148 193 40
148 193 40
148 194 39
148 194 39
149 195 39
149 196 38
149 196 38
149 197 37
149 198 37
150 198 37
150 199 36
150 200 36
150 200 35
150 201 35
151 201 34
151 202 34
151 203 34
151 203 33
151 204 33
152 205 32
152 205 32
152 206 31
152 207 31
152 207 31
153 208 30
153 208 30
153 209 29
153 210 29
153 210 29
154 211 28
154 212 28
154 212 27
154 213 27
154 214 26
155 214 26
155 215 26
155 216 25
155 216 25
155 217 24
156 217 24
156 218 23
156 219 23
156 219 23
156 220 22
157 221 22
157 221 21
157 222 21
157 223 21
157 223 20
158 224 20
158 224 19
158 225 19
158 226 18
158 226 18
159 227 18
159 228 17
159 228 17
159 229 16
159 230 16
160 230 15
160 231 15
160 231 15
160 232 14
160 233 14
161 233 13
161 234 13
161 235 13
161 235 12
161 236 12
162 237 11
162 237 11
162 238 10
162 239 10
163 239 10
163 240 9
163 240 9
163 241 8
163 242 8
164 242 7
164 243 7
164 244 7
164 244 6
164 245 6
165 246 5
165 246 5
165 247 5
165 247 4
165 248 4
166 249 3
166 249 3
166 250 2
166 251 2
166 251 2
167 252 1
167 253 1
167 253 0
167 254 0
167 255 0
88 0 166
88 0 166
88 1 165
89 1 165
89 2 164
89 3 164
89 3 164
89 4 163
89 5 163
90 5 162
90 6 162
90 7 161
90 7 161
90 8 161
91 8 160
91 9 160
91 10 159
91 10 159
91 11 159
92 12 158
92 12 158
92 13 157
92 14 157
92 14 156
93 15 156
93 15 156
93 16 155
93 17 155
93 17 154
94 18 154
94 19 154
94 19 153
94 20 153
94 21 152
95 21 152
95 22 151
95 23 151
95 23 151
95 24 150
96 24 150
96 25 149
96 26 149
96 26 149
96 27 148
97 28 148
97 28 147
97 29 147
97 30 146
97 30 146
98 31 146
98 31 145
98 32 145
98 33 144
98 33 144
98 34 144
99 35 143
99 35 143
99 36 142
99 37 142
99 37 141
100 38 141
100 38 141
100 39 140
100 40 140
100 40 139
101 41 139
101 42 139
101 42 138
101 43 138
101 44 137
102 44 137
102 45 136
102 46 136
102 46 136
102 47 135
103 47 135
103 48 134
103 49 134
103 49 134
103 50 133
104 51 133
104 51 132
104 52 132
104 53 131
104 53 131
105 54 131
105 54 130
105 55 130
105 56 129
105 56 129
106 57 129
106 58 128
106 58 128
106 59 127
106 60 127
107 60 126
107 61 126
107 61 126
107 62 125
107 63 125
108 63 124
108 64 124
108 65 123
108 65 123
108 66 123
108 67 122
109 67 122
109 68 121
109 69 121
109 69 121
109 70 120
110 70 120
110 71 119
110 72 119
110 72 118
110 73 118
111 74 118
111 74 117
111 75 117
111 76 116
111 76 116
112 77 116
112 77 115
112 78 115
112 79 114
112 79 114
113 80 113
113 81 113
113 81 113
113 82 112
113 83 112
114 83 111
114 84 111
114 85 111
114 85 110
114 86 110
115 86 109
115 87 109
115 88 108
115 88 108
115 89 108
116 90 107
116 90 107
116 91 106
116 92 106
116 92 106
117 93 105
117 93 105
117 94 104
117 95 104
117 95 103
117 96 103
118 97 103
118 97 102
118 98 102
118 99 101
118 99 101
119 100 101
119 100 100
119 101 100
119 102 99
119 102 99
120 103 98
120 104 98
120 104 98
120 105 97
120 106 97
121 106 96
121 107 96
121 108 96
121 108 95
121 109 95
122 109 94
122 110 94
122 111 93
122 111 93
122 112 93
123 113 92
123 113 92
123 114 91
123 115 91
123 115 91
124 116 90
124 116 90
124 117 89
124 118 89
124 118 88
125 119 88
125 120 88
125 120 87
125 121 87
125 122 86
126 122 86
126 123 86
126 123 85
126 124 85
126 125 84
127 125 84
127 126 83
127 127 83
127 127 83
127 128 82
127 129 82
128 129 81
128 130 81
128 131 80
128 131 80
128 132 80
129 132 79
129 133 79
129 134 78
129 134 78
129 135 78
130 136 77
130 136 77
130 137 76
130 138 76
130 138 75
131 139 75
131 139 75
131 140 74
131 141 74
131 141 73
132 142 73
132 143 73
132 143 72
132 144 72
132 145 71
133 145 71
133 146 70
133 146 70
133 147 70
133 148 69
134 148 69
134 149 68
134 150 68
134 150 68
134 151 67
135 152 67
135 152 66
135 153 66
135 154 65
135 154 65
136 155 65
136 155 64
136 156 64
136 157 63
136 157 63
137 158 63
137 159 62
137 159 62
137 160 61
137 161 61
137 161 60
138 162 60
138 162 60
138 163 59
138 164 59
138 164 58
139 165 58
139 166 58
139 166 57
139 167 57
139 168 56
140 168 56
140 169 55
140 170 55
140 170 55
140 171 54
141 171 54
141 172 53
141 173 53
141 173 53
141 174 52
142 175 52
142 175 51
142 176 51
142 177 50
142 177 50
143 178 50
143 178 49
143 179 49
143 180 48
143 180 48
144 181 48
144 182 47
144 182 47
144 183 46
144 184 46
145 184 45
145 185 45
145 185 45
145 186 44
145 187 44
146 187 43
146 188 43
146 189 43
146 189 42
146 190 42
146 191 41
147 191 41
147 192 40
147 193 40
147 193 40
147 194 39
148 194 39
148 195 38
148 196 38
148 196 37
148 197 37
149 198 37
149 198 36
149 199 36
149 200 35
149 200 35
150 201 35
150 201 34
150 202 34
150 203 33
150 203 33
151 204 32
151 205 32
151 205 32
151 206 31
151 207 31
152 207 30
152 208 30
152 208 30
152 209 29
152 210 29
153 210 28
153 211 28
153 212 27
153 212 27
153 213 27
154 214 26
154 214 26
154 215 25
154 216 25
154 216 25
155 217 24
155 217 24
155 218 23
155 219 23
155 219 22
156 220 22
156 221 22
156 221 21
156 222 21
156 223 20
156 223 20
157 224 20
157 224 19
157 225 19
157 226 18
157 226 18
158 227 17
158 228 17
158 228 17
158 229 16
158 230 16
159 230 15
159 231 15
159 231 15
159 232 14
159 233 14
160 233 13
160 234 13
160 235 12
160 235 12
160 236 12
161 237 11
161 237 11
161 238 10
161 239 10
161 239 10
162 240 9
162 240 9
162 241 8
162 242 8
162 242 7
163 243 7
163 244 7
163 244 6
163 245 6
163 246 5
164 246 5
164 247 5
164 247 4
164 248 4
164 249 3
165 249 3
165 250 2
165 251 2
165 251 2
165 252 1
165 253 1
166 253 0
166 254 0
166 255 0
89 0 165
89 0 164
90 1 164
90 1 164
90 2 163
90 3 163
90 3 162
91 4 162
91 5 161
91 5 161
91 6 161
91 7 160
91 7 160
92 8 159
92 8 159
92 9 159
92 10 158
92 10 158
93 11 157
93 12 157
93 12 157
93 13 156
93 14 156
94 14 155
94 15 155
94 15 154
94 16 154
94 17 154
95 17 153
95 18 153
95 19 152
95 19 152
95 20 152
95 21 151
96 21 151
96 22 150
96 23 150
96 23 149
96 24 149
97 24 149
97 25 148
97 26 148
97 26 147
97 27 147
98 28 147
98 28 146
98 29 146
98 30 145
98 30 145
98 31 145
99 31 144
99 32 144
99 33 143
99 33 143
99 34 142
100 35 142
100 35 142
100 36 141
100 37 141
100 37 140
101 38 140
101 38 140
101 39 139
101 40 139
101 40 138
102 41 138
102 42 137
102 42 137
102 43 137
102 44 136
102 44 136
103 45 135
103 46 135
103 46 135
103 47 134
103 47 134
104 48 133
104 49 133
104 49 132
104 50 132
104 51 132
105 51 131
105 52 131
105 53 130
105 53 130
105 54 130
105 54 129
106 55 129
106 56 128
106 56 128
106 57 128
106 58 127
107 58 127
107 59 126
107 60 126
107 60 125
107 61 125
108 61 125
108 62 124
108 63 124
108 63 123
108 64 123
109 65 123
109 65 122
109 66 122
109 67 121
109 67 121
109 68 120
110 69 120
110 69 120
110 70 119
110 70 119
110 71 118
111 72 118
111 72 118
111 73 117
111 74 117
111 74 116
112 75 116
112 76 116
112 76 115
112 77 115
112 77 114
113 78 114
113 79 113
113 79 113
113 80 113
113 81 112
113 81 112
114 82 111
114 83 111
114 83 111
114 84 110
114 85 110
115 85 109
115 86 109
115 86 108
115 87 108
115 88 108
116 88 107
116 89 107
116 90 106
116 90 106
116 91 106
116 92 105
117 92 105
117 93 104
117 93 104
117 94 103
117 95 103
118 95 103
118 96 102
118 97 102
118 97 101
118 98 101
119 99 101
119 99 100
119 100 100
119 100 99
119 101 99
120 102 99
120 102 98
120 103 98
120 104 97
120 104 97
120 105 96
121 106 96
121 106 96
121 107 95
121 108 95
121 108 94
122 109 94
122 109 94
122 110 93
122 111 93
122 111 92
123 112 92
123 113 91
123 113 91
123 114 91
123 115 90
123 115 90
124 116 89
124 116 89
124 117 89
124 118 88
124 118 88
125 119 87
125 120 87
125 120 87
125 121 86
125 122 86
126 122 85
126 123 85
126 123 84
126 124 84
126 125 84
127 125 83
127 126 83
127 127 82
127 127 82
127 128 82
127 129 81
128 129 81
128 130 80
128 131 80
128 131 79
128 132 79
129 132 79
129 133 78
129 134 78
129 134 77
129 135 77
130 136 77
130 136 76
130 137 76
130 138 75
130 138 75
131 139 74
131 139 74
131 140 74
131 141 73
131 141 73
131 142 72
132 143 72
132 143 72
132 144 71
132 145 71
132 145 70
133 146 70
133 146 70
133 147 69
133 148 69
133 148 68
134 149 68
134 150 67
134 150 67
134 151 67
134 152 66
134 152 66
135 153 65
135 154 65
135 154 65
135 155 64
135 155 64
136 156 63
136 157 63
136 157 62
136 158 62
136 159 62
137 159 61
137 160 61
137 161 60
137 161 60
137 162 60
138 162 59
138 163 59
138 164 58
138 164 58
138 165 58
138 166 57
139 166 57
139 167 56
139 168 56
139 168 55
139 169 55
140 170 55
140 170 54
140 171 54
140 171 53
140 172 53
141 173 53
141 173 52
141 174 52
141 175 51
141 175 51
141 176 50
142 177 50
142 177 50
142 178 49
142 178 49
142 179 48
143 180 48
143 180 48
143 181 47
143 182 47
143 182 46
144 183 46
144 184 45
144 184 45
144 185 45
144 185 44
145 186 44
145 187 43
145 187 43
145 188 43
145 189 42
145 189 42
146 190 41
146 191 41
146 191 41
146 192 40
146 193 40
147 193 39
147 194 39
147 194 38
147 195 38
147 196 38
148 196 37
148 197 37
148 198 36
148 198 36
148 199 36
149 200 35
149 200 35
149 201 34
149 201 34
149 202 33
149 203 33
150 203 33
150 204 32
150 205 32
150 205 31
150 206 31
151 207 31
151 207 30
151 208 30
151 208 29
151 209 29
152 210 29
152 210 28
152 211 28
152 212 27
152 212 27
152 213 26
153 214 26
153 214 26
153 215 25
153 216 25
153 216 24
154 217 24
154 217 24
154 218 23
154 219 23
154 219 22
155 220 22
155 221 21
155 221 21
155 222 21
155 223 20
156 223 20
156 224 19
156 224 19
156 225 19
156 226 18
156 226 18
157 227 17
157 228 17
157 228 16
157 229 16
157 230 16
158 230 15
158 231 15
158 231 14
158 232 14
158 233 14
159 233 13
159 234 13
159 235 12
159 235 12
159 236 12
159 237 11
160 237 11
160 238 10
160 239 10
160 239 9
160 240 9
161 240 9
161 241 8
161 242 8
161 242 7
161 243 7
162 244 7
162 244 6
162 245 6
162 246 5
162 246 5
163 247 4
163 247 4
163 248 4
163 249 3
163 249 3
163 250 2
164 251 2
164 251 2
164 252 1
164 253 1
164 253 0
165 254 0
165 255 0
90 0 164
91 0 163
91 1 163
91 1 162
91 2 162
91 3 161
92 3 161
92 4 161
92 5 160
92 5 160
92 6 159
92 7 159
93 7 159
93 8 158
93 8 158
93 9 157
93 10 157
94 10 157
94 11 156
94 12 156
94 12 155
94 13 155
95 14 154
95 14 154
95 15 154
95 15 153
95 16 153
95 17 152
96 17 152
96 18 152
96 19 151
96 19 151
96 20 150
97 21 150
97 21 150
97 22 149
97 23 149
97 23 148
97 24 148
98 24 147
98 25 147
98 26 147
98 26 146
98 27 146
99 28 145
99 28 145
99 29 145
99 30 144
99 30 144
99 31 143
100 31 143
100 32 143
100 33 142
100 33 142
100 34 141
101 35 141
101 35 140
101 36 140
101 37 140
101 37 139
101 38 139
102 38 138
102 39 138
102 40 138
102 40 137
102 41 137
103 42 136
103 42 136
103 43 136
103 44 135
103 44 135
103 45 134
104 46 134
104 46 134
104 47 133
104 47 133
104 48 132
105 49 132
105 49 131
105 50 131
105 51 131
105 51 130
105 52 130
106 53 129
106 53 129
106 54 129
106 54 128
106 55 128
107 56 127
107 56 127
107 57 127
107 58 126
107 58 126
108 59 125
108 60 125
108 60 124
108 61 124
108 61 124
108 62 123
109 63 123
109 63 122
109 64 122
109 65 122
109 65 121
110 66 121
110 67 120
110 67 120
110 68 120
110 69 119
110 69 119
111 70 118
111 70 118
111 71 117
111 72 117
111 72 117
112 73 116
112 74 116
112 74 115
112 75 115
112 76 115
112 76 114
113 77 114
113 77 113
113 78 113
113 79 113
113 79 112
114 80 112
114 81 111
114 81 111
114 82 110
114 83 110
114 83 110
115 84 109
115 85 109
115 85 108
115 86 108
115 86 108
116 87 107
116 88 107
116 88 106
116 89 106
116 90 106
116 90 105
117 91 105
117 92 104
117 92 104
117 93 104
117 93 103
118 94 103
118 95 102
118 95 102
118 96 101
118 97 101
118 97 101
119 98 100
119 99 100
119 99 99
119 100 99
119 100 99
120 101 98
120 102 98
120 102 97
120 103 97
120 104 97
121 104 96
121 105 96
121 106 95
121 106 95
121 107 94
121 108 94
122 108 94
122 109 93
122 109 93
122 110 92
122 111 92
123 111 92
123 112 91
123 113 91
123 113 90
123 114 90
123 115 90
124 115 89
124 116 89
124 116 88
124 117 88
124 118 87
125 118 87
125 119 87
125 120 86
125 120 86
125 121 85
125 122 85
126 122 85
126 123 84
126 123 84
126 124 83
126 125 83
127 125 83
127 126 82
127 127 82
127 127 81
127 128 81
127 129 80
128 129 80
128 130 80
128 131 79
128 131 79
128 132 78
129 132 78
129 133 78
129 134 77
129 134 77
129 135 76
129 136 76
130 136 76
130 137 75
130 138 75
130 138 74
130 139 74
131 139 73
131 140 73
131 141 73
131 141 72
131 142 72
131 143 71
132 143 71
132 144 71
132 145 70
132 145 70
132 146 69
133 146 69
133 147 69
133 148 68
133 148 68
133 149 67
133 150 67
134 150 67
134 151 66
134 152 66
134 152 65
134 153 65
135 154 64
135 154 64
135 155 64
135 155 63
135 156 63
136 157 62
136 157 62
136 158 62
136 159 61
136 159 61
136 160 60
137 161 60
137 161 60
137 162 59
137 162 59
137 163 58
138 164 58
138 164 57
138 165 57
138 166 57
138 166 56
138 167 56
139 168 55
139 168 55
139 169 55
139 170 54
139 170 54
140 171 53
140 171 53
140 172 53
140 173 52
140 173 52
140 174 51
141 175 51
141 175 50
141 176 50
141 177 50
141 177 49
142 178 49
142 178 48
142 179 48
142 180 48
142 180 47
142 181 47
143 182 46
143 182 46
143 183 46
143 184 45
143 184 45
144 185 44
144 185 44
144 186 43
144 187 43
144 187 43
144 188 42
145 189 42
145 189 41
145 190 41
145 191 41
145 191 40
146 192 40
146 193 39
146 193 39
146 194 39
146 194 38
146 195 38
147 196 37
147 196 37
147 197 36
147 198 36
147 198 36
148 199 35
148 200 35
148 200 34
148 201 34
148 201 34
149 202 33
149 203 33
149 203 32
149 204 32
149 205 32
149 205 31
150 206 31
150 207 30
150 207 30
150 208 30
150 208 29
151 209 29
151 210 28
151 210 28
151 211 27
151 212 27
151 212 27
152 213 26
152 214 26
152 214 25
152 215 25
152 216 25
153 216 24
153 217 24
153 217 23
153 218 23
153 219 23
153 219 22
154 220 22
154 221 21
154 221 21
154 222 20
154 223 20
155 223 20
155 224 19
155 224 19
155 225 18
155 226 18
155 226 18
156 227 17
156 228 17
156 228 16
156 229 16
156 230 16
157 230 15
157 231 15
157 231 14
157 232 14
157 233 13
157 233 13
158 234 13
158 235 12
158 235 12
158 236 11
158 237 11
159 237 11
159 238 10
159 239 10
159 239 9
159 240 9
159 240 9
160 241 8
160 242 8
160 242 7
160 243 7
160 244 6
161 244 6
161 245 6
161 246 5
161 246 5
161 247 4
162 247 4
162 248 4
162 249 3
162 249 3
162 250 2
162 251 2
163 251 2
163 252 1
163 253 1
163 253 0
163 254 0
164 255 0
92 0 162
92 0 162
92 1 161
92 1 161
92 2 161
93 3 160
93 3 160
93 4 159
93 5 159
93 5 159
94 6 158
94 7 158
94 7 157
94 8 157
94 8 157
94 9 156
95 10 156
95 10 155
95 11 155
95 12 154
95 12 154
95 13 154
96 14 153
96 14 153
96 15 152
96 15 152
96 16 152
97 17 151
97 17 151
97 18 150
97 19 150
97 19 150
97 20 149
98 21 149
98 21 148
98 22 148
98 23 148
98 23 147
98 24 147
99 24 146
99 25 146
99 26 146
99 26 145
99 27 145
100 28 144
100 28 144
100 29 143
100 30 143
100 30 143
100 31 142
101 31 142
101 32 141
101 33 141
101 33 141
101 34 140
101 35 140
102 35 139
102 36 139
102 37 139
102 37 138
102 38 138
103 38 137
103 39 137
103 40 137
103 40 136
103 41 136
103 42 135
104 42 135
104 43 135
104 44 134
104 44 134
104 45 133
104 46 133
105 46 132
105 47 132
105 47 132
105 48 131
105 49 131
106 49 130
106 50 130
106 51 130
106 51 129
106 52 129
106 53 128
107 53 128
107 54 128
107 54 127
107 55 127
107 56 126
107 56 126
108 57 126
108 58 125
108 58 125
108 59 124
108 60 124
109 60 123
109 61 123
109 61 123
109 62 122
109 63 122
109 63 121
110 64 121
110 65 121
110 65 120
110 66 120
110 67 119
110 67 119
111 68 119
111 69 118
111 69 118
111 70 117
111 70 117
112 71 117
112 72 116
112 72 116
112 73 115
112 74 115
112 74 115
113 75 114
113 76 114
113 76 113
113 77 113
113 77 112
113 78 112
114 79 112
114 79 111
114 80 111
114 81 110
114 81 110
115 82 110
115 83 109
115 83 109
115 84 108
115 85 108
115 85 108
116 86 107
116 86 107
116 87 106
116 88 106
116 88 106
116 89 105
117 90 105
117 90 104
117 91 104
117 92 104
117 92 103
118 93 103
118 93 102
118 94 102
118 95 101
118 95 101
118 96 101
119 97 100
119 97 100
119 98 99
119 99 99
119 99 99
119 100 98
120 100 98
120 101 97
120 102 97
120 102 97
120 103 96
121 104 96
121 104 95
121 105 95
121 106 95
121 106 94
121 107 94
122 108 93
122 108 93
122 109 92
122 109 92
122 110 92
122 111 91
123 111 91
123 112 90
123 113 90
123 113 90
123 114 89
124 115 89
124 115 88
124 116 88
124 116 88
124 117 87
124 118 87
125 118 86
125 119 86
125 120 86
125 120 85
125 121 85
125 122 84
126 122 84
126 123 84
126 123 83
126 124 83
126 125 82
127 125 82
127 126 81
127 127 81
127 127 81
127 128 80
127 129 80
128 129 79
128 130 79
128 131 79
128 131 78
128 132 78
129 132 77
129 133 77
129 134 77
129 134 76
129 135 76
129 136 75
130 136 75
130 137 75
130 138 74
130 138 74
130 139 73
130 139 73
131 140 73
131 141 72
131 141 72
131 142 71
131 143 71
132 143 70
132 144 70
132 145 70
132 145 69
132 146 69
132 146 68
133 147 68
133 148 68
133 148 67
133 149 67
133 150 66
133 150 66
134 151 66
134 152 65
134 152 65
134 153 64
134 154 64
135 154 64
135 155 63
135 155 63
135 156 62
135 157 62
135 157 61
136 158 61
136 159 61
136 159 60
136 160 60
136 161 59
136 161 59
137 162 59
137 162 58
137 163 58
137 164 57
137 164 57
138 165 57
138 166 56
138 166 56
138 167 55
138 168 55
138 168 55
139 169 54
139 170 54
139 170 53
139 171 53
139 171 53
139 172 52
140 173 52
140 173 51
140 174 51
140 175 50
140 175 50
141 176 50
141 177 49
141 177 49
141 178 48
141 178 48
141 179 48
142 180 47
142 180 47
142 181 46
142 182 46
142 182 46
142 183 45
143 184 45
143 184 44
143 185 44
143 185 44
143 186 43
144 187 43
144 187 42
144 188 42
144 189 42
144 189 41
144 190 41
145 191 40
145 191 40
145 192 39
145 193 39
145 193 39
145 194 38
146 194 38
146 195 37
146 196 37
146 196 37
146 197 36
147 198 36
147 198 35
147 199 35
147 200 35
147 200 34
147 201 34
148 201 33
148 202 33
148 203 33
148 203 32
148 204 32
148 205 31
149 205 31
149 206 30
149 207 30
149 207 30
149 208 29
150 208 29
150 209 28
150 210 28
150 210 28
150 211 27
150 212 27
151 212 26
151 213 26
151 214 26
151 214 25
151 215 25
151 216 24
152 216 24
152 217 24
152 217 23
152 218 23
152 219 22
153 219 22
153 220 22
153 221 21
153 221 21
153 222 20
153 223 20
154 223 19
154 224 19
154 224 19
154 225 18
154 226 18
154 226 17
155 227 17
155 228 17
155 228 16
155 229 16
155 230 15
156 230 15
156 231 15
156 231 14
156 232 14
156 233 13
156 233 13
157 234 13
157 235 12
157 235 12
157 236 11
157 237 11
157 237 11
158 238 10
158 239 10
158 239 9
158 240 9
158 240 8
159 241 8
159 242 8
159 242 7
159 243 7
159 244 6
159 244 6
160 245 6
160 246 5
160 246 5
160 247 4
160 247 4
160 248 4
161 249 3
161 249 3
161 250 2
161 251 2
161 251 2
162 252 1
162 253 1
162 253 0
162 254 0
162 255 0
93 0 161
93 0 161
93 1 160
94 1 160
94 2 159
94 3 159
94 3 159
94 4 158
94 5 158
95 5 157
95 6 157
95 7 157
95 7 156
95 8 156
95 8 155
96 9 155
96 10 154
96 10 154
96 11 154
96 12 153
96 12 153
97 13 152
97 14 152
97 14 152
97 15 151
97 15 151
97 16 150
98 17 150
98 17 150
98 18 149
98 19 149
98 19 148
98 20 148
99 21 148
99 21 147
99 22 147
99 23 146
99 23 146
100 24 146
100 24 145
100 25 145
100 26 144
100 26 144
100 27 144
101 28 143
101 28 143
101 29 142
101 30 142
101 30 142
101 31 141
102 31 141
102 32 140
102 33 140
102 33 140
102 34 139
102 35 139
103 35 138
103 36 138
103 37 137
103 37 137
103 38 137
103 38 136
104 39 136
104 40 135
104 40 135
104 41 135
104 42 134
104 42 134
105 43 133
105 44 133
105 44 133
105 45 132
105 46 132
105 46 131
106 47 131
106 47 131
106 48 130
106 49 130
106 49 129
106 50 129
107 51 129
107 51 128
107 52 128
107 53 127
107 53 127
108 54 127
108 54 126
108 55 126
108 56 125
108 56 125
108 57 125
109 58 124
109 58 124
109 59 123
109 60 123
109 60 123
109 61 122
110 61 122
110 62 121
110 63 121
110 63 120
110 64 120
110 65 120
111 65 119
111 66 119
111 67 118
111 67 118
111 68 118
111 69 117
112 69 117
112 70 116
112 70 116
112 71 116
112 72 115
112 72 115
113 73 114
113 74 114
113 74 114
113 75 113
113 76 113
113 76 112
114 77 112
114 77 112
114 78 111
114 79 111
114 79 110
114 80 110
115 81 110
115 81 109
115 82 109
115 83 108
115 83 108
116 84 108
116 85 107
116 85 107
116 86 106
116 86 106
116 87 106
117 88 105
117 88 105
117 89 104
117 90 104
117 90 103
117 91 103
118 92 103
118 92 102
118 93 102
118 93 101
118 94 101
118 95 101
119 95 100
119 96 100
119 97 99
119 97 99
119 98 99
119 99 98
120 99 98
120 100 97
120 100 97
120 101 97
120 102 96
120 102 96
121 103 95
121 104 95
121 104 95
121 105 94
121 106 94
121 106 93
122 107 93
122 108 93
122 108 92
122 109 92
122 109 91
122 110 91
123 111 91
123 111 90
123 112 90
123 113 89
123 113 89
124 114 89
124 115 88
124 115 88
124 116 87
124 116 87
124 117 87
125 118 86
125 118 86
125 119 85
125 120 85
125 120 84
125 121 84
126 122 84
126 122 83
126 123 83
126 123 82
126 124 82
126 125 82
127 125 81
127 126 81
127 127 80
127 127 80
127 128 80
127 129 79
128 129 79
128 130 78
128 131 78
128 131 78
128 132 77
128 132 77
129 133 76
129 134 76
129 134 76
129 135 75
129 136 75
129 136 74
130 137 74
130 138 74
130 138 73
130 139 73
130 139 72
130 140 72
131 141 72
131 141 71
131 142 71
131 143 70
131 143 70
132 144 70
132 145 69
132 145 69
132 146 68
132 146 68
132 147 67
133 148 67
133 148 67
133 149 66
133 150 66
133 150 65
133 151 65
134 152 65
134 152 64
134 153 64
134 154 63
134 154 63
134 155 63
135 155 62
135 156 62
135 157 61
135 157 61
135 158 61
135 159 60
136 159 60
136 160 59
136 161 59
136 161 59
136 162 58
136 162 58
137 163 57
137 164 57
137 164 57
137 165 56
137 166 56
137 166 55
138 167 55
138 168 55
138 168 54
138 169 54
138 170 53
138 170 53
139 171 53
139 171 52
139 172 52
139 173 51
139 173 51
140 174 50
140 175 50
140 175 50
140 176 49
140 177 49
140 177 48
141 178 48
141 178 48
141 179 47
141 180 47
141 180 46
141 181 46
142 182 46
142 182 45
142 183 45
142 184 44
142 184 44
142 185 44
143 185 43
143 186 43
143 187 42
143 187 42
143 188 42
143 189 41
144 189 41
144 190 40
144 191 40
144 191 40
144 192 39
144 193 39
145 193 38
145 194 38
145 194 38
145 195 37
145 196 37
145 196 36
146 197 36
146 198 36
146 198 35
146 199 35
146 200 34
146 200 34
147 201 33
147 201 33
147 202 33
147 203 32
147 203 32
148 204 31
148 205 31
148 205 31
148 206 30
148 207 30
148 207 29
149 208 29
149 208 29
149 209 28
149 210 28
149 210 27
149 211 27
150 212 27
150 212 26
150 213 26
150 214 25
150 214 25
150 215 25
151 216 24
151 216 24
151 217 23
151 217 23
151 218 23
151 219 22
152 219 22
152 220 21
152 221 21
152 221 21
152 222 20
152 223 20
153 223 19
153 224 19
153 224 19
153 225 18
153 226 18
153 226 17
154 227 17
154 228 16
154 228 16
154 229 16
154 230 15
154 230 15
155 231 14
155 231 14
155 232 14
155 233 13
155 233 13
156 234 12
156 235 12
156 235 12
156 236 11
156 237 11
156 237 10
157 238 10
157 239 10
157 239 9
157 240 9
157 240 8
157 241 8
158 242 8
158 242 7
158 243 7
158 244 6
158 244 6
158 245 6
159 246 5
159 246 5
159 247 4
159 247 4
159 248 4
159 249 3
160 249 3
160 250 2
160 251 2
160 251 2
160 252 1
160 253 1
161 253 0
161 254 0
161 255 0
94 0 160
94 0 159
95 1 159
95 1 158
95 2 158
95 3 158
95 3 157
95 4 157
96 5 156
96 5 156
96 6 156
96 7 155
96 7 155
96 8 154
97 8 154
97 9 154
97 10 153
97 10 153
97 11 152
97 12 152
98 12 152
98 13 151
98 14 151
98 14 150
98 15 150
98 15 150
99 16 149
99 17 149
99 17 148
99 18 148
99 19 148
99 19 147
100 20 147
100 21 146
100 21 146
100 22 146
100 23 145
100 23 145
101 24 144
101 24 144
101 25 144
101 26 143
101 26 143
101 27 142
102 28 142
102 28 142
102 29 141
102 30 141
102 30 140
102 31 140
103 31 140
103 32 139
103 33 139
103 33 138
103 34 138
103 35 138
103 35 137
104 36 137
104 37 136
104 37 136
104 38 136
104 38 135
104 39 135
105 40 134
105 40 134
105 41 134
105 42 133
105 42 133
105 43 132
106 44 132
106 44 132
106 45 131
106 46 131
106 46 130
106 47 130
107 47 130
107 48 129
107 49 129
107 49 128
107 50 128
107 51 128
108 51 127
108 52 127
108 53 126
108 53 126
108 54 126
108 54 125
109 55 125
109 56 124
109 56 124
109 57 124
109 58 123
109 58 123
110 59 122
110 60 122
110 60 122
110 61 121
110 61 121
110 62 120
111 63 120
111 63 120
111 64 119
111 65 119
111 65 118
111 66 118
112 67 118
112 67 117
112 68 117
112 69 116
112 69 116
112 70 116
113 70 115
113 71 115
113 72 114
113 72 114
113 73 114
113 74 113
113 74 113
114 75 112
114 76 112
114 76 112
114 77 111
114 77 111
114 78 110
115 79 110
115 79 109
115 80 109
115 81 109
115 81 108
115 82 108
116 83 107
116 83 107
116 84 107
116 85 106
116 85 106
116 86 105
117 86 105
117 87 105
117 88 104
117 88 104
117 89 103
117 90 103
118 90 103
118 91 102
118 92 102
118 92 101
118 93 101
118 93 101
119 94 100
119 95 100
119 95 99
119 96 99
119 97 99
119 97 98
120 98 98
120 99 97
120 99 97
120 100 97
120 100 96
120 101 96
121 102 95
121 102 95
121 103 95
121 104 94
121 104 94
121 105 93
122 106 93
122 106 93
122 107 92
122 108 92
122 108 91
122 109 91
122 109 91
123 110 90
123 111 90
123 111 89
123 112 89
123 113 89
123 113 88
124 114 88
124 115 87
124 115 87
124 116 87
124 116 86
124 117 86
125 118 85
125 118 85
125 119 85
125 120 84
125 120 84
125 121 83
126 122 83
126 122 83
126 123 82
126 123 82
126 124 81
126 125 81
127 125 81
127 126 80
127 127 80
127 127 79
127 128 79
127 129 79
128 129 78
128 130 78
128 131 77
128 131 77
128 132 77
128 132 76
129 133 76
129 134 75
129 134 75
129 135 75
129 136 74
129 136 74
130 137 73
130 138 73
130 138 73
130 139 72
130 139 72
130 140 71
131 141 71
131 141 71
131 142 70
131 143 70
131 143 69
131 144 69
132 145 69
132 145 68
132 146 68
132 146 67
132 147 67
132 148 67
132 148 66
133 149 66
133 150 65
133 150 65
133 151 65
133 152 64
133 152 64
134 153 63
134 154 63
134 154 63
134 155 62
134 155 62
134 156 61
135 157 61
135 157 61
135 158 60
135 159 60
135 159 59
135 160 59
136 161 59
136 161 58
136 162 58
136 162 57
136 163 57
136 164 57
137 164 56
137 165 56
137 166 55
137 166 55
137 167 54
137 168 54
138 168 54
138 169 53
138 170 53
138 170 52
138 171 52
138 171 52
139 172 51
139 173 51
139 173 50
139 174 50
139 175 50
139 175 49
140 176 49
140 177 48
140 177 48
140 178 48
140 178 47
140 179 47
141 180 46
141 180 46
141 181 46
141 182 45
141 182 45
141 183 44
141 184 44
142 184 44
142 185 43
142 185 43
142 186 42
142 187 42
142 187 42
143 188 41
143 189 41
143 189 40
143 190 40
143 191 40
143 191 39
144 192 39
144 193 38
144 193 38
144 194 38
144 194 37
144 195 37
145 196 36
145 196 36
145 197 36
145 198 35
145 198 35
145 199 34
146 200 34
146 200 34
146 201 33
146 201 33
146 202 32
146 203 32
147 203 32
147 204 31
147 205 31
147 205 30
147 206 30
147 207 30
148 207 29
148 208 29
148 208 28
148 209 28
148 210 28
148 210 27
149 211 27
149 212 26
149 212 26
149 213 26
149 214 25
149 214 25
150 215 24
150 216 24
150 216 24
150 217 23
150 217 23
150 218 22
151 219 22
151 219 22
151 220 21
151 221 21
151 221 20
151 222 20
151 223 20
152 223 19
152 224 19
152 224 18
152 225 18
152 226 18
152 226 17
153 227 17
153 228 16
153 228 16
153 229 16
153 230 15
153 230 15
154 231 14
154 231 14
154 232 14
154 233 13
154 233 13
154 234 12
155 235 12
155 235 12
155 236 11
155 237 11
155 237 10
155 238 10
156 239 10
156 239 9
156 240 9
156 240 8
156 241 8
156 242 8
157 242 7
157 243 7
157 244 6
157 244 6
157 245 6
157 246 5
158 246 5
158 247 4
158 247 4
158 248 4
158 249 3
158 249 3
159 250 2
159 251 2
159 251 2
159 252 1
159 253 1
159 253 0
160 254 0
160 255 0
96 0 158
96 0 158
96 1 158
96 1 157
96 2 157
96 3 156
97 3 156
97 4 156
97 5 155
97 5 155
97 6 154
97 7 154
97 7 154
98 8 153
98 8 153
98 9 152
98 10 152
98 10 152
98 11 151
99 12 151
99 12 150
99 13 150
99 14 150
99 14 149
99 15 149
100 15 148
100 16 148
100 17 148
100 17 147
100 18 147
100 19 146
100 19 146
101 20 146
101 21 145
101 21 145
101 22 144
101 23 144
101 23 144
102 24 143
102 24 143
102 25 142
102 26 142
102 26 142
102 27 141
103 28 141
103 28 140
103 29 140
103 30 140
103 30 139
103 31 139
103 31 138
104 32 138
104 33 138
104 33 137
104 34 137
104 35 136
104 35 136
105 36 136
105 37 135
105 37 135
105 38 135
105 38 134
105 39 134
106 40 133
106 40 133
106 41 133
106 42 132
106 42 132
106 43 131
106 44 131
107 44 131
107 45 130
107 46 130
107 46 129
107 47 129
107 47 129
108 48 128
108 49 128
108 49 127
108 50 127
108 51 127
108 51 126
109 52 126
109 53 125
109 53 125
109 54 125
109 54 124
109 55 124
109 56 123
110 56 123
110 57 123
110 58 122
110 58 122
110 59 121
110 60 121
111 60 121
111 61 120
111 61 120
111 62 119
111 63 119
111 63 119
111 64 118
112 65 118
112 65 117
112 66 117
112 67 117
112 67 116
112 68 116
113 69 115
113 69 115
113 70 115
113 70 114
113 71 114
113 72 113
114 72 113
114 73 113
114 74 112
114 74 112
114 75 111
114 76 111
114 76 111
115 77 110
115 77 110
115 78 109
115 79 109
115 79 109
115 80 108
116 81 108
116 81 107
116 82 107
116 83 107
116 83 106
116 84 106
117 85 105
117 85 105
117 86 105
117 86 104
117 87 104
117 88 103
117 88 103
118 89 103
118 90 102
118 90 102
118 91 101
118 92 101
118 92 101
119 93 100
119 93 100
119 94 99
119 95 99
119 95 99
119 96 98
120 97 98
120 97 97
120 98 97
120 99 97
120 99 96
120 100 96
120 100 95
121 101 95
121 102 95
121 102 94
121 103 94
121 104 93
121 104 93
122 105 93
122 106 92
122 106 92
122 107 91
122 108 91
122 108 91
123 109 90
123 109 90
123 110 90
123 111 89
123 111 89
123 112 88
123 113 88
124 113 88
124 114 87
124 115 87
124 115 86
124 116 86
124 116 86
125 117 85
125 118 85
125 118 84
125 119 84
125 120 84
125 120 83
126 121 83
126 122 82
126 122 82
126 123 82
126 123 81
126 124 81
126 125 80
127 125 80
127 126 80
127 127 79
127 127 79
127 128 78
127 129 78
128 129 78
128 130 77
128 131 77
128 131 76
128 132 76
128 132 76
128 133 75
129 134 75
129 134 74
129 135 74
129 136 74
129 136 73
129 137 73
130 138 72
130 138 72
130 139 72
130 139 71
130 140 71
130 141 70
131 141 70
131 142 70
131 143 69
131 143 69
131 144 68
131 145 68
131 145 68
132 146 67
132 146 67
132 147 66
132 148 66
132 148 66
132 149 65
133 150 65
133 150 64
133 151 64
133 152 64
133 152 63
133 153 63
134 154 62
134 154 62
134 155 62
134 155 61
134 156 61
134 157 60
134 157 60
135 158 60
135 159 59
135 159 59
135 160 58
135 161 58
135 161 58
136 162 57
136 162 57
136 163 56
136 164 56
136 164 56
136 165 55
137 166 55
137 166 54
137 167 54
137 168 54
137 168 53
137 169 53
137 170 52
138 170 52
138 171 52
138 171 51
138 172 51
138 173 50
138 173 50
139 174 50
139 175 49
139 175 49
139 176 48
139 177 48
139 177 48
140 178 47
140 178 47
140 179 46
140 180 46
140 180 46
140 181 45
140 182 45
141 182 45
141 183 44
141 184 44
141 184 43
141 185 43
141 185 43
142 186 42
142 187 42
142 187 41
142 188 41
142 189 41
142 189 40
143 190 40
143 191 39
143 191 39
143 192 39
143 193 38
143 193 38
143 194 37
144 194 37
144 195 37
144 196 36
144 196 36
144 197 35
144 198 35
145 198 35
145 199 34
145 200 34
145 200 33
145 201 33
145 201 33
145 202 32
146 203 32
146 203 31
146 204 31
146 205 31
146 205 30
146 206 30
147 207 29
147 207 29
147 208 29
147 208 28
147 209 28
147 210 27
148 210 27
148 211 27
148 212 26
148 212 26
148 213 25
148 214 25
148 214 25
149 215 24
149 216 24
149 216 23
149 217 23
149 217 23
149 218 22
150 219 22
150 219 21
150 220 21
150 221 21
150 221 20
150 222 20
151 223 19
151 223 19
151 224 19
151 224 18
151 225 18
151 226 17
151 226 17
152 227 17
152 228 16
152 228 16
152 229 15
152 230 15
152 230 15
153 231 14
153 231 14
153 232 13
153 233 13
153 233 13
153 234 12
154 235 12
154 235 11
154 236 11
154 237 11
154 237 10
154 238 10
154 239 9
155 239 9
155 240 9
155 240 8
155 241 8
155 242 7
155 242 7
156 243 7
156 244 6
156 244 6
156 245 5
156 246 5
156 246 5
157 247 4
157 247 4
157 248 3
157 249 3
157 249 3
157 250 2
157 251 2
158 251 1
158 252 1
158 253 1
158 253 0
158 254 0
158 255 0
97 0 157
97 0 157
97 1 156
97 1 156
97 2 156
98 3 155
98 3 155
98 4 154
98 5 154
98 5 154
98 6 153
99 7 153
99 7 152
99 8 152
99 8 152
99 9 151
99 10 151
99 10 150
100 11 150
100 12 150
100 12 149
100 13 149
100 14 148
100 14 148
101 15 148
101 15 147
101 16 147
101 17 146
101 17 146
101 18 146
101 19 145
102 19 145
102 20 144
102 21 144
102 21 144
102 22 143
102 23 143
102 23 142
103 24 142
103 24 142
103 25 141
103 26 141
103 26 141
103 27 140
104 28 140
104 28 139
104 29 139
104 30 139
104 30 138
104 31 138
104 31 137
105 32 137
105 33 137
105 33 136
105 34 136
105 35 135
105 35 135
105 36 135
106 37 134
106 37 134
106 38 133
106 38 133
106 39 133
106 40 132
107 40 132
107 41 131
107 42 131
107 42 131
107 43 130
107 44 130
107 44 129
108 45 129
108 46 129
108 46 128
108 47 128
108 47 127
108 48 127
109 49 127
109 49 126
109 50 126
109 51 126
109 51 125
109 52 125
109 53 124
110 53 124
110 54 124
110 54 123
110 55 123
110 56 122
110 56 122
110 57 122
111 58 121
111 58 121
111 59 120
111 60 120
111 60 120
111 61 119
112 61 119
112 62 118
112 63 118
112 63 118
112 64 117
112 65 117
112 65 116
113 66 116
113 67 116
113 67 115
113 68 115
113 69 114
113 69 114
113 70 114
114 70 113
114 71 113
114 72 112
114 72 112
114 73 112
114 74 111
115 74 111
115 75 111
115 76 110
115 76 110
115 77 109
115 77 109
115 78 109
116 79 108
116 79 108
116 80 107
116 81 107
116 81 107
116 82 106
117 83 106
117 83 105
117 84 105
117 85 105
117 85 104
117 86 104
117 86 103
118 87 103
118 88 103
118 88 102
118 89 102
118 90 101
118 90 101
118 91 101
119 92 100
119 92 100
119 93 99
119 93 99
119 94 99
119 95 98
120 95 98
120 96 97
120 97 97
120 97 97
120 98 96
120 99 96
120 99 95
121 100 95
121 100 95
121 101 94
121 102 94
121 102 94
121 103 93
121 104 93
122 104 92
122 105 92
122 106 92
122 106 91
122 107 91
122 108 90
123 108 90
123 109 90
123 109 89
123 110 89
123 111 88
123 111 88
123 112 88
124 113 87
124 113 87
124 114 86
124 115 86
124 115 86
124 116 85
125 116 85
125 117 84
125 118 84
125 118 84
125 119 83
125 120 83
125 120 82
126 121 82
126 122 82
126 122 81
126 123 81
126 123 80
126 124 80
126 125 80
127 125 79
127 126 79
127 127 79
127 127 78
127 128 78
127 129 77
128 129 77
128 130 77
128 131 76
128 131 76
128 132 75
128 132 75
128 133 75
129 134 74
129 134 74
129 135 73
129 136 73
129 136 73
129 137 72
129 138 72
130 138 71
130 139 71
130 139 71
130 140 70
130 141 70
130 141 69
131 142 69
131 143 69
131 143 68
131 144 68
131 145 67
131 145 67
131 146 67
132 146 66
132 147 66
132 148 65
132 148 65
132 149 65
132 150 64
133 150 64
133 151 63
133 152 63
133 152 63
133 153 62
133 154 62
133 154 62
134 155 61
134 155 61
134 156 60
134 157 60
134 157 60
134 158 59
134 159 59
135 159 58
135 160 58
135 161 58
135 161 57
135 162 57
135 162 56
136 163 56
136 164 56
136 164 55
136 165 55
136 166 54
136 166 54
136 167 54
137 168 53
137 168 53
137 169 52
137 170 52
137 170 52
137 171 51
137 171 51
138 172 50
138 173 50
138 173 50
138 174 49
138 175 49
138 175 48
139 176 48
139 177 48
139 177 47
139 178 47
139 178 47
139 179 46
139 180 46
140 180 45
140 181 45
140 182 45
140 182 44
140 183 44
140 184 43
141 184 43
141 185 43
141 185 42
141 186 42
141 187 41
141 187 41
141 188 41
142 189 40
142 189 40
142 190 39
142 191 39
142 191 39
142 192 38
142 193 38
143 193 37
143 194 37
143 194 37
143 195 36
143 196 36
143 196 35
144 197 35
144 198 35
144 198 34
144 199 34
144 200 33
144 200 33
144 201 33
145 201 32
145 202 32
145 203 31
145 203 31
145 204 31
145 205 30
145 205 30
146 206 30
146 207 29
146 207 29
146 208 28
146 208 28
146 209 28
147 210 27
147 210 27
147 211 26
147 212 26
147 212 26
147 213 25
147 214 25
148 214 24
148 215 24
148 216 24
148 216 23
148 217 23
148 217 22
149 218 22
149 219 22
149 219 21
149 220 21
149 221 20
149 221 20
149 222 20
150 223 19
150 223 19
150 224 18
150 224 18
150 225 18
150 226 17
150 226 17
151 227 16
151 228 16
151 228 16
151 229 15
151 230 15
151 230 15
152 231 14
152 231 14
152 232 13
152 233 13
152 233 13
152 234 12
152 235 12
153 235 11
153 236 11
153 237 11
153 237 10
153 238 10
153 239 9
153 239 9
154 240 9
154 240 8
154 241 8
154 242 7
154 242 7
154 243 7
155 244 6
155 244 6
155 245 5
155 246 5
155 246 5
155 247 4
155 247 4
156 248 3
156 249 3
156 249 3
156 250 2
156 251 2
156 251 1
157 252 1
157 253 1
157 253 0
157 254 0
157 255 0
98 0 156
98 0 155
98 1 155
99 1 155
99 2 154
99 3 154
99 3 153
99 4 153
99 5 153
99 5 152
100 6 152
100 7 152
100 7 151
100 8 151
100 8 150
100 9 150
100 10 150
101 10 149
101 11 149
101 12 148
101 12 148
101 13 148
101 14 147
101 14 147
102 15 146
102 15 146
102 16 146
102 17 145
102 17 145
102 18 144
103 19 144
103 19 144
103 20 143
103 21 143
103 21 143
103 22 142
103 23 142
104 23 141
104 24 141
104 24 141
104 25 140
104 26 140
104 26 139
104 27 139
105 28 139
105 28 138
105 29 138
105 30 137
105 30 137
105 31 137
105 31 136
106 32 136
106 33 135
106 33 135
106 34 135
106 35 134
106 35 134
106 36 133
107 37 133
107 37 133
107 38 132
107 38 132
107 39 132
107 40 131
107 40 131
108 41 130
108 42 130
108 42 130
108 43 129
108 44 129
108 44 128
108 45 128
109 46 128
109 46 127
109 47 127
109 47 126
109 48 126
109 49 126
109 49 125
110 50 125
110 51 124
110 51 124
110 52 124
110 53 123
110 53 123
110 54 123
111 54 122
111 55 122
111 56 121
111 56 121
111 57 121
111 58 120
111 58 120
112 59 119
112 60 119
112 60 119
112 61 118
112 61 118
112 62 117
112 63 117
113 63 117
113 64 116
113 65 116
113 65 115
113 66 115
113 67 115
113 67 114
114 68 114
114 69 114
114 69 113
114 70 113
114 70 112
114 71 112
114 72 112
115 72 111
115 73 111
115 74 110
115 74 110
115 75 110
115 76 109
116 76 109
116 77 108
116 77 108
116 78 108
116 79 107
116 79 107
116 80 106
117 81 106
117 81 106
117 82 105
117 83 105
117 83 105
117 84 104
117 85 104
118 85 103
118 86 103
118 86 103
118 87 102
118 88 102
118 88 101
118 89 101
119 90 101
119 90 100
119 91 100
119 92 99
119 92 99
119 93 99
119 93 98
120 94 98
120 95 97
120 95 97
120 96 97
120 97 96
120 97 96
120 98 95
121 99 95
121 99 95
121 100 94
121 100 94
121 101 94
121 102 93
121 102 93
122 103 92
122 104 92
122 104 92
122 105 91
122 106 91
122 106 90
122 107 90
123 108 90
123 108 89
123 109 89
123 109 88
123 110 88
123 111 88
123 111 87
124 112 87
124 113 86
124 113 86
124 114 86
124 115 85
124 115 85
124 116 85
125 116 84
125 117 84
125 118 83
125 118 83
125 119 83
125 120 82
125 120 82
126 121 81
126 122 81
126 122 81
126 123 80
126 123 80
126 124 79
126 125 79
127 125 79
127 126 78
127 127 78
127 127 77
127 128 77
127 129 77
128 129 76
128 130 76
128 131 76
128 131 75
128 132 75
128 132 74
128 133 74
129 134 74
129 134 73
129 135 73
129 136 72
129 136 72
129 137 72
129 138 71
130 138 71
130 139 70
130 139 70
130 140 70
130 141 69
130 141 69
130 142 68
131 143 68
131 143 68
131 144 67
131 145 67
131 145 66
131 146 66
131 146 66
132 147 65
132 148 65
132 148 65
132 149 64
132 150 64
132 150 63
132 151 63
133 152 63
133 152 62
133 153 62
133 154 61
133 154 61
133 155 61
133 155 60
134 156 60
134 157 59
134 157 59
134 158 59
134 159 58
134 159 58
134 160 57
135 161 57
135 161 57
135 162 56
135 162 56
135 163 56
135 164 55
135 164 55
136 165 54
136 166 54
136 166 54
136 167 53
136 168 53
136 168 52
136 169 52
137 170 52
137 170 51
137 171 51
137 171 50
137 172 50
137 173 50
137 173 49
138 174 49
138 175 48
138 175 48
138 176 48
138 177 47
138 177 47
138 178 47
139 178 46
139 179 46
139 180 45
139 180 45
139 181 45
139 182 44
140 182 44
140 183 43
140 184 43
140 184 43
140 185 42
140 185 42
140 186 41
141 187 41
141 187 41
141 188 40
141 189 40
141 189 39
141 190 39
141 191 39
142 191 38
142 192 38
142 193 38
142 193 37
142 194 37
142 194 36
142 195 36
143 196 36
143 196 35
143 197 35
143 198 34
143 198 34
143 199 34
143 200 33
144 200 33
144 201 32
144 201 32
144 202 32
144 203 31
144 203 31
144 204 30
145 205 30
145 205 30
145 206 29
145 207 29
145 207 28
145 208 28
145 208 28
146 209 27
146 210 27
146 210 27
146 211 26
146 212 26
146 212 25
146 213 25
147 214 25
147 214 24
147 215 24
147 216 23
147 216 23
147 217 23
147 217 22
148 218 22
148 219 21
148 219 21
148 220 21
148 221 20
148 221 20
148 222 19
149 223 19
149 223 19
149 224 18
149 224 18
149 225 18
149 226 17
149 226 17
150 227 16
150 228 16
150 228 16
150 229 15
150 230 15
150 230 14
150 231 14
151 231 14
151 232 13
151 233 13
151 233 12
151 234 12
151 235 12
151 235 11
152 236 11
152 237 10
152 237 10
152 238 10
152 239 9
152 239 9
153 240 9
153 240 8
153 241 8
153 242 7
153 242 7
153 243 7
153 244 6
154 244 6
154 245 5
154 246 5
154 246 5
154 247 4
154 247 4
154 248 3
155 249 3
155 249 3
155 250 2
155 251 2
155 251 1
155 252 1
155 253 1
156 253 0
156 254 0
156 255 0
99 0 155
100 0 154
100 1 154
100 1 153
100 2 153
100 3 153
100 3 152
100 4 152
101 5 151
101 5 151
101 6 151
101 7 150
101 7 150
101 8 149
101 8 149
102 9 149
102 10 148
102 10 148
102 11 148
102 12 147
102 12 147
102 13 146
102 14 146
103 14 146
103 15 145
103 15 145
103 16 144
103 17 144
103 17 144
103 18 143
104 19 143
104 19 143
104 20 142
104 21 142
104 21 141
104 22 141
104 23 141
105 23 140
105 24 140
105 24 139
105 25 139
105 26 139
105 26 138
105 27 138
106 28 137
106 28 137
106 29 137
106 30 136
106 30 136
106 31 136
106 31 135
106 32 135
107 33 134
107 33 134
107 34 134
107 35 133
107 35 133
107 36 132
107 37 132
108 37 132
108 38 131
108 38 131
108 39 130
108 40 130
108 40 130
108 41 129
109 42 129
109 42 129
109 43 128
109 44 128
109 44 127
109 45 127
109 46 127
110 46 126
110 47 126
110 47 125
110 48 125
110 49 125
110 49 124
110 50 124
110 51 123
111 51 123
111 52 123
111 53 122
111 53 122
111 54 122
111 54 121
111 55 121
112 56 120
112 56 120
112 57 120
112 58 119
112 58 119
112 59 118
112 60 118
113 60 118
113 61 117
113 61 117
113 62 116
113 63 116
113 63 116
113 64 115
114 65 115
114 65 115
114 66 114
114 67 114
114 67 113
114 68 113
114 69 113
115 69 112
115 70 112
115 70 111
115 71 111
115 72 111
115 72 110
115 73 110
115 74 109
116 74 109
116 75 109
116 76 108
116 76 108
116 77 108
116 77 107
116 78 107
117 79 106
117 79 106
117 80 106
117 81 105
117 81 105
117 82 104
117 83 104
118 83 104
118 84 103
118 85 103
118 85 102
118 86 102
118 86 102
118 87 101
119 88 101
119 88 101
119 89 100
119 90 100
119 90 99
119 91 99
119 92 99
119 92 98
120 93 98
120 93 97
120 94 97
120 95 97
120 95 96
120 96 96
120 97 95
121 97 95
121 98 95
121 99 94
121 99 94
121 100 94
121 100 93
121 101 93
122 102 92
122 102 92
122 103 92
122 104 91
122 104 91
122 105 90
122 106 90
123 106 90
123 107 89
123 108 89
123 108 88
123 109 88
123 109 88
123 110 87
123 111 87
124 111 87
124 112 86
124 113 86
124 113 85
124 114 85
124 115 85
124 115 84
125 116 84
125 116 83
125 117 83
125 118 83
125 118 82
125 119 82
125 120 81
126 120 81
126 121 81
126 122 80
126 122 80
126 123 80
126 123 79
126 124 79
127 125 78
127 125 78
127 126 78
127 127 77
127 127 77
127 128 76
127 129 76
127 129 76
128 130 75
128 131 75
128 131 74
128 132 74
128 132 74
128 133 73
128 134 73
129 134 73
129 135 72
129 136 72
129 136 71
129 137 71
129 138 71
129 138 70
130 139 70
130 139 69
130 140 69
130 141 69
130 141 68
130 142 68
130 143 68
131 143 67
131 144 67
131 145 66
131 145 66
131 146 66
131 146 65
131 147 65
131 148 64
132 148 64
132 149 64
132 150 63
132 150 63
132 151 62
132 152 62
132 152 62
133 153 61
133 154 61
133 154 61
133 155 60
133 155 60
133 156 59
133 157 59
134 157 59
134 158 58
134 159 58
134 159 57
134 160 57
134 161 57
134 161 56
135 162 56
135 162 55
135 163 55
135 164 55
135 164 54
135 165 54
135 166 54
135 166 53
136 167 53
136 168 52
136 168 52
136 169 52
136 170 51
136 170 51
136 171 50
137 171 50
137 172 50
137 173 49
137 173 49
137 174 48
137 175 48
137 175 48
138 176 47
138 177 47
138 177 47
138 178 46
138 178 46
138 179 45
138 180 45
139 180 45
139 181 44
139 182 44
139 182 43
139 183 43
139 184 43
139 184 42
139 185 42
140 185 41
140 186 41
140 187 41
140 187 40
140 188 40
140 189 40
140 189 39
141 190 39
141 191 38
141 191 38
141 192 38
141 193 37
141 193 37
141 194 36
142 194 36
142 195 36
142 196 35
142 196 35
142 197 34
142 198 34
142 198 34
143 199 33
143 200 33
143 200 33
143 201 32
143 201 32
143 202 31
143 203 31
144 203 31
144 204 30
144 205 30
144 205 29
144 206 29
144 207 29
144 207 28
144 208 28
145 208 27
145 209 27
145 210 27
145 210 26
145 211 26
145 212 26
145 212 25
146 213 25
146 214 24
146 214 24
146 215 24
146 216 23
146 216 23
146 217 22
147 217 22
147 218 22
147 219 21
147 219 21
147 220 20
147 221 20
147 221 20
148 222 19
148 223 19
148 223 19
148 224 18
148 224 18
148 225 17
148 226 17
148 226 17
149 227 16
149 228 16
149 228 15
149 229 15
149 230 15
149 230 14
149 231 14
150 231 13
150 232 13
150 233 13
150 233 12
150 234 12
150 235 12
150 235 11
151 236 11
151 237 10
151 237 10
151 238 10
151 239 9
151 239 9
151 240 8
152 240 8
152 241 8
152 242 7
152 242 7
152 243 6
152 244 6
152 244 6
152 245 5
153 246 5
153 246 5
153 247 4
153 247 4
153 248 3
153 249 3
153 249 3
154 250 2
154 251 2
154 251 1
154 252 1
154 253 1
154 253 0
154 254 0
155 255 0
101 0 153
101 0 153
101 1 152
101 1 152
101 2 152
101 3 151
102 3 151
102 4 151
102 5 150
102 5 150
102 6 149
102 7 149
102 7 149
102 8 148
103 8 148
103 9 147
103 10 147
103 10 147
103 11 146
103 12 146
103 12 146
103 13 145
104 14 145
104 14 144
104 15 144
104 15 144
104 16 143
104 17 143
104 17 142
105 18 142
105 19 142
105 19 141
105 20 141
105 21 141
105 21 140
105 22 140
105 23 139
106 23 139
106 24 139
106 24 138
106 25 138
106 26 137
106 26 137
106 27 137
107 28 136
107 28 136
107 29 136
107 30 135
107 30 135
107 31 134
107 31 134
107 32 134
108 33 133
108 33 133
108 34 132
108 35 132
108 35 132
108 36 131
108 37 131
108 37 131
109 38 130
109 38 130
109 39 129
109 40 129
109 40 129
109 41 128
109 42 128
110 42 127
110 43 127
110 44 127
110 44 126
110 45 126
110 46 126
110 46 125
110 47 125
111 47 124
111 48 124
111 49 124
111 49 123
111 50 123
111 51 122
111 51 122
112 52 122
112 53 121
112 53 121
112 54 121
112 54 120
112 55 120
112 56 119
112 56 119
113 57 119
113 58 118
113 58 118
113 59 117
113 60 117
113 60 117
113 61 116
114 61 116
114 62 116
114 63 115
114 63 115
114 64 114
114 65 114
114 65 114
114 66 113
115 67 113
115 67 112
115 68 112
115 69 112
115 69 111
115 70 111
115 70 110
115 71 110
116 72 110
116 72 109
116 73 109
116 74 109
116 74 108
116 75 108
116 76 107
117 76 107
117 77 107
117 77 106
117 78 106
117 79 105
117 79 105
117 80 105
117 81 104
118 81 104
118 82 104
118 83 103
118 83 103
118 84 102
118 85 102
118 85 102
119 86 101
119 86 101
119 87 100
119 88 100
119 88 100
119 89 99
119 90 99
119 90 99
120 91 98
120 92 98
120 92 97
120 93 97
120 93 97
120 94 96
120 95 96
120 95 95
121 96 95
121 97 95
121 97 94
121 98 94
121 99 94
121 99 93
121 100 93
122 100 92
122 101 92
122 102 92
122 102 91
122 103 91
122 104 90
122 104 90
122 105 90
123 106 89
123 106 89
123 107 89
123 108 88
123 108 88
123 109 87
123 109 87
124 110 87
124 111 86
124 111 86
124 112 85
124 113 85
124 113 85
124 114 84
124 115 84
125 115 84
125 116 83
125 116 83
125 117 82
125 118 82
125 118 82
125 119 81
125 120 81
126 120 80
126 121 80
126 122 80
126 122 79
126 123 79
126 123 79
126 124 78
127 125 78
127 125 77
127 126 77
127 127 77
127 127 76
127 128 76
127 129 75
127 129 75
128 130 75
128 131 74
128 131 74
128 132 73
128 132 73
128 133 73
128 134 72
129 134 72
129 135 72
129 136 71
129 136 71
129 137 70
129 138 70
129 138 70
129 139 69
130 139 69
130 140 68
130 141 68
130 141 68
130 142 67
130 143 67
130 143 67
130 144 66
131 145 66
131 145 65
131 146 65
131 146 65
131 147 64
131 148 64
131 148 63
132 149 63
132 150 63
132 150 62
132 151 62
132 152 62
132 152 61
132 153 61
132 154 60
133 154 60
133 155 60
133 155 59
133 156 59
133 157 58
133 157 58
133 158 58
134 159 57
134 159 57
134 160 57
134 161 56
134 161 56
134 162 55
134 162 55
134 163 55
135 164 54
135 164 54
135 165 53
135 166 53
135 166 53
135 167 52
135 168 52
135 168 52
136 169 51
136 170 51
136 170 50
136 171 50
136 171 50
136 172 49
136 173 49
137 173 48
137 174 48
137 175 48
137 175 47
137 176 47
137 177 47
137 177 46
137 178 46
138 178 45
138 179 45
138 180 45
138 180 44
138 181 44
138 182 43
138 182 43
139 183 43
139 184 42
139 184 42
139 185 42
139 185 41
139 186 41
139 187 40
139 187 40
140 188 40
140 189 39
140 189 39
140 190 38
140 191 38
140 191 38
140 192 37
140 193 37
141 193 36
141 194 36
141 194 36
141 195 35
141 196 35
141 196 35
141 197 34
142 198 34
142 198 33
142 199 33
142 200 33
142 200 32
142 201 32
142 201 31
142 202 31
143 203 31
143 203 30
143 204 30
143 205 30
143 205 29
143 206 29
143 207 28
144 207 28
144 208 28
144 208 27
144 209 27
144 210 26
144 210 26
144 211 26
144 212 25
145 212 25
145 213 25
145 214 24
145 214 24
145 215 23
145 216 23
145 216 23
146 217 22
146 217 22
146 218 21
146 219 21
146 219 21
146 220 20
146 221 20
146 221 20
147 222 19
147 223 19
147 223 18
147 224 18
147 224 18
147 225 17
147 226 17
147 226 16
148 227 16
148 228 16
148 228 15
148 229 15
148 230 15
148 230 14
148 231 14
149 231 13
149 232 13
149 233 13
149 233 12
149 234 12
149 235 11
149 235 11
149 236 11
150 237 10
150 237 10
150 238 10
150 239 9
150 239 9
150 240 8
150 240 8
151 241 8
151 242 7
151 242 7
151 243 6
151 244 6
151 244 6
151 245 5
151 246 5
152 246 5
152 247 4
152 247 4
152 248 3
152 249 3
152 249 3
152 250 2
152 251 2
153 251 1
153 252 1
153 253 1
153 253 0
153 254 0
153 255 0
102 0 152
102 0 152
102 1 151
102 1 151
103 2 150
103 3 150
103 3 150
103 4 149
103 5 149
103 5 149
103 6 148
103 7 148
104 7 147
104 8 147
104 8 147
104 9 146
104 10 146
104 10 145
104 11 145
104 12 145
105 12 144
105 13 144
105 14 144
105 14 143
105 15 143
105 15 142
105 16 142
105 17 142
106 17 141
106 18 141
106 19 141
106 19 140
106 20 140
106 21 139
106 21 139
106 22 139
107 23 138
107 23 138
107 24 137
107 24 137
107 25 137
107 26 136
107 26 136
107 27 136
108 28 135
108 28 135
108 29 134
108 30 134
108 30 134
108 31 133
108 31 133
108 32 132
109 33 132
109 33 132
109 34 131
109 35 131
109 35 131
109 36 130
109 37 130
109 37 129
110 38 129
110 38 129
110 39 128
110 40 128
110 40 128
110 41 127
110 42 127
110 42 126
111 43 126
111 44 126
111 44 125
111 45 125
111 46 124
111 46 124
111 47 124
111 47 123
112 48 123
112 49 123
112 49 122
112 50 122
112 51 121
112 51 121
112 52 121
112 53 120
113 53 120
113 54 120
113 54 119
113 55 119
113 56 118
113 56 118
113 57 118
113 58 117
114 58 117
114 59 116
114 60 116
114 60 116
114 61 115
114 61 115
114 62 115
114 63 114
115 63 114
115 64 113
115 65 113
115 65 113
115 66 112
115 67 112
115 67 111
115 68 111
116 69 111
116 69 110
116 70 110
116 70 110
116 71 109
116 72 109
116 72 108
116 73 108
117 74 108
117 74 107
117 75 107
117 76 107
117 76 106
117 77 106
117 77 105
117 78 105
118 79 105
118 79 104
118 80 104
118 81 103
118 81 103
118 82 103
118 83 102
118 83 102
119 84 102
119 85 101
119 85 101
119 86 100
119 86 100
119 87 100
119 88 99
119 88 99
120 89 98
120 90 98
120 90 98
120 91 97
120 92 97
120 92 97
120 93 96
120 93 96
121 94 95
121 95 95
121 95 95
121 96 94
121 97 94
121 97 94
121 98 93
121 99 93
122 99 92
122 100 92
122 100 92
122 101 91
122 102 91
122 102 90
122 103 90
122 104 90
123 104 89
123 105 89
123 106 89
123 106 88
123 107 88
123 108 87
123 108 87
123 109 87
124 109 86
124 110 86
124 111 85
124 111 85
124 112 85
124 113 84
124 113 84
124 114 84
125 115 83
125 115 83
125 116 82
125 116 82
125 117 82
125 118 81
125 118 81
125 119 81
126 120 80
126 120 80
126 121 79
126 122 79
126 122 79
126 123 78
126 123 78
126 124 77
127 125 77
127 125 77
127 126 76
127 127 76
127 127 76
127 128 75
127 129 75
127 129 74
128 130 74
128 131 74
128 131 73
128 132 73
128 132 72
128 133 72
128 134 72
128 134 71
129 135 71
129 136 71
129 136 70
129 137 70
129 138 69
129 138 69
129 139 69
129 139 68
130 140 68
130 141 68
130 141 67
130 142 67
130 143 66
130 143 66
130 144 66
130 145 65
131 145 65
131 146 64
131 146 64
131 147 64
131 148 63
131 148 63
131 149 63
131 150 62
132 150 62
132 151 61
132 152 61
132 152 61
132 153 60
132 154 60
132 154 60
132 155 59
133 155 59
133 156 58
133 157 58
133 157 58
133 158 57
133 159 57
133 159 56
133 160 56
134 161 56
134 161 55
134 162 55
134 162 55
134 163 54
134 164 54
134 164 53
134 165 53
135 166 53
135 166 52
135 167 52
135 168 51
135 168 51
135 169 51
135 170 50
135 170 50
136 171 50
136 171 49
136 172 49
136 173 48
136 173 48
136 174 48
136 175 47
136 175 47
137 176 47
137 177 46
137 177 46
137 178 45
137 178 45
137 179 45
137 180 44
137 180 44
138 181 43
138 182 43
138 182 43
138 183 42
138 184 42
138 184 42
138 185 41
138 185 41
139 186 40
139 187 40
139 187 40
139 188 39
139 189 39
139 189 38
139 190 38
139 191 38
140 191 37
140 192 37
140 193 37
140 193 36
140 194 36
140 194 35
140 195 35
140 196 35
141 196 34
141 197 34
141 198 34
141 198 33
141 199 33
141 200 32
141 200 32
141 201 32
142 201 31
142 202 31
142 203 30
142 203 30
142 204 30
142 205 29
142 205 29
142 206 29
143 207 28
143 207 28
143 208 27
143 208 27
143 209 27
143 210 26
143 210 26
143 211 25
144 212 25
144 212 25
144 213 24
144 214 24
144 214 24
144 215 23
144 216 23
144 216 22
145 217 22
145 217 22
145 218 21
145 219 21
145 219 21
145 220 20
145 221 20
145 221 19
146 222 19
146 223 19
146 223 18
146 224 18
146 224 17
146 225 17
146 226 17
146 226 16
147 227 16
147 228 16
147 228 15
147 229 15
147 230 14
147 230 14
147 231 14
147 231 13
148 232 13
148 233 12
148 233 12
148 234 12
148 235 11
148 235 11
148 236 11
148 237 10
149 237 10
149 238 9
149 239 9
149 239 9
149 240 8
149 240 8
149 241 8
149 242 7
150 242 7
150 243 6
150 244 6
150 244 6
150 245 5
150 246 5
150 246 4
150 247 4
151 247 4
151 248 3
151 249 3
151 249 3
151 250 2
151 251 2
151 251 1
151 252 1
152 253 1
152 253 0
152 254 0
152 255 0
103 0 151
103 0 150
104 1 150
104 1 150
104 2 149
104 3 149
104 3 148
104 4 148
104 5 148
104 5 147
104 6 147
105 7 147
105 7 146
105 8 146
105 8 145
105 9 145
105 10 145
105 10 144
105 11 144
106 12 144
106 12 143
106 13 143
106 14 142
106 14 142
106 15 142
106 15 141
106 16 141
107 17 140
107 17 140
107 18 140
107 19 139
107 19 139
107 20 139
107 21 138
107 21 138
107 22 137
108 23 137
108 23 137
108 24 136
108 24 136
108 25 136
108 26 135
108 26 135
108 27 134
109 28 134
109 28 134
109 29 133
109 30 133
109 30 133
109 31 132
109 31 132
109 32 131
109 33 131
110 33 131
110 34 130
110 35 130
110 35 129
110 36 129
110 37 129
110 37 128
110 38 128
111 38 128
111 39 127
111 40 127
111 40 126
111 41 126
111 42 126
111 42 125
111 43 125
111 44 125
112 44 124
112 45 124
112 46 123
112 46 123
112 47 123
112 47 122
112 48 122
112 49 122
113 49 121
113 50 121
113 51 120
113 51 120
113 52 120
113 53 119
113 53 119
113 54 118
114 54 118
114 55 118
114 56 117
114 56 117
114 57 117
114 58 116
114 58 116
114 59 115
114 60 115
115 60 115
115 61 114
115 61 114
115 62 114
115 63 113
115 63 113
115 64 112
115 65 112
116 65 112
116 66 111
116 67 111
116 67 111
116 68 110
116 69 110
116 69 109
116 70 109
116 70 109
117 71 108
117 72 108
117 72 108
117 73 107
117 74 107
117 74 106
117 75 106
117 76 106
118 76 105
118 77 105
118 77 104
118 78 104
118 79 104
118 79 103
118 80 103
118 81 103
119 81 102
119 82 102
119 83 101
119 83 101
119 84 101
119 85 100
119 85 100
119 86 100
119 86 99
120 87 99
120 88 98
120 88 98
120 89 98
120 90 97
120 90 97
120 91 97
120 92 96
121 92 96
121 93 95
121 93 95
121 94 95
121 95 94
121 95 94
121 96 93
121 97 93
121 97 93
122 98 92
122 99 92
122 99 92
122 100 91
122 100 91
122 101 90
122 102 90
122 102 90
123 103 89
123 104 89
123 104 89
123 105 88
123 106 88
123 106 87
123 107 87
123 108 87
123 108 86
124 109 86
124 109 86
124 110 85
124 111 85
124 111 84
124 112 84
124 113 84
124 113 83
125 114 83
125 115 82
125 115 82
125 116 82
125 116 81
125 117 81
125 118 81
125 118 80
126 119 80
126 120 79
126 120 79
126 121 79
126 122 78
126 122 78
126 123 78
126 123 77
126 124 77
127 125 76
127 125 76
127 126 76
127 127 75
127 127 75
127 128 75
127 129 74
127 129 74
128 130 73
128 131 73
128 131 73
128 132 72
128 132 72
128 133 72
128 134 71
128 134 71
128 135 70
129 136 70
129 136 70
129 137 69
129 138 69
129 138 68
129 139 68
129 139 68
129 140 67
130 141 67
130 141 67
130 142 66
130 143 66
130 143 65
130 144 65
130 145 65
130 145 64
131 146 64
131 146 64
131 147 63
131 148 63
131 148 62
131 149 62
131 150 62
131 150 61
131 151 61
132 152 61
132 152 60
132 153 60
132 154 59
132 154 59
132 155 59
132 155 58
132 156 58
133 157 57
133 157 57
133 158 57
133 159 56
133 159 56
133 160 56
133 161 55
133 161 55
133 162 54
134 162 54
134 163 54
134 164 53
134 164 53
134 165 53
134 166 52
134 166 52
134 167 51
135 168 51
135 168 51
135 169 50
135 170 50
135 170 50
135 171 49
135 171 49
135 172 48
135 173 48
136 173 48
136 174 47
136 175 47
136 175 46
136 176 46
136 177 46
136 177 45
136 178 45
137 178 45
137 179 44
137 180 44
137 180 43
137 181 43
137 182 43
137 182 42
137 183 42
138 184 42
138 184 41
138 185 41
138 185 40
138 186 40
138 187 40
138 187 39
138 188 39
138 189 39
139 189 38
139 190 38
139 191 37
139 191 37
139 192 37
139 193 36
139 193 36
139 194 36
140 194 35
140 195 35
140 196 34
140 196 34
140 197 34
140 198 33
140 198 33
140 199 32
140 200 32
141 200 32
141 201 31
141 201 31
141 202 31
141 203 30
141 203 30
141 204 29
141 205 29
142 205 29
142 206 28
142 207 28
142 207 28
142 208 27
142 208 27
142 209 26
142 210 26
143 210 26
143 211 25
143 212 25
143 212 25
143 213 24
143 214 24
143 214 23
143 215 23
143 216 23
144 216 22
144 217 22
144 217 21
144 218 21
144 219 21
144 219 20
144 220 20
144 221 20
145 221 19
145 222 19
145 223 18
145 223 18
145 224 18
145 224 17
145 225 17
145 226 17
145 226 16
146 227 16
146 228 15
146 228 15
146 229 15
146 230 14
146 230 14
146 231 14
146 231 13
147 232 13
147 233 12
147 233 12
147 234 12
147 235 11
147 235 11
147 236 10
147 237 10
147 237 10
148 238 9
148 239 9
148 239 9
148 240 8
148 240 8
148 241 7
148 242 7
148 242 7
149 243 6
149 244 6
149 244 6
149 245 5
149 246 5
149 246 4
149 247 4
149 247 4
150 248 3
150 249 3
150 249 3
150 250 2
150 251 2
150 251 1
150 252 1
150 253 1
150 253 0
151 254 0
151 255 0
105 0 149
105 0 149
105 1 149
105 1 148
105 2 148
105 3 148
105 3 147
105 4 147
105 5 146
106 5 146
106 6 146
106 7 145
106 7 145
106 8 145
106 8 144
106 9 144
106 10 143
106 10 143
107 11 143
107 12 142
107 12 142
107 13 142
107 14 141
107 14 141
107 15 140
107 15 140
107 16 140
108 17 139
108 17 139
108 18 139
108 19 138
108 19 138
108 20 137
108 21 137
108 21 137
109 22 136
109 23 136
109 23 136
109 24 135
109 24 135
109 25 134
109 26 134
109 26 134
109 27 133
110 28 133
110 28 133
110 29 132
110 30 132
110 30 131
110 31 131
110 31 131
110 32 130
110 33 130
111 33 130
111 34 129
111 35 129
111 35 128
111 36 128
111 37 128
111 37 127
111 38 127
111 38 127
112 39 126
112 40 126
112 40 125
112 41 125
112 42 125
112 42 124
112 43 124
112 44 123
112 44 123
113 45 123
113 46 122
113 46 122
113 47 122
113 47 121
113 48 121
113 49 120
113 49 120
113 50 120
114 51 119
114 51 119
114 52 119
114 53 118
114 53 118
114 54 117
114 54 117
114 55 117
114 56 116
115 56 116
115 57 116
115 58 115
115 58 115
115 59 114
115 60 114
115 60 114
115 61 113
115 61 113
116 62 113
116 63 112
116 63 112
116 64 111
116 65 111
116 65 111
116 66 110
116 67 110
116 67 110
117 68 109
117 69 109
117 69 108
117 70 108
117 70 108
117 71 107
117 72 107
117 72 107
118 73 106
118 74 106
118 74 105
118 75 105
118 76 105
118 76 104
118 77 104
118 77 104
118 78 103
119 79 103
119 79 102
119 80 102
119 81 102
119 81 101
119 82 101
119 83 101
119 83 100
119 84 100
120 85 99
120 85 99
120 86 99
120 86 98
120 87 98
120 88 98
120 88 97
120 89 97
120 90 96
121 90 96
121 91 96
121 92 95
121 92 95
121 93 95
121 93 94
121 94 94
121 95 93
121 95 93
122 96 93
122 97 92
122 97 92
122 98 92
122 99 91
122 99 91
122 100 90
122 100 90
122 101 90
123 102 89
123 102 89
123 103 89
123 104 88
123 104 88
123 105 87
123 106 87
123 106 87
123 107 86
124 108 86
124 108 86
124 109 85
124 109 85
124 110 84
124 111 84
124 111 84
124 112 83
124 113 83
125 113 83
125 114 82
125 115 82
125 115 81
125 116 81
125 116 81
125 117 80
125 118 80
125 118 80
126 119 79
126 120 79
126 120 78
126 121 78
126 122 78
126 122 77
126 123 77
126 123 77
126 124 76
127 125 76
127 125 75
127 126 75
127 127 75
127 127 74
127 128 74
127 129 74
127 129 73
128 130 73
128 131 72
128 131 72
128 132 72
128 132 71
128 133 71
128 134 71
128 134 70
128 135 70
129 136 69
129 136 69
129 137 69
129 138 68
129 138 68
129 139 68
129 139 67
129 140 67
129 141 66
130 141 66
130 142 66
130 143 65
130 143 65
130 144 65
130 145 64
130 145 64
130 146 63
130 146 63
131 147 63
131 148 62
131 148 62
131 149 61
131 150 61
131 150 61
131 151 60
131 152 60
131 152 60
132 153 59
132 154 59
132 154 58
132 155 58
132 155 58
132 156 57
132 157 57
132 157 57
132 158 56
133 159 56
133 159 55
133 160 55
133 161 55
133 161 54
133 162 54
133 162 54
133 163 53
133 164 53
134 164 52
134 165 52
134 166 52
134 166 51
134 167 51
134 168 51
134 168 50
134 169 50
134 170 49
135 170 49
135 171 49
135 171 48
135 172 48
135 173 48
135 173 47
135 174 47
135 175 46
135 175 46
136 176 46
136 177 45
136 177 45
136 178 45
136 178 44
136 179 44
136 180 43
136 180 43
136 181 43
137 182 42
137 182 42
137 183 42
137 184 41
137 184 41
137 185 40
137 185 40
137 186 40
138 187 39
138 187 39
138 188 39
138 189 38
138 189 38
138 190 37
138 191 37
138 191 37
138 192 36
139 193 36
139 193 36
139 194 35
139 194 35
139 195 34
139 196 34
139 196 34
139 197 33
139 198 33
140 198 33
140 199 32
140 200 32
140 200 31
140 201 31
140 201 31
140 202 30
140 203 30
140 203 30
141 204 29
141 205 29
141 205 28
141 206 28
141 207 28
141 207 27
141 208 27
141 208 27
141 209 26
142 210 26
142 210 25
142 211 25
142 212 25
142 212 24
142 213 24
142 214 24
142 214 23
142 215 23
143 216 22
143 216 22
143 217 22
143 217 21
143 218 21
143 219 21
143 219 20
143 220 20
143 221 19
144 221 19
144 222 19
144 223 18
144 223 18
144 224 18
144 224 17
144 225 17
144 226 16
144 226 16
145 227 16
145 228 15
145 228 15
145 229 15
145 230 14
145 230 14
145 231 13
145 231 13
145 232 13
146 233 12
146 233 12
146 234 12
146 235 11
146 235 11
146 236 10
146 237 10
146 237 10
147 238 9
147 239 9
147 239 9
147 240 8
147 240 8
147 241 7
147 242 7
147 242 7
147 243 6
148 244 6
148 244 6
148 245 5
148 246 5
148 246 4
148 247 4
148 247 4
148 248 3
148 249 3
149 249 3
149 250 2
149 251 2
149 251 1
149 252 1
149 253 1
149 253 0
149 254 0
149 255 0
106 0 148
106 0 148
106 1 147
106 1 147
106 2 147
106 3 146
106 3 146
107 4 146
107 5 145
107 5 145
107 6 144
107 7 144
107 7 144
107 8 143
107 8 143
107 9 143
108 10 142
108 10 142
108 11 141
108 12 141
108 12 141
108 13 140
108 14 140
108 14 140
108 15 139
109 15 139
109 16 138
109 17 138
109 17 138
109 18 137
109 19 137
109 19 137
109 20 136
109 21 136
109 21 135
110 22 135
110 23 135
110 23 134
110 24 134
110 24 134
110 25 133
110 26 133
110 26 132
110 27 132
111 28 132
111 28 131
111 29 131
111 30 131
111 30 130
111 31 130
111 31 130
111 32 129
111 33 129
111 33 128
112 34 128
112 35 128
112 35 127
112 36 127
112 37 127
112 37 126
112 38 126
112 38 125
112 39 125
113 40 125
113 40 124
113 41 124
113 42 124
113 42 123
113 43 123
113 44 122
113 44 122
113 45 122
113 46 121
114 46 121
114 47 121
114 47 120
114 48 120
114 49 119
114 49 119
114 50 119
114 51 118
114 51 118
115 52 118
115 53 117
115 53 117
115 54 116
115 54 116
115 55 116
115 56 115
115 56 115
115 57 115
116 58 114
116 58 114
116 59 113
116 60 113
116 60 113
116 61 112
116 61 112
116 62 112
116 63 111
116 63 111
117 64 111
117 65 110
117 65 110
117 66 109
117 67 109
117 67 109
117 68 108
117 69 108
117 69 108
118 70 107
118 70 107
118 71 106
118 72 106
118 72 106
118 73 105
118 74 105
118 74 105
118 75 104
118 76 104
119 76 103
119 77 103
119 77 103
119 78 102
119 79 102
119 79 102
119 80 101
119 81 101
119 81 100
120 82 100
120 83 100
120 83 99
120 84 99
120 85 99
120 85 98
120 86 98
120 86 97
120 87 97
120 88 97
121 88 96
121 89 96
121 90 96
121 90 95
121 91 95
121 92 94
121 92 94
121 93 94
121 93 93
122 94 93
122 95 93
122 95 92
122 96 92
122 97 92
122 97 91
122 98 91
122 99 90
122 99 90
122 100 90
123 100 89
123 101 89
123 102 89
123 102 88
123 103 88
123 104 87
123 104 87
123 105 87
123 106 86
124 106 86
124 107 86
124 108 85
124 108 85
124 109 84
124 109 84
124 110 84
124 111 83
124 111 83
125 112 83
125 113 82
125 113 82
125 114 81
125 115 81
125 115 81
125 116 80
125 116 80
125 117 80
125 118 79
126 118 79
126 119 78
126 120 78
126 120 78
126 121 77
126 122 77
126 122 77
126 123 76
126 123 76
127 124 75
127 125 75
127 125 75
127 126 74
127 127 74
127 127 74
127 128 73
127 129 73
127 129 73
127 130 72
128 131 72
128 131 71
128 132 71
128 132 71
128 133 70
128 134 70
128 134 70
128 135 69
128 136 69
129 136 68
129 137 68
129 138 68
129 138 67
129 139 67
129 139 67
129 140 66
129 141 66
129 141 65
129 142 65
130 143 65
130 143 64
130 144 64
130 145 64
130 145 63
130 146 63
130 146 62
130 147 62
130 148 62
131 148 61
131 149 61
131 150 61
131 150 60
131 151 60
131 152 59
131 152 59
131 153 59
131 154 58
132 154 58
132 155 58
132 155 57
132 156 57
132 157 56
132 157 56
132 158 56
132 159 55
132 159 55
132 160 55
133 161 54
133 161 54
133 162 54
133 162 53
133 163 53
133 164 52
133 164 52
133 165 52
133 166 51
134 166 51
134 167 51
134 168 50
134 168 50
134 169 49
134 170 49
134 170 49
134 171 48
134 171 48
134 172 48
135 173 47
135 173 47
135 174 46
135 175 46
135 175 46
135 176 45
135 177 45
135 177 45
135 178 44
136 178 44
136 179 43
136 180 43
136 180 43
136 181 42
136 182 42
136 182 42
136 183 41
136 184 41
136 184 40
137 185 40
137 185 40
137 186 39
137 187 39
137 187 39
137 188 38
137 189 38
137 189 37
137 190 37
138 191 37
138 191 36
138 192 36
138 193 36
138 193 35
138 194 35
138 194 35
138 195 34
138 196 34
138 196 33
139 197 33
139 198 33
139 198 32
139 199 32
139 200 32
139 200 31
139 201 31
139 201 30
139 202 30
140 203 30
140 203 29
140 204 29
140 205 29
140 205 28
140 206 28
140 207 27
140 207 27
140 208 27
141 208 26
141 209 26
141 210 26
141 210 25
141 211 25
141 212 24
141 212 24
141 213 24
141 214 23
141 214 23
142 215 23
142 216 22
142 216 22
142 217 21
142 217 21
142 218 21
142 219 20
142 219 20
142 220 20
143 221 19
143 221 19
143 222 18
143 223 18
143 223 18
143 224 17
143 224 17
143 225 17
143 226 16
143 226 16
144 227 16
144 228 15
144 228 15
144 229 14
144 230 14
144 230 14
144 231 13
144 231 13
144 232 13
145 233 12
145 233 12
145 234 11
145 235 11
145 235 11
145 236 10
145 237 10
145 237 10
145 238 9
145 239 9
146 239 8
146 240 8
146 240 8
146 241 7
146 242 7
146 242 7
146 243 6
146 244 6
146 244 5
147 245 5
147 246 5
147 246 4
147 247 4
147 247 4
147 248 3
147 249 3
147 249 2
147 250 2
148 251 2
148 251 1
148 252 1
148 253 1
148 253 0
148 254 0
148 255 0
107 0 147
107 0 146
107 1 146
107 1 146
108 2 145
108 3 145
108 3 145
108 4 144
108 5 144
108 5 144
108 6 143
108 7 143
108 7 142
108 8 142
109 8 142
109 9 141
109 10 141
109 10 141
109 11 140
109 12 140
109 12 139
109 13 139
109 14 139
109 14 138
110 15 138
110 15 138
110 16 137
110 17 137
110 17 137
110 18 136
110 19 136
110 19 135
110 20 135
110 21 135
111 21 134
111 22 134
111 23 134
111 23 133
111 24 133
111 24 132
111 25 132
111 26 132
111 26 131
111 27 131
112 28 131
112 28 130
112 29 130
112 30 130
112 30 129
112 31 129
112 31 128
112 32 128
112 33 128
112 33 127
113 34 127
113 35 127
113 35 126
113 36 126
113 37 125
113 37 125
113 38 125
113 38 124
113 39 124
113 40 124
114 40 123
114 41 123
114 42 122
114 42 122
114 43 122
114 44 121
114 44 121
114 45 121
114 46 120
114 46 120
115 47 120
115 47 119
115 48 119
115 49 118
115 49 118
115 50 118
115 51 117
115 51 117
115 52 117
115 53 116
116 53 116
116 54 115
116 54 115
116 55 115
116 56 114
116 56 114
116 57 114
116 58 113
116 58 113
116 59 113
116 60 112
117 60 112
117 61 111
117 61 111
117 62 111
117 63 110
117 63 110
117 64 110
117 65 109
117 65 109
117 66 108
118 67 108
118 67 108
118 68 107
118 69 107
118 69 107
118 70 106
118 70 106
118 71 105
118 72 105
118 72 105
119 73 104
119 74 104
119 74 104
119 75 103
119 76 103
119 76 103
119 77 102
119 77 102
119 78 101
119 79 101
120 79 101
120 80 100
120 81 100
120 81 100
120 82 99
120 83 99
120 83 98
120 84 98
120 85 98
120 85 97
121 86 97
121 86 97
121 87 96
121 88 96
121 88 96
121 89 95
121 90 95
121 90 94
121 91 94
121 92 94
122 92 93
122 93 93
122 93 93
122 94 92
122 95 92
122 95 91
122 96 91
122 97 91
122 97 90
122 98 90
123 99 90
123 99 89
123 100 89
123 100 89
123 101 88
123 102 88
123 102 87
123 103 87
123 104 87
123 104 86
124 105 86
124 106 86
124 106 85
124 107 85
124 108 84
124 108 84
124 109 84
124 109 83
124 110 83
124 111 83
125 111 82
125 112 82
125 113 81
125 113 81
125 114 81
125 115 80
125 115 80
125 116 80
125 116 79
125 117 79
126 118 79
126 118 78
126 119 78
126 120 77
126 120 77
126 121 77
126 122 76
126 122 76
126 123 76
126 123 75
127 124 75
127 125 74
127 125 74
127 126 74
127 127 73
127 127 73
127 128 73
127 129 72
127 129 72
127 130 72
128 131 71
128 131 71
128 132 70
128 132 70
128 133 70
128 134 69
128 134 69
128 135 69
128 136 68
128 136 68
129 137 67
129 138 67
129 138 67
129 139 66
129 139 66
129 140 66
129 141 65
129 141 65
129 142 65
129 143 64
130 143 64
130 144 63
130 145 63
130 145 63
130 146 62
130 146 62
130 147 62
130 148 61
130 148 61
130 149 60
131 150 60
131 150 60
131 151 59
131 152 59
131 152 59
131 153 58
131 154 58
131 154 57
131 155 57
131 155 57
132 156 56
132 157 56
132 157 56
132 158 55
132 159 55
132 159 55
132 160 54
132 161 54
132 161 53
132 162 53
133 162 53
133 163 52
133 164 52
133 164 52
133 165 51
133 166 51
133 166 50
133 167 50
133 168 50
133 168 49
134 169 49
134 170 49
134 170 48
134 171 48
134 171 48
134 172 47
134 173 47
134 173 46
134 174 46
134 175 46
135 175 45
135 176 45
135 177 45
135 177 44
135 178 44
135 178 43
135 179 43
135 180 43
135 180 42
135 181 42
136 182 42
136 182 41
136 183 41
136 184 40
136 184 40
136 185 40
136 185 39
136 186 39
136 187 39
136 187 38
137 188 38
137 189 38
137 189 37
137 190 37
137 191 36
137 191 36
137 192 36
137 193 35
137 193 35
137 194 35
138 194 34
138 195 34
138 196 33
138 196 33
138 197 33
138 198 32
138 198 32
138 199 32
138 200 31
138 200 31
138 201 31
139 201 30
139 202 30
139 203 29
139 203 29
139 204 29
139 205 28
139 205 28
139 206 28
139 207 27
139 207 27
140 208 26
140 208 26
140 209 26
140 210 25
140 210 25
140 211 25
140 212 24
140 212 24
140 213 24
140 214 23
141 214 23
141 215 22
141 216 22
141 216 22
141 217 21
141 217 21
141 218 21
141 219 20
141 219 20
141 220 19
142 221 19
142 221 19
142 222 18
142 223 18
142 223 18
142 224 17
142 224 17
142 225 16
142 226 16
142 226 16
143 227 15
143 228 15
143 228 15
143 229 14
143 230 14
143 230 14
143 231 13
143 231 13
143 232 12
143 233 12
144 233 12
144 234 11
144 235 11
144 235 11
144 236 10
144 237 10
144 237 9
144 238 9
144 239 9
144 239 8
145 240 8
145 240 8
145 241 7
145 242 7
145 242 7
145 243 6
145 244 6
145 244 5
145 245 5
145 246 5
146 246 4
146 247 4
146 247 4
146 248 3
146 249 3
146 249 2
146 250 2
146 251 2
146 251 1
146 252 1
147 253 1
147 253 0
147 254 0
147 255 0
108 0 146
109 0 145
109 1 145
109 1 144
109 2 144
109 3 144
109 3 143
109 4 143
109 5 143
109 5 142
109 6 142
109 7 142
110 7 141
110 8 141
110 8 140
110 9 140
110 10 140
110 10 139
110 11 139
110 12 139
110 12 138
110 13 138
110 14 138
111 14 137
111 15 137
111 15 136
111 16 136
111 17 136
111 17 135
111 18 135
111 19 135
111 19 134
111 20 134
111 21 133
112 21 133
112 22 133
112 23 132
112 23 132
112 24 132
112 24 131
112 25 131
112 26 131
112 26 130
112 27 130
113 28 129
113 28 129
113 29 129
113 30 128
113 30 128
113 31 128
113 31 127
113 32 127
113 33 127
113 33 126
113 34 126
114 35 125
114 35 125
114 36 125
114 37 124
114 37 124
114 38 124
114 38 123
114 39 123
114 40 123
114 40 122
114 41 122
115 42 121
115 42 121
115 43 121
115 44 120
115 44 120
115 45 120
115 46 119
115 46 119
115 47 118
115 47 118
115 48 118
116 49 117
116 49 117
116 50 117
116 51 116
116 51 116
116 52 116
116 53 115
116 53 115
116 54 114
116 54 114
117 55 114
117 56 113
117 56 113
117 57 113
117 58 112
117 58 112
117 59 112
117 60 111
117 60 111
117 61 110
117 61 110
118 62 110
118 63 109
118 63 109
118 64 109
118 65 108
118 65 108
118 66 108
118 67 107
118 67 107
118 68 106
118 69 106
119 69 106
119 70 105
119 70 105
119 71 105
119 72 104
119 72 104
119 73 103
119 74 103
119 74 103
119 75 102
120 76 102
120 76 102
120 77 101
120 77 101
120 78 101
120 79 100
120 79 100
120 80 99
120 81 99
120 81 99
120 82 98
121 83 98
121 83 98
121 84 97
121 85 97
121 85 97
121 86 96
121 86 96
121 87 95
121 88 95
121 88 95
121 89 94
122 90 94
122 90 94
122 91 93
122 92 93
122 92 92
122 93 92
122 93 92
122 94 91
122 95 91
122 95 91
122 96 90
123 97 90
123 97 90
123 98 89
123 99 89
123 99 88
123 100 88
123 100 88
123 101 87
123 102 87
123 102 87
124 103 86
124 104 86
124 104 86
124 105 85
124 106 85
124 106 84
124 107 84
124 108 84
124 108 83
124 109 83
124 109 83
125 110 82
125 111 82
125 111 82
125 112 81
125 113 81
125 113 80
125 114 80
125 115 80
125 115 79
125 116 79
125 116 79
126 117 78
126 118 78
126 118 77
126 119 77
126 120 77
126 120 76
126 121 76
126 122 76
126 122 75
126 123 75
126 123 75
127 124 74
127 125 74
127 125 73
127 126 73
127 127 73
127 127 72
127 128 72
127 129 72
127 129 71
127 130 71
128 131 71
128 131 70
128 132 70
128 132 69
128 133 69
128 134 69
128 134 68
128 135 68
128 136 68
128 136 67
128 137 67
129 138 66
129 138 66
129 139 66
129 139 65
129 140 65
129 141 65
129 141 64
129 142 64
129 143 64
129 143 63
129 144 63
130 145 62
130 145 62
130 146 62
130 146 61
130 147 61
130 148 61
130 148 60
130 149 60
130 150 60
130 150 59
130 151 59
131 152 58
131 152 58
131 153 58
131 154 57
131 154 57
131 155 57
131 155 56
131 156 56
131 157 56
131 157 55
132 158 55
132 159 54
132 159 54
132 160 54
132 161 53
132 161 53
132 162 53
132 162 52
132 163 52
132 164 51
132 164 51
133 165 51
133 166 50
133 166 50
133 167 50
133 168 49
133 168 49
133 169 49
133 170 48
133 170 48
133 171 47
133 171 47
134 172 47
134 173 46
134 173 46
134 174 46
134 175 45
134 175 45
134 176 45
134 177 44
134 177 44
134 178 43
134 178 43
135 179 43
135 180 42
135 180 42
135 181 42
135 182 41
135 182 41
135 183 41
135 184 40
135 184 40
135 185 39
136 185 39
136 186 39
136 187 38
136 187 38
136 188 38
136 189 37
136 189 37
136 190 36
136 191 36
136 191 36
136 192 35
137 193 35
137 193 35
137 194 34
137 194 34
137 195 34
137 196 33
137 196 33
137 197 32
137 198 32
137 198 32
137 199 31
138 200 31
138 200 31
138 201 30
138 201 30
138 202 30
138 203 29
138 203 29
138 204 28
138 205 28
138 205 28
139 206 27
139 207 27
139 207 27
139 208 26
139 208 26
139 209 25
139 210 25
139 210 25
139 211 24
139 212 24
139 212 24
140 213 23
140 214 23
140 214 23
140 215 22
140 216 22
140 216 21
140 217 21
140 217 21
140 218 20
140 219 20
140 219 20
141 220 19
141 221 19
141 221 19
141 222 18
141 223 18
141 223 17
141 224 17
141 224 17
141 225 16
141 226 16
141 226 16
142 227 15
142 228 15
142 228 15
142 229 14
142 230 14
142 230 13
142 231 13
142 231 13
142 232 12
142 233 12
143 233 12
143 234 11
143 235 11
143 235 10
143 236 10
143 237 10
143 237 9
143 238 9
143 239 9
143 239 8
143 240 8
144 240 8
144 241 7
144 242 7
144 242 6
144 243 6
144 244 6
144 244 5
144 245 5
144 246 5
144 246 4
144 247 4
145 247 4
145 248 3
145 249 3
145 249 2
145 250 2
145 251 2
145 251 1
145 252 1
145 253 1
145 253 0
145 254 0
146 255 0
110 0 144
110 0 144
110 1 144
110 1 143
110 2 143
110 3 142
110 3 142
110 4 142
110 5 141
110 5 141
111 6 141
111 7 140
111 7 140
111 8 140
111 8 139
111 9 139
111 10 138
111 10 138
111 11 138
111 12 137
111 12 137
112 13 137
112 14 136
112 14 136
112 15 136
112 15 135
112 16 135
112 17 135
112 17 134
112 18 134
112 19 133
112 19 133
112 20 133
113 21 132
113 21 132
113 22 132
113 23 131
113 23 131
113 24 131
113 24 130
113 25 130
113 26 129
113 26 129
113 27 129
114 28 128
114 28 128
114 29 128
114 30 127
114 30 127
114 31 127
114 31 126
114 32 126
114 33 125
114 33 125
114 34 125
114 35 124
115 35 124
115 36 124
115 37 123
115 37 123
115 38 123
115 38 122
115 39 122
115 40 121
115 40 121
115 41 121
115 42 120
116 42 120
116 43 120
116 44 119
116 44 119
116 45 119
116 46 118
116 46 118
116 47 117
116 47 117
116 48 117
116 49 116
116 49 116
117 50 116
117 51 115
117 51 115
117 52 115
117 53 114
117 53 114
117 54 113
117 54 113
117 55 113
117 56 112
117 56 112
118 57 112
118 58 111
118 58 111
118 59 111
118 60 110
118 60 110
118 61 109
118 61 109
118 62 109
118 63 108
118 63 108
118 64 108
119 65 107
119 65 107
119 66 107
119 67 106
119 67 106
119 68 105
119 69 105
119 69 105
119 70 104
119 70 104
119 71 104
119 72 103
120 72 103
120 73 103
120 74 102
120 74 102
120 75 101
120 76 101
120 76 101
120 77 100
120 77 100
120 78 100
120 79 99
121 79 99
121 80 99
121 81 98
121 81 98
121 82 97
121 83 97
121 83 97
121 84 96
121 85 96
121 85 96
121 86 95
121 86 95
122 87 95
122 88 94
122 88 94
122 89 93
122 90 93
122 90 93
122 91 92
122 92 92
122 92 92
122 93 91
122 93 91
123 94 91
123 95 90
123 95 90
123 96 90
123 97 89
123 97 89
123 98 88
123 99 88
123 99 88
123 100 87
123 100 87
123 101 87
124 102 86
124 102 86
124 103 86
124 104 85
124 104 85
124 105 84
124 106 84
124 106 84
124 107 83
124 108 83
124 108 83
125 109 82
125 109 82
125 110 82
125 111 81
125 111 81
125 112 80
125 113 80
125 113 80
125 114 79
125 115 79
125 115 79
125 116 78
126 116 78
126 117 78
126 118 77
126 118 77
126 119 76
126 120 76
126 120 76
126 121 75
126 122 75
126 122 75
126 123 74
127 123 74
127 124 74
127 125 73
127 125 73
127 126 72
127 127 72
127 127 72
127 128 71
127 129 71
127 129 71
127 130 70
127 131 70
128 131 70
128 132 69
128 132 69
128 133 68
128 134 68
128 134 68
128 135 67
128 136 67
128 136 67
128 137 66
128 138 66
129 138 66
129 139 65
129 139 65
129 140 64
129 141 64
129 141 64
129 142 63
129 143 63
129 143 63
129 144 62
129 145 62
129 145 62
130 146 61
130 146 61
130 147 60
130 148 60
130 148 60
130 149 59
130 150 59
130 150 59
130 151 58
130 152 58
130 152 58
131 153 57
131 154 57
131 154 56
131 155 56
131 155 56
131 156 55
131 157 55
131 157 55
131 158 54
131 159 54
131 159 54
131 160 53
132 161 53
132 161 52
132 162 52
132 162 52
132 163 51
132 164 51
132 164 51
132 165 50
132 166 50
132 166 50
132 167 49
133 168 49
133 168 48
133 169 48
133 170 48
133 170 47
133 171 47
133 171 47
133 172 46
133 173 46
133 173 46
133 174 45
133 175 45
134 175 45
134 176 44
134 177 44
134 177 43
134 178 43
134 178 43
134 179 42
134 180 42
134 180 42
134 181 41
134 182 41
135 182 41
135 183 40
135 184 40
135 184 39
135 185 39
135 185 39
135 186 38
135 187 38
135 187 38
135 188 37
135 189 37
135 189 37
136 190 36
136 191 36
136 191 35
136 192 35
136 193 35
136 193 34
136 194 34
136 194 34
136 195 33
136 196 33
136 196 33
136 197 32
137 198 32
137 198 31
137 199 31
137 200 31
137 200 30
137 201 30
137 201 30
137 202 29
137 203 29
137 203 29
137 204 28
138 205 28
138 205 27
138 206 27
138 207 27
138 207 26
138 208 26
138 208 26
138 209 25
138 210 25
138 210 25
138 211 24
138 212 24
139 212 23
139 213 23
139 214 23
139 214 22
139 215 22
139 216 22
139 216 21
139 217 21
139 217 21
139 218 20
139 219 20
140 219 19
140 220 19
140 221 19
140 221 18
140 222 18
140 223 18
140 223 17
140 224 17
140 224 17
140 225 16
140 226 16
140 226 15
141 227 15
141 228 15
141 228 14
141 229 14
141 230 14
141 230 13
141 231 13
141 231 13
141 232 12
141 233 12
141 233 11
142 234 11
142 235 11
142 235 10
142 236 10
142 237 10
142 237 9
142 238 9
142 239 9
142 239 8
142 240 8
142 240 7
142 241 7
143 242 7
143 242 6
143 243 6
143 244 6
143 244 5
143 245 5
143 246 5
143 246 4
143 247 4
143 247 3
143 248 3
144 249 3
144 249 2
144 250 2
144 251 2
144 251 1
144 252 1
144 253 1
144 253 0
144 254 0
144 255 0
111 0 143
111 0 143
111 1 142
111 1 142
111 2 142
111 3 141
111 3 141
112 4 140
112 5 140
112 5 140
112 6 139
112 7 139
112 7 139
112 8 138
112 8 138
112 9 138
112 10 137
112 10 137
112 11 137
113 12 136
113 12 136
113 13 135
113 14 135
113 14 135
113 15 134
113 15 134
113 16 134
113 17 133
113 17 133
113 18 133
113 19 132
113 19 132
114 20 132
114 21 131
114 21 131
114 22 130
114 23 130
114 23 130
114 24 129
114 24 129
114 25 129
114 26 128
114 26 128
114 27 128
115 28 127
115 28 127
115 29 126
115 30 126
115 30 126
115 31 125
115 31 125
115 32 125
115 33 124
115 33 124
115 34 124
115 35 123
115 35 123
116 36 123
116 37 122
116 37 122
116 38 121
116 38 121
116 39 121
116 40 120
116 40 120
116 41 120
116 42 119
116 42 119
116 43 119
117 44 118
117 44 118
117 45 117
117 46 117
117 46 117
117 47 116
117 47 116
117 48 116
117 49 115
117 49 115
117 50 115
117 51 114
117 51 114
118 52 114
118 53 113
118 53 113
118 54 112
118 54 112
118 55 112
118 56 111
118 56 111
118 57 111
118 58 110
118 58 110
118 59 110
119 60 109
119 60 109
119 61 108
119 61 108
119 62 108
119 63 107
119 63 107
119 64 107
119 65 106
119 65 106
119 66 106
119 67 105
119 67 105
120 68 105
120 69 104
120 69 104
120 70 103
120 70 103
120 71 103
120 72 102
120 72 102
120 73 102
120 74 101
120 74 101
120 75 101
121 76 100
121 76 100
121 77 99
121 77 99
121 78 99
121 79 98
121 79 98
121 80 98
121 81 97
121 81 97
121 82 97
121 83 96
122 83 96
122 84 96
122 85 95
122 85 95
122 86 94
122 86 94
122 87 94
122 88 93
122 88 93
122 89 93
122 90 92
122 90 92
122 91 92
123 92 91
123 92 91
123 93 91
123 93 90
123 94 90
123 95 89
123 95 89
123 96 89
123 97 88
123 97 88
123 98 88
123 99 87
124 99 87
124 100 87
124 100 86
124 101 86
124 102 85
124 102 85
124 103 85
124 104 84
124 104 84
124 105 84
124 106 83
124 106 83
124 107 83
125 108 82
125 108 82
125 109 82
125 109 81
125 110 81
125 111 80
125 111 80
125 112 80
125 113 79
125 113 79
125 114 79
125 115 78
126 115 78
126 116 78
126 116 77
126 117 77
126 118 76
126 118 76
126 119 76
126 120 75
126 120 75
126 121 75
126 122 74
126 122 74
126 123 74
127 123 73
127 124 73
127 125 73
127 125 72
127 126 72
127 127 71
127 127 71
127 128 71
127 129 70
127 129 70
127 130 70
127 131 69
128 131 69
128 132 69
128 132 68
128 133 68
128 134 67
128 134 67
128 135 67
128 136 66
128 136 66
128 137 66
128 138 65
128 138 65
128 139 65
129 139 64
129 140 64
129 141 64
129 141 63
129 142 63
129 143 62
129 143 62
129 144 62
129 145 61
129 145 61
129 146 61
129 146 60
130 147 60
130 148 60
130 148 59
130 149 59
130 150 58
130 150 58
130 151 58
130 152 57
130 152 57
130 153 57
130 154 56
130 154 56
130 155 56
131 155 55
131 156 55
131 157 55
131 157 54
131 158 54
131 159 53
131 159 53
131 160 53
131 161 52
131 161 52
131 162 52
131 162 51
132 163 51
132 164 51
132 164 50
132 165 50
132 166 49
132 166 49
132 167 49
132 168 48
132 168 48
132 169 48
132 170 47
132 170 47
132 171 47
133 171 46
133 172 46
133 173 46
133 173 45
133 174 45
133 175 44
133 175 44
133 176 44
133 177 43
133 177 43
133 178 43
133 178 42
134 179 42
134 180 42
134 180 41
134 181 41
134 182 41
134 182 40
134 183 40
134 184 39
134 184 39
134 185 39
134 185 38
134 186 38
135 187 38
135 187 37
135 188 37
135 189 37
135 189 36
135 190 36
135 191 35
135 191 35
135 192 35
135 193 34
135 193 34
135 194 34
135 194 33
136 195 33
136 196 33
136 196 32
136 197 32
136 198 32
136 198 31
136 199 31
136 200 30
136 200 30
136 201 30
136 201 29
136 202 29
137 203 29
137 203 28
137 204 28
137 205 28
137 205 27
137 206 27
137 207 26
137 207 26
137 208 26
137 208 25
137 209 25
137 210 25
137 210 24
138 211 24
138 212 24
138 212 23
138 213 23
138 214 23
138 214 22
138 215 22
138 216 21
138 216 21
138 217 21
138 217 20
138 218 20
139 219 20
139 219 19
139 220 19
139 221 19
139 221 18
139 222 18
139 223 17
139 223 17
139 224 17
139 224 16
139 225 16
139 226 16
139 226 15
140 227 15
140 228 15
140 228 14
140 229 14
140 230 14
140 230 13
140 231 13
140 231 12
140 232 12
140 233 12
140 233 11
140 234 11
141 235 11
141 235 10
141 236 10
141 237 10
141 237 9
141 238 9
141 239 8
141 239 8
141 240 8
141 240 7
141 241 7
141 242 7
141 242 6
142 243 6
142 244 6
142 244 5
142 245 5
142 246 5
142 246 4
142 247 4
142 247 3
142 248 3
142 249 3
142 249 2
142 250 2
143 251 2
143 251 1
143 252 1
143 253 1
143 253 0
143 254 0
143 255 0
112 0 142
112 0 141
112 1 141
112 1 141
113 2 140
113 3 140
113 3 140
113 4 139
113 5 139
113 5 139
113 6 138
113 7 138
113 7 137
113 8 137
113 8 137
113 9 136
113 10 136
114 10 136
114 11 135
114 12 135
114 12 135
114 13 134
114 14 134
114 14 134
114 15 133
114 15 133
114 16 132
114 17 132
114 17 132
114 18 131
114 19 131
115 19 131
115 20 130
115 21 130
115 21 130
115 22 129
115 23 129
115 23 129
115 24 128
115 24 128
115 25 127
115 26 127
115 26 127
115 27 126
116 28 126
116 28 126
116 29 125
116 30 125
116 30 125
116 31 124
116 31 124
116 32 124
116 33 123
116 33 123
116 34 122
116 35 122
116 35 122
116 36 121
117 37 121
117 37 121
117 38 120
117 38 120
117 39 120
117 40 119
117 40 119
117 41 119
117 42 118
117 42 118
117 43 117
117 44 117
117 44 117
118 45 116
118 46 116
118 46 116
118 47 115
118 47 115
118 48 115
118 49 114
118 49 114
118 50 114
118 51 113
118 51 113
118 52 113
118 53 112
118 53 112
119 54 111
119 54 111
119 55 111
119 56 110
119 56 110
119 57 110
119 58 109
119 58 109
119 59 109
119 60 108
119 60 108
119 61 108
119 61 107
120 62 107
120 63 106
120 63 106
120 64 106
120 65 105
120 65 105
120 66 105
120 67 104
120 67 104
120 68 104
120 69 103
120 69 103
120 70 103
120 70 102
121 71 102
121 72 101
121 72 101
121 73 101
121 74 100
121 74 100
121 75 100
121 76 99
121 76 99
121 77 99
121 77 98
121 78 98
121 79 98
121 79 97
122 80 97
122 81 96
122 81 96
122 82 96
122 83 95
122 83 95
122 84 95
122 85 94
122 85 94
122 86 94
122 86 93
122 87 93
122 88 93
123 88 92
123 89 92
123 90 91
123 90 91
123 91 91
123 92 90
123 92 90
123 93 90
123 93 89
123 94 89
123 95 89
123 95 88
123 96 88
123 97 88
124 97 87
124 98 87
124 99 86
124 99 86
124 100 86
124 100 85
124 101 85
124 102 85
124 102 84
124 103 84
124 104 84
124 104 83
124 105 83
125 106 83
125 106 82
125 107 82
125 108 81
125 108 81
125 109 81
125 109 80
125 110 80
125 111 80
125 111 79
125 112 79
125 113 79
125 113 78
125 114 78
126 115 78
126 115 77
126 116 77
126 116 77
126 117 76
126 118 76
126 118 75
126 119 75
126 120 75
126 120 74
126 121 74
126 122 74
126 122 73
127 123 73
127 123 73
127 124 72
127 125 72
127 125 72
127 126 71
127 127 71
127 127 70
127 128 70
127 129 70
127 129 69
127 130 69
127 131 69
127 131 68
128 132 68
128 132 68
128 133 67
128 134 67
128 134 67
128 135 66
128 136 66
128 136 65
128 137 65
128 138 65
128 138 64
128 139 64
128 139 64
129 140 63
129 141 63
129 141 63
129 142 62
129 143 62
129 143 62
129 144 61
129 145 61
129 145 60
129 146 60
129 146 60
129 147 59
129 148 59
129 148 59
130 149 58
130 150 58
130 150 58
130 151 57
130 152 57
130 152 57
130 153 56
130 154 56
130 154 55
130 155 55
130 155 55
130 156 54
130 157 54
131 157 54
131 158 53
131 159 53
131 159 53
131 160 52
131 161 52
131 161 52
131 162 51
131 162 51
131 163 50
131 164 50
131 164 50
131 165 49
131 166 49
132 166 49
132 167 48
132 168 48
132 168 48
132 169 47
132 170 47
132 170 47
132 171 46
132 171 46
132 172 45
132 173 45
132 173 45
132 174 44
133 175 44
133 175 44
133 176 43
133 177 43
133 177 43
133 178 42
133 178 42
133 179 42
133 180 41
133 180 41
133 181 40
133 182 40
133 182 40
133 183 39
134 184 39
134 184 39
134 185 38
134 185 38
134 186 38
134 187 37
134 187 37
134 188 37
134 189 36
134 189 36
134 190 36
134 191 35
134 191 35
134 192 34
135 193 34
135 193 34
135 194 33
135 194 33
135 195 33
135 196 32
135 196 32
135 197 32
135 198 31
135 198 31
135 199 31
135 200 30
135 200 30
136 201 29
136 201 29
136 202 29
136 203 28
136 203 28
136 204 28
136 205 27
136 205 27
136 206 27
136 207 26
136 207 26
136 208 26
136 208 25
136 209 25
137 210 24
137 210 24
137 211 24
137 212 23
137 212 23
137 213 23
137 214 22
137 214 22
137 215 22
137 216 21
137 216 21
137 217 21
137 217 20
138 218 20
138 219 19
138 219 19
138 220 19
138 221 18
138 221 18
138 222 18
138 223 17
138 223 17
138 224 17
138 224 16
138 225 16
138 226 16
138 226 15
139 227 15
139 228 14
139 228 14
139 229 14
139 230 13
139 230 13
139 231 13
139 231 12
139 232 12
139 233 12
139 233 11
139 234 11
139 235 11
140 235 10
140 236 10
140 237 9
140 237 9
140 238 9
140 239 8
140 239 8
140 240 8
140 240 7
140 241 7
140 242 7
140 242 6
140 243 6
140 244 6
141 244 5
141 245 5
141 246 4
141 246 4
141 247 4
141 247 3
141 248 3
141 249 3
141 249 2
141 250 2
141 251 2
141 251 1
141 252 1
142 253 1
142 253 0
142 254 0
142 255 0
114 0 140
114 0 140
114 1 140
114 1 139
114 2 139
114 3 139
114 3 138
114 4 138
114 5 138
114 5 137
114 6 137
114 7 137
114 7 136
114 8 136
114 8 136
115 9 135
115 10 135
115 10 134
115 11 134
115 12 134
115 12 133
115 13 133
115 14 133
115 14 132
115 15 132
115 15 132
115 16 131
115 17 131
115 17 131
116 18 130
116 19 130
116 19 130
116 20 129
116 21 129
116 21 128
116 22 128
116 23 128
116 23 127
116 24 127
116 24 127
116 25 126
116 26 126
116 26 126
116 27 125
117 28 125
117 28 125
117 29 124
117 30 124
117 30 123
117 31 123
117 31 123
117 32 122
117 33 122
117 33 122
117 34 121
117 35 121
117 35 121
117 36 120
117 37 120
118 37 120
118 38 119
118 38 119
118 39 119
118 40 118
118 40 118
118 41 117
118 42 117
118 42 117
118 43 116
118 44 116
118 44 116
118 45 115
118 46 115
118 46 115
119 47 114
119 47 114
119 48 114
119 49 113
119 49 113
119 50 113
119 51 112
119 51 112
119 52 111
119 53 111
119 53 111
119 54 110
119 54 110
119 55 110
119 56 109
120 56 109
120 57 109
120 58 108
120 58 108
120 59 108
120 60 107
120 60 107
120 61 107
120 61 106
120 62 106
120 63 105
120 63 105
120 64 105
120 65 104
120 65 104
121 66 104
121 67 103
121 67 103
121 68 103
121 69 102
121 69 102
121 70 102
121 70 101
121 71 101
121 72 101
121 72 100
121 73 100
121 74 99
121 74 99
122 75 99
122 76 98
122 76 98
122 77 98
122 77 97
122 78 97
122 79 97
122 79 96
122 80 96
122 81 96
122 81 95
122 82 95
122 83 95
122 83 94
122 84 94
123 85 93
123 85 93
123 86 93
123 86 92
123 87 92
123 88 92
123 88 91
123 89 91
123 90 91
123 90 90
123 91 90
123 92 90
123 92 89
123 93 89
123 93 89
124 94 88
124 95 88
124 95 87
124 96 87
124 97 87
124 97 86
124 98 86
124 99 86
124 99 85
124 100 85
124 100 85
124 101 84
124 102 84
124 102 84
124 103 83
125 104 83
125 104 83
125 105 82
125 106 82
125 106 81
125 107 81
125 108 81
125 108 80
125 109 80
125 109 80
125 110 79
125 111 79
125 111 79
125 112 78
125 113 78
126 113 78
126 114 77
126 115 77
126 115 77
126 116 76
126 116 76
126 117 75
126 118 75
126 118 75
126 119 74
126 120 74
126 120 74
126 121 73
126 122 73
126 122 73
127 123 72
127 123 72
127 124 72
127 125 71
127 125 71
127 126 71
127 127 70
127 127 70
127 128 69
127 129 69
127 129 69
127 130 68
127 131 68
127 131 68
128 132 67
128 132 67
128 133 67
128 134 66
128 134 66
128 135 66
128 136 65
128 136 65
128 137 65
128 138 64
128 138 64
128 139 63
128 139 63
128 140 63
128 141 62
129 141 62
129 142 62
129 143 61
129 143 61
129 144 61
129 145 60
129 145 60
129 146 60
129 146 59
129 147 59
129 148 58
129 148 58
129 149 58
129 150 57
129 150 57
130 151 57
130 152 56
130 152 56
130 153 56
130 154 55
130 154 55
130 155 55
130 155 54
130 156 54
130 157 54
130 157 53
130 158 53
130 159 52
130 159 52
130 160 52
131 161 51
131 161 51
131 162 51
131 162 50
131 163 50
131 164 50
131 164 49
131 165 49
131 166 49
131 166 48
131 167 48
131 168 48
131 168 47
131 169 47
131 170 46
132 170 46
132 171 46
132 171 45
132 172 45
132 173 45
132 173 44
132 174 44
132 175 44
132 175 43
132 176 43
132 177 43
132 177 42
132 178 42
132 178 42
132 179 41
133 180 41
133 180 40
133 181 40
133 182 40
133 182 39
133 183 39
133 184 39
133 184 38
133 185 38
133 185 38
133 186 37
133 187 37
133 187 37
133 188 36
134 189 36
134 189 36
134 190 35
134 191 35
134 191 34
134 192 34
134 193 34
134 193 33
134 194 33
134 194 33
134 195 32
134 196 32
134 196 32
134 197 31
134 198 31
135 198 31
135 199 30
135 200 30
135 200 30
135 201 29
135 201 29
135 202 28
135 203 28
135 203 28
135 204 27
135 205 27
135 205 27
135 206 26
135 207 26
135 207 26
136 208 25
136 208 25
136 209 25
136 210 24
136 210 24
136 211 24
136 212 23
136 212 23
136 213 22
136 214 22
136 214 22
136 215 21
136 216 21
136 216 21
136 217 20
137 217 20
137 218 20
137 219 19
137 219 19
137 220 19
137 221 18
137 221 18
137 222 18
137 223 17
137 223 17
137 224 16
137 224 16
137 225 16
137 226 15
137 226 15
138 227 15
138 228 14
138 228 14
138 229 14
138 230 13
138 230 13
138 231 13
138 231 12
138 232 12
138 233 12
138 233 11
138 234 11
138 235 10
138 235 10
138 236 10
139 237 9
139 237 9
139 238 9
139 239 8
139 239 8
139 240 8
139 240 7
139 241 7
139 242 7
139 242 6
139 243 6
139 244 6
139 244 5
139 245 5
140 246 4
140 246 4
140 247 4
140 247 3
140 248 3
140 249 3
140 249 2
140 250 2
140 251 2
140 251 1
140 252 1
140 253 1
140 253 0
140 254 0
140 255 0
115 0 139
115 0 139
115 1 138
115 1 138
115 2 138
115 3 137
115 3 137
115 4 137
115 5 136
115 5 136
115 6 136
115 7 135
116 7 135
116 8 135
116 8 134
116 9 134
116 10 134
116 10 133
116 11 133
116 12 133
116 12 132
116 13 132
116 14 131
116 14 131
116 15 131
116 15 130
116 16 130
116 17 130
117 17 129
117 18 129
117 19 129
117 19 128
117 20 128
117 21 128
117 21 127
117 22 127
117 23 127
117 23 126
117 24 126
117 24 126
117 25 125
117 26 125
117 26 124
117 27 124
118 28 124
118 28 123
118 29 123
118 30 123
118 30 122
118 31 122
118 31 122
118 32 121
118 33 121
118 33 121
118 34 120
118 35 120
118 35 120
118 36 119
118 37 119
118 37 119
118 38 118
119 38 118
119 39 117
119 40 117
119 40 117
119 41 116
119 42 116
119 42 116
119 43 115
119 44 115
119 44 115
119 45 114
119 46 114
119 46 114
119 47 113
119 47 113
119 48 113
120 49 112
120 49 112
120 50 112
120 51 111
120 51 111
120 52 110
120 53 110
120 53 110
120 54 109
120 54 109
120 55 109
120 56 108
120 56 108
120 57 108
120 58 107
120 58 107
121 59 107
121 60 106
121 60 106
121 61 106
121 61 105
121 62 105
121 63 105
121 63 104
121 64 104
121 65 103
121 65 103
121 66 103
121 67 102
121 67 102
121 68 102
121 69 101
121 69 101
122 70 101
122 70 100
122 71 100
122 72 100
122 72 99
122 73 99
122 74 99
122 74 98
122 75 98
122 76 98
122 76 97
122 77 97
122 77 96
122 78 96
122 79 96
122 79 95
123 80 95
123 81 95
123 81 94
123 82 94
123 83 94
123 83 93
123 84 93
123 85 93
123 85 92
123 86 92
123 86 92
123 87 91
123 88 91
123 88 91
123 89 90
123 90 90
123 90 89
124 91 89
124 92 89
124 92 88
124 93 88
124 93 88
124 94 87
124 95 87
124 95 87
124 96 86
124 97 86
124 97 86
124 98 85
124 99 85
124 99 85
124 100 84
124 100 84
125 101 84
125 102 83
125 102 83
125 103 82
125 104 82
125 104 82
125 105 81
125 106 81
125 106 81
125 107 80
125 108 80
125 108 80
125 109 79
125 109 79
125 110 79
125 111 78
126 111 78
126 112 78
126 113 77
126 113 77
126 114 77
126 115 76
126 115 76
126 116 75
126 116 75
126 117 75
126 118 74
126 118 74
126 119 74
126 120 73
126 120 73
126 121 73
126 122 72
127 122 72
127 123 72
127 123 71
127 124 71
127 125 71
127 125 70
127 126 70
127 127 70
127 127 69
127 128 69
127 129 68
127 129 68
127 130 68
127 131 67
127 131 67
127 132 67
128 132 66
128 133 66
128 134 66
128 134 65
128 135 65
128 136 65
128 136 64
128 137 64
128 138 64
128 138 63
128 139 63
128 139 63
128 140 62
128 141 62
128 141 61
128 142 61
128 143 61
129 143 60
129 144 60
129 145 60
129 145 59
129 146 59
129 146 59
129 147 58
129 148 58
129 148 58
129 149 57
129 150 57
129 150 57
129 151 56
129 152 56
129 152 56
129 153 55
130 154 55
130 154 54
130 155 54
130 155 54
130 156 53
130 157 53
130 157 53
130 158 52
130 159 52
130 159 52
130 160 51
130 161 51
130 161 51
130 162 50
130 162 50
130 163 50
131 164 49
131 164 49
131 165 49
131 166 48
131 166 48
131 167 47
131 168 47
131 168 47
131 169 46
131 170 46
131 170 46
131 171 45
131 171 45
131 172 45
131 173 44
131 173 44
131 174 44
132 175 43
132 175 43
132 176 43
132 177 42
132 177 42
132 178 42
132 178 41
132 179 41
132 180 40
132 180 40
132 181 40
132 182 39
132 182 39
132 183 39
132 184 38
132 184 38
133 185 38
133 185 37
133 186 37
133 187 37
133 187 36
133 188 36
133 189 36
133 189 35
133 190 35
133 191 35
133 191 34
133 192 34
133 193 33
133 193 33
133 194 33
133 194 32
133 195 32
134 196 32
134 196 31
134 197 31
134 198 31
134 198 30
134 199 30
134 200 30
134 200 29
134 201 29
134 201 29
134 202 28
134 203 28
134 203 28
134 204 27
134 205 27
134 205 26
135 206 26
135 207 26
135 207 25
135 208 25
135 208 25
135 209 24
135 210 24
135 210 24
135 211 23
135 212 23
135 212 23
135 213 22
135 214 22
135 214 22
135 215 21
135 216 21
136 216 21
136 217 20
136 217 20
136 218 19
136 219 19
136 219 19
136 220 18
136 221 18
136 221 18
136 222 17
136 223 17
136 223 17
136 224 16
136 224 16
136 225 16
136 226 15
136 226 15
137 227 15
137 228 14
137 228 14
137 229 14
137 230 13
137 230 13
137 231 12
137 231 12
137 232 12
137 233 11
137 233 11
137 234 11
137 235 10
137 235 10
137 236 10
137 237 9
138 237 9
138 238 9
138 239 8
138 239 8
138 240 8
138 240 7
138 241 7
138 242 7
138 242 6
138 243 6
138 244 5
138 244 5
138 245 5
138 246 4
138 246 4
138 247 4
139 247 3
139 248 3
139 249 3
139 249 2
139 250 2
139 251 2
139 251 1
139 252 1
139 253 1
139 253 0
139 254 0
139 255 0
116 0 138
116 0 138
116 1 137
116 1 137
116 2 137
116 3 136
116 3 136
116 4 135
117 5 135
117 5 135
117 6 134
117 7 134
117 7 134
117 8 133
117 8 133
117 9 133
117 10 132
117 10 132
117 11 132
117 12 131
117 12 131
117 13 131
117 14 130
117 14 130
117 15 130
117 15 129
118 16 129
118 17 129
118 17 128
118 18 128
118 19 127
118 19 127
118 20 127
118 21 126
118 21 126
118 22 126
118 23 125
118 23 125
118 24 125
118 24 124
118 25 124
118 26 124
118 26 123
118 27 123
119 28 123
119 28 122
119 29 122
119 30 122
119 30 121
119 31 121
119 31 121
119 32 120
119 33 120
119 33 120
119 34 119
119 35 119
119 35 118
119 36 118
119 37 118
119 37 117
119 38 117
119 38 117
119 39 116
120 40 116
120 40 116
120 41 115
120 42 115
120 42 115
120 43 114
120 44 114
120 44 114
120 45 113
120 46 113
120 46 113
120 47 112
120 47 112
120 48 112
120 49 111
120 49 111
120 50 110
120 51 110
121 51 110
121 52 109
121 53 109
121 53 109
121 54 108
121 54 108
121 55 108
121 56 107
121 56 107
121 57 107
121 58 106
121 58 106
121 59 106
121 60 105
121 60 105
121 61 105
121 61 104
121 62 104
122 63 104
122 63 103
122 64 103
122 65 103
122 65 102
122 66 102
122 67 101
122 67 101
122 68 101
122 69 100
122 69 100
122 70 100
122 70 99
122 71 99
122 72 99
122 72 98
122 73 98
122 74 98
122 74 97
123 75 97
123 76 97
123 76 96
123 77 96
123 77 96
123 78 95
123 79 95
123 79 95
123 80 94
123 81 94
123 81 93
123 82 93
123 83 93
123 83 92
123 84 92
123 85 92
123 85 91
123 86 91
124 86 91
124 87 90
124 88 90
124 88 90
124 89 89
124 90 89
124 90 89
124 91 88
124 92 88
124 92 88
124 93 87
124 93 87
124 94 87
124 95 86
124 95 86
124 96 86
124 97 85
124 97 85
125 98 84
125 99 84
125 99 84
125 100 83
125 100 83
125 101 83
125 102 82
125 102 82
125 103 82
125 104 81
125 104 81
125 105 81
125 106 80
125 106 80
125 107 80
125 108 79
125 108 79
125 109 79
125 109 78
126 110 78
126 111 78
126 111 77
126 112 77
126 113 77
126 113 76
126 114 76
126 115 75
126 115 75
126 116 75
126 116 74
126 117 74
126 118 74
126 118 73
126 119 73
126 120 73
126 120 72
126 121 72
127 122 72
127 122 71
127 123 71
127 123 71
127 124 70
127 125 70
127 125 70
127 126 69
127 127 69
127 127 69
127 128 68
127 129 68
127 129 67
127 130 67
127 131 67
127 131 66
127 132 66
127 132 66
128 133 65
128 134 65
128 134 65
128 135 64
128 136 64
128 136 64
128 137 63
128 138 63
128 138 63
128 139 62
128 139 62
128 140 62
128 141 61
128 141 61
128 142 61
128 143 60
128 143 60
128 144 60
129 145 59
129 145 59
129 146 58
129 146 58
129 147 58
129 148 57
129 148 57
129 149 57
129 150 56
129 150 56
129 151 56
129 152 55
129 152 55
129 153 55
129 154 54
129 154 54
129 155 54
129 155 53
129 156 53
130 157 53
130 157 52
130 158 52
130 159 52
130 159 51
130 160 51
130 161 50
130 161 50
130 162 50
130 162 49
130 163 49
130 164 49
130 164 48
130 165 48
130 166 48
130 166 47
130 167 47
130 168 47
131 168 46
131 169 46
131 170 46
131 170 45
131 171 45
131 171 45
131 172 44
131 173 44
131 173 44
131 174 43
131 175 43
131 175 43
131 176 42
131 177 42
131 177 41
131 178 41
131 178 41
131 179 40
132 180 40
132 180 40
132 181 39
132 182 39
132 182 39
132 183 38
132 184 38
132 184 38
132 185 37
132 185 37
132 186 37
132 187 36
132 187 36
132 188 36
132 189 35
132 189 35
132 190 35
132 191 34
132 191 34
133 192 33
133 193 33
133 193 33
133 194 32
133 194 32
133 195 32
133 196 31
133 196 31
133 197 31
133 198 30
133 198 30
133 199 30
133 200 29
133 200 29
133 201 29
133 201 28
133 202 28
133 203 28
134 203 27
134 204 27
134 205 27
134 205 26
134 206 26
134 207 26
134 207 25
134 208 25
134 208 24
134 209 24
134 210 24
134 210 23
134 211 23
134 212 23
134 212 22
134 213 22
134 214 22
134 214 21
135 215 21
135 216 21
135 216 20
135 217 20
135 217 20
135 218 19
135 219 19
135 219 19
135 220 18
135 221 18
135 221 18
135 222 17
135 223 17
135 223 16
135 224 16
135 224 16
135 225 15
135 226 15
135 226 15
136 227 14
136 228 14
136 228 14
136 229 13
136 230 13
136 230 13
136 231 12
136 231 12
136 232 12
136 233 11
136 233 11
136 234 11
136 235 10
136 235 10
136 236 10
136 237 9
136 237 9
136 238 9
137 239 8
137 239 8
137 240 7
137 240 7
137 241 7
137 242 6
137 242 6
137 243 6
137 244 5
137 244 5
137 245 5
137 246 4
137 246 4
137 247 4
137 247 3
137 248 3
137 249 3
137 249 2
138 250 2
138 251 2
138 251 1
138 252 1
138 253 1
138 253 0
138 254 0
138 255 0
117 0 137
117 0 136
117 1 136
118 1 136
118 2 135
118 3 135
118 3 135
118 4 134
118 5 134
118 5 134
118 6 133
118 7 133
118 7 132
118 8 132
118 8 132
118 9 131
118 10 131
118 10 131
118 11 130
118 12 130
118 12 130
118 13 129
118 14 129
118 14 129
119 15 128
119 15 128
119 16 128
119 17 127
119 17 127
119 18 127
119 19 126
119 19 126
119 20 126
119 21 125
119 21 125
119 22 125
119 23 124
119 23 124
119 24 124
119 24 123
119 25 123
119 26 123
119 26 122
119 27 122
120 28 121
120 28 121
120 29 121
120 30 120
120 30 120
120 31 120
120 31 119
120 32 119
120 33 119
120 33 118
120 34 118
120 35 118
120 35 117
120 36 117
120 37 117
120 37 116
120 38 116
120 38 116
120 39 115
120 40 115
120 40 115
121 41 114
121 42 114
121 42 114
121 43 113
121 44 113
121 44 113
121 45 112
121 46 112
121 46 112
121 47 111
121 47 111
121 48 110
121 49 110
121 49 110
121 50 109
121 51 109
121 51 109
121 52 108
121 53 108
121 53 108
121 54 107
122 54 107
122 55 107
122 56 106
122 56 106
122 57 106
122 58 105
122 58 105
122 59 105
122 60 104
122 60 104
122 61 104
122 61 103
122 62 103
122 63 103
122 63 102
122 64 102
122 65 102
122 65 101
122 66 101
122 67 101
122 67 100
123 68 100
123 69 99
123 69 99
123 70 99
123 70 98
123 71 98
123 72 98
123 72 97
123 73 97
123 74 97
123 74 96
123 75 96
123 76 96
123 76 95
123 77 95
123 77 95
123 78 94
123 79 94
123 79 94
123 80 93
124 81 93
124 81 93
124 82 92
124 83 92
124 83 92
124 84 91
124 85 91
124 85 91
124 86 90
124 86 90
124 87 90
124 88 89
124 88 89
124 89 89
124 90 88
124 90 88
124 91 87
124 92 87
124 92 87
124 93 86
124 93 86
125 94 86
125 95 85
125 95 85
125 96 85
125 97 84
125 97 84
125 98 84
125 99 83
125 99 83
125 100 83
125 100 82
125 101 82
125 102 82
125 102 81
125 103 81
125 104 81
125 104 80
125 105 80
125 106 80
125 106 79
125 107 79
126 108 79
126 108 78
126 109 78
126 109 78
126 110 77
126 111 77
126 111 76
126 112 76
126 113 76
126 113 75
126 114 75
126 115 75
126 115 74
126 116 74
126 116 74
126 117 73
126 118 73
126 118 73
126 119 72
126 120 72
126 120 72
127 121 71
127 122 71
127 122 71
127 123 70
127 123 70
127 124 70
127 125 69
127 125 69
127 126 69
127 127 68
127 127 68
127 128 68
127 129 67
127 129 67
127 130 67
127 131 66
127 131 66
127 132 65
127 132 65
127 133 65
128 134 64
128 134 64
128 135 64
128 136 63
128 136 63
128 137 63
128 138 62
128 138 62
128 139 62
128 139 61
128 140 61
128 141 61
128 141 60
128 142 60
128 143 60
128 143 59
128 144 59
128 145 59
128 145 58
128 146 58
128 146 58
129 147 57
129 148 57
129 148 57
129 149 56
129 150 56
129 150 56
129 151 55
129 152 55
129 152 54
129 153 54
129 154 54
129 154 53
129 155 53
129 155 53
129 156 52
129 157 52
129 157 52
129 158 51
129 159 51
129 159 51
129 160 50
130 161 50
130 161 50
130 162 49
130 162 49
130 163 49
130 164 48
130 164 48
130 165 48
130 166 47
130 166 47
130 167 47
130 168 46
130 168 46
130 169 46
130 170 45
130 170 45
130 171 45
130 171 44
130 172 44
130 173 43
130 173 43
131 174 43
131 175 42
131 175 42
131 176 42
131 177 41
131 177 41
131 178 41
131 178 40
131 179 40
131 180 40
131 180 39
131 181 39
131 182 39
131 182 38
131 183 38
131 184 38
131 184 37
131 185 37
131 185 37
131 186 36
132 187 36
132 187 36
132 188 35
132 189 35
132 189 35
132 190 34
132 191 34
132 191 34
132 192 33
132 193 33
132 193 32
132 194 32
132 194 32
132 195 31
132 196 31
132 196 31
132 197 30
132 198 30
132 198 30
132 199 29
132 200 29
133 200 29
133 201 28
133 201 28
133 202 28
133 203 27
133 203 27
133 204 27
133 205 26
133 205 26
133 206 26
133 207 25
133 207 25
133 208 25
133 208 24
133 209 24
133 210 24
133 210 23
133 211 23
133 212 23
133 212 22
133 213 22
134 214 21
134 214 21
134 215 21
134 216 20
134 216 20
134 217 20
134 217 19
134 218 19
134 219 19
134 219 18
134 220 18
134 221 18
134 221 17
134 222 17
134 223 17
134 223 16
134 224 16
134 224 16
134 225 15
134 226 15
134 226 15
135 227 14
135 228 14
135 228 14
135 229 13
135 230 13
135 230 13
135 231 12
135 231 12
135 232 12
135 233 11
135 233 11
135 234 10
135 235 10
135 235 10
135 236 9
135 237 9
135 237 9
135 238 8
135 239 8
135 239 8
136 240 7
136 240 7
136 241 7
136 242 6
136 242 6
136 243 6
136 244 5
136 244 5
136 245 5
136 246 4
136 246 4
136 247 4
136 247 3
136 248 3
136 249 3
136 249 2
136 250 2
136 251 2
136 251 1
136 252 1
136 253 1
137 253 0
137 254 0
137 255 0
119 0 135
119 0 135
119 1 135
119 1 134
119 2 134
119 3 134
119 3 133
119 4 133
119 5 133
119 5 132
119 6 132
119 7 132
119 7 131
119 8 131
119 8 131
119 9 130
119 10 130
119 10 130
119 11 129
119 12 129
120 12 129
120 13 128
120 14 128
120 14 127
120 15 127
120 15 127
120 16 126
120 17 126
120 17 126
120 18 125
120 19 125
120 19 125
120 20 124
120 21 124
120 21 124
120 22 123
120 23 123
120 23 123
120 24 122
120 24 122
120 25 122
120 26 121
120 26 121
120 27 121
121 28 120
121 28 120
121 29 120
121 30 119
121 30 119
121 31 119
121 31 118
121 32 118
121 33 118
121 33 117
121 34 117
121 35 117
121 35 116
121 36 116
121 37 116
121 37 115
121 38 115
121 38 115
121 39 114
121 40 114
121 40 114
121 41 113
121 42 113
121 42 113
122 43 112
122 44 112
122 44 111
122 45 111
122 46 111
122 46 110
122 47 110
122 47 110
122 48 109
122 49 109
122 49 109
122 50 108
122 51 108
122 51 108
122 52 107
122 53 107
122 53 107
122 54 106
122 54 106
122 55 106
122 56 105
122 56 105
122 57 105
122 58 104
123 58 104
123 59 104
123 60 103
123 60 103
123 61 103
123 61 102
123 62 102
123 63 102
123 63 101
123 64 101
123 65 101
123 65 100
123 66 100
123 67 100
123 67 99
123 68 99
123 69 99
123 69 98
123 70 98
123 70 98
123 71 97
123 72 97
123 72 97
123 73 96
124 74 96
124 74 95
124 75 95
124 76 95
124 76 94
124 77 94
124 77 94
124 78 93
124 79 93
124 79 93
124 80 92
124 81 92
124 81 92
124 82 91
124 83 91
124 83 91
124 84 90
124 85 90
124 85 90
124 86 89
124 86 89
124 87 89
124 88 88
124 88 88
125 89 88
125 90 87
125 90 87
125 91 87
125 92 86
125 92 86
125 93 86
125 93 85
125 94 85
125 95 85
125 95 84
125 96 84
125 97 84
125 97 83
125 98 83
125 99 83
125 99 82
125 100 82
125 100 82
125 101 81
125 102 81
125 102 81
125 103 80
125 104 80
126 104 79
126 105 79
126 106 79
126 106 78
126 107 78
126 108 78
126 108 77
126 109 77
126 109 77
126 110 76
126 111 76
126 111 76
126 112 75
126 113 75
126 113 75
126 114 74
126 115 74
126 115 74
126 116 73
126 116 73
126 117 73
126 118 72
126 118 72
126 119 72
127 120 71
127 120 71
127 121 71
127 122 70
127 122 70
127 123 70
127 123 69
127 124 69
127 125 69
127 125 68
127 126 68
127 127 68
127 127 67
127 128 67
127 129 67
127 129 66
127 130 66
127 131 66
127 131 65
127 132 65
127 132 65
127 133 64
127 134 64
127 134 63
128 135 63
128 136 63
128 136 62
128 137 62
128 138 62
128 138 61
128 139 61
128 139 61
128 140 60
128 141 60
128 141 60
128 142 59
128 143 59
128 143 59
128 144 58
128 145 58
128 145 58
128 146 57
128 146 57
128 147 57
128 148 56
128 148 56
128 149 56
128 150 55
129 150 55
129 151 55
129 152 54
129 152 54
129 153 54
129 154 53
129 154 53
129 155 53
129 155 52
129 156 52
129 157 52
129 157 51
129 158 51
129 159 51
129 159 50
129 160 50
129 161 50
129 161 49
129 162 49
129 162 49
129 163 48
129 164 48
129 164 47
129 165 47
130 166 47
130 166 46
130 167 46
130 168 46
130 168 45
130 169 45
130 170 45
130 170 44
130 171 44
130 171 44
130 172 43
130 173 43
130 173 43
130 174 42
130 175 42
130 175 42
130 176 41
130 177 41
130 177 41
130 178 40
130 178 40
130 179 40
130 180 39
130 180 39
131 181 39
131 182 38
131 182 38
131 183 38
131 184 37
131 184 37
131 185 37
131 185 36
131 186 36
131 187 36
131 187 35
131 188 35
131 189 35
131 189 34
131 190 34
131 191 34
131 191 33
131 192 33
131 193 33
131 193 32
131 194 32
131 194 31
131 195 31
131 196 31
132 196 30
132 197 30
132 198 30
132 198 29
132 199 29
132 200 29
132 200 28
132 201 28
132 201 28
132 202 27
132 203 27
132 203 27
132 204 26
132 205 26
132 205 26
132 206 25
132 207 25
132 207 25
132 208 24
132 208 24
132 209 24
132 210 23
132 210 23
132 211 23
133 212 22
133 212 22
133 213 22
133 214 21
133 214 21
133 215 21
133 216 20
133 216 20
133 217 20
133 217 19
133 218 19
133 219 19
133 219 18
133 220 18
133 221 18
133 221 17
133 222 17
133 223 17
133 223 16
133 224 16
133 224 15
133 225 15
133 226 15
133 226 14
134 227 14
134 228 14
134 228 13
134 229 13
134 230 13
134 230 12
134 231 12
134 231 12
134 232 11
134 233 11
134 233 11
134 234 10
134 235 10
134 235 10
134 236 9
134 237 9
134 237 9
134 238 8
134 239 8
134 239 8
134 240 7
134 240 7
134 241 7
134 242 6
135 242 6
135 243 6
135 244 5
135 244 5
135 245 5
135 246 4
135 246 4
135 247 4
135 247 3
135 248 3
135 249 3
135 249 2
135 250 2
135 251 2
135 251 1
135 252 1
135 253 1
135 253 0
135 254 0
135 255 0
120 0 134
120 0 134
120 1 133
120 1 133
120 2 133
120 3 132
120 3 132
120 4 132
120 5 131
120 5 131
120 6 131
120 7 130
120 7 130
120 8 130
120 8 129
120 9 129
121 10 129
121 10 128
121 11 128
121 12 128
121 12 127
121 13 127
121 14 127
121 14 126
121 15 126
121 15 126
121 16 125
121 17 125
121 17 125
121 18 124
121 19 124
121 19 124
121 20 123
121 21 123
121 21 123
121 22 122
121 23 122
121 23 122
121 24 121
121 24 121
121 25 121
121 26 120
121 26 120
121 27 120
122 28 119
122 28 119
122 29 119
122 30 118
122 30 118
122 31 118
122 31 117
122 32 117
122 33 117
122 33 116
122 34 116
122 35 116
122 35 115
122 36 115
122 37 114
122 37 114
122 38 114
122 38 113
122 39 113
122 40 113
122 40 112
122 41 112
122 42 112
122 42 111
122 43 111
122 44 111
122 44 110
122 45 110
122 46 110
123 46 109
123 47 109
123 47 109
123 48 108
123 49 108
123 49 108
123 50 107
123 51 107
123 51 107
123 52 106
123 53 106
123 53 106
123 54 105
123 54 105
123 55 105
123 56 104
123 56 104
123 57 104
123 58 103
123 58 103
123 59 103
123 60 102
123 60 102
123 61 102
123 61 101
123 62 101
123 63 101
123 63 100
124 64 100
124 65 100
124 65 99
124 66 99
124 67 99
124 67 98
124 68 98
124 69 98
124 69 97
124 70 97
124 70 97
124 71 96
124 72 96
124 72 96
124 73 95
124 74 95
124 74 95
124 75 94
124 76 94
124 76 94
124 77 93
124 77 93
124 78 93
124 79 92
124 79 92
124 80 92
124 81 91
124 81 91
125 82 91
125 83 90
125 83 90
125 84 90
125 85 89
125 85 89
125 86 89
125 86 88
125 87 88
125 88 88
125 88 87
125 89 87
125 90 87
125 90 86
125 91 86
125 92 85
125 92 85
125 93 85
125 93 84
125 94 84
125 95 84
125 95 83
125 96 83
125 97 83
125 97 82
125 98 82
125 99 82
125 99 81
125 100 81
126 100 81
126 101 80
126 102 80
126 102 80
126 103 79
126 104 79
126 104 79
126 105 78
126 106 78
126 106 78
126 107 77
126 108 77
126 108 77
126 109 76
126 109 76
126 110 76
126 111 75
126 111 75
126 112 75
126 113 74
126 113 74
126 114 74
126 115 73
126 115 73
126 116 73
126 116 72
126 117 72
126 118 72
127 118 71
127 119 71
127 120 71
127 120 70
127 121 70
127 122 70
127 122 69
127 123 69
127 123 69
127 124 68
127 125 68
127 125 68
127 126 67
127 127 67
127 127 67
127 128 66
127 129 66
127 129 66
127 130 65
127 131 65
127 131 65
127 132 64
127 132 64
127 133 64
127 134 63
127 134 63
127 135 63
127 136 62
128 136 62
128 137 62
128 138 61
128 138 61
128 139 61
128 139 60
128 140 60
128 141 60
128 141 59
128 142 59
128 143 59
128 143 58
128 144 58
128 145 58
128 145 57
128 146 57
128 146 56
128 147 56
128 148 56
128 148 55
128 149 55
128 150 55
128 150 54
128 151 54
128 152 54
128 152 53
128 153 53
128 154 53
129 154 52
129 155 52
129 155 52
129 156 51
129 157 51
129 157 51
129 158 50
129 159 50
129 159 50
129 160 49
129 161 49
129 161 49
129 162 48
129 162 48
129 163 48
129 164 47
129 164 47
129 165 47
129 166 46
129 166 46
129 167 46
129 168 45
129 168 45
129 169 45
129 170 44
129 170 44
129 171 44
129 171 43
129 172 43
130 173 43
130 173 42
130 174 42
130 175 42
130 175 41
130 176 41
130 177 41
130 177 40
130 178 40
130 178 40
130 179 39
130 180 39
130 180 39
130 181 38
130 182 38
130 182 38
130 183 37
130 184 37
130 184 37
130 185 36
130 185 36
130 186 36
130 187 35
130 187 35
130 188 35
130 189 34
130 189 34
130 190 34
131 191 33
131 191 33
131 192 33
131 193 32
131 193 32
131 194 32
131 194 31
131 195 31
131 196 31
131 196 30
131 197 30
131 198 30
131 198 29
131 199 29
131 200 29
131 200 28
131 201 28
131 201 27
131 202 27
131 203 27
131 203 26
131 204 26
131 205 26
131 205 25
131 206 25
131 207 25
131 207 24
131 208 24
132 208 24
132 209 23
132 210 23
132 210 23
132 211 22
132 212 22
132 212 22
132 213 21
132 214 21
132 214 21
132 215 20
132 216 20
132 216 20
132 217 19
132 217 19
132 218 19
132 219 18
132 219 18
132 220 18
132 221 17
132 221 17
132 222 17
132 223 16
132 223 16
132 224 16
132 224 15
132 225 15
132 226 15
132 226 14
133 227 14
133 228 14
133 228 13
133 229 13
133 230 13
133 230 12
133 231 12
133 231 12
133 232 11
133 233 11
133 233 11
133 234 10
133 235 10
133 235 10
133 236 9
133 237 9
133 237 9
133 238 8
133 239 8
133 239 8
133 240 7
133 240 7
133 241 7
133 242 6
133 242 6
133 243 6
133 244 5
133 244 5
134 245 5
134 246 4
134 246 4
134 247 4
134 247 3
134 248 3
134 249 3
134 249 2
134 250 2
134 251 2
134 251 1
134 252 1
134 253 1
134 253 0
134 254 0
134 255 0
121 0 133
121 0 132
121 1 132
121 1 132
121 2 131
121 3 131
121 3 131
121 4 130
121 5 130
121 5 130
122 6 129
122 7 129
122 7 129
122 8 128
122 8 128
122 9 128
122 10 127
122 10 127
122 11 127
122 12 126
122 12 126
122 13 126
122 14 125
122 14 125
122 15 125
122 15 124
122 16 124
122 17 124
122 17 123
122 18 123
122 19 123
122 19 122
122 20 122
122 21 122
122 21 121
122 22 121
122 23 121
122 23 120
122 24 120
122 24 120
122 25 119
122 26 119
122 26 119
122 27 118
123 28 118
123 28 118
123 29 117
123 30 117
123 30 117
123 31 116
123 31 116
123 32 116
123 33 115
123 33 115
123 34 115
123 35 114
123 35 114
123 36 114
123 37 113
123 37 113
123 38 113
123 38 112
123 39 112
123 40 112
123 40 111
123 41 111
123 42 111
123 42 110
123 43 110
123 44 110
123 44 109
123 45 109
123 46 109
123 46 108
123 47 108
123 47 108
123 48 107
123 49 107
123 49 107
124 50 106
124 51 106
124 51 106
124 52 105
124 53 105
124 53 105
124 54 104
124 54 104
124 55 104
124 56 103
124 56 103
124 57 103
124 58 102
124 58 102
124 59 102
124 60 101
124 60 101
124 61 101
124 61 100
124 62 100
124 63 100
124 63 99
124 64 99
124 65 99
124 65 98
124 66 98
124 67 98
124 67 97
124 68 97
124 69 97
124 69 96
124 70 96
124 70 96
124 71 95
124 72 95
125 72 95
125 73 94
125 74 94
125 74 94
125 75 93
125 76 93
125 76 93
125 77 92
125 77 92
125 78 92
125 79 91
125 79 91
125 80 91
125 81 90
125 81 90
125 82 90
125 83 89
125 83 89
125 84 89
125 85 88
125 85 88
125 86 88
125 86 87
125 87 87
125 88 87
125 88 86
125 89 86
125 90 86
125 90 85
125 91 85
125 92 85
125 92 84
125 93 84
125 93 84
126 94 83
126 95 83
126 95 83
126 96 82
126 97 82
126 97 82
126 98 81
126 99 81
126 99 81
126 100 80
126 100 80
126 101 80
126 102 79
126 102 79
126 103 79
126 104 78
126 104 78
126 105 78
126 106 77
126 106 77
126 107 77
126 108 76
126 108 76
126 109 76
126 109 75
126 110 75
126 111 75
126 111 74
126 112 74
126 113 74
126 113 73
126 114 73
126 115 73
126 115 72
126 116 72
127 116 72
127 117 71
127 118 71
127 118 71
127 119 70
127 120 70
127 120 70
127 121 69
127 122 69
127 122 69
127 123 68
127 123 68
127 124 68
127 125 67
127 125 67
127 126 67
127 127 66
127 127 66
127 128 66
127 129 65
127 129 65
127 130 65
127 131 64
127 131 64
127 132 64
127 132 63
127 133 63
127 134 63
127 134 62
127 135 62
127 136 62
127 136 61
127 137 61
127 138 61
128 138 60
128 139 60
128 139 60
128 140 59
128 141 59
128 141 59
128 142 58
128 143 58
128 143 58
128 144 57
128 145 57
128 145 57
128 146 56
128 146 56
128 147 56
128 148 55
128 148 55
128 149 55
128 150 54
128 150 54
128 151 54
128 152 53
128 152 53
128 153 53
128 154 52
128 154 52
128 155 52
128 155 51
128 156 51
128 157 51
128 157 50
128 158 50
128 159 50
128 159 49
128 160 49
129 161 49
129 161 48
129 162 48
129 162 48
129 163 47
129 164 47
129 164 47
129 165 46
129 166 46
129 166 46
129 167 45
129 168 45
129 168 45
129 169 44
129 170 44
129 170 44
129 171 43
129 171 43
129 172 43
129 173 42
129 173 42
129 174 42
129 175 41
129 175 41
129 176 41
129 177 40
129 177 40
129 178 40
129 178 39
129 179 39
129 180 39
129 180 38
129 181 38
129 182 38
130 182 37
130 183 37
130 184 37
130 184 36
130 185 36
130 185 36
130 186 35
130 187 35
130 187 35
130 188 34
130 189 34
130 189 34
130 190 33
130 191 33
130 191 33
130 192 32
130 193 32
130 193 32
130 194 31
130 194 31
130 195 31
130 196 30
130 196 30
130 197 30
130 198 29
130 198 29
130 199 29
130 200 28
130 200 28
130 201 28
130 201 27
130 202 27
130 203 27
130 203 26
130 204 26
131 205 26
131 205 25
131 206 25
131 207 25
131 207 24
131 208 24
131 208 24
131 209 23
131 210 23
131 210 23
131 211 22
131 212 22
131 212 22
131 213 21
131 214 21
131 214 21
131 215 20
131 216 20
131 216 20
131 217 19
131 217 19
131 218 19
131 219 18
131 219 18
131 220 18
131 221 17
131 221 17
131 222 17
131 223 16
131 223 16
131 224 16
131 224 15
131 225 15
131 226 15
131 226 14
132 227 14
132 228 14
132 228 13
132 229 13
132 230 13
132 230 12
132 231 12
132 231 12
132 232 11
132 233 11
132 233 11
132 234 10
132 235 10
132 235 10
132 236 9
132 237 9
132 237 9
132 238 8
132 239 8
132 239 8
132 240 7
132 240 7
132 241 7
132 242 6
132 242 6
132 243 6
132 244 5
132 244 5
132 245 5
132 246 4
132 246 4
132 247 4
132 247 3
132 248 3
133 249 3
133 249 2
133 250 2
133 251 2
133 251 1
133 252 1
133 253 1
133 253 0
133 254 0
133 255 0
123 0 131
123 0 131
123 1 131
123 1 130
123 2 130
123 3 130
123 3 130
123 4 129
123 5 129
123 5 129
123 6 128
123 7 128
123 7 128
123 8 127
123 8 127
123 9 127
123 10 126
123 10 126
123 11 126
123 12 125
123 12 125
123 13 125
123 14 124
123 14 124
123 15 124
123 15 123
123 16 123
123 17 123
123 17 122
123 18 122
123 19 122
123 19 121
123 20 121
123 21 121
123 21 120
123 22 120
123 23 120
123 23 119
123 24 119
123 24 119
123 25 118
123 26 118
123 26 118
123 27 117
124 28 117
124 28 117
124 29 116
124 30 116
124 30 116
124 31 115
124 31 115
124 32 115
124 33 114
124 33 114
124 34 114
124 35 113
124 35 113
124 36 113
124 37 112
124 37 112
124 38 112
124 38 111
124 39 111
124 40 111
124 40 110
124 41 110
124 42 110
124 42 109
124 43 109
124 44 109
124 44 108
124 45 108
124 46 108
124 46 107
124 47 107
124 47 107
124 48 106
124 49 106
124 49 106
124 50 105
124 51 105
124 51 105
124 52 104
124 53 104
124 53 104
124 54 103
124 54 103
124 55 103
124 56 102
125 56 102
125 57 102
125 58 101
125 58 101
125 59 101
125 60 100
125 60 100
125 61 100
125 61 99
125 62 99
125 63 99
125 63 98
125 64 98
125 65 98
125 65 97
125 66 97
125 67 97
125 67 96
125 68 96
125 69 96
125 69 95
125 70 95
125 70 95
125 71 94
125 72 94
125 72 94
125 73 93
125 74 93
125 74 93
125 75 92
125 76 92
125 76 92
125 77 91
125 77 91
125 78 91
125 79 90
125 79 90
125 80 90
125 81 89
125 81 89
125 82 89
125 83 88
125 83 88
125 84 88
126 85 87
126 85 87
126 86 87
126 86 86
126 87 86
126 88 86
126 88 86
126 89 85
126 90 85
126 90 85
126 91 84
126 92 84
126 92 84
126 93 83
126 93 83
126 94 83
126 95 82
126 95 82
126 96 82
126 97 81
126 97 81
126 98 81
126 99 80
126 99 80
126 100 80
126 100 79
126 101 79
126 102 79
126 102 78
126 103 78
126 104 78
126 104 77
126 105 77
126 106 77
126 106 76
126 107 76
126 108 76
126 108 75
126 109 75
126 109 75
126 110 74
126 111 74
126 111 74
126 112 73
126 113 73
127 113 73
127 114 72
127 115 72
127 115 72
127 116 71
127 116 71
127 117 71
127 118 70
127 118 70
127 119 70
127 120 69
127 120 69
127 121 69
127 122 68
127 122 68
127 123 68
127 123 67
127 124 67
127 125 67
127 125 66
127 126 66
127 127 66
127 127 65
127 128 65
127 129 65
127 129 64
127 130 64
127 131 64
127 131 63
127 132 63
127 132 63
127 133 62
127 134 62
127 134 62
127 135 61
127 136 61
127 136 61
127 137 60
127 138 60
127 138 60
127 139 59
127 139 59
127 140 59
127 141 58
128 141 58
128 142 58
128 143 57
128 143 57
128 144 57
128 145 56
128 145 56
128 146 56
128 146 55
128 147 55
128 148 55
128 148 54
128 149 54
128 150 54
128 150 53
128 151 53
128 152 53
128 152 52
128 153 52
128 154 52
128 154 51
128 155 51
128 155 51
128 156 50
128 157 50
128 157 50
128 158 49
128 159 49
128 159 49
128 160 48
128 161 48
128 161 48
128 162 47
128 162 47
128 163 47
128 164 46
128 164 46
128 165 46
128 166 45
128 166 45
128 167 45
128 168 44
128 168 44
128 169 44
128 170 43
129 170 43
129 171 43
129 171 43
129 172 42
129 173 42
129 173 42
129 174 41
129 175 41
129 175 41
129 176 40
129 177 40
129 177 40
129 178 39
129 178 39
129 179 39
129 180 38
129 180 38
129 181 38
129 182 37
129 182 37
129 183 37
129 184 36
129 184 36
129 185 36
129 185 35
129 186 35
129 187 35
129 187 34
129 188 34
129 189 34
129 189 33
129 190 33
129 191 33
129 191 32
129 192 32
129 193 32
129 193 31
129 194 31
129 194 31
129 195 30
129 196 30
129 196 30
129 197 29
129 198 29
130 198 29
130 199 28
130 200 28
130 200 28
130 201 27
130 201 27
130 202 27
130 203 26
130 203 26
130 204 26
130 205 25
130 205 25
130 206 25
130 207 24
130 207 24
130 208 24
130 208 23
130 209 23
130 210 23
130 210 22
130 211 22
130 212 22
130 212 21
130 213 21
130 214 21
130 214 20
130 215 20
130 216 20
130 216 19
130 217 19
130 217 19
130 218 18
130 219 18
130 219 18
130 220 17
130 221 17
130 221 17
130 222 16
130 223 16
130 223 16
130 224 15
130 224 15
130 225 15
130 226 14
130 226 14
131 227 14
131 228 13
131 228 13
131 229 13
131 230 12
131 230 12
131 231 12
131 231 11
131 232 11
131 233 11
131 233 10
131 234 10
131 235 10
131 235 9
131 236 9
131 237 9
131 237 8
131 238 8
131 239 8
131 239 7
131 240 7
131 240 7
131 241 6
131 242 6
131 242 6
131 243 5
131 244 5
131 244 5
131 245 4
131 246 4
131 246 4
131 247 3
131 247 3
131 248 3
131 249 2
131 249 2
131 250 2
131 251 1
131 251 1
131 252 1
131 253 0
131 253 0
131 254 0
131 255 0
124 0 130
124 0 130
124 1 130
124 1 129
124 2 129
124 3 129
124 3 128
124 4 128
124 5 128
124 5 127
124 6 127
124 7 127
124 7 126
124 8 126
124 8 126
124 9 125
124 10 125
124 10 125
124 11 124
124 12 124
124 12 124
124 13 123
124 14 123
124 14 123
124 15 122
124 15 122
124 16 122
124 17 121
124 17 121
124 18 121
124 19 120
124 19 120
124 20 120
124 21 119
124 21 119
124 22 119
124 23 118
124 23 118
124 24 118
124 24 117
124 25 117
124 26 117
124 26 116
124 27 116
125 28 116
125 28 115
125 29 115
125 30 115
125 30 114
125 31 114
125 31 114
125 32 113
125 33 113
125 33 113
125 34 113
125 35 112
125 35 112
125 36 112
125 37 111
125 37 111
125 38 111
125 38 110
125 39 110
125 40 110
125 40 109
125 41 109
125 42 109
125 42 108
125 43 108
125 44 108
125 44 107
125 45 107
125 46 107
125 46 106
125 47 106
125 47 106
125 48 105
125 49 105
125 49 105
125 50 104
125 51 104
125 51 104
125 52 103
125 53 103
125 53 103
125 54 102
125 54 102
125 55 102
125 56 101
125 56 101
125 57 101
125 58 100
125 58 100
125 59 100
125 60 99
125 60 99
125 61 99
125 61 98
125 62 98
125 63 98
125 63 97
125 64 97
125 65 97
125 65 96
125 66 96
125 67 96
125 67 95
126 68 95
126 69 95
126 69 94
126 70 94
126 70 94
126 71 94
126 72 93
126 72 93
126 73 93
126 74 92
126 74 92
126 75 92
126 76 91
126 76 91
126 77 91
126 77 90
126 78 90
126 79 90
126 79 89
126 80 89
126 81 89
126 81 88
126 82 88
126 83 88
126 83 87
126 84 87
126 85 87
126 85 86
126 86 86
126 86 86
126 87 85
126 88 85
126 88 85
126 89 84
126 90 84
126 90 84
126 91 83
126 92 83
126 92 83
126 93 82
126 93 82
126 94 82
126 95 81
126 95 81
126 96 81
126 97 80
126 97 80
126 98 80
126 99 79
126 99 79
126 100 79
126 100 78
126 101 78
126 102 78
126 102 77
126 103 77
126 104 77
126 104 76
126 105 76
126 106 76
126 106 75
126 107 75
127 108 75
127 108 75
127 109 74
127 109 74
127 110 74
127 111 73
127 111 73
127 112 73
127 113 72
127 113 72
127 114 72
127 115 71
127 115 71
127 116 71
127 116 70
127 117 70
127 118 70
127 118 69
127 119 69
127 120 69
127 120 68
127 121 68
127 122 68
127 122 67
127 123 67
127 123 67
127 124 66
127 125 66
127 125 66
127 126 65
127 127 65
127 127 65
127 128 64
127 129 64
127 129 64
127 130 63
127 131 63
127 131 63
127 132 62
127 132 62
127 133 62
127 134 61
127 134 61
127 135 61
127 136 60
127 136 60
127 137 60
127 138 59
127 138 59
127 139 59
127 139 58
127 140 58
127 141 58
127 141 57
127 142 57
127 143 57
127 143 56
127 144 56
127 145 56
127 145 56
127 146 55
127 146 55
128 147 55
128 148 54
128 148 54
128 149 54
128 150 53
128 150 53
128 151 53
128 152 52
128 152 52
128 153 52
128 154 51
128 154 51
128 155 51
128 155 50
128 156 50
128 157 50
128 157 49
128 158 49
128 159 49
128 159 48
128 160 48
128 161 48
128 161 47
128 162 47
128 162 47
128 163 46
128 164 46
128 164 46
128 165 45
128 166 45
128 166 45
128 167 44
128 168 44
128 168 44
128 169 43
128 170 43
128 170 43
128 171 42
128 171 42
128 172 42
128 173 41
128 173 41
128 174 41
128 175 40
128 175 40
128 176 40
128 177 39
128 177 39
128 178 39
128 178 38
128 179 38
128 180 38
128 180 37
128 181 37
128 182 37
128 182 37
128 183 36
128 184 36
128 184 36
128 185 35
128 185 35
128 186 35
129 187 34
129 187 34
129 188 34
129 189 33
129 189 33
129 190 33
129 191 32
129 191 32
129 192 32
129 193 31
129 193 31
129 194 31
129 194 30
129 195 30
129 196 30
129 196 29
129 197 29
129 198 29
129 198 28
129 199 28
129 200 28
129 200 27
129 201 27
129 201 27
129 202 26
129 203 26
129 203 26
129 204 25
129 205 25
129 205 25
129 206 24
129 207 24
129 207 24
129 208 23
129 208 23
129 209 23
129 210 22
129 210 22
129 211 22
129 212 21
129 212 21
129 213 21
129 214 20
129 214 20
129 215 20
129 216 19
129 216 19
129 217 19
129 217 18
129 218 18
129 219 18
129 219 18
129 220 17
129 221 17
129 221 17
129 222 16
129 223 16
129 223 16
129 224 15
129 224 15
129 225 15
129 226 14
129 226 14
130 227 14
130 228 13
130 228 13
130 229 13
130 230 12
130 230 12
130 231 12
130 231 11
130 232 11
130 233 11
130 233 10
130 234 10
130 235 10
130 235 9
130 236 9
130 237 9
130 237 8
130 238 8
130 239 8
130 239 7
130 240 7
130 240 7
130 241 6
130 242 6
130 242 6
130 243 5
130 244 5
130 244 5
130 245 4
130 246 4
130 246 4
130 247 3
130 247 3
130 248 3
130 249 2
130 249 2
130 250 2
130 251 1
130 251 1
130 252 1
130 253 0
130 253 0
130 254 0
130 255 0
125 0 129
125 0 129
125 1 128
125 1 128
125 2 128
125 3 127
125 3 127
125 4 127
125 5 126
125 5 126
125 6 126
125 7 125
125 7 125
125 8 125
125 8 124
125 9 124
125 10 124
125 10 123
125 11 123
125 12 123
125 12 122
125 13 122
125 14 122
125 14 121
125 15 121
125 15 121
125 16 120
125 17 120
125 17 120
125 18 120
125 19 119
125 19 119
125 20 119
125 21 118
125 21 118
125 22 118
125 23 117
125 23 117
125 24 117
125 24 116
125 25 116
125 26 116
125 26 115
125 27 115
126 28 115
126 28 114
126 29 114
126 30 114
126 30 113
126 31 113
126 31 113
126 32 112
126 33 112
126 33 112
126 34 111
126 35 111
126 35 111
126 36 110
126 37 110
126 37 110
126 38 109
126 38 109
126 39 109
126 40 108
126 40 108
126 41 108
126 42 108
126 42 107
126 43 107
126 44 107
126 44 106
126 45 106
126 46 106
126 46 105
126 47 105
126 47 105
126 48 104
126 49 104
126 49 104
126 50 103
126 51 103
126 51 103
126 52 102
126 53 102
126 53 102
126 54 101
126 54 101
126 55 101
126 56 100
126 56 100
126 57 100
126 58 99
126 58 99
126 59 99
126 60 98
126 60 98
126 61 98
126 61 97
126 62 97
126 63 97
126 63 96
126 64 96
126 65 96
126 65 96
126 66 95
126 67 95
126 67 95
126 68 94
126 69 94
126 69 94
126 70 93
126 70 93
126 71 93
126 72 92
126 72 92
126 73 92
126 74 91
126 74 91
126 75 91
126 76 90
126 76 90
126 77 90
126 77 89
126 78 89
126 79 89
126 79 88
126 80 88
126 81 88
126 81 87
126 82 87
126 83 87
126 83 86
126 84 86
126 85 86
126 85 85
126 86 85
126 86 85
126 87 84
126 88 84
126 88 84
126 89 84
126 90 83
126 90 83
126 91 83
126 92 82
126 92 82
126 93 82
126 93 81
127 94 81
127 95 81
127 95 80
127 96 80
127 97 80
127 97 79
127 98 79
127 99 79
127 99 78
127 100 78
127 100 78
127 101 77
127 102 77
127 102 77
127 103 76
127 104 76
127 104 76
127 105 75
127 106 75
127 106 75
127 107 74
127 108 74
127 108 74
127 109 73
127 109 73
127 110 73
127 111 72
127 111 72
127 112 72
127 113 72
127 113 71
127 114 71
127 115 71
127 115 70
127 116 70
127 116 70
127 117 69
127 118 69
127 118 69
127 119 68
127 120 68
127 120 68
127 121 67
127 122 67
127 122 67
127 123 66
127 123 66
127 124 66
127 125 65
127 125 65
127 126 65
127 127 64
127 127 64
127 128 64
127 129 63
127 129 63
127 130 63
127 131 62
127 131 62
127 132 62
127 132 61
127 133 61
127 134 61
127 134 60
127 135 60
127 136 60
127 136 60
127 137 59
127 138 59
127 138 59
127 139 58
127 139 58
127 140 58
127 141 57
127 141 57
127 142 57
127 143 56
127 143 56
127 144 56
127 145 55
127 145 55
127 146 55
127 146 54
127 147 54
127 148 54
127 148 53
127 149 53
127 150 53
127 150 52
127 151 52
127 152 52
127 152 51
127 153 51
127 154 51
127 154 50
127 155 50
127 155 50
127 156 49
127 157 49
127 157 49
127 158 48
127 159 48
127 159 48
127 160 48
128 161 47
128 161 47
128 162 47
128 162 46
128 163 46
128 164 46
128 164 45
128 165 45
128 166 45
128 166 44
128 167 44
128 168 44
128 168 43
128 169 43
128 170 43
128 170 42
128 171 42
128 171 42
128 172 41
128 173 41
128 173 41
128 174 40
128 175 40
128 175 40
128 176 39
128 177 39
128 177 39
128 178 38
128 178 38
128 179 38
128 180 37
128 180 37
128 181 37
128 182 36
128 182 36
128 183 36
128 184 36
128 184 35
128 185 35
128 185 35
128 186 34
128 187 34
128 187 34
128 188 33
128 189 33
128 189 33
128 190 32
128 191 32
128 191 32
128 192 31
128 193 31
128 193 31
128 194 30
128 194 30
128 195 30
128 196 29
128 196 29
128 197 29
128 198 28
128 198 28
128 199 28
128 200 27
128 200 27
128 201 27
128 201 26
128 202 26
128 203 26
128 203 25
128 204 25
128 205 25
128 205 24
128 206 24
128 207 24
128 207 24
128 208 23
128 208 23
128 209 23
128 210 22
128 210 22
128 211 22
128 212 21
128 212 21
128 213 21
128 214 20
128 214 20
128 215 20
128 216 19
128 216 19
128 217 19
128 217 18
128 218 18
128 219 18
128 219 17
128 220 17
128 221 17
128 221 16
128 222 16
128 223 16
128 223 15
128 224 15
128 224 15
128 225 14
128 226 14
128 226 14
129 227 13
129 228 13
129 228 13
129 229 12
129 230 12
129 230 12
129 231 12
129 231 11
129 232 11
129 233 11
129 233 10
129 234 10
129 235 10
129 235 9
129 236 9
129 237 9
129 237 8
129 238 8
129 239 8
129 239 7
129 240 7
129 240 7
129 241 6
129 242 6
129 242 6
129 243 5
129 244 5
129 244 5
129 245 4
129 246 4
129 246 4
129 247 3
129 247 3
129 248 3
129 249 2
129 249 2
129 250 2
129 251 1
129 251 1
129 252 1
129 253 0
129 253 0
129 254 0
129 255 0
126 0 128
126 0 127
126 1 127
126 1 127
126 2 126
126 3 126
126 3 126
126 4 125
126 5 125
126 5 125
126 6 124
126 7 124
126 7 124
126 8 123
126 8 123
126 9 123
126 10 123
126 10 122
126 11 122
126 12 122
126 12 121
126 13 121
126 14 121
126 14 120
126 15 120
126 15 120
126 16 119
126 17 119
126 17 119
126 18 118
126 19 118
126 19 118
126 20 117
126 21 117
126 21 117
126 22 116
126 23 116
126 23 116
126 24 115
126 24 115
126 25 115
126 26 114
126 26 114
126 27 114
127 28 114
127 28 113
127 29 113
127 30 113
127 30 112
127 31 112
127 31 112
127 32 111
127 33 111
127 33 111
127 34 110
127 35 110
127 35 110
127 36 109
127 37 109
127 37 109
127 38 108
127 38 108
127 39 108
127 40 107
127 40 107
127 41 107
127 42 106
127 42 106
127 43 106
127 44 105
127 44 105
127 45 105
127 46 105
127 46 104
127 47 104
127 47 104
127 48 103
127 49 103
127 49 103
127 50 102
127 51 102
127 51 102
127 52 101
127 53 101
127 53 101
127 54 100
127 54 100
127 55 100
127 56 99
127 56 99
127 57 99
127 58 98
127 58 98
127 59 98
127 60 97
127 60 97
127 61 97
127 61 96
127 62 96
127 63 96
127 63 96
127 64 95
127 65 95
127 65 95
127 66 94
127 67 94
127 67 94
127 68 93
127 69 93
127 69 93
127 70 92
127 70 92
127 71 92
127 72 91
127 72 91
127 73 91
127 74 90
127 74 90
127 75 90
127 76 89
127 76 89
127 77 89
127 77 88
127 78 88
127 79 88
127 79 87
127 80 87
127 81 87
127 81 87
127 82 86
127 83 86
127 83 86
127 84 85
127 85 85
127 85 85
127 86 84
127 86 84
127 87 84
127 88 83
127 88 83
127 89 83
127 90 82
127 90 82
127 91 82
127 92 81
127 92 81
127 93 81
127 93 80
127 94 80
127 95 80
127 95 79
127 96 79
127 97 79
127 97 79
127 98 78
127 99 78
127 99 78
127 100 77
127 100 77
127 101 77
127 102 76
127 102 76
127 103 76
127 104 75
127 104 75
127 105 75
127 106 74
127 106 74
127 107 74
127 108 73
127 108 73
127 109 73
127 109 72
127 110 72
127 111 72
127 111 71
127 112 71
127 113 71
127 113 70
127 114 70
127 115 70
127 115 70
127 116 69
127 116 69
127 117 69
127 118 68
127 118 68
127 119 68
127 120 67
127 120 67
127 121 67
127 122 66
127 122 66
127 123 66
127 123 65
127 124 65
127 125 65
127 125 64
127 126 64
127 127 64
127 127 63
127 128 63
127 129 63
127 129 62
127 130 62
127 131 62
127 131 61
127 132 61
127 132 61
127 133 61
127 134 60
127 134 60
127 135 60
127 136 59
127 136 59
127 137 59
127 138 58
127 138 58
127 139 58
127 139 57
127 140 57
127 141 57
127 141 56
127 142 56
127 143 56
127 143 55
127 144 55
127 145 55
127 145 54
127 146 54
127 146 54
127 147 53
127 148 53
127 148 53
127 149 52
127 150 52
127 150 52
127 151 52
127 152 51
127 152 51
127 153 51
127 154 50
127 154 50
127 155 50
127 155 49
127 156 49
127 157 49
127 157 48
127 158 48
127 159 48
127 159 47
127 160 47
127 161 47
127 161 46
127 162 46
127 162 46
127 163 45
127 164 45
127 164 45
127 165 44
127 166 44
127 166 44
127 167 43
127 168 43
127 168 43
127 169 43
127 170 42
127 170 42
127 171 42
127 171 41
127 172 41
127 173 41
127 173 40
127 174 40
127 175 40
127 175 39
127 176 39
127 177 39
127 177 38
127 178 38
127 178 38
127 179 37
127 180 37
127 180 37
127 181 36
127 182 36
127 182 36
127 183 35
127 184 35
127 184 35
127 185 35
127 185 34
127 186 34
127 187 34
127 187 33
127 188 33
127 189 33
127 189 32
127 190 32
127 191 32
127 191 31
127 192 31
127 193 31
127 193 30
127 194 30
127 194 30
127 195 29
127 196 29
127 196 29
127 197 28
127 198 28
127 198 28
127 199 27
127 200 27
127 200 27
127 201 26
127 201 26
127 202 26
127 203 26
127 203 25
127 204 25
127 205 25
127 205 24
127 206 24
127 207 24
127 207 23
127 208 23
127 208 23
127 209 22
127 210 22
127 210 22
127 211 21
127 212 21
127 212 21
127 213 20
127 214 20
127 214 20
127 215 19
127 216 19
127 216 19
127 217 18
127 217 18
127 218 18
127 219 17
127 219 17
127 220 17
127 221 17
127 221 16
127 222 16
127 223 16
127 223 15
127 224 15
127 224 15
127 225 14
127 226 14
127 226 14
128 227 13
128 228 13
128 228 13
128 229 12
128 230 12
128 230 12
128 231 11
128 231 11
128 232 11
128 233 10
128 233 10
128 234 10
128 235 9
128 235 9
128 236 9
128 237 8
128 237 8
128 238 8
128 239 8
128 239 7
128 240 7
128 240 7
128 241 6
128 242 6
128 242 6
128 243 5
128 244 5
128 244 5
128 245 4
128 246 4
128 246 4
128 247 3
128 247 3
128 248 3
128 249 2
128 249 2
128 250 2
128 251 1
128 251 1
128 252 1
128 253 0
128 253 0
128 254 0
128 255 0
128 0 126
128 0 126
128 1 126
128 1 125
128 2 125
128 3 125
128 3 124
128 4 124
128 5 124
128 5 123
128 6 123
128 7 123
128 7 123
128 8 122
128 8 122
128 9 122
128 10 121
128 10 121
128 11 121
128 12 120
128 12 120
128 13 120
128 14 119
128 14 119
128 15 119
128 15 118
128 16 118
128 17 118
128 17 117
128 18 117
128 19 117
128 19 117
128 20 116
128 21 116
128 21 116
128 22 115
128 23 115
128 23 115
128 24 114
128 24 114
128 25 114
128 26 113
128 26 113
128 27 113
127 28 112
127 28 112
127 29 112
127 30 111
127 30 111
127 31 111
127 31 110
127 32 110
127 33 110
127 33 110
127 34 109
127 35 109
127 35 109
127 36 108
127 37 108
127 37 108
127 38 107
127 38 107
127 39 107
127 40 106
127 40 106
127 41 106
127 42 105
127 42 105
127 43 105
127 44 104
127 44 104
127 45 104
127 46 103
127 46 103
127 47 103
127 47 103
127 48 102
127 49 102
127 49 102
127 50 101
127 51 101
127 51 101
127 52 100
127 53 100
127 53 100
127 54 99
127 54 99
127 55 99
127 56 98
127 56 98
127 57 98
127 58 97
127 58 97
127 59 97
127 60 96
127 60 96
127 61 96
127 61 96
127 62 95
127 63 95
127 63 95
127 64 94
127 65 94
127 65 94
127 66 93
127 67 93
127 67 93
127 68 92
127 69 92
127 69 92
127 70 91
127 70 91
127 71 91
127 72 90
127 72 90
127 73 90
127 74 89
127 74 89
127 75 89
127 76 89
127 76 88
127 77 88
127 77 88
127 78 87
127 79 87
127 79 87
127 80 86
127 81 86
127 81 86
127 82 85
127 83 85
127 83 85
127 84 84
127 85 84
127 85 84
127 86 83
127 86 83
127 87 83
127 88 82
127 88 82
127 89 82
127 90 82
127 90 81
127 91 81
127 92 81
127 92 80
127 93 80
127 93 80
127 94 79
127 95 79
127 95 79
127 96 78
127 97 78
127 97 78
127 98 77
127 99 77
127 99 77
127 100 76
127 100 76
127 101 76
127 102 75
127 102 75
127 103 75
127 104 75
127 104 74
127 105 74
127 106 74
127 106 73
127 107 73
127 108 73
127 108 72
127 109 72
127 109 72
127 110 71
127 111 71
127 111 71
127 112 70
127 113 70
127 113 70
127 114 69
127 115 69
127 115 69
127 116 68
127 116 68
127 117 68
127 118 68
127 118 67
127 119 67
127 120 67
127 120 66
127 121 66
127 122 66
127 122 65
127 123 65
127 123 65
127 124 64
127 125 64
127 125 64
127 126 63
127 127 63
127 127 63
127 128 62
127 129 62
127 129 62
127 130 61
127 131 61
127 131 61
127 132 61
127 132 60
127 133 60
127 134 60
127 134 59
127 135 59
127 136 59
127 136 58
127 137 58
127 138 58
127 138 57
127 139 57
127 139 57
127 140 56
127 141 56
127 141 56
127 142 55
127 143 55
127 143 55
127 144 55
127 145 54
127 145 54
127 146 54
127 146 53
127 147 53
127 148 53
127 148 52
127 149 52
127 150 52
127 150 51
127 151 51
127 152 51
127 152 50
127 153 50
127 154 50
127 154 49
127 155 49
127 155 49
127 156 48
127 157 48
127 157 48
127 158 48
127 159 47
127 159 47
127 160 47
127 161 46
127 161 46
127 162 46
127 162 45
127 163 45
127 164 45
127 164 44
127 165 44
127 166 44
127 166 43
127 167 43
127 168 43
127 168 42
127 169 42
127 170 42
127 170 41
127 171 41
127 171 41
127 172 41
127 173 40
127 173 40
127 174 40
127 175 39
127 175 39
127 176 39
127 177 38
127 177 38
127 178 38
127 178 37
127 179 37
127 180 37
127 180 36
127 181 36
127 182 36
127 182 35
127 183 35
127 184 35
127 184 34
127 185 34
127 185 34
127 186 34
127 187 33
127 187 33
127 188 33
127 189 32
127 189 32
127 190 32
127 191 31
127 191 31
127 192 31
127 193 30
127 193 30
127 194 30
127 194 29
127 195 29
127 196 29
127 196 28
127 197 28
127 198 28
127 198 27
127 199 27
127 200 27
127 200 27
127 201 26
127 201 26
127 202 26
127 203 25
127 203 25
127 204 25
127 205 24
127 205 24
127 206 24
127 207 23
127 207 23
127 208 23
127 208 22
127 209 22
127 210 22
127 210 21
127 211 21
127 212 21
127 212 20
127 213 20
127 214 20
127 214 20
127 215 19
127 216 19
127 216 19
127 217 18
127 217 18
127 218 18
127 219 17
127 219 17
127 220 17
127 221 16
127 221 16
127 222 16
127 223 15
127 223 15
127 224 15
127 224 14
127 225 14
127 226 14
127 226 13
126 227 13
126 228 13
126 228 13
126 229 12
126 230 12
126 230 12
126 231 11
126 231 11
126 232 11
126 233 10
126 233 10
126 234 10
126 235 9
126 235 9
126 236 9
126 237 8
126 237 8
126 238 8
126 239 7
126 239 7
126 240 7
126 240 6
126 241 6
126 242 6
126 242 6
126 243 5
126 244 5
126 244 5
126 245 4
126 246 4
126 246 4
126 247 3
126 247 3
126 248 3
126 249 2
126 249 2
126 250 2
126 251 1
126 251 1
126 252 1
126 253 0
126 253 0
126 254 0
126 255 0
129 0 125
129 0 125
129 1 124
129 1 124
129 2 124
129 3 124
129 3 123
129 4 123
129 5 123
129 5 122
129 6 122
129 7 122
129 7 121
129 8 121
129 8 121
129 9 120
129 10 120
129 10 120
129 11 119
129 12 119
129 12 119
129 13 118
129 14 118
129 14 118
129 15 118
129 15 117
129 16 117
129 17 117
129 17 116
129 18 116
129 19 116
129 19 115
129 20 115
129 21 115
129 21 114
129 22 114
129 23 114
129 23 113
129 24 113
129 24 113
129 25 112
129 26 112
129 26 112
129 27 112
128 28 111
128 28 111
128 29 111
128 30 110
128 30 110
128 31 110
128 31 109
128 32 109
128 33 109
128 33 108
128 34 108
128 35 108
128 35 107
128 36 107
128 37 107
128 37 107
128 38 106
128 38 106
128 39 106
128 40 105
128 40 105
128 41 105
128 42 104
128 42 104
128 43 104
128 44 103
128 44 103
128 45 103
128 46 102
128 46 102
128 47 102
128 47 101
128 48 101
128 49 101
128 49 101
128 50 100
128 51 100
128 51 100
128 52 99
128 53 99
128 53 99
128 54 98
128 54 98
128 55 98
128 56 97
128 56 97
128 57 97
128 58 96
128 58 96
128 59 96
128 60 95
128 60 95
128 61 95
128 61 95
128 62 94
128 63 94
128 63 94
128 64 93
128 65 93
128 65 93
128 66 92
128 67 92
128 67 92
128 68 91
128 69 91
128 69 91
128 70 90
128 70 90
128 71 90
128 72 90
128 72 89
128 73 89
128 74 89
128 74 88
128 75 88
128 76 88
128 76 87
128 77 87
128 77 87
128 78 86
128 79 86
128 79 86
128 80 85
128 81 85
128 81 85
128 82 84
128 83 84
128 83 84
128 84 84
128 85 83
128 85 83
128 86 83
128 86 82
128 87 82
128 88 82
128 88 81
128 89 81
128 90 81
128 90 80
128 91 80
128 92 80
128 92 79
128 93 79
128 93 79
127 94 78
127 95 78
127 95 78
127 96 78
127 97 77
127 97 77
127 98 77
127 99 76
127 99 76
127 100 76
127 100 75
127 101 75
127 102 75
127 102 74
127 103 74
127 104 74
127 104 73
127 105 73
127 106 73
127 106 73
127 107 72
127 108 72
127 108 72
127 109 71
127 109 71
127 110 71
127 111 70
127 111 70
127 112 70
127 113 69
127 113 69
127 114 69
127 115 68
127 115 68
127 116 68
127 116 67
127 117 67
127 118 67
127 118 67
127 119 66
127 120 66
127 120 66
127 121 65
127 122 65
127 122 65
127 123 64
127 123 64
127 124 64
127 125 63
127 125 63
127 126 63
127 127 62
127 127 62
127 128 62
127 129 62
127 129 61
127 130 61
127 131 61
127 131 60
127 132 60
127 132 60
127 133 59
127 134 59
127 134 59
127 135 58
127 136 58
127 136 58
127 137 57
127 138 57
127 138 57
127 139 56
127 139 56
127 140 56
127 141 56
127 141 55
127 142 55
127 143 55
127 143 54
127 144 54
127 145 54
127 145 53
127 146 53
127 146 53
127 147 52
127 148 52
127 148 52
127 149 51
127 150 51
127 150 51
127 151 50
127 152 50
127 152 50
127 153 50
127 154 49
127 154 49
127 155 49
127 155 48
127 156 48
127 157 48
127 157 47
127 158 47
127 159 47
127 159 46
127 160 46
126 161 46
126 161 45
126 162 45
126 162 45
126 163 45
126 164 44
126 164 44
126 165 44
126 166 43
126 166 43
126 167 43
126 168 42
126 168 42
126 169 42
126 170 41
126 170 41
126 171 41
126 171 40
126 172 40
126 173 40
126 173 39
126 174 39
126 175 39
126 175 39
126 176 38
126 177 38
126 177 38
126 178 37
126 178 37
126 179 37
126 180 36
126 180 36
126 181 36
126 182 35
126 182 35
126 183 35
126 184 34
126 184 34
126 185 34
126 185 33
126 186 33
126 187 33
126 187 33
126 188 32
126 189 32
126 189 32
126 190 31
126 191 31
126 191 31
126 192 30
126 193 30
126 193 30
126 194 29
126 194 29
126 195 29
126 196 28
126 196 28
126 197 28
126 198 28
126 198 27
126 199 27
126 200 27
126 200 26
126 201 26
126 201 26
126 202 25
126 203 25
126 203 25
126 204 24
126 205 24
126 205 24
126 206 23
126 207 23
126 207 23
126 208 22
126 208 22
126 209 22
126 210 22
126 210 21
126 211 21
126 212 21
126 212 20
126 213 20
126 214 20
126 214 19
126 215 19
126 216 19
126 216 18
126 217 18
126 217 18
126 218 17
126 219 17
126 219 17
126 220 16
126 221 16
126 221 16
126 222 16
126 223 15
126 223 15
126 224 15
126 224 14
126 225 14
126 226 14
126 226 13
125 227 13
125 228 13
125 228 12
125 229 12
125 230 12
125 230 11
125 231 11
125 231 11
125 232 11
125 233 10
125 233 10
125 234 10
125 235 9
125 235 9
125 236 9
125 237 8
125 237 8
125 238 8
125 239 7
125 239 7
125 240 7
125 240 6
125 241 6
125 242 6
125 242 5
125 243 5
125 244 5
125 244 5
125 245 4
125 246 4
125 246 4
125 247 3
125 247 3
125 248 3
125 249 2
125 249 2
125 250 2
125 251 1
125 251 1
125 252 1
125 253 0
125 253 0
125 254 0
125 255 0
130 0 124
130 0 123
130 1 123
130 1 123
130 2 123
130 3 122
130 3 122
130 4 122
130 5 121
130 5 121
130 6 121
130 7 120
130 7 120
130 8 120
130 8 119
130 9 119
130 10 119
130 10 119
130 11 118
130 12 118
130 12 118
130 13 117
130 14 117
130 14 117
130 15 116
130 15 116
130 16 116
130 17 115
130 17 115
130 18 115
130 19 114
130 19 114
130 20 114
130 21 114
130 21 113
130 22 113
130 23 113
130 23 112
130 24 112
130 24 112
130 25 111
130 26 111
130 26 111
130 27 110
129 28 110
129 28 110
129 29 109
129 30 109
129 30 109
129 31 109
129 31 108
129 32 108
129 33 108
129 33 107
129 34 107
129 35 107
129 35 106
129 36 106
129 37 106
129 37 105
129 38 105
129 38 105
129 39 104
129 40 104
129 40 104
129 41 104
129 42 103
129 42 103
129 43 103
129 44 102
129 44 102
129 45 102
129 46 101
129 46 101
129 47 101
129 47 100
129 48 100
129 49 100
129 49 99
129 50 99
129 51 99
129 51 99
129 52 98
129 53 98
129 53 98
129 54 97
129 54 97
129 55 97
129 56 96
129 56 96
129 57 96
129 58 95
129 58 95
129 59 95
129 60 95
129 60 94
129 61 94
129 61 94
129 62 93
129 63 93
129 63 93
129 64 92
129 65 92
129 65 92
129 66 91
129 67 91
129 67 91
128 68 90
128 69 90
128 69 90
128 70 90
128 70 89
128 71 89
128 72 89
128 72 88
128 73 88
128 74 88
128 74 87
128 75 87
128 76 87
128 76 86
128 77 86
128 77 86
128 78 85
128 79 85
128 79 85
128 80 85
128 81 84
128 81 84
128 82 84
128 83 83
128 83 83
128 84 83
128 85 82
128 85 82
128 86 82
128 86 81
128 87 81
128 88 81
128 88 80
128 89 80
128 90 80
128 90 80
128 91 79
128 92 79
128 92 79
128 93 78
128 93 78
128 94 78
128 95 77
128 95 77
128 96 77
128 97 76
128 97 76
128 98 76
128 99 76
128 99 75
128 100 75
128 100 75
128 101 74
128 102 74
128 102 74
128 103 73
128 104 73
128 104 73
128 105 72
128 106 72
128 106 72
128 107 71
127 108 71
127 108 71
127 109 71
127 109 70
127 110 70
127 111 70
127 111 69
127 112 69
127 113 69
127 113 68
127 114 68
127 115 68
127 115 67
127 116 67
127 116 67
127 117 66
127 118 66
127 118 66
127 119 66
127 120 65
127 120 65
127 121 65
127 122 64
127 122 64
127 123 64
127 123 63
127 124 63
127 125 63
127 125 62
127 126 62
127 127 62
127 127 61
127 128 61
127 129 61
127 129 61
127 130 60
127 131 60
127 131 60
127 132 59
127 132 59
127 133 59
127 134 58
127 134 58
127 135 58
127 136 57
127 136 57
127 137 57
127 138 57
127 138 56
127 139 56
127 139 56
127 140 55
127 141 55
127 141 55
127 142 54
127 143 54
127 143 54
127 144 53
127 145 53
127 145 53
127 146 52
127 146 52
126 147 52
126 148 52
126 148 51
126 149 51
126 150 51
126 150 50
126 151 50
126 152 50
126 152 49
126 153 49
126 154 49
126 154 48
126 155 48
126 155 48
126 156 47
126 157 47
126 157 47
126 158 47
126 159 46
126 159 46
126 160 46
126 161 45
126 161 45
126 162 45
126 162 44
126 163 44
126 164 44
126 164 43
126 165 43
126 166 43
126 166 42
126 167 42
126 168 42
126 168 42
126 169 41
126 170 41
126 170 41
126 171 40
126 171 40
126 172 40
126 173 39
126 173 39
126 174 39
126 175 38
126 175 38
126 176 38
126 177 38
126 177 37
126 178 37
126 178 37
126 179 36
126 180 36
126 180 36
126 181 35
126 182 35
126 182 35
126 183 34
126 184 34
126 184 34
126 185 33
126 185 33
126 186 33
125 187 33
125 187 32
125 188 32
125 189 32
125 189 31
125 190 31
125 191 31
125 191 30
125 192 30
125 193 30
125 193 29
125 194 29
125 194 29
125 195 28
125 196 28
125 196 28
125 197 28
125 198 27
125 198 27
125 199 27
125 200 26
125 200 26
125 201 26
125 201 25
125 202 25
125 203 25
125 203 24
125 204 24
125 205 24
125 205 23
125 206 23
125 207 23
125 207 23
125 208 22
125 208 22
125 209 22
125 210 21
125 210 21
125 211 21
125 212 20
125 212 20
125 213 20
125 214 19
125 214 19
125 215 19
125 216 19
125 216 18
125 217 18
125 217 18
125 218 17
125 219 17
125 219 17
125 220 16
125 221 16
125 221 16
125 222 15
125 223 15
125 223 15
125 224 14
125 224 14
125 225 14
125 226 14
125 226 13
124 227 13
124 228 13
124 228 12
124 229 12
124 230 12
124 230 11
124 231 11
124 231 11
124 232 10
124 233 10
124 233 10
124 234 9
124 235 9
124 235 9
124 236 9
124 237 8
124 237 8
124 238 8
124 239 7
124 239 7
124 240 7
124 240 6
124 241 6
124 242 6
124 242 5
124 243 5
124 244 5
124 244 4
124 245 4
124 246 4
124 246 4
124 247 3
124 247 3
124 248 3
124 249 2
124 249 2
124 250 2
124 251 1
124 251 1
124 252 1
124 253 0
124 253 0
124 254 0
124 255 0
131 0 123
131 0 122
131 1 122
131 1 122
131 2 121
131 3 121
131 3 121
131 4 120
131 5 120
131 5 120
131 6 119
131 7 119
131 7 119
131 8 119
131 8 118
131 9 118
131 10 118
131 10 117
131 11 117
131 12 117
131 12 116
131 13 116
131 14 116
131 14 115
131 15 115
131 15 115
131 16 114
131 17 114
131 17 114
131 18 114
131 19 113
131 19 113
131 20 113
131 21 112
131 21 112
131 22 112
131 23 111
131 23 111
131 24 111
131 24 110
131 25 110
131 26 110
131 26 110
131 27 109
130 28 109
130 28 109
130 29 108
130 30 108
130 30 108
130 31 107
130 31 107
130 32 107
130 33 106
130 33 106
130 34 106
130 35 106
130 35 105
130 36 105
130 37 105
130 37 104
130 38 104
130 38 104
130 39 103
130 40 103
130 40 103
130 41 102
130 42 102
130 42 102
130 43 102
130 44 101
130 44 101
130 45 101
130 46 100
130 46 100
130 47 100
130 47 99
130 48 99
130 49 99
130 49 98
130 50 98
130 51 98
130 51 98
130 52 97
130 53 97
130 53 97
130 54 96
130 54 96
130 55 96
130 56 95
129 56 95
129 57 95
129 58 94
129 58 94
129 59 94
129 60 94
129 60 93
129 61 93
129 61 93
129 62 92
129 63 92
129 63 92
129 64 91
129 65 91
129 65 91
129 66 90
129 67 90
129 67 90
129 68 90
129 69 89
129 69 89
129 70 89
129 70 88
129 71 88
129 72 88
129 72 87
129 73 87
129 74 87
129 74 86
129 75 86
129 76 86
129 76 86
129 77 85
129 77 85
129 78 85
129 79 84
129 79 84
129 80 84
129 81 83
129 81 83
129 82 83
129 83 82
129 83 82
129 84 82
128 85 82
128 85 81
128 86 81
128 86 81
128 87 80
128 88 80
128 88 80
128 89 79
128 90 79
128 90 79
128 91 78
128 92 78
128 92 78
128 93 78
128 93 77
128 94 77
128 95 77
128 95 76
128 96 76
128 97 76
128 97 75
128 98 75
128 99 75
128 99 74
128 100 74
128 100 74
128 101 73
128 102 73
128 102 73
128 103 73
128 104 72
128 104 72
128 105 72
128 106 71
128 106 71
128 107 71
128 108 70
128 108 70
128 109 70
128 109 69
128 110 69
128 111 69
128 111 69
128 112 68
128 113 68
127 113 68
127 114 67
127 115 67
127 115 67
127 116 66
127 116 66
127 117 66
127 118 65
127 118 65
127 119 65
127 120 65
127 120 64
127 121 64
127 122 64
127 122 63
127 123 63
127 123 63
127 124 62
127 125 62
127 125 62
127 126 61
127 127 61
127 127 61
127 128 61
127 129 60
127 129 60
127 130 60
127 131 59
127 131 59
127 132 59
127 132 58
127 133 58
127 134 58
127 134 57
127 135 57
127 136 57
127 136 57
127 137 56
127 138 56
127 138 56
127 139 55
127 139 55
127 140 55
127 141 54
126 141 54
126 142 54
126 143 53
126 143 53
126 144 53
126 145 53
126 145 52
126 146 52
126 146 52
126 147 51
126 148 51
126 148 51
126 149 50
126 150 50
126 150 50
126 151 49
126 152 49
126 152 49
126 153 49
126 154 48
126 154 48
126 155 48
126 155 47
126 156 47
126 157 47
126 157 46
126 158 46
126 159 46
126 159 45
126 160 45
126 161 45
126 161 45
126 162 44
126 162 44
126 163 44
126 164 43
126 164 43
126 165 43
126 166 42
126 166 42
126 167 42
126 168 41
126 168 41
126 169 41
126 170 41
125 170 40
125 171 40
125 171 40
125 172 39
125 173 39
125 173 39
125 174 38
125 175 38
125 175 38
125 176 37
125 177 37
125 177 37
125 178 36
125 178 36
125 179 36
125 180 36
125 180 35
125 181 35
125 182 35
125 182 34
125 183 34
125 184 34
125 184 33
125 185 33
125 185 33
125 186 32
125 187 32
125 187 32
125 188 32
125 189 31
125 189 31
125 190 31
125 191 30
125 191 30
125 192 30
125 193 29
125 193 29
125 194 29
125 194 28
125 195 28
125 196 28
125 196 28
125 197 27
125 198 27
124 198 27
124 199 26
124 200 26
124 200 26
124 201 25
124 201 25
124 202 25
124 203 24
124 203 24
124 204 24
124 205 24
124 205 23
124 206 23
124 207 23
124 207 22
124 208 22
124 208 22
124 209 21
124 210 21
124 210 21
124 211 20
124 212 20
124 212 20
124 213 20
124 214 19
124 214 19
124 215 19
124 216 18
124 216 18
124 217 18
124 217 17
124 218 17
124 219 17
124 219 16
124 220 16
124 221 16
124 221 16
124 222 15
124 223 15
124 223 15
124 224 14
124 224 14
124 225 14
124 226 13
124 226 13
123 227 13
123 228 12
123 228 12
123 229 12
123 230 12
123 230 11
123 231 11
123 231 11
123 232 10
123 233 10
123 233 10
123 234 9
123 235 9
123 235 9
123 236 8
123 237 8
123 237 8
123 238 8
123 239 7
123 239 7
123 240 7
123 240 6
123 241 6
123 242 6
123 242 5
123 243 5
123 244 5
123 244 4
123 245 4
123 246 4
123 246 4
123 247 3
123 247 3
123 248 3
123 249 2
123 249 2
123 250 2
123 251 1
123 251 1
123 252 1
123 253 0
123 253 0
123 254 0
123 255 0
133 0 121
133 0 121
133 1 121
133 1 120
133 2 120
133 3 120
133 3 119
133 4 119
133 5 119
133 5 118
132 6 118
132 7 118
132 7 118
132 8 117
132 8 117
132 9 117
132 10 116
132 10 116
132 11 116
132 12 115
132 12 115
132 13 115
132 14 115
132 14 114
132 15 114
132 15 114
132 16 113
132 17 113
132 17 113
132 18 112
132 19 112
132 19 112
132 20 111
132 21 111
132 21 111
132 22 111
132 23 110
132 23 110
132 24 110
132 24 109
132 25 109
132 26 109
132 26 108
132 27 108
131 28 108
131 28 108
131 29 107
131 30 107
131 30 107
131 31 106
131 31 106
131 32 106
131 33 105
131 33 105
131 34 105
131 35 104
131 35 104
131 36 104
131 37 104
131 37 103
131 38 103
131 38 103
131 39 102
131 40 102
131 40 102
131 41 101
131 42 101
131 42 101
131 43 100
131 44 100
131 44 100
131 45 100
131 46 99
131 46 99
131 47 99
131 47 98
131 48 98
131 49 98
131 49 97
130 50 97
130 51 97
130 51 97
130 52 96
130 53 96
130 53 96
130 54 95
130 54 95
130 55 95
130 56 94
130 56 94
130 57 94
130 58 93
130 58 93
130 59 93
130 60 93
130 60 92
130 61 92
130 61 92
130 62 91
130 63 91
130 63 91
130 64 90
130 65 90
130 65 90
130 66 90
130 67 89
130 67 89
130 68 89
130 69 88
130 69 88
130 70 88
130 70 87
130 71 87
130 72 87
129 72 86
129 73 86
129 74 86
129 74 86
129 75 85
129 76 85
129 76 85
129 77 84
129 77 84
129 78 84
129 79 83
129 79 83
129 80 83
129 81 82
129 81 82
129 82 82
129 83 82
129 83 81
129 84 81
129 85 81
129 85 80
129 86 80
129 86 80
129 87 79
129 88 79
129 88 79
129 89 79
129 90 78
129 90 78
129 91 78
129 92 77
129 92 77
129 93 77
129 93 76
128 94 76
128 95 76
128 95 75
128 96 75
128 97 75
128 97 75
128 98 74
128 99 74
128 99 74
128 100 73
128 100 73
128 101 73
128 102 72
128 102 72
128 103 72
128 104 72
128 104 71
128 105 71
128 106 71
128 106 70
128 107 70
128 108 70
128 108 69
128 109 69
128 109 69
128 110 68
128 111 68
128 111 68
128 112 68
128 113 67
128 113 67
128 114 67
128 115 66
128 115 66
128 116 66
127 116 65
127 117 65
127 118 65
127 118 64
127 119 64
127 120 64
127 120 64
127 121 63
127 122 63
127 122 63
127 123 62
127 123 62
127 124 62
127 125 61
127 125 61
127 126 61
127 127 61
127 127 60
127 128 60
127 129 60
127 129 59
127 130 59
127 131 59
127 131 58
127 132 58
127 132 58
127 133 57
127 134 57
127 134 57
127 135 57
127 136 56
127 136 56
127 137 56
127 138 55
126 138 55
126 139 55
126 139 54
126 140 54
126 141 54
126 141 54
126 142 53
126 143 53
126 143 53
126 144 52
126 145 52
126 145 52
126 146 51
126 146 51
126 147 51
126 148 50
126 148 50
126 149 50
126 150 50
126 150 49
126 151 49
126 152 49
126 152 48
126 153 48
126 154 48
126 154 47
126 155 47
126 155 47
126 156 46
126 157 46
126 157 46
126 158 46
126 159 45
126 159 45
126 160 45
125 161 44
125 161 44
125 162 44
125 162 43
125 163 43
125 164 43
125 164 43
125 165 42
125 166 42
125 166 42
125 167 41
125 168 41
125 168 41
125 169 40
125 170 40
125 170 40
125 171 39
125 171 39
125 172 39
125 173 39
125 173 38
125 174 38
125 175 38
125 175 37
125 176 37
125 177 37
125 177 36
125 178 36
125 178 36
125 179 36
125 180 35
125 180 35
125 181 35
125 182 34
124 182 34
124 183 34
124 184 33
124 184 33
124 185 33
124 185 32
124 186 32
124 187 32
124 187 32
124 188 31
124 189 31
124 189 31
124 190 30
124 191 30
124 191 30
124 192 29
124 193 29
124 193 29
124 194 28
124 194 28
124 195 28
124 196 28
124 196 27
124 197 27
124 198 27
124 198 26
124 199 26
124 200 26
124 200 25
124 201 25
124 201 25
124 202 25
124 203 24
124 203 24
124 204 24
123 205 23
123 205 23
123 206 23
123 207 22
123 207 22
123 208 22
123 208 21
123 209 21
123 210 21
123 210 21
123 211 20
123 212 20
123 212 20
123 213 19
123 214 19
123 214 19
123 215 18
123 216 18
123 216 18
123 217 18
123 217 17
123 218 17
123 219 17
123 219 16
123 220 16
123 221 16
123 221 15
123 222 15
123 223 15
123 223 14
123 224 14
123 224 14
123 225 14
123 226 13
123 226 13
122 227 13
122 228 12
122 228 12
122 229 12
122 230 11
122 230 11
122 231 11
122 231 10
122 232 10
122 233 10
122 233 10
122 234 9
122 235 9
122 235 9
122 236 8
122 237 8
122 237 8
122 238 7
122 239 7
122 239 7
122 240 7
122 240 6
122 241 6
122 242 6
122 242 5
122 243 5
122 244 5
122 244 4
122 245 4
122 246 4
122 246 3
122 247 3
122 247 3
122 248 3
121 249 2
121 249 2
121 250 2
121 251 1
121 251 1
121 252 1
121 253 0
121 253 0
121 254 0
121 255 0
134 0 120
134 0 120
134 1 119
134 1 119
134 2 119
134 3 118
134 3 118
134 4 118
134 5 118
134 5 117
134 6 117
134 7 117
134 7 116
134 8 116
134 8 116
134 9 115
133 10 115
133 10 115
133 11 115
133 12 114
133 12 114
133 13 114
133 14 113
133 14 113
133 15 113
133 15 112
133 16 112
133 17 112
133 17 111
133 18 111
133 19 111
133 19 111
133 20 110
133 21 110
133 21 110
133 22 109
133 23 109
133 23 109
133 24 108
133 24 108
133 25 108
133 26 108
133 26 107
133 27 107
132 28 107
132 28 106
132 29 106
132 30 106
132 30 105
132 31 105
132 31 105
132 32 105
132 33 104
132 33 104
132 34 104
132 35 103
132 35 103
132 36 103
132 37 102
132 37 102
132 38 102
132 38 102
132 39 101
132 40 101
132 40 101
132 41 100
132 42 100
132 42 100
132 43 99
132 44 99
132 44 99
132 45 99
132 46 98
131 46 98
131 47 98
131 47 97
131 48 97
131 49 97
131 49 96
131 50 96
131 51 96
131 51 95
131 52 95
131 53 95
131 53 95
131 54 94
131 54 94
131 55 94
131 56 93
131 56 93
131 57 93
131 58 92
131 58 92
131 59 92
131 60 92
131 60 91
131 61 91
131 61 91
131 62 90
131 63 90
131 63 90
130 64 89
130 65 89
130 65 89
130 66 89
130 67 88
130 67 88
130 68 88
130 69 87
130 69 87
130 70 87
130 70 86
130 71 86
130 72 86
130 72 86
130 73 85
130 74 85
130 74 85
130 75 84
130 76 84
130 76 84
130 77 83
130 77 83
130 78 83
130 79 83
130 79 82
130 80 82
130 81 82
130 81 81
129 82 81
129 83 81
129 83 80
129 84 80
129 85 80
129 85 79
129 86 79
129 86 79
129 87 79
129 88 78
129 88 78
129 89 78
129 90 77
129 90 77
129 91 77
129 92 76
129 92 76
129 93 76
129 93 76
129 94 75
129 95 75
129 95 75
129 96 74
129 97 74
129 97 74
129 98 73
129 99 73
129 99 73
129 100 73
128 100 72
128 101 72
128 102 72
128 102 71
128 103 71
128 104 71
128 104 70
128 105 70
128 106 70
128 106 70
128 107 69
128 108 69
128 108 69
128 109 68
128 109 68
128 110 68
128 111 67
128 111 67
128 112 67
128 113 67
128 113 66
128 114 66
128 115 66
128 115 65
128 116 65
128 116 65
128 117 64
128 118 64
127 118 64
127 119 63
127 120 63
127 120 63
127 121 63
127 122 62
127 122 62
127 123 62
127 123 61
127 124 61
127 125 61
127 125 60
127 126 60
127 127 60
127 127 60
127 128 59
127 129 59
127 129 59
127 130 58
127 131 58
127 131 58
127 132 57
127 132 57
127 133 57
127 134 57
127 134 56
127 135 56
127 136 56
126 136 55
126 137 55
126 138 55
126 138 54
126 139 54
126 139 54
126 140 54
126 141 53
126 141 53
126 142 53
126 143 52
126 143 52
126 144 52
126 145 51
126 145 51
126 146 51
126 146 51
126 147 50
126 148 50
126 148 50
126 149 49
126 150 49
126 150 49
126 151 48
126 152 48
126 152 48
126 153 47
126 154 47
125 154 47
125 155 47
125 155 46
125 156 46
125 157 46
125 157 45
125 158 45
125 159 45
125 159 44
125 160 44
125 161 44
125 161 44
125 162 43
125 162 43
125 163 43
125 164 42
125 164 42
125 165 42
125 166 41
125 166 41
125 167 41
125 168 41
125 168 40
125 169 40
125 170 40
125 170 39
125 171 39
125 171 39
125 172 38
124 173 38
124 173 38
124 174 38
124 175 37
124 175 37
124 176 37
124 177 36
124 177 36
124 178 36
124 178 35
124 179 35
124 180 35
124 180 35
124 181 34
124 182 34
124 182 34
124 183 33
124 184 33
124 184 33
124 185 32
124 185 32
124 186 32
124 187 31
124 187 31
124 188 31
124 189 31
124 189 30
124 190 30
123 191 30
123 191 29
123 192 29
123 193 29
123 193 28
123 194 28
123 194 28
123 195 28
123 196 27
123 196 27
123 197 27
123 198 26
123 198 26
123 199 26
123 200 25
123 200 25
123 201 25
123 201 25
123 202 24
123 203 24
123 203 24
123 204 23
123 205 23
123 205 23
123 206 22
123 207 22
123 207 22
123 208 22
122 208 21
122 209 21
122 210 21
122 210 20
122 211 20
122 212 20
122 212 19
122 213 19
122 214 19
122 214 19
122 215 18
122 216 18
122 216 18
122 217 17
122 217 17
122 218 17
122 219 16
122 219 16
122 220 16
122 221 15
122 221 15
122 222 15
122 223 15
122 223 14
122 224 14
122 224 14
122 225 13
122 226 13
122 226 13
121 227 12
121 228 12
121 228 12
121 229 12
121 230 11
121 230 11
121 231 11
121 231 10
121 232 10
121 233 10
121 233 9
121 234 9
121 235 9
121 235 9
121 236 8
121 237 8
121 237 8
121 238 7
121 239 7
121 239 7
121 240 6
121 240 6
121 241 6
121 242 6
121 242 5
121 243 5
121 244 5
121 244 4
120 245 4
120 246 4
120 246 3
120 247 3
120 247 3
120 248 3
120 249 2
120 249 2
120 250 2
120 251 1
120 251 1
120 252 1
120 253 0
120 253 0
120 254 0
120 255 0
135 0 119
135 0 118
135 1 118
135 1 118
135 2 117
135 3 117
135 3 117
135 4 117
135 5 116
135 5 116
135 6 116
135 7 115
135 7 115
135 8 115
135 8 114
135 9 114
135 10 114
135 10 114
135 11 113
135 12 113
134 12 113
134 13 112
134 14 112
134 14 112
134 15 112
134 15 111
134 16 111
134 17 111
134 17 110
134 18 110
134 19 110
134 19 109
134 20 109
134 21 109
134 21 109
134 22 108
134 23 108
134 23 108
134 24 107
134 24 107
134 25 107
134 26 106
134 26 106
134 27 106
133 28 106
133 28 105
133 29 105
133 30 105
133 30 104
133 31 104
133 31 104
133 32 103
133 33 103
133 33 103
133 34 103
133 35 102
133 35 102
133 36 102
133 37 101
133 37 101
133 38 101
133 38 100
133 39 100
133 40 100
133 40 100
133 41 99
133 42 99
133 42 99
132 43 98
132 44 98
132 44 98
132 45 97
132 46 97
132 46 97
132 47 97
132 47 96
132 48 96
132 49 96
132 49 95
132 50 95
132 51 95
132 51 94
132 52 94
132 53 94
132 53 94
132 54 93
132 54 93
132 55 93
132 56 92
132 56 92
132 57 92
132 58 91
131 58 91
131 59 91
131 60 91
131 60 90
131 61 90
131 61 90
131 62 89
131 63 89
131 63 89
131 64 89
131 65 88
131 65 88
131 66 88
131 67 87
131 67 87
131 68 87
131 69 86
131 69 86
131 70 86
131 70 86
131 71 85
131 72 85
131 72 85
131 73 84
130 74 84
130 74 84
130 75 83
130 76 83
130 76 83
130 77 83
130 77 82
130 78 82
130 79 82
130 79 81
130 80 81
130 81 81
130 81 80
130 82 80
130 83 80
130 83 80
130 84 79
130 85 79
130 85 79
130 86 78
130 86 78
130 87 78
130 88 77
130 88 77
129 89 77
129 90 77
129 90 76
129 91 76
129 92 76
129 92 75
129 93 75
129 93 75
129 94 74
129 95 74
129 95 74
129 96 74
129 97 73
129 97 73
129 98 73
129 99 72
129 99 72
129 100 72
129 100 71
129 101 71
129 102 71
129 102 71
129 103 70
129 104 70
128 104 70
128 105 69
128 106 69
128 106 69
128 107 68
128 108 68
128 108 68
128 109 68
128 109 67
128 110 67
128 111 67
128 111 66
128 112 66
128 113 66
128 113 66
128 114 65
128 115 65
128 115 65
128 116 64
128 116 64
128 117 64
128 118 63
128 118 63
128 119 63
127 120 63
127 120 62
127 121 62
127 122 62
127 122 61
127 123 61
127 123 61
127 124 60
127 125 60
127 125 60
127 126 60
127 127 59
127 127 59
127 128 59
127 129 58
127 129 58
127 130 58
127 131 57
127 131 57
127 132 57
127 132 57
127 133 56
127 134 56
127 134 56
126 135 55
126 136 55
126 136 55
126 137 54
126 138 54
126 138 54
126 139 54
126 139 53
126 140 53
126 141 53
126 141 52
126 142 52
126 143 52
126 143 51
126 144 51
126 145 51
126 145 51
126 146 50
126 146 50
126 147 50
126 148 49
126 148 49
126 149 49
126 150 48
125 150 48
125 151 48
125 152 48
125 152 47
125 153 47
125 154 47
125 154 46
125 155 46
125 155 46
125 156 45
125 157 45
125 157 45
125 158 45
125 159 44
125 159 44
125 160 44
125 161 43
125 161 43
125 162 43
125 162 43
125 163 42
125 164 42
125 164 42
125 165 41
124 166 41
124 166 41
124 167 40
124 168 40
124 168 40
124 169 40
124 170 39
124 170 39
124 171 39
124 171 38
124 172 38
124 173 38
124 173 37
124 174 37
124 175 37
124 175 37
124 176 36
124 177 36
124 177 36
124 178 35
124 178 35
124 179 35
124 180 34
124 180 34
123 181 34
123 182 34
123 182 33
123 183 33
123 184 33
123 184 32
123 185 32
123 185 32
123 186 31
123 187 31
123 187 31
123 188 31
123 189 30
123 189 30
123 190 30
123 191 29
123 191 29
123 192 29
123 193 28
123 193 28
123 194 28
123 194 28
123 195 27
123 196 27
122 196 27
122 197 26
122 198 26
122 198 26
122 199 25
122 200 25
122 200 25
122 201 25
122 201 24
122 202 24
122 203 24
122 203 23
122 204 23
122 205 23
122 205 22
122 206 22
122 207 22
122 207 22
122 208 21
122 208 21
122 209 21
122 210 20
122 210 20
122 211 20
121 212 20
121 212 19
121 213 19
121 214 19
121 214 18
121 215 18
121 216 18
121 216 17
121 217 17
121 217 17
121 218 17
121 219 16
121 219 16
121 220 16
121 221 15
121 221 15
121 222 15
121 223 14
121 223 14
121 224 14
121 224 14
121 225 13
121 226 13
121 226 13
120 227 12
120 228 12
120 228 12
120 229 11
120 230 11
120 230 11
120 231 11
120 231 10
120 232 10
120 233 10
120 233 9
120 234 9
120 235 9
120 235 8
120 236 8
120 237 8
120 237 8
120 238 7
120 239 7
120 239 7
120 240 6
120 240 6
120 241 6
120 242 5
119 242 5
119 243 5
119 244 5
119 244 4
119 245 4
119 246 4
119 246 3
119 247 3
119 247 3
119 248 2
119 249 2
119 249 2
119 250 2
119 251 1
119 251 1
119 252 1
119 253 0
119 253 0
119 254 0
119 255 0
137 0 117
137 0 117
137 1 117
136 1 117
136 2 116
136 3 116
136 3 116
136 4 115
136 5 115
136 5 115
136 6 114
136 7 114
136 7 114
136 8 114
136 8 113
136 9 113
136 10 113
136 10 112
136 11 112
136 12 112
136 12 111
136 13 111
136 14 111
136 14 111
135 15 110
135 15 110
135 16 110
135 17 109
135 17 109
135 18 109
135 19 109
135 19 108
135 20 108
135 21 108
135 21 107
135 22 107
135 23 107
135 23 106
135 24 106
135 24 106
135 25 106
135 26 105
135 26 105
135 27 105
134 28 104
134 28 104
134 29 104
134 30 104
134 30 103
134 31 103
134 31 103
134 32 102
134 33 102
134 33 102
134 34 101
134 35 101
134 35 101
134 36 101
134 37 100
134 37 100
134 38 100
134 38 99
134 39 99
134 40 99
134 40 98
133 41 98
133 42 98
133 42 98
133 43 97
133 44 97
133 44 97
133 45 96
133 46 96
133 46 96
133 47 96
133 47 95
133 48 95
133 49 95
133 49 94
133 50 94
133 51 94
133 51 93
133 52 93
133 53 93
133 53 93
133 54 92
132 54 92
132 55 92
132 56 91
132 56 91
132 57 91
132 58 91
132 58 90
132 59 90
132 60 90
132 60 89
132 61 89
132 61 89
132 62 88
132 63 88
132 63 88
132 64 88
132 65 87
132 65 87
132 66 87
132 67 86
132 67 86
131 68 86
131 69 85
131 69 85
131 70 85
131 70 85
131 71 84
131 72 84
131 72 84
131 73 83
131 74 83
131 74 83
131 75 83
131 76 82
131 76 82
131 77 82
131 77 81
131 78 81
131 79 81
131 79 80
131 80 80
130 81 80
130 81 80
130 82 79
130 83 79
130 83 79
130 84 78
130 85 78
130 85 78
130 86 78
130 86 77
130 87 77
130 88 77
130 88 76
130 89 76
130 90 76
130 90 75
130 91 75
130 92 75
130 92 75
130 93 74
130 93 74
129 94 74
129 95 73
129 95 73
129 96 73
129 97 72
129 97 72
129 98 72
129 99 72
129 99 71
129 100 71
129 100 71
129 101 70
129 102 70
129 102 70
129 103 70
129 104 69
129 104 69
129 105 69
129 106 68
129 106 68
129 107 68
128 108 67
128 108 67
128 109 67
128 109 67
128 110 66
128 111 66
128 111 66
128 112 65
128 113 65
128 113 65
128 114 65
128 115 64
128 115 64
128 116 64
128 116 63
128 117 63
128 118 63
128 118 62
128 119 62
128 120 62
128 120 62
127 121 61
127 122 61
127 122 61
127 123 60
127 123 60
127 124 60
127 125 59
127 125 59
127 126 59
127 127 59
127 127 58
127 128 58
127 129 58
127 129 57
127 130 57
127 131 57
127 131 57
127 132 56
127 132 56
127 133 56
126 134 55
126 134 55
126 135 55
126 136 54
126 136 54
126 137 54
126 138 54
126 138 53
126 139 53
126 139 53
126 140 52
126 141 52
126 141 52
126 142 52
126 143 51
126 143 51
126 144 51
126 145 50
126 145 50
126 146 50
126 146 49
125 147 49
125 148 49
125 148 49
125 149 48
125 150 48
125 150 48
125 151 47
125 152 47
125 152 47
125 153 46
125 154 46
125 154 46
125 155 46
125 155 45
125 156 45
125 157 45
125 157 44
125 158 44
125 159 44
125 159 44
125 160 43
124 161 43
124 161 43
124 162 42
124 162 42
124 163 42
124 164 41
124 164 41
124 165 41
124 166 41
124 166 40
124 167 40
124 168 40
124 168 39
124 169 39
124 170 39
124 170 39
124 171 38
124 171 38
124 172 38
124 173 37
124 173 37
123 174 37
123 175 36
123 175 36
123 176 36
123 177 36
123 177 35
123 178 35
123 178 35
123 179 34
123 180 34
123 180 34
123 181 33
123 182 33
123 182 33
123 183 33
123 184 32
123 184 32
123 185 32
123 185 31
123 186 31
122 187 31
122 187 31
122 188 30
122 189 30
122 189 30
122 190 29
122 191 29
122 191 29
122 192 28
122 193 28
122 193 28
122 194 28
122 194 27
122 195 27
122 196 27
122 196 26
122 197 26
122 198 26
122 198 26
122 199 25
122 200 25
121 200 25
121 201 24
121 201 24
121 202 24
121 203 23
121 203 23
121 204 23
121 205 23
121 205 22
121 206 22
121 207 22
121 207 21
121 208 21
121 208 21
121 209 20
121 210 20
121 210 20
121 211 20
121 212 19
121 212 19
121 213 19
120 214 18
120 214 18
120 215 18
120 216 18
120 216 17
120 217 17
120 217 17
120 218 16
120 219 16
120 219 16
120 220 15
120 221 15
120 221 15
120 222 15
120 223 14
120 223 14
120 224 14
120 224 13
120 225 13
120 226 13
120 226 13
119 227 12
119 228 12
119 228 12
119 229 11
119 230 11
119 230 11
119 231 10
119 231 10
119 232 10
119 233 10
119 233 9
119 234 9
119 235 9
119 235 8
119 236 8
119 237 8
119 237 7
119 238 7
119 239 7
119 239 7
118 240 6
118 240 6
118 241 6
118 242 5
118 242 5
118 243 5
118 244 5
118 244 4
118 245 4
118 246 4
118 246 3
118 247 3
118 247 3
118 248 2
118 249 2
118 249 2
118 250 2
118 251 1
118 251 1
118 252 1
118 253 0
117 253 0
117 254 0
117 255 0
138 0 116
138 0 116
138 1 116
138 1 115
138 2 115
138 3 115
138 3 114
138 4 114
137 5 114
137 5 113
137 6 113
137 7 113
137 7 113
137 8 112
137 8 112
137 9 112
137 10 111
137 10 111
137 11 111
137 12 111
137 12 110
137 13 110
137 14 110
137 14 109
137 15 109
137 15 109
136 16 109
136 17 108
136 17 108
136 18 108
136 19 107
136 19 107
136 20 107
136 21 106
136 21 106
136 22 106
136 23 106
136 23 105
136 24 105
136 24 105
136 25 104
136 26 104
136 26 104
136 27 104
135 28 103
135 28 103
135 29 103
135 30 102
135 30 102
135 31 102
135 31 101
135 32 101
135 33 101
135 33 101
135 34 100
135 35 100
135 35 100
135 36 99
135 37 99
135 37 99
135 38 99
135 38 98
135 39 98
134 40 98
134 40 97
134 41 97
134 42 97
134 42 97
134 43 96
134 44 96
134 44 96
134 45 95
134 46 95
134 46 95
134 47 94
134 47 94
134 48 94
134 49 94
134 49 93
134 50 93
134 51 93
133 51 92
133 52 92
133 53 92
133 53 92
133 54 91
133 54 91
133 55 91
133 56 90
133 56 90
133 57 90
133 58 90
133 58 89
133 59 89
133 60 89
133 60 88
133 61 88
133 61 88
133 62 87
132 63 87
132 63 87
132 64 87
132 65 86
132 65 86
132 66 86
132 67 85
132 67 85
132 68 85
132 69 85
132 69 84
132 70 84
132 70 84
132 71 83
132 72 83
132 72 83
132 73 82
132 74 82
132 74 82
131 75 82
131 76 81
131 76 81
131 77 81
131 77 80
131 78 80
131 79 80
131 79 80
131 80 79
131 81 79
131 81 79
131 82 78
131 83 78
131 83 78
131 84 78
131 85 77
131 85 77
131 86 77
130 86 76
130 87 76
130 88 76
130 88 75
130 89 75
130 90 75
130 90 75
130 91 74
130 92 74
130 92 74
130 93 73
130 93 73
130 94 73
130 95 73
130 95 72
130 96 72
130 97 72
130 97 71
129 98 71
129 99 71
129 99 71
129 100 70
129 100 70
129 101 70
129 102 69
129 102 69
129 103 69
129 104 68
129 104 68
129 105 68
129 106 68
129 106 67
129 107 67
129 108 67
129 108 66
129 109 66
129 109 66
128 110 66
128 111 65
128 111 65
128 112 65
128 113 64
128 113 64
128 114 64
128 115 64
128 115 63
128 116 63
128 116 63
128 117 62
128 118 62
128 118 62
128 119 61
128 120 61
128 120 61
128 121 61
127 122 60
127 122 60
127 123 60
127 123 59
127 124 59
127 125 59
127 125 59
127 126 58
127 127 58
127 127 58
127 128 57
127 129 57
127 129 57
127 130 56
127 131 56
127 131 56
127 132 56
127 132 55
126 133 55
126 134 55
126 134 54
126 135 54
126 136 54
126 136 54
126 137 53
126 138 53
126 138 53
126 139 52
126 139 52
126 140 52
126 141 52
126 141 51
126 142 51
126 143 51
126 143 50
126 144 50
125 145 50
125 145 49
125 146 49
125 146 49
125 147 49
125 148 48
125 148 48
125 149 48
125 150 47
125 150 47
125 151 47
125 152 47
125 152 46
125 153 46
125 154 46
125 154 45
125 155 45
125 155 45
125 156 45
124 157 44
124 157 44
124 158 44
124 159 43
124 159 43
124 160 43
124 161 42
124 161 42
124 162 42
124 162 42
124 163 41
124 164 41
124 164 41
124 165 40
124 166 40
124 166 40
124 167 40
124 168 39
123 168 39
123 169 39
123 170 38
123 170 38
123 171 38
123 171 37
123 172 37
123 173 37
123 173 37
123 174 36
123 175 36
123 175 36
123 176 35
123 177 35
123 177 35
123 178 35
123 178 34
123 179 34
122 180 34
122 180 33
122 181 33
122 182 33
122 182 33
122 183 32
122 184 32
122 184 32
122 185 31
122 185 31
122 186 31
122 187 30
122 187 30
122 188 30
122 189 30
122 189 29
122 190 29
122 191 29
122 191 28
121 192 28
121 193 28
121 193 28
121 194 27
121 194 27
121 195 27
121 196 26
121 196 26
121 197 26
121 198 26
121 198 25
121 199 25
121 200 25
121 200 24
121 201 24
121 201 24
121 202 23
121 203 23
120 203 23
120 204 23
120 205 22
120 205 22
120 206 22
120 207 21
120 207 21
120 208 21
120 208 21
120 209 20
120 210 20
120 210 20
120 211 19
120 212 19
120 212 19
120 213 18
120 214 18
120 214 18
119 215 18
119 216 17
119 216 17
119 217 17
119 217 16
119 218 16
119 219 16
119 219 16
119 220 15
119 221 15
119 221 15
119 222 14
119 223 14
119 223 14
119 224 14
119 224 13
119 225 13
119 226 13
119 226 12
118 227 12
118 228 12
118 228 11
118 229 11
118 230 11
118 230 11
118 231 10
118 231 10
118 232 10
118 233 9
118 233 9
118 234 9
118 235 9
118 235 8
118 236 8
118 237 8
118 237 7
118 238 7
117 239 7
117 239 7
117 240 6
117 240 6
117 241 6
117 242 5
117 242 5
117 243 5
117 244 4
117 244 4
117 245 4
117 246 4
117 246 3
117 247 3
117 247 3
117 248 2
117 249 2
117 249 2
116 250 2
116 251 1
116 251 1
116 252 1
116 253 0
116 253 0
116 254 0
116 255 0
139 0 115
139 0 115
139 1 114
139 1 114
139 2 114
139 3 113
139 3 113
139 4 113
139 5 113
139 5 112
139 6 112
139 7 112
138 7 111
138 8 111
138 8 111
138 9 110
138 10 110
138 10 110
138 11 110
138 12 109
138 12 109
138 13 109
138 14 108
138 14 108
138 15 108
138 15 108
138 16 107
138 17 107
137 17 107
137 18 106
137 19 106
137 19 106
137 20 106
137 21 105
137 21 105
137 22 105
137 23 104
137 23 104
137 24 104
137 24 104
137 25 103
137 26 103
137 26 103
137 27 102
136 28 102
136 28 102
136 29 102
136 30 101
136 30 101
136 31 101
136 31 100
136 32 100
136 33 100
136 33 100
136 34 99
136 35 99
136 35 99
136 36 98
136 37 98
136 37 98
136 38 97
135 38 97
135 39 97
135 40 97
135 40 96
135 41 96
135 42 96
135 42 95
135 43 95
135 44 95
135 44 95
135 45 94
135 46 94
135 46 94
135 47 93
135 47 93
135 48 93
134 49 93
134 49 92
134 50 92
134 51 92
134 51 91
134 52 91
134 53 91
134 53 91
134 54 90
134 54 90
134 55 90
134 56 89
134 56 89
134 57 89
134 58 89
134 58 88
133 59 88
133 60 88
133 60 87
133 61 87
133 61 87
133 62 87
133 63 86
133 63 86
133 64 86
133 65 85
133 65 85
133 66 85
133 67 84
133 67 84
133 68 84
133 69 84
133 69 83
132 70 83
132 70 83
132 71 82
132 72 82
132 72 82
132 73 82
132 74 81
132 74 81
132 75 81
132 76 80
132 76 80
132 77 80
132 77 80
132 78 79
132 79 79
132 79 79
131 80 78
131 81 78
131 81 78
131 82 78
131 83 77
131 83 77
131 84 77
131 85 76
131 85 76
131 86 76
131 86 76
131 87 75
131 88 75
131 88 75
131 89 74
131 90 74
131 90 74
130 91 73
130 92 73
130 92 73
130 93 73
130 93 72
130 94 72
130 95 72
130 95 71
130 96 71
130 97 71
130 97 71
130 98 70
130 99 70
130 99 70
130 100 69
130 100 69
129 101 69
129 102 69
129 102 68
129 103 68
129 104 68
129 104 67
129 105 67
129 106 67
129 106 67
129 107 66
129 108 66
129 108 66
129 109 65
129 109 65
129 110 65
129 111 65
128 111 64
128 112 64
128 113 64
128 113 63
128 114 63
128 115 63
128 115 63
128 116 62
128 116 62
128 117 62
128 118 61
128 118 61
128 119 61
128 120 60
128 120 60
128 121 60
128 122 60
127 122 59
127 123 59
127 123 59
127 124 58
127 125 58
127 125 58
127 126 58
127 127 57
127 127 57
127 128 57
127 129 56
127 129 56
127 130 56
127 131 56
127 131 55
127 132 55
126 132 55
126 133 54
126 134 54
126 134 54
126 135 54
126 136 53
126 136 53
126 137 53
126 138 52
126 138 52
126 139 52
126 139 52
126 140 51
126 141 51
126 141 51
126 142 50
126 143 50
125 143 50
125 144 50
125 145 49
125 145 49
125 146 49
125 146 48
125 147 48
125 148 48
125 148 47
125 149 47
125 150 47
125 150 47
125 151 46
125 152 46
125 152 46
125 153 45
124 154 45
124 154 45
124 155 45
124 155 44
124 156 44
124 157 44
124 157 43
124 158 43
124 159 43
124 159 43
124 160 42
124 161 42
124 161 42
124 162 41
124 162 41
124 163 41
123 164 41
123 164 40
123 165 40
123 166 40
123 166 39
123 167 39
123 168 39
123 168 39
123 169 38
123 170 38
123 170 38
123 171 37
123 171 37
123 172 37
123 173 36
123 173 36
123 174 36
122 175 36
122 175 35
122 176 35
122 177 35
122 177 34
122 178 34
122 178 34
122 179 34
122 180 33
122 180 33
122 181 33
122 182 32
122 182 32
122 183 32
122 184 32
122 184 31
121 185 31
121 185 31
121 186 30
121 187 30
121 187 30
121 188 30
121 189 29
121 189 29
121 190 29
121 191 28
121 191 28
121 192 28
121 193 28
121 193 27
121 194 27
121 194 27
121 195 26
120 196 26
120 196 26
120 197 26
120 198 25
120 198 25
120 199 25
120 200 24
120 200 24
120 201 24
120 201 23
120 202 23
120 203 23
120 203 23
120 204 22
120 205 22
120 205 22
119 206 21
119 207 21
119 207 21
119 208 21
119 208 20
119 209 20
119 210 20
119 210 19
119 211 19
119 212 19
119 212 19
119 213 18
119 214 18
119 214 18
119 215 17
119 216 17
118 216 17
118 217 17
118 217 16
118 218 16
118 219 16
118 219 15
118 220 15
118 221 15
118 221 15
118 222 14
118 223 14
118 223 14
118 224 13
118 224 13
118 225 13
118 226 13
118 226 12
117 227 12
117 228 12
117 228 11
117 229 11
117 230 11
117 230 10
117 231 10
117 231 10
117 232 10
117 233 9
117 233 9
117 234 9
117 235 8
117 235 8
117 236 8
117 237 8
116 237 7
116 238 7
116 239 7
116 239 6
116 240 6
116 240 6
116 241 6
116 242 5
116 242 5
116 243 5
116 244 4
116 244 4
116 245 4
116 246 4
116 246 3
116 247 3
115 247 3
115 248 2
115 249 2
115 249 2
115 250 2
115 251 1
115 251 1
115 252 1
115 253 0
115 253 0
115 254 0
115 255 0
140 0 114
140 0 113
140 1 113
140 1 113
140 2 112
140 3 112
140 3 112
140 4 112
140 5 111
140 5 111
140 6 111
140 7 110
140 7 110
140 8 110
140 8 110
139 9 109
139 10 109
139 10 109
139 11 108
139 12 108
139 12 108
139 13 108
139 14 107
139 14 107
139 15 107
139 15 106
139 16 106
139 17 106
139 17 106
138 18 105
138 19 105
138 19 105
138 20 104
138 21 104
138 21 104
138 22 104
138 23 103
138 23 103
138 24 103
138 24 102
138 25 102
138 26 102
138 26 102
138 27 101
137 28 101
137 28 101
137 29 100
137 30 100
137 30 100
137 31 100
137 31 99
137 32 99
137 33 99
137 33 98
137 34 98
137 35 98
137 35 98
137 36 97
137 37 97
136 37 97
136 38 96
136 38 96
136 39 96
136 40 96
136 40 95
136 41 95
136 42 95
136 42 94
136 43 94
136 44 94
136 44 94
136 45 93
136 46 93
136 46 93
135 47 92
135 47 92
135 48 92
135 49 92
135 49 91
135 50 91
135 51 91
135 51 90
135 52 90
135 53 90
135 53 90
135 54 89
135 54 89
135 55 89
135 56 88
134 56 88
134 57 88
134 58 88
134 58 87
134 59 87
134 60 87
134 60 86
134 61 86
134 61 86
134 62 86
134 63 85
134 63 85
134 64 85
134 65 84
134 65 84
133 66 84
133 67 84
133 67 83
133 68 83
133 69 83
133 69 82
133 70 82
133 70 82
133 71 82
133 72 81
133 72 81
133 73 81
133 74 80
133 74 80
132 75 80
132 76 80
132 76 79
132 77 79
132 77 79
132 78 78
132 79 78
132 79 78
132 80 78
132 81 77
132 81 77
132 82 77
132 83 76
132 83 76
132 84 76
131 85 76
131 85 75
131 86 75
131 86 75
131 87 74
131 88 74
131 88 74
131 89 74
131 90 73
131 90 73
131 91 73
131 92 72
131 92 72
131 93 72
131 93 72
130 94 71
130 95 71
130 95 71
130 96 70
130 97 70
130 97 70
130 98 70
130 99 69
130 99 69
130 100 69
130 100 68
130 101 68
130 102 68
130 102 68
130 103 67
129 104 67
129 104 67
129 105 66
129 106 66
129 106 66
129 107 66
129 108 65
129 108 65
129 109 65
129 109 64
129 110 64
129 111 64
129 111 64
129 112 63
129 113 63
128 113 63
128 114 62
128 115 62
128 115 62
128 116 62
128 116 61
128 117 61
128 118 61
128 118 60
128 119 60
128 120 60
128 120 60
128 121 59
128 122 59
128 122 59
127 123 58
127 123 58
127 124 58
127 125 58
127 125 57
127 126 57
127 127 57
127 127 56
127 128 56
127 129 56
127 129 56
127 130 55
127 131 55
127 131 55
126 132 54
126 132 54
126 133 54
126 134 54
126 134 53
126 135 53
126 136 53
126 136 52
126 137 52
126 138 52
126 138 52
126 139 51
126 139 51
126 140 51
126 141 50
125 141 50
125 142 50
125 143 50
125 143 49
125 144 49
125 145 49
125 145 48
125 146 48
125 146 48
125 147 48
125 148 47
125 148 47
125 149 47
125 150 46
125 150 46
124 151 46
124 152 46
124 152 45
124 153 45
124 154 45
124 154 44
124 155 44
124 155 44
124 156 44
124 157 43
124 157 43
124 158 43
124 159 42
124 159 42
124 160 42
123 161 42
123 161 41
123 162 41
123 162 41
123 163 40
123 164 40
123 164 40
123 165 40
123 166 39
123 166 39
123 167 39
123 168 38
123 168 38
123 169 38
123 170 38
122 170 37
122 171 37
122 171 37
122 172 36
122 173 36
122 173 36
122 174 36
122 175 35
122 175 35
122 176 35
122 177 34
122 177 34
122 178 34
122 178 34
122 179 33
121 180 33
121 180 33
121 181 32
121 182 32
121 182 32
121 183 32
121 184 31
121 184 31
121 185 31
121 185 30
121 186 30
121 187 30
121 187 30
121 188 29
120 189 29
120 189 29
120 190 28
120 191 28
120 191 28
120 192 28
120 193 27
120 193 27
120 194 27
120 194 26
120 195 26
120 196 26
120 196 26
120 197 25
120 198 25
119 198 25
119 199 24
119 200 24
119 200 24
119 201 24
119 201 23
119 202 23
119 203 23
119 203 22
119 204 22
119 205 22
119 205 22
119 206 21
119 207 21
119 207 21
118 208 20
118 208 20
118 209 20
118 210 20
118 210 19
118 211 19
118 212 19
118 212 18
118 213 18
118 214 18
118 214 18
118 215 17
118 216 17
118 216 17
118 217 16
117 217 16
117 218 16
117 219 16
117 219 15
117 220 15
117 221 15
117 221 14
117 222 14
117 223 14
117 223 14
117 224 13
117 224 13
117 225 13
117 226 12
117 226 12
116 227 12
116 228 12
116 228 11
116 229 11
116 230 11
116 230 10
116 231 10
116 231 10
116 232 10
116 233 9
116 233 9
116 234 9
116 235 8
116 235 8
116 236 8
115 237 8
115 237 7
115 238 7
115 239 7
115 239 6
115 240 6
115 240 6
115 241 6
115 242 5
115 242 5
115 243 5
115 244 4
115 244 4
115 245 4
114 246 4
114 246 3
114 247 3
114 247 3
114 248 2
114 249 2
114 249 2
114 250 2
114 251 1
114 251 1
114 252 1
114 253 0
114 253 0
114 254 0
114 255 0
142 0 112
142 0 112
142 1 112
142 1 111
141 2 111
141 3 111
141 3 111
141 4 110
141 5 110
141 5 110
141 6 109
141 7 109
141 7 109
141 8 109
141 8 108
141 9 108
141 10 108
140 10 107
140 11 107
140 12 107
140 12 107
140 13 106
140 14 106
140 14 106
140 15 105
140 15 105
140 16 105
140 17 105
140 17 104
140 18 104
140 19 104
139 19 104
139 20 103
139 21 103
139 21 103
139 22 102
139 23 102
139 23 102
139 24 102
139 24 101
139 25 101
139 26 101
139 26 100
139 27 100
138 28 100
138 28 100
138 29 99
138 30 99
138 30 99
138 31 98
138 31 98
138 32 98
138 33 98
138 33 97
138 34 97
138 35 97
138 35 96
138 36 96
137 37 96
137 37 96
137 38 95
137 38 95
137 39 95
137 40 94
137 40 94
137 41 94
137 42 94
137 42 93
137 43 93
137 44 93
137 44 92
136 45 92
136 46 92
136 46 92
136 47 91
136 47 91
136 48 91
136 49 91
136 49 90
136 50 90
136 51 90
136 51 89
136 52 89
136 53 89
136 53 89
135 54 88
135 54 88
135 55 88
135 56 87
135 56 87
135 57 87
135 58 87
135 58 86
135 59 86
135 60 86
135 60 85
135 61 85
135 61 85
134 62 85
134 63 84
134 63 84
134 64 84
134 65 83
134 65 83
134 66 83
134 67 83
134 67 82
134 68 82
134 69 82
134 69 81
134 70 81
134 70 81
133 71 81
133 72 80
133 72 80
133 73 80
133 74 79
133 74 79
133 75 79
133 76 79
133 76 78
133 77 78
133 77 78
133 78 78
133 79 77
133 79 77
132 80 77
132 81 76
132 81 76
132 82 76
132 83 76
132 83 75
132 84 75
132 85 75
132 85 74
132 86 74
132 86 74
132 87 74
132 88 73
131 88 73
131 89 73
131 90 72
131 90 72
131 91 72
131 92 72
131 92 71
131 93 71
131 93 71
131 94 70
131 95 70
131 95 70
131 96 70
131 97 69
130 97 69
130 98 69
130 99 68
130 99 68
130 100 68
130 100 68
130 101 67
130 102 67
130 102 67
130 103 66
130 104 66
130 104 66
130 105 66
129 106 65
129 106 65
129 107 65
129 108 65
129 108 64
129 109 64
129 109 64
129 110 63
129 111 63
129 111 63
129 112 63
129 113 62
129 113 62
129 114 62
128 115 61
128 115 61
128 116 61
128 116 61
128 117 60
128 118 60
128 118 60
128 119 59
128 120 59
128 120 59
128 121 59
128 122 58
128 122 58
127 123 58
127 123 57
127 124 57
127 125 57
127 125 57
127 126 56
127 127 56
127 127 56
127 128 55
127 129 55
127 129 55
127 130 55
127 131 54
127 131 54
126 132 54
126 132 53
126 133 53
126 134 53
126 134 53
126 135 52
126 136 52
126 136 52
126 137 52
126 138 51
126 138 51
126 139 51
126 139 50
125 140 50
125 141 50
125 141 50
125 142 49
125 143 49
125 143 49
125 144 48
125 145 48
125 145 48
125 146 48
125 146 47
125 147 47
125 148 47
125 148 46
124 149 46
124 150 46
124 150 46
124 151 45
124 152 45
124 152 45
124 153 44
124 154 44
124 154 44
124 155 44
124 155 43
124 156 43
124 157 43
123 157 42
123 158 42
123 159 42
123 159 42
123 160 41
123 161 41
123 161 41
123 162 40
123 162 40
123 163 40
123 164 40
123 164 39
123 165 39
123 166 39
122 166 39
122 167 38
122 168 38
122 168 38
122 169 37
122 170 37
122 170 37
122 171 37
122 171 36
122 172 36
122 173 36
122 173 35
122 174 35
121 175 35
121 175 35
121 176 34
121 177 34
121 177 34
121 178 33
121 178 33
121 179 33
121 180 33
121 180 32
121 181 32
121 182 32
121 182 31
121 183 31
120 184 31
120 184 31
120 185 30
120 185 30
120 186 30
120 187 29
120 187 29
120 188 29
120 189 29
120 189 28
120 190 28
120 191 28
120 191 27
120 192 27
119 193 27
119 193 27
119 194 26
119 194 26
119 195 26
119 196 26
119 196 25
119 197 25
119 198 25
119 198 24
119 199 24
119 200 24
119 200 24
118 201 23
118 201 23
118 202 23
118 203 22
118 203 22
118 204 22
118 205 22
118 205 21
118 206 21
118 207 21
118 207 20
118 208 20
118 208 20
118 209 20
117 210 19
117 210 19
117 211 19
117 212 18
117 212 18
117 213 18
117 214 18
117 214 17
117 215 17
117 216 17
117 216 16
117 217 16
117 217 16
116 218 16
116 219 15
116 219 15
116 220 15
116 221 14
116 221 14
116 222 14
116 223 14
116 223 13
116 224 13
116 224 13
116 225 13
116 226 12
116 226 12
115 227 12
115 228 11
115 228 11
115 229 11
115 230 11
115 230 10
115 231 10
115 231 10
115 232 9
115 233 9
115 233 9
115 234 9
115 235 8
114 235 8
114 236 8
114 237 7
114 237 7
114 238 7
114 239 7
114 239 6
114 240 6
114 240 6
114 241 5
114 242 5
114 242 5
114 243 5
114 244 4
113 244 4
113 245 4
113 246 3
113 246 3
113 247 3
113 247 3
113 248 2
113 249 2
113 249 2
113 250 1
113 251 1
113 251 1
113 252 1
112 253 0
112 253 0
112 254 0
112 255 0
143 0 111
143 0 111
143 1 110
143 1 110
143 2 110
143 3 110
143 3 109
142 4 109
142 5 109
142 5 108
142 6 108
142 7 108
142 7 108
142 8 107
142 8 107
142 9 107
142 10 107
142 10 106
142 11 106
141 12 106
141 12 105
141 13 105
141 14 105
141 14 105
141 15 104
141 15 104
141 16 104
141 17 103
141 17 103
141 18 103
141 19 103
141 19 102
140 20 102
140 21 102
140 21 101
140 22 101
140 23 101
140 23 101
140 24 100
140 24 100
140 25 100
140 26 100
140 26 99
140 27 99
139 28 99
139 28 98
139 29 98
139 30 98
139 30 98
139 31 97
139 31 97
139 32 97
139 33 96
139 33 96
139 34 96
139 35 96
139 35 95
138 36 95
138 37 95
138 37 94
138 38 94
138 38 94
138 39 94
138 40 93
138 40 93
138 41 93
138 42 93
138 42 92
138 43 92
137 44 92
137 44 91
137 45 91
137 46 91
137 46 91
137 47 90
137 47 90
137 48 90
137 49 89
137 49 89
137 50 89
137 51 89
137 51 88
136 52 88
136 53 88
136 53 88
136 54 87
136 54 87
136 55 87
136 56 86
136 56 86
136 57 86
136 58 86
136 58 85
136 59 85
135 60 85
135 60 84
135 61 84
135 61 84
135 62 84
135 63 83
135 63 83
135 64 83
135 65 82
135 65 82
135 66 82
135 67 82
135 67 81
134 68 81
134 69 81
134 69 81
134 70 80
134 70 80
134 71 80
134 72 79
134 72 79
134 73 79
134 74 79
134 74 78
134 75 78
133 76 78
133 76 77
133 77 77
133 77 77
133 78 77
133 79 76
133 79 76
133 80 76
133 81 75
133 81 75
133 82 75
133 83 75
132 83 74
132 84 74
132 85 74
132 85 74
132 86 73
132 86 73
132 87 73
132 88 72
132 88 72
132 89 72
132 90 72
132 90 71
132 91 71
131 92 71
131 92 70
131 93 70
131 93 70
131 94 70
131 95 69
131 95 69
131 96 69
131 97 69
131 97 68
131 98 68
131 99 68
130 99 67
130 100 67
130 100 67
130 101 67
130 102 66
130 102 66
130 103 66
130 104 65
130 104 65
130 105 65
130 106 65
130 106 64
130 107 64
129 108 64
129 108 63
129 109 63
129 109 63
129 110 63
129 111 62
129 111 62
129 112 62
129 113 62
129 113 61
129 114 61
129 115 61
128 115 60
128 116 60
128 116 60
128 117 60
128 118 59
128 118 59
128 119 59
128 120 58
128 120 58
128 121 58
128 122 58
128 122 57
128 123 57
127 123 57
127 124 56
127 125 56
127 125 56
127 126 56
127 127 55
127 127 55
127 128 55
127 129 55
127 129 54
127 130 54
127 131 54
126 131 53
126 132 53
126 132 53
126 133 53
126 134 52
126 134 52
126 135 52
126 136 51
126 136 51
126 137 51
126 138 51
126 138 50
126 139 50
125 139 50
125 140 50
125 141 49
125 141 49
125 142 49
125 143 48
125 143 48
125 144 48
125 145 48
125 145 47
125 146 47
125 146 47
124 147 46
124 148 46
124 148 46
124 149 46
124 150 45
124 150 45
124 151 45
124 152 44
124 152 44
124 153 44
124 154 44
124 154 43
124 155 43
123 155 43
123 156 43
123 157 42
123 157 42
123 158 42
123 159 41
123 159 41
123 160 41
123 161 41
123 161 40
123 162 40
123 162 40
122 163 39
122 164 39
122 164 39
122 165 39
122 166 38
122 166 38
122 167 38
122 168 37
122 168 37
122 169 37
122 170 37
122 170 36
122 171 36
121 171 36
121 172 36
121 173 35
121 173 35
121 174 35
121 175 34
121 175 34
121 176 34
121 177 34
121 177 33
121 178 33
121 178 33
120 179 32
120 180 32
120 180 32
120 181 32
120 182 31
120 182 31
120 183 31
120 184 31
120 184 30
120 185 30
120 185 30
120 186 29
119 187 29
119 187 29
119 188 29
119 189 28
119 189 28
119 190 28
119 191 27
119 191 27
119 192 27
119 193 27
119 193 26
119 194 26
119 194 26
118 195 25
118 196 25
118 196 25
118 197 25
118 198 24
118 198 24
118 199 24
118 200 24
118 200 23
118 201 23
118 201 23
118 202 22
117 203 22
117 203 22
117 204 22
117 205 21
117 205 21
117 206 21
117 207 20
117 207 20
117 208 20
117 208 20
117 209 19
117 210 19
117 210 19
116 211 18
116 212 18
116 212 18
116 213 18
116 214 17
116 214 17
116 215 17
116 216 17
116 216 16
116 217 16
116 217 16
116 218 15
115 219 15
115 219 15
115 220 15
115 221 14
115 221 14
115 222 14
115 223 13
115 223 13
115 224 13
115 224 13
115 225 12
115 226 12
115 226 12
114 227 12
114 228 11
114 228 11
114 229 11
114 230 10
114 230 10
114 231 10
114 231 10
114 232 9
114 233 9
114 233 9
114 234 8
113 235 8
113 235 8
113 236 8
113 237 7
113 237 7
113 238 7
113 239 6
113 239 6
113 240 6
113 240 6
113 241 5
113 242 5
113 242 5
112 243 5
112 244 4
112 244 4
112 245 4
112 246 3
112 246 3
112 247 3
112 247 3
112 248 2
112 249 2
112 249 2
112 250 1
111 251 1
111 251 1
111 252 1
111 253 0
111 253 0
111 254 0
111 255 0
144 0 110
144 0 109
144 1 109
144 1 109
144 2 109
144 3 108
144 3 108
144 4 108
144 5 107
144 5 107
143 6 107
143 7 107
143 7 106
143 8 106
143 8 106
143 9 106
143 10 105
143 10 105
143 11 105
143 12 104
143 12 104
142 13 104
142 14 104
142 14 103
142 15 103
142 15 103
142 16 103
142 17 102
142 17 102
142 18 102
142 19 101
142 19 101
142 20 101
141 21 101
141 21 100
141 22 100
141 23 100
141 23 99
141 24 99
141 24 99
141 25 99
141 26 98
141 26 98
141 27 98
140 28 98
140 28 97
140 29 97
140 30 97
140 30 96
140 31 96
140 31 96
140 32 96
140 33 95
140 33 95
140 34 95
140 35 95
139 35 94
139 36 94
139 37 94
139 37 93
139 38 93
139 38 93
139 39 93
139 40 92
139 40 92
139 41 92
139 42 91
138 42 91
138 43 91
138 44 91
138 44 90
138 45 90
138 46 90
138 46 90
138 47 89
138 47 89
138 48 89
138 49 88
138 49 88
137 50 88
137 51 88
137 51 87
137 52 87
137 53 87
137 53 87
137 54 86
137 54 86
137 55 86
137 56 85
137 56 85
136 57 85
136 58 85
136 58 84
136 59 84
136 60 84
136 60 83
136 61 83
136 61 83
136 62 83
136 63 82
136 63 82
136 64 82
135 65 82
135 65 81
135 66 81
135 67 81
135 67 80
135 68 80
135 69 80
135 69 80
135 70 79
135 70 79
135 71 79
135 72 78
134 72 78
134 73 78
134 74 78
134 74 77
134 75 77
134 76 77
134 76 77
134 77 76
134 77 76
134 78 76
134 79 75
133 79 75
133 80 75
133 81 75
133 81 74
133 82 74
133 83 74
133 83 74
133 84 73
133 85 73
133 85 73
133 86 72
133 86 72
132 87 72
132 88 72
132 88 71
132 89 71
132 90 71
132 90 70
132 91 70
132 92 70
132 92 70
132 93 69
132 93 69
131 94 69
131 95 69
131 95 68
131 96 68
131 97 68
131 97 67
131 98 67
131 99 67
131 99 67
131 100 66
131 100 66
131 101 66
130 102 66
130 102 65
130 103 65
130 104 65
130 104 64
130 105 64
130 106 64
130 106 64
130 107 63
130 108 63
130 108 63
129 109 62
129 109 62
129 110 62
129 111 62
129 111 61
129 112 61
129 113 61
129 113 61
129 114 60
129 115 60
129 115 60
129 116 59
128 116 59
128 117 59
128 118 59
128 118 58
128 119 58
128 120 58
128 120 58
128 121 57
128 122 57
128 122 57
128 123 56
127 123 56
127 124 56
127 125 56
127 125 55
127 126 55
127 127 55
127 127 54
127 128 54
127 129 54
127 129 54
127 130 53
127 131 53
126 131 53
126 132 53
126 132 52
126 133 52
126 134 52
126 134 51
126 135 51
126 136 51
126 136 51
126 137 50
126 138 50
125 138 50
125 139 49
125 139 49
125 140 49
125 141 49
125 141 48
125 142 48
125 143 48
125 143 48
125 144 47
125 145 47
125 145 47
124 146 46
124 146 46
124 147 46
124 148 46
124 148 45
124 149 45
124 150 45
124 150 45
124 151 44
124 152 44
124 152 44
123 153 43
123 154 43
123 154 43
123 155 43
123 155 42
123 156 42
123 157 42
123 157 41
123 158 41
123 159 41
123 159 41
123 160 40
122 161 40
122 161 40
122 162 40
122 162 39
122 163 39
122 164 39
122 164 38
122 165 38
122 166 38
122 166 38
122 167 37
121 168 37
121 168 37
121 169 37
121 170 36
121 170 36
121 171 36
121 171 35
121 172 35
121 173 35
121 173 35
121 174 34
121 175 34
120 175 34
120 176 33
120 177 33
120 177 33
120 178 33
120 178 32
120 179 32
120 180 32
120 180 32
120 181 31
120 182 31
119 182 31
119 183 30
119 184 30
119 184 30
119 185 30
119 185 29
119 186 29
119 187 29
119 187 29
119 188 28
119 189 28
119 189 28
118 190 27
118 191 27
118 191 27
118 192 27
118 193 26
118 193 26
118 194 26
118 194 25
118 195 25
118 196 25
118 196 25
118 197 24
117 198 24
117 198 24
117 199 24
117 200 23
117 200 23
117 201 23
117 201 22
117 202 22
117 203 22
117 203 22
117 204 21
116 205 21
116 205 21
116 206 20
116 207 20
116 207 20
116 208 20
116 208 19
116 209 19
116 210 19
116 210 19
116 211 18
116 212 18
115 212 18
115 213 17
115 214 17
115 214 17
115 215 17
115 216 16
115 216 16
115 217 16
115 217 16
115 218 15
115 219 15
114 219 15
114 220 14
114 221 14
114 221 14
114 222 14
114 223 13
114 223 13
114 224 13
114 224 12
114 225 12
114 226 12
114 226 12
113 227 11
113 228 11
113 228 11
113 229 11
113 230 10
113 230 10
113 231 10
113 231 9
113 232 9
113 233 9
113 233 9
112 234 8
112 235 8
112 235 8
112 236 8
112 237 7
112 237 7
112 238 7
112 239 6
112 239 6
112 240 6
112 240 6
112 241 5
111 242 5
111 242 5
111 243 4
111 244 4
111 244 4
111 245 4
111 246 3
111 246 3
111 247 3
111 247 3
111 248 2
110 249 2
110 249 2
110 250 1
110 251 1
110 251 1
110 252 1
110 253 0
110 253 0
110 254 0
110 255 0
146 0 108
145 0 108
145 1 108
145 1 108
145 2 107
145 3 107
145 3 107
145 4 107
145 5 106
145 5 106
145 6 106
145 7 105
144 7 105
144 8 105
144 8 105
144 9 104
144 10 104
144 10 104
144 11 104
144 12 103
144 12 103
144 13 103
144 14 102
143 14 102
143 15 102
143 15 102
143 16 101
143 17 101
143 17 101
143 18 101
143 19 100
143 19 100
143 20 100
143 21 99
142 21 99
142 22 99
142 23 99
142 23 98
142 24 98
142 24 98
142 25 98
142 26 97
142 26 97
142 27 97
141 28 96
141 28 96
141 29 96
141 30 96
141 30 95
141 31 95
141 31 95
141 32 94
141 33 94
141 33 94
141 34 94
140 35 93
140 35 93
140 36 93
140 37 93
140 37 92
140 38 92
140 38 92
140 39 91
140 40 91
140 40 91
140 41 91
139 42 90
139 42 90
139 43 90
139 44 90
139 44 89
139 45 89
139 46 89
139 46 88
139 47 88
139 47 88
139 48 88
138 49 87
138 49 87
138 50 87
138 51 87
138 51 86
138 52 86
138 53 86
138 53 85
138 54 85
138 54 85
137 55 85
137 56 84
137 56 84
137 57 84
137 58 84
137 58 83
137 59 83
137 60 83
137 60 82
137 61 82
137 61 82
136 62 82
136 63 81
136 63 81
136 64 81
136 65 81
136 65 80
136 66 80
136 67 80
136 67 79
136 68 79
136 69 79
135 69 79
135 70 78
135 70 78
135 71 78
135 72 78
135 72 77
135 73 77
135 74 77
135 74 76
135 75 76
134 76 76
134 76 76
134 77 75
134 77 75
134 78 75
134 79 75
134 79 74
134 80 74
134 81 74
134 81 73
134 82 73
133 83 73
133 83 73
133 84 72
133 85 72
133 85 72
133 86 72
133 86 71
133 87 71
133 88 71
133 88 70
133 89 70
132 90 70
132 90 70
132 91 69
132 92 69
132 92 69
132 93 69
132 93 68
132 94 68
132 95 68
132 95 67
132 96 67
131 97 67
131 97 67
131 98 66
131 99 66
131 99 66
131 100 66
131 100 65
131 101 65
131 102 65
131 102 64
130 103 64
130 104 64
130 104 64
130 105 63
130 106 63
130 106 63
130 107 63
130 108 62
130 108 62
130 109 62
130 109 61
129 110 61
129 111 61
129 111 61
129 112 60
129 113 60
129 113 60
129 114 60
129 115 59
129 115 59
129 116 59
129 116 58
128 117 58
128 118 58
128 118 58
128 119 57
128 120 57
128 120 57
128 121 57
128 122 56
128 122 56
128 123 56
128 123 55
127 124 55
127 125 55
127 125 55
127 126 54
127 127 54
127 127 54
127 128 54
127 129 53
127 129 53
127 130 53
126 131 52
126 131 52
126 132 52
126 132 52
126 133 51
126 134 51
126 134 51
126 135 51
126 136 50
126 136 50
126 137 50
125 138 49
125 138 49
125 139 49
125 139 49
125 140 48
125 141 48
125 141 48
125 142 48
125 143 47
125 143 47
125 144 47
124 145 46
124 145 46
124 146 46
124 146 46
124 147 45
124 148 45
124 148 45
124 149 45
124 150 44
124 150 44
124 151 44
123 152 43
123 152 43
123 153 43
123 154 43
123 154 42
123 155 42
123 155 42
123 156 42
123 157 41
123 157 41
122 158 41
122 159 40
122 159 40
122 160 40
122 161 40
122 161 39
122 162 39
122 162 39
122 163 39
122 164 38
122 164 38
121 165 38
121 166 37
121 166 37
121 167 37
121 168 37
121 168 36
121 169 36
121 170 36
121 170 36
121 171 35
121 171 35
120 172 35
120 173 34
120 173 34
120 174 34
120 175 34
120 175 33
120 176 33
120 177 33
120 177 33
120 178 32
120 178 32
119 179 32
119 180 31
119 180 31
119 181 31
119 182 31
119 182 30
119 183 30
119 184 30
119 184 30
119 185 29
118 185 29
118 186 29
118 187 28
118 187 28
118 188 28
118 189 28
118 189 27
118 190 27
118 191 27
118 191 27
118 192 26
117 193 26
117 193 26
117 194 25
117 194 25
117 195 25
117 196 25
117 196 24
117 197 24
117 198 24
117 198 24
117 199 23
116 200 23
116 200 23
116 201 22
116 201 22
116 202 22
116 203 22
116 203 21
116 204 21
116 205 21
116 205 21
115 206 20
115 207 20
115 207 20
115 208 19
115 208 19
115 209 19
115 210 19
115 210 18
115 211 18
115 212 18
115 212 18
114 213 17
114 214 17
114 214 17
114 215 16
114 216 16
114 216 16
114 217 16
114 217 15
114 218 15
114 219 15
114 219 15
113 220 14
113 221 14
113 221 14
113 222 13
113 223 13
113 223 13
113 224 13
113 224 12
113 225 12
113 226 12
113 226 12
112 227 11
112 228 11
112 228 11
112 229 10
112 230 10
112 230 10
112 231 10
112 231 9
112 232 9
112 233 9
111 233 9
111 234 8
111 235 8
111 235 8
111 236 7
111 237 7
111 237 7
111 238 7
111 239 6
111 239 6
111 240 6
110 240 6
110 241 5
110 242 5
110 242 5
110 243 4
110 244 4
110 244 4
110 245 4
110 246 3
110 246 3
110 247 3
109 247 3
109 248 2
109 249 2
109 249 2
109 250 1
109 251 1
109 251 1
109 252 1
109 253 0
109 253 0
109 254 0
108 255 0
147 0 107
147 0 107
147 1 107
147 1 106
146 2 106
146 3 106
146 3 106
146 4 105
146 5 105
146 5 105
146 6 104
146 7 104
146 7 104
146 8 104
145 8 103
145 9 103
145 10 103
145 10 103
145 11 102
145 12 102
145 12 102
145 13 101
145 14 101
145 14 101
144 15 101
144 15 100
144 16 100
144 17 100
144 17 100
144 18 99
144 19 99
144 19 99
144 20 99
144 21 98
143 21 98
143 22 98
143 23 97
143 23 97
143 24 97
143 24 97
143 25 96
143 26 96
143 26 96
143 27 96
142 28 95
142 28 95
142 29 95
142 30 94
142 30 94
142 31 94
142 31 94
142 32 93
142 33 93
142 33 93
141 34 93
141 35 92
141 35 92
141 36 92
141 37 91
141 37 91
141 38 91
141 38 91
141 39 90
141 40 90
140 40 90
140 41 90
140 42 89
140 42 89
140 43 89
140 44 89
140 44 88
140 45 88
140 46 88
140 46 87
139 47 87
139 47 87
139 48 87
139 49 86
139 49 86
139 50 86
139 51 86
139 51 85
139 52 85
139 53 85
138 53 84
138 54 84
138 54 84
138 55 84
138 56 83
138 56 83
138 57 83
138 58 83
138 58 82
138 59 82
138 60 82
137 60 82
137 61 81
137 61 81
137 62 81
137 63 80
137 63 80
137 64 80
137 65 80
137 65 79
137 66 79
136 67 79
136 67 79
136 68 78
136 69 78
136 69 78
136 70 77
136 70 77
136 71 77
136 72 77
136 72 76
135 73 76
135 74 76
135 74 76
135 75 75
135 76 75
135 76 75
135 77 74
135 77 74
135 78 74
135 79 74
134 79 73
134 80 73
134 81 73
134 81 73
134 82 72
134 83 72
134 83 72
134 84 72
134 85 71
134 85 71
133 86 71
133 86 70
133 87 70
133 88 70
133 88 70
133 89 69
133 90 69
133 90 69
133 91 69
133 92 68
132 92 68
132 93 68
132 93 67
132 94 67
132 95 67
132 95 67
132 96 66
132 97 66
132 97 66
132 98 66
131 99 65
131 99 65
131 100 65
131 100 65
131 101 64
131 102 64
131 102 64
131 103 63
131 104 63
131 104 63
130 105 63
130 106 62
130 106 62
130 107 62
130 108 62
130 108 61
130 109 61
130 109 61
130 110 60
130 111 60
129 111 60
129 112 60
129 113 59
129 113 59
129 114 59
129 115 59
129 115 58
129 116 58
129 116 58
129 117 58
128 118 57
128 118 57
128 119 57
128 120 56
128 120 56
128 121 56
128 122 56
128 122 55
128 123 55
128 123 55
127 124 55
127 125 54
127 125 54
127 126 54
127 127 53
127 127 53
127 128 53
127 129 53
127 129 52
127 130 52
126 131 52
126 131 52
126 132 51
126 132 51
126 133 51
126 134 50
126 134 50
126 135 50
126 136 50
126 136 49
125 137 49
125 138 49
125 138 49
125 139 48
125 139 48
125 140 48
125 141 48
125 141 47
125 142 47
125 143 47
124 143 46
124 144 46
124 145 46
124 145 46
124 146 45
124 146 45
124 147 45
124 148 45
124 148 44
124 149 44
123 150 44
123 150 43
123 151 43
123 152 43
123 152 43
123 153 42
123 154 42
123 154 42
123 155 42
123 155 41
122 156 41
122 157 41
122 157 41
122 158 40
122 159 40
122 159 40
122 160 39
122 161 39
122 161 39
122 162 39
121 162 38
121 163 38
121 164 38
121 164 38
121 165 37
121 166 37
121 166 37
121 167 36
121 168 36
121 168 36
120 169 36
120 170 35
120 170 35
120 171 35
120 171 35
120 172 34
120 173 34
120 173 34
120 174 33
120 175 33
119 175 33
119 176 33
119 177 32
119 177 32
119 178 32
119 178 32
119 179 31
119 180 31
119 180 31
119 181 31
118 182 30
118 182 30
118 183 30
118 184 29
118 184 29
118 185 29
118 185 29
118 186 28
118 187 28
118 187 28
117 188 28
117 189 27
117 189 27
117 190 27
117 191 26
117 191 26
117 192 26
117 193 26
117 193 25
117 194 25
116 194 25
116 195 25
116 196 24
116 196 24
116 197 24
116 198 24
116 198 23
116 199 23
116 200 23
116 200 22
116 201 22
115 201 22
115 202 22
115 203 21
115 203 21
115 204 21
115 205 21
115 205 20
115 206 20
115 207 20
115 207 19
114 208 19
114 208 19
114 209 19
114 210 18
114 210 18
114 211 18
114 212 18
114 212 17
114 213 17
114 214 17
113 214 16
113 215 16
113 216 16
113 216 16
113 217 15
113 217 15
113 218 15
113 219 15
113 219 14
113 220 14
112 221 14
112 221 14
112 222 13
112 223 13
112 223 13
112 224 12
112 224 12
112 225 12
112 226 12
112 226 11
111 227 11
111 228 11
111 228 11
111 229 10
111 230 10
111 230 10
111 231 9
111 231 9
111 232 9
111 233 9
110 233 8
110 234 8
110 235 8
110 235 8
110 236 7
110 237 7
110 237 7
110 238 7
110 239 6
110 239 6
109 240 6
109 240 5
109 241 5
109 242 5
109 242 5
109 243 4
109 244 4
109 244 4
109 245 4
109 246 3
108 246 3
108 247 3
108 247 2
108 248 2
108 249 2
108 249 2
108 250 1
108 251 1
108 251 1
108 252 1
107 253 0
107 253 0
107 254 0
107 255 0
148 0 106
148 0 106
148 1 105
148 1 105
148 2 105
148 3 105
148 3 104
147 4 104
147 5 104
147 5 103
147 6 103
147 7 103
147 7 103
147 8 102
147 8 102
147 9 102
146 10 102
146 10 101
146 11 101
146 12 101
146 12 101
146 13 100
146 14 100
146 14 100
146 15 99
145 15 99
145 16 99
145 17 99
145 17 98
145 18 98
145 19 98
145 19 98
145 20 97
145 21 97
145 21 97
144 22 97
144 23 96
144 23 96
144 24 96
144 24 95
144 25 95
144 26 95
144 26 95
144 27 94
143 28 94
143 28 94
143 29 94
143 30 93
143 30 93
143 31 93
143 31 93
143 32 92
143 33 92
143 33 92
142 34 91
142 35 91
142 35 91
142 36 91
142 37 90
142 37 90
142 38 90
142 38 90
142 39 89
141 40 89
141 40 89
141 41 89
141 42 88
141 42 88
141 43 88
141 44 87
141 44 87
141 45 87
141 46 87
140 46 86
140 47 86
140 47 86
140 48 86
140 49 85
140 49 85
140 50 85
140 51 85
140 51 84
139 52 84
139 53 84
139 53 83
139 54 83
139 54 83
139 55 83
139 56 82
139 56 82
139 57 82
138 58 82
138 58 81
138 59 81
138 60 81
138 60 81
138 61 80
138 61 80
138 62 80
138 63 79
138 63 79
137 64 79
137 65 79
137 65 78
137 66 78
137 67 78
137 67 78
137 68 77
137 69 77
137 69 77
136 70 77
136 70 76
136 71 76
136 72 76
136 72 75
136 73 75
136 74 75
136 74 75
136 75 74
136 76 74
135 76 74
135 77 74
135 77 73
135 78 73
135 79 73
135 79 73
135 80 72
135 81 72
135 81 72
134 82 71
134 83 71
134 83 71
134 84 71
134 85 70
134 85 70
134 86 70
134 86 70
134 87 69
134 88 69
133 88 69
133 89 69
133 90 68
133 90 68
133 91 68
133 92 67
133 92 67
133 93 67
133 93 67
132 94 66
132 95 66
132 95 66
132 96 66
132 97 65
132 97 65
132 98 65
132 99 65
132 99 64
132 100 64
131 100 64
131 101 63
131 102 63
131 102 63
131 103 63
131 104 62
131 104 62
131 105 62
131 106 62
130 106 61
130 107 61
130 108 61
130 108 61
130 109 60
130 109 60
130 110 60
130 111 59
130 111 59
129 112 59
129 113 59
129 113 58
129 114 58
129 115 58
129 115 58
129 116 57
129 116 57
129 117 57
129 118 57
128 118 56
128 119 56
128 120 56
128 120 55
128 121 55
128 122 55
128 122 55
128 123 54
128 123 54
127 124 54
127 125 54
127 125 53
127 126 53
127 127 53
127 127 53
127 128 52
127 129 52
127 129 52
127 130 51
126 131 51
126 131 51
126 132 51
126 132 50
126 133 50
126 134 50
126 134 50
126 135 49
126 136 49
125 136 49
125 137 49
125 138 48
125 138 48
125 139 48
125 139 47
125 140 47
125 141 47
125 141 47
125 142 46
124 143 46
124 143 46
124 144 46
124 145 45
124 145 45
124 146 45
124 146 45
124 147 44
124 148 44
123 148 44
123 149 43
123 150 43
123 150 43
123 151 43
123 152 42
123 152 42
123 153 42
123 154 42
122 154 41
122 155 41
122 155 41
122 156 41
122 157 40
122 157 40
122 158 40
122 159 39
122 159 39
122 160 39
121 161 39
121 161 38
121 162 38
121 162 38
121 163 38
121 164 37
121 164 37
121 165 37
121 166 37
120 166 36
120 167 36
120 168 36
120 168 35
120 169 35
120 170 35
120 170 35
120 171 34
120 171 34
120 172 34
119 173 34
119 173 33
119 174 33
119 175 33
119 175 33
119 176 32
119 177 32
119 177 32
119 178 31
118 178 31
118 179 31
118 180 31
118 180 30
118 181 30
118 182 30
118 182 30
118 183 29
118 184 29
118 184 29
117 185 29
117 185 28
117 186 28
117 187 28
117 187 27
117 188 27
117 189 27
117 189 27
117 190 26
116 191 26
116 191 26
116 192 26
116 193 25
116 193 25
116 194 25
116 194 25
116 195 24
116 196 24
116 196 24
115 197 23
115 198 23
115 198 23
115 199 23
115 200 22
115 200 22
115 201 22
115 201 22
115 202 21
114 203 21
114 203 21
114 204 21
114 205 20
114 205 20
114 206 20
114 207 19
114 207 19
114 208 19
113 208 19
113 209 18
113 210 18
113 210 18
113 211 18
113 212 17
113 212 17
113 213 17
113 214 17
113 214 16
112 215 16
112 216 16
112 216 15
112 217 15
112 217 15
112 218 15
112 219 14
112 219 14
112 220 14
111 221 14
111 221 13
111 222 13
111 223 13
111 223 13
111 224 12
111 224 12
111 225 12
111 226 11
111 226 11
110 227 11
110 228 11
110 228 10
110 229 10
110 230 10
110 230 10
110 231 9
110 231 9
110 232 9
109 233 9
109 233 8
109 234 8
109 235 8
109 235 7
109 236 7
109 237 7
109 237 7
109 238 6
109 239 6
108 239 6
108 240 6
108 240 5
108 241 5
108 242 5
108 242 5
108 243 4
108 244 4
108 244 4
107 245 3
107 246 3
107 246 3
107 247 3
107 247 2
107 248 2
107 249 2
107 249 2
107 250 1
106 251 1
106 251 1
106 252 1
106 253 0
106 253 0
106 254 0
106 255 0
149 0 105
149 0 104
149 1 104
149 1 104
149 2 104
149 3 103
149 3 103
149 4 103
149 5 102
148 5 102
148 6 102
148 7 102
148 7 101
148 8 101
148 8 101
148 9 101
148 10 100
148 10 100
147 11 100
147 12 100
147 12 99
147 13 99
147 14 99
147 14 99
147 15 98
147 15 98
147 16 98
146 17 97
146 17 97
146 18 97
146 19 97
146 19 96
146 20 96
146 21 96
146 21 96
145 22 95
145 23 95
145 23 95
145 24 95
145 24 94
145 25 94
145 26 94
145 26 94
145 27 93
144 28 93
144 28 93
144 29 92
144 30 92
144 30 92
144 31 92
144 31 91
144 32 91
144 33 91
143 33 91
143 34 90
143 35 90
143 35 90
143 36 90
143 37 89
143 37 89
143 38 89
143 38 89
142 39 88
142 40 88
142 40 88
142 41 87
142 42 87
142 42 87
142 43 87
142 44 86
142 44 86
141 45 86
141 46 86
141 46 85
141 47 85
141 47 85
141 48 85
141 49 84
141 49 84
141 50 84
140 51 84
140 51 83
140 52 83
140 53 83
140 53 82
140 54 82
140 54 82
140 55 82
140 56 81
139 56 81
139 57 81
139 58 81
139 58 80
139 59 80
139 60 80
139 60 80
139 61 79
139 61 79
138 62 79
138 63 79
138 63 78
138 64 78
138 65 78
138 65 77
138 66 77
138 67 77
138 67 77
137 68 76
137 69 76
137 69 76
137 70 76
137 70 75
137 71 75
137 72 75
137 72 75
136 73 74
136 74 74
136 74 74
136 75 74
136 76 73
136 76 73
136 77 73
136 77 72
136 78 72
135 79 72
135 79 72
135 80 71
135 81 71
135 81 71
135 82 71
135 83 70
135 83 70
135 84 70
134 85 70
134 85 69
134 86 69
134 86 69
134 87 68
134 88 68
134 88 68
134 89 68
134 90 67
133 90 67
133 91 67
133 92 67
133 92 66
133 93 66
133 93 66
133 94 66
133 95 65
133 95 65
132 96 65
132 97 65
132 97 64
132 98 64
132 99 64
132 99 63
132 100 63
132 100 63
132 101 63
131 102 62
131 102 62
131 103 62
131 104 62
131 104 61
131 105 61
131 106 61
131 106 61
131 107 60
130 108 60
130 108 60
130 109 60
130 109 59
130 110 59
130 111 59
130 111 58
130 112 58
130 113 58
129 113 58
129 114 57
129 115 57
129 115 57
129 116 57
129 116 56
129 117 56
129 118 56
129 118 56
128 119 55
128 120 55
128 120 55
128 121 55
128 122 54
128 122 54
128 123 54
128 123 53
128 124 53
127 125 53
127 125 53
127 126 52
127 127 52
127 127 52
127 128 52
127 129 51
127 129 51
126 130 51
126 131 51
126 131 50
126 132 50
126 132 50
126 133 50
126 134 49
126 134 49
126 135 49
125 136 48
125 136 48
125 137 48
125 138 48
125 138 47
125 139 47
125 139 47
125 140 47
125 141 46
124 141 46
124 142 46
124 143 46
124 143 45
124 144 45
124 145 45
124 145 45
124 146 44
124 146 44
123 147 44
123 148 43
123 148 43
123 149 43
123 150 43
123 150 42
123 151 42
123 152 42
123 152 42
122 153 41
122 154 41
122 154 41
122 155 41
122 155 40
122 156 40
122 157 40
122 157 40
122 158 39
121 159 39
121 159 39
121 160 38
121 161 38
121 161 38
121 162 38
121 162 37
121 163 37
121 164 37
120 164 37
120 165 36
120 166 36
120 166 36
120 167 36
120 168 35
120 168 35
120 169 35
120 170 35
119 170 34
119 171 34
119 171 34
119 172 33
119 173 33
119 173 33
119 174 33
119 175 32
119 175 32
118 176 32
118 177 32
118 177 31
118 178 31
118 178 31
118 179 31
118 180 30
118 180 30
118 181 30
117 182 30
117 182 29
117 183 29
117 184 29
117 184 28
117 185 28
117 185 28
117 186 28
116 187 27
116 187 27
116 188 27
116 189 27
116 189 26
116 190 26
116 191 26
116 191 26
116 192 25
115 193 25
115 193 25
115 194 25
115 194 24
115 195 24
115 196 24
115 196 23
115 197 23
115 198 23
114 198 23
114 199 22
114 200 22
114 200 22
114 201 22
114 201 21
114 202 21
114 203 21
114 203 21
113 204 20
113 205 20
113 205 20
113 206 20
113 207 19
113 207 19
113 208 19
113 208 18
113 209 18
112 210 18
112 210 18
112 211 17
112 212 17
112 212 17
112 213 17
112 214 16
112 214 16
112 215 16
111 216 16
111 216 15
111 217 15
111 217 15
111 218 15
111 219 14
111 219 14
111 220 14
111 221 13
110 221 13
110 222 13
110 223 13
110 223 12
110 224 12
110 224 12
110 225 12
110 226 11
110 226 11
109 227 11
109 228 11
109 228 10
109 229 10
109 230 10
109 230 10
109 231 9
109 231 9
109 232 9
108 233 8
108 233 8
108 234 8
108 235 8
108 235 7
108 236 7
108 237 7
108 237 7
107 238 6
107 239 6
107 239 6
107 240 6
107 240 5
107 241 5
107 242 5
107 242 5
107 243 4
106 244 4
106 244 4
106 245 3
106 246 3
106 246 3
106 247 3
106 247 2
106 248 2
106 249 2
105 249 2
105 250 1
105 251 1
105 251 1
105 252 1
105 253 0
105 253 0
105 254 0
105 255 0
151 0 103
151 0 103
150 1 103
150 1 103
150 2 102
150 3 102
150 3 102
150 4 101
150 5 101
150 5 101
150 6 101
149 7 100
149 7 100
149 8 100
149 8 100
149 9 99
149 10 99
149 10 99
149 11 99
148 12 98
148 12 98
148 13 98
148 14 98
148 14 97
148 15 97
148 15 97
148 16 97
147 17 96
147 17 96
147 18 96
147 19 95
147 19 95
147 20 95
147 21 95
147 21 94
147 22 94
146 23 94
146 23 94
146 24 93
146 24 93
146 25 93
146 26 93
146 26 92
146 27 92
145 28 92
145 28 92
145 29 91
145 30 91
145 30 91
145 31 91
145 31 90
145 32 90
145 33 90
144 33 90
144 34 89
144 35 89
144 35 89
144 36 88
144 37 88
144 37 88
144 38 88
143 38 87
143 39 87
143 40 87
143 40 87
143 41 86
143 42 86
143 42 86
143 43 86
143 44 85
142 44 85
142 45 85
142 46 85
142 46 84
142 47 84
142 47 84
142 48 84
142 49 83
141 49 83
141 50 83
141 51 82
141 51 82
141 52 82
141 53 82
141 53 81
141 54 81
140 54 81
140 55 81
140 56 80
140 56 80
140 57 80
140 58 80
140 58 79
140 59 79
140 60 79
139 60 79
139 61 78
139 61 78
139 62 78
139 63 78
139 63 77
139 64 77
139 65 77
138 65 77
138 66 76
138 67 76
138 67 76
138 68 75
138 69 75
138 69 75
138 70 75
138 70 74
137 71 74
137 72 74
137 72 74
137 73 73
137 74 73
137 74 73
137 75 73
137 76 72
136 76 72
136 77 72
136 77 72
136 78 71
136 79 71
136 79 71
136 80 71
136 81 70
135 81 70
135 82 70
135 83 69
135 83 69
135 84 69
135 85 69
135 85 68
135 86 68
135 86 68
134 87 68
134 88 67
134 88 67
134 89 67
134 90 67
134 90 66
134 91 66
134 92 66
133 92 66
133 93 65
133 93 65
133 94 65
133 95 65
133 95 64
133 96 64
133 97 64
133 97 63
132 98 63
132 99 63
132 99 63
132 100 62
132 100 62
132 101 62
132 102 62
132 102 61
131 103 61
131 104 61
131 104 61
131 105 60
131 106 60
131 106 60
131 107 60
131 108 59
131 108 59
130 109 59
130 109 59
130 110 58
130 111 58
130 111 58
130 112 58
130 113 57
130 113 57
129 114 57
129 115 56
129 115 56
129 116 56
129 116 56
129 117 55
129 118 55
129 118 55
128 119 55
128 120 54
128 120 54
128 121 54
128 122 54
128 122 53
128 123 53
128 123 53
128 124 53
127 125 52
127 125 52
127 126 52
127 127 52
127 127 51
127 128 51
127 129 51
127 129 50
126 130 50
126 131 50
126 131 50
126 132 49
126 132 49
126 133 49
126 134 49
126 134 48
126 135 48
125 136 48
125 136 48
125 137 47
125 138 47
125 138 47
125 139 47
125 139 46
125 140 46
124 141 46
124 141 46
124 142 45
124 143 45
124 143 45
124 144 45
124 145 44
124 145 44
123 146 44
123 146 43
123 147 43
123 148 43
123 148 43
123 149 42
123 150 42
123 150 42
123 151 42
122 152 41
122 152 41
122 153 41
122 154 41
122 154 40
122 155 40
122 155 40
122 156 40
121 157 39
121 157 39
121 158 39
121 159 39
121 159 38
121 160 38
121 161 38
121 161 37
121 162 37
120 162 37
120 163 37
120 164 36
120 164 36
120 165 36
120 166 36
120 166 35
120 167 35
119 168 35
119 168 35
119 169 34
119 170 34
119 170 34
119 171 34
119 171 33
119 172 33
119 173 33
118 173 33
118 174 32
118 175 32
118 175 32
118 176 31
118 177 31
118 177 31
118 178 31
117 178 30
117 179 30
117 180 30
117 180 30
117 181 29
117 182 29
117 182 29
117 183 29
116 184 28
116 184 28
116 185 28
116 185 28
116 186 27
116 187 27
116 187 27
116 188 27
116 189 26
115 189 26
115 190 26
115 191 26
115 191 25
115 192 25
115 193 25
115 193 24
115 194 24
114 194 24
114 195 24
114 196 23
114 196 23
114 197 23
114 198 23
114 198 22
114 199 22
114 200 22
113 200 22
113 201 21
113 201 21
113 202 21
113 203 21
113 203 20
113 204 20
113 205 20
112 205 20
112 206 19
112 207 19
112 207 19
112 208 18
112 208 18
112 209 18
112 210 18
111 210 17
111 211 17
111 212 17
111 212 17
111 213 16
111 214 16
111 214 16
111 215 16
111 216 15
110 216 15
110 217 15
110 217 15
110 218 14
110 219 14
110 219 14
110 220 14
110 221 13
109 221 13
109 222 13
109 223 13
109 223 12
109 224 12
109 224 12
109 225 11
109 226 11
109 226 11
108 227 11
108 228 10
108 228 10
108 229 10
108 230 10
108 230 9
108 231 9
108 231 9
107 232 9
107 233 8
107 233 8
107 234 8
107 235 8
107 235 7
107 236 7
107 237 7
107 237 7
106 238 6
106 239 6
106 239 6
106 240 5
106 240 5
106 241 5
106 242 5
106 242 4
105 243 4
105 244 4
105 244 4
105 245 3
105 246 3
105 246 3
105 247 3
105 247 2
104 248 2
104 249 2
104 249 2
104 250 1
104 251 1
104 251 1
104 252 1
104 253 0
104 253 0
103 254 0
103 255 0
152 0 102
152 0 102
152 1 101
152 1 101
151 2 101
151 3 101
151 3 100
151 4 100
151 5 100
151 5 100
151 6 99
151 7 99
150 7 99
150 8 99
150 8 98
150 9 98
150 10 98
150 10 98
150 11 97
150 12 97
149 12 97
149 13 97
149 14 96
149 14 96
149 15 96
149 15 96
149 16 95
149 17 95
148 17 95
148 18 95
148 19 94
148 19 94
148 20 94
148 21 94
148 21 93
148 22 93
147 23 93
147 23 93
147 24 92
147 24 92
147 25 92
147 26 91
147 26 91
147 27 91
146 28 91
146 28 90
146 29 90
146 30 90
146 30 90
146 31 89
146 31 89
146 32 89
145 33 89
145 33 88
145 34 88
145 35 88
145 35 88
145 36 87
145 37 87
145 37 87
144 38 87
144 38 86
144 39 86
144 40 86
144 40 86
144 41 85
144 42 85
144 42 85
143 43 85
143 44 84
143 44 84
143 45 84
143 46 84
143 46 83
143 47 83
143 47 83
142 48 82
142 49 82
142 49 82
142 50 82
142 51 81
142 51 81
142 52 81
142 53 81
141 53 80
141 54 80
141 54 80
141 55 80
141 56 79
141 56 79
141 57 79
141 58 79
140 58 78
140 59 78
140 60 78
140 60 78
140 61 77
140 61 77
140 62 77
140 63 77
139 63 76
139 64 76
139 65 76
139 65 76
139 66 75
139 67 75
139 67 75
139 68 75
138 69 74
138 69 74
138 70 74
138 70 73
138 71 73
138 72 73
138 72 73
138 73 72
137 74 72
137 74 72
137 75 72
137 76 71
137 76 71
137 77 71
137 77 71
137 78 70
136 79 70
136 79 70
136 80 70
136 81 69
136 81 69
136 82 69
136 83 69
136 83 68
135 84 68
135 85 68
135 85 68
135 86 67
135 86 67
135 87 67
135 88 67
135 88 66
134 89 66
134 90 66
134 90 66
134 91 65
134 92 65
134 92 65
134 93 65
134 93 64
133 94 64
133 95 64
133 95 63
133 96 63
133 97 63
133 97 63
133 98 62
133 99 62
132 99 62
132 100 62
132 100 61
132 101 61
132 102 61
132 102 61
132 103 60
132 104 60
131 104 60
131 105 60
131 106 59
131 106 59
131 107 59
131 108 59
131 108 58
131 109 58
130 109 58
130 110 58
130 111 57
130 111 57
130 112 57
130 113 57
130 113 56
130 114 56
129 115 56
129 115 56
129 116 55
129 116 55
129 117 55
129 118 54
129 118 54
129 119 54
128 120 54
128 120 53
128 121 53
128 122 53
128 122 53
128 123 52
128 123 52
128 124 52
127 125 52
127 125 51
127 126 51
127 127 51
127 127 51
127 128 50
127 129 50
127 129 50
126 130 50
126 131 49
126 131 49
126 132 49
126 132 49
126 133 48
126 134 48
126 134 48
125 135 48
125 136 47
125 136 47
125 137 47
125 138 47
125 138 46
125 139 46
125 139 46
124 140 45
124 141 45
124 141 45
124 142 45
124 143 44
124 143 44
124 144 44
124 145 44
123 145 43
123 146 43
123 146 43
123 147 43
123 148 42
123 148 42
123 149 42
123 150 42
122 150 41
122 151 41
122 152 41
122 152 41
122 153 40
122 154 40
122 154 40
122 155 40
121 155 39
121 156 39
121 157 39
121 157 39
121 158 38
121 159 38
121 159 38
121 160 38
120 161 37
120 161 37
120 162 37
120 162 36
120 163 36
120 164 36
120 164 36
120 165 35
119 166 35
119 166 35
119 167 35
119 168 34
119 168 34
119 169 34
119 170 34
119 170 33
118 171 33
118 171 33
118 172 33
118 173 32
118 173 32
118 174 32
118 175 32
118 175 31
117 176 31
117 177 31
117 177 31
117 178 30
117 178 30
117 179 30
117 180 30
117 180 29
116 181 29
116 182 29
116 182 29
116 183 28
116 184 28
116 184 28
116 185 28
116 185 27
115 186 27
115 187 27
115 187 26
115 188 26
115 189 26
115 189 26
115 190 25
115 191 25
114 191 25
114 192 25
114 193 24
114 193 24
114 194 24
114 194 24
114 195 23
114 196 23
113 196 23
113 197 23
113 198 22
113 198 22
113 199 22
113 200 22
113 200 21
113 201 21
112 201 21
112 202 21
112 203 20
112 203 20
112 204 20
112 205 20
112 205 19
112 206 19
111 207 19
111 207 19
111 208 18
111 208 18
111 209 18
111 210 17
111 210 17
111 211 17
110 212 17
110 212 16
110 213 16
110 214 16
110 214 16
110 215 15
110 216 15
110 216 15
109 217 15
109 217 14
109 218 14
109 219 14
109 219 14
109 220 13
109 221 13
109 221 13
108 222 13
108 223 12
108 223 12
108 224 12
108 224 12
108 225 11
108 226 11
108 226 11
107 227 11
107 228 10
107 228 10
107 229 10
107 230 10
107 230 9
107 231 9
107 231 9
106 232 8
106 233 8
106 233 8
106 234 8
106 235 7
106 235 7
106 236 7
106 237 7
105 237 6
105 238 6
105 239 6
105 239 6
105 240 5
105 240 5
105 241 5
105 242 5
104 242 4
104 243 4
104 244 4
104 244 4
104 245 3
104 246 3
104 246 3
104 247 3
103 247 2
103 248 2
103 249 2
103 249 2
103 250 1
103 251 1
103 251 1
103 252 1
102 253 0
102 253 0
102 254 0
102 255 0
153 0 101
153 0 100
153 1 100
153 1 100
153 2 100
153 3 99
152 3 99
152 4 99
152 5 99
152 5 98
152 6 98
152 7 98
152 7 98
152 8 97
151 8 97
151 9 97
151 10 97
151 10 96
151 11 96
151 12 96
151 12 96
151 13 95
150 14 95
150 14 95
150 15 95
150 15 94
150 16 94
150 17 94
150 17 94
149 18 93
149 19 93
149 19 93
149 20 93
149 21 92
149 21 92
149 22 92
149 23 92
148 23 91
148 24 91
148 24 91
148 25 91
148 26 90
148 26 90
148 27 90
147 28 90
147 28 89
147 29 89
147 30 89
147 30 89
147 31 88
147 31 88
147 32 88
146 33 88
146 33 87
146 34 87
146 35 87
146 35 87
146 36 86
146 37 86
146 37 86
145 38 86
145 38 85
145 39 85
145 40 85
145 40 84
145 41 84
145 42 84
144 42 84
144 43 83
144 44 83
144 44 83
144 45 83
144 46 82
144 46 82
144 47 82
143 47 82
143 48 81
143 49 81
143 49 81
143 50 81
143 51 80
143 51 80
142 52 80
142 53 80
142 53 79
142 54 79
142 54 79
142 55 79
142 56 78
142 56 78
141 57 78
141 58 78
141 58 77
141 59 77
141 60 77
141 60 77
141 61 76
140 61 76
140 62 76
140 63 76
140 63 75
140 64 75
140 65 75
140 65 75
140 66 74
139 67 74
139 67 74
139 68 74
139 69 73
139 69 73
139 70 73
139 70 73
139 71 72
138 72 72
138 72 72
138 73 72
138 74 71
138 74 71
138 75 71
138 76 71
137 76 70
137 77 70
137 77 70
137 78 70
137 79 69
137 79 69
137 80 69
137 81 69
136 81 68
136 82 68
136 83 68
136 83 67
136 84 67
136 85 67
136 85 67
135 86 66
135 86 66
135 87 66
135 88 66
135 88 65
135 89 65
135 90 65
135 90 65
134 91 64
134 92 64
134 92 64
134 93 64
134 93 63
134 94 63
134 95 63
134 95 63
133 96 62
133 97 62
133 97 62
133 98 62
133 99 61
133 99 61
133 100 61
132 100 61
132 101 60
132 102 60
132 102 60
132 103 60
132 104 59
132 104 59
132 105 59
131 106 59
131 106 58
131 107 58
131 108 58
131 108 58
131 109 57
131 109 57
130 110 57
130 111 57
130 111 56
130 112 56
130 113 56
130 113 56
130 114 55
130 115 55
129 115 55
129 116 55
129 116 54
129 117 54
129 118 54
129 118 54
129 119 53
129 120 53
128 120 53
128 121 53
128 122 52
128 122 52
128 123 52
128 123 52
128 124 51
127 125 51
127 125 51
127 126 50
127 127 50
127 127 50
127 128 50
127 129 49
127 129 49
126 130 49
126 131 49
126 131 48
126 132 48
126 132 48
126 133 48
126 134 47
125 134 47
125 135 47
125 136 47
125 136 46
125 137 46
125 138 46
125 138 46
125 139 45
124 139 45
124 140 45
124 141 45
124 141 44
124 142 44
124 143 44
124 143 44
124 144 43
123 145 43
123 145 43
123 146 43
123 146 42
123 147 42
123 148 42
123 148 42
122 149 41
122 150 41
122 150 41
122 151 41
122 152 40
122 152 40
122 153 40
122 154 40
121 154 39
121 155 39
121 155 39
121 156 39
121 157 38
121 157 38
121 158 38
120 159 38
120 159 37
120 160 37
120 161 37
120 161 37
120 162 36
120 162 36
120 163 36
119 164 36
119 164 35
119 165 35
119 166 35
119 166 35
119 167 34
119 168 34
119 168 34
118 169 33
118 170 33
118 170 33
118 171 33
118 171 32
118 172 32
118 173 32
117 173 32
117 174 31
117 175 31
117 175 31
117 176 31
117 177 30
117 177 30
117 178 30
116 178 30
116 179 29
116 180 29
116 180 29
116 181 29
116 182 28
116 182 28
115 183 28
115 184 28
115 184 27
115 185 27
115 185 27
115 186 27
115 187 26
115 187 26
114 188 26
114 189 26
114 189 25
114 190 25
114 191 25
114 191 25
114 192 24
114 193 24
113 193 24
113 194 24
113 194 23
113 195 23
113 196 23
113 196 23
113 197 22
112 198 22
112 198 22
112 199 22
112 200 21
112 200 21
112 201 21
112 201 21
112 202 20
111 203 20
111 203 20
111 204 20
111 205 19
111 205 19
111 206 19
111 207 19
110 207 18
110 208 18
110 208 18
110 209 18
110 210 17
110 210 17
110 211 17
110 212 16
109 212 16
109 213 16
109 214 16
109 214 15
109 215 15
109 216 15
109 216 15
108 217 14
108 217 14
108 218 14
108 219 14
108 219 13
108 220 13
108 221 13
108 221 13
107 222 12
107 223 12
107 223 12
107 224 12
107 224 11
107 225 11
107 226 11
107 226 11
106 227 10
106 228 10
106 228 10
106 229 10
106 230 9
106 230 9
106 231 9
105 231 9
105 232 8
105 233 8
105 233 8
105 234 8
105 235 7
105 235 7
105 236 7
104 237 7
104 237 6
104 238 6
104 239 6
104 239 6
104 240 5
104 240 5
103 241 5
103 242 5
103 242 4
103 243 4
103 244 4
103 244 4
103 245 3
103 246 3
102 246 3
102 247 3
102 247 2
102 248 2
102 249 2
102 249 2
102 250 1
102 251 1
101 251 1
101 252 1
101 253 0
101 253 0
101 254 0
101 255 0
155 0 99
154 0 99
154 1 99
154 1 99
154 2 98
154 3 98
154 3 98
154 4 98
153 5 97
153 5 97
153 6 97
153 7 97
153 7 96
153 8 96
153 8 96
152 9 96
152 10 95
152 10 95
152 11 95
152 12 95
152 12 94
152 13 94
152 14 94
151 14 94
151 15 93
151 15 93
151 16 93
151 17 93
151 17 92
151 18 92
150 19 92
150 19 92
150 20 91
150 21 91
150 21 91
150 22 91
150 23 90
149 23 90
149 24 90
149 24 90
149 25 89
149 26 89
149 26 89
149 27 89
148 28 88
148 28 88
148 29 88
148 30 88
148 30 87
148 31 87
148 31 87
148 32 87
147 33 86
147 33 86
147 34 86
147 35 86
147 35 85
147 36 85
147 37 85
146 37 85
146 38 84
146 38 84
146 39 84
146 40 84
146 40 83
146 41 83
145 42 83
145 42 83
145 43 82
145 44 82
145 44 82
145 45 82
145 46 81
144 46 81
144 47 81
144 47 81
144 48 80
144 49 80
144 49 80
144 50 80
144 51 79
143 51 79
143 52 79
143 53 79
143 53 78
143 54 78
143 54 78
143 55 78
142 56 77
142 56 77
142 57 77
142 58 77
142 58 76
142 59 76
142 60 76
141 60 76
141 61 75
141 61 75
141 62 75
141 63 75
141 63 74
141 64 74
140 65 74
140 65 74
140 66 73
140 67 73
140 67 73
140 68 73
140 69 72
139 69 72
139 70 72
139 70 72
139 71 71
139 72 71
139 72 71
139 73 71
139 74 70
138 74 70
138 75 70
138 76 70
138 76 69
138 77 69
138 77 69
138 78 69
137 79 68
137 79 68
137 80 68
137 81 68
137 81 67
137 82 67
137 83 67
136 83 67
136 84 66
136 85 66
136 85 66
136 86 66
136 86 65
136 87 65
135 88 65
135 88 65
135 89 64
135 90 64
135 90 64
135 91 64
135 92 63
135 92 63
134 93 63
134 93 63
134 94 62
134 95 62
134 95 62
134 96 62
134 97 61
133 97 61
133 98 61
133 99 61
133 99 60
133 100 60
133 100 60
133 101 60
132 102 59
132 102 59
132 103 59
132 104 59
132 104 58
132 105 58
132 106 58
131 106 58
131 107 57
131 108 57
131 108 57
131 109 57
131 109 56
131 110 56
131 111 56
130 111 56
130 112 55
130 113 55
130 113 55
130 114 55
130 115 54
130 115 54
129 116 54
129 116 54
129 117 53
129 118 53
129 118 53
129 119 53
129 120 52
128 120 52
128 121 52
128 122 52
128 122 51
128 123 51
128 123 51
128 124 51
127 125 50
127 125 50
127 126 50
127 127 50
127 127 49
127 128 49
127 129 49
127 129 49
126 130 48
126 131 48
126 131 48
126 132 48
126 132 47
126 133 47
126 134 47
125 134 47
125 135 46
125 136 46
125 136 46
125 137 46
125 138 45
125 138 45
124 139 45
124 139 45
124 140 44
124 141 44
124 141 44
124 142 44
124 143 43
123 143 43
123 144 43
123 145 43
123 145 42
123 146 42
123 146 42
123 147 42
123 148 41
122 148 41
122 149 41
122 150 41
122 150 40
122 151 40
122 152 40
122 152 40
121 153 39
121 154 39
121 154 39
121 155 39
121 155 38
121 156 38
121 157 38
120 157 38
120 158 37
120 159 37
120 159 37
120 160 37
120 161 36
120 161 36
119 162 36
119 162 36
119 163 35
119 164 35
119 164 35
119 165 35
119 166 34
119 166 34
118 167 34
118 168 34
118 168 33
118 169 33
118 170 33
118 170 33
118 171 32
117 171 32
117 172 32
117 173 32
117 173 31
117 174 31
117 175 31
117 175 31
116 176 30
116 177 30
116 177 30
116 178 30
116 178 29
116 179 29
116 180 29
115 180 29
115 181 28
115 182 28
115 182 28
115 183 28
115 184 27
115 184 27
115 185 27
114 185 27
114 186 26
114 187 26
114 187 26
114 188 26
114 189 25
114 189 25
113 190 25
113 191 25
113 191 24
113 192 24
113 193 24
113 193 24
113 194 23
112 194 23
112 195 23
112 196 23
112 196 22
112 197 22
112 198 22
112 198 22
111 199 21
111 200 21
111 200 21
111 201 21
111 201 20
111 202 20
111 203 20
110 203 20
110 204 19
110 205 19
110 205 19
110 206 19
110 207 18
110 207 18
110 208 18
109 208 18
109 209 17
109 210 17
109 210 17
109 211 17
109 212 16
109 212 16
108 213 16
108 214 16
108 214 15
108 215 15
108 216 15
108 216 15
108 217 14
107 217 14
107 218 14
107 219 14
107 219 13
107 220 13
107 221 13
107 221 13
106 222 12
106 223 12
106 223 12
106 224 12
106 224 11
106 225 11
106 226 11
106 226 11
105 227 10
105 228 10
105 228 10
105 229 10
105 230 9
105 230 9
105 231 9
104 231 9
104 232 8
104 233 8
104 233 8
104 234 8
104 235 7
104 235 7
103 236 7
103 237 7
103 237 6
103 238 6
103 239 6
103 239 6
103 240 5
102 240 5
102 241 5
102 242 5
102 242 4
102 243 4
102 244 4
102 244 4
102 245 3
101 246 3
101 246 3
101 247 3
101 247 2
101 248 2
101 249 2
101 249 2
100 250 1
100 251 1
100 251 1
100 252 1
100 253 0
100 253 0
100 254 0
99 255 0
156 0 98
156 0 98
156 1 98
155 1 97
155 2 97
155 3 97
155 3 97
155 4 96
155 5 96
155 5 96
154 6 96
154 7 95
154 7 95
154 8 95
154 8 95
154 9 94
154 10 94
153 10 94
153 11 94
153 12 93
153 12 93
153 13 93
153 14 93
153 14 92
152 15 92
152 15 92
152 16 92
152 17 91
152 17 91
152 18 91
151 19 91
151 19 91
151 20 90
151 21 90
151 21 90
151 22 90
151 23 89
150 23 89
150 24 89
150 24 89
150 25 88
150 26 88
150 26 88
150 27 88
149 28 87
149 28 87
149 29 87
149 30 87
149 30 86
149 31 86
149 31 86
148 32 86
148 33 85
148 33 85
148 34 85
148 35 85
148 35 84
148 36 84
147 37 84
147 37 84
147 38 83
147 38 83
147 39 83
147 40 83
147 40 82
146 41 82
146 42 82
146 42 82
146 43 81
146 44 81
146 44 81
146 45 81
145 46 80
145 46 80
145 47 80
145 47 80
145 48 79
145 49 79
145 49 79
144 50 79
144 51 78
144 51 78
144 52 78
144 53 78
144 53 77
144 54 77
143 54 77
143 55 77
143 56 76
143 56 76
143 57 76
143 58 76
143 58 75
142 59 75
142 60 75
142 60 75
142 61 74
142 61 74
142 62 74
142 63 74
141 63 73
141 64 73
141 65 73
141 65 73
141 66 72
141 67 72
141 67 72
140 68 72
140 69 71
140 69 71
140 70 71
140 70 71
140 71 70
140 72 70
139 72 70
139 73 70
139 74 69
139 74 69
139 75 69
139 76 69
138 76 68
138 77 68
138 77 68
138 78 68
138 79 68
138 79 67
138 80 67
137 81 67
137 81 67
137 82 66
137 83 66
137 83 66
137 84 66
137 85 65
136 85 65
136 86 65
136 86 65
136 87 64
136 88 64
136 88 64
136 89 64
135 90 63
135 90 63
135 91 63
135 92 63
135 92 62
135 93 62
135 93 62
134 94 62
134 95 61
134 95 61
134 96 61
134 97 61
134 97 60
134 98 60
133 99 60
133 99 60
133 100 59
133 100 59
133 101 59
133 102 59
133 102 58
132 103 58
132 104 58
132 104 58
132 105 57
132 106 57
132 106 57
132 107 57
131 108 56
131 108 56
131 109 56
131 109 56
131 110 55
131 111 55
131 111 55
130 112 55
130 113 54
130 113 54
130 114 54
130 115 54
130 115 53
130 116 53
129 116 53
129 117 53
129 118 52
129 118 52
129 119 52
129 120 52
129 120 51
128 121 51
128 122 51
128 122 51
128 123 50
128 123 50
128 124 50
128 125 50
127 125 49
127 126 49
127 127 49
127 127 49
127 128 48
127 129 48
126 129 48
126 130 48
126 131 47
126 131 47
126 132 47
126 132 47
126 133 46
125 134 46
125 134 46
125 135 46
125 136 45
125 136 45
125 137 45
125 138 45
124 138 45
124 139 44
124 139 44
124 140 44
124 141 44
124 141 43
124 142 43
123 143 43
123 143 43
123 144 42
123 145 42
123 145 42
123 146 42
123 146 41
122 147 41
122 148 41
122 148 41
122 149 40
122 150 40
122 150 40
122 151 40
121 152 39
121 152 39
121 153 39
121 154 39
121 154 38
121 155 38
121 155 38
120 156 38
120 157 37
120 157 37
120 158 37
120 159 37
120 159 36
120 160 36
119 161 36
119 161 36
119 162 35
119 162 35
119 163 35
119 164 35
119 164 34
118 165 34
118 166 34
118 166 34
118 167 33
118 168 33
118 168 33
118 169 33
117 170 32
117 170 32
117 171 32
117 171 32
117 172 31
117 173 31
117 173 31
116 174 31
116 175 30
116 175 30
116 176 30
116 177 30
116 177 29
116 178 29
115 178 29
115 179 29
115 180 28
115 180 28
115 181 28
115 182 28
114 182 27
114 183 27
114 184 27
114 184 27
114 185 26
114 185 26
114 186 26
113 187 26
113 187 25
113 188 25
113 189 25
113 189 25
113 190 24
113 191 24
112 191 24
112 192 24
112 193 23
112 193 23
112 194 23
112 194 23
112 195 22
111 196 22
111 196 22
111 197 22
111 198 22
111 198 21
111 199 21
111 200 21
110 200 21
110 201 20
110 201 20
110 202 20
110 203 20
110 203 19
110 204 19
109 205 19
109 205 19
109 206 18
109 207 18
109 207 18
109 208 18
109 208 17
108 209 17
108 210 17
108 210 17
108 211 16
108 212 16
108 212 16
108 213 16
107 214 15
107 214 15
107 215 15
107 216 15
107 216 14
107 217 14
107 217 14
106 218 14
106 219 13
106 219 13
106 220 13
106 221 13
106 221 12
106 222 12
105 223 12
105 223 12
105 224 11
105 224 11
105 225 11
105 226 11
105 226 10
104 227 10
104 228 10
104 228 10
104 229 9
104 230 9
104 230 9
104 231 9
103 231 8
103 232 8
103 233 8
103 233 8
103 234 7
103 235 7
103 235 7
102 236 7
102 237 6
102 237 6
102 238 6
102 239 6
102 239 5
101 240 5
101 240 5
101 241 5
101 242 4
101 242 4
101 243 4
101 244 4
100 244 3
100 245 3
100 246 3
100 246 3
100 247 2
100 247 2
100 248 2
99 249 2
99 249 1
99 250 1
99 251 1
99 251 1
99 252 0
99 253 0
98 253 0
98 254 0
98 255 0
157 0 97
157 0 97
157 1 96
157 1 96
157 2 96
156 3 96
156 3 95
156 4 95
156 5 95
156 5 95
156 6 94
155 7 94
155 7 94
155 8 94
155 8 93
155 9 93
155 10 93
155 10 93
154 11 92
154 12 92
154 12 92
154 13 92
154 14 92
154 14 91
153 15 91
153 15 91
153 16 91
153 17 90
153 17 90
153 18 90
153 19 90
152 19 89
152 20 89
152 21 89
152 21 89
152 22 88
152 23 88
152 23 88
151 24 88
151 24 87
151 25 87
151 26 87
151 26 87
151 27 86
150 28 86
150 28 86
150 29 86
150 30 85
150 30 85
150 31 85
150 31 85
149 32 84
149 33 84
149 33 84
149 34 84
149 35 83
149 35 83
149 36 83
148 37 83
148 37 82
148 38 82
148 38 82
148 39 82
148 40 82
147 40 81
147 41 81
147 42 81
147 42 81
147 43 80
147 44 80
147 44 80
146 45 80
146 46 79
146 46 79
146 47 79
146 47 79
146 48 78
145 49 78
145 49 78
145 50 78
145 51 77
145 51 77
145 52 77
145 53 77
144 53 76
144 54 76
144 54 76
144 55 76
144 56 75
144 56 75
144 57 75
143 58 75
143 58 74
143 59 74
143 60 74
143 60 74
143 61 73
142 61 73
142 62 73
142 63 73
142 63 72
142 64 72
142 65 72
142 65 72
141 66 72
141 67 71
141 67 71
141 68 71
141 69 71
141 69 70
141 70 70
140 70 70
140 71 70
140 72 69
140 72 69
140 73 69
140 74 69
139 74 68
139 75 68
139 76 68
139 76 68
139 77 67
139 77 67
139 78 67
138 79 67
138 79 66
138 80 66
138 81 66
138 81 66
138 82 65
137 83 65
137 83 65
137 84 65
137 85 64
137 85 64
137 86 64
137 86 64
136 87 63
136 88 63
136 88 63
136 89 63
136 90 62
136 90 62
136 91 62
135 92 62
135 92 61
135 93 61
135 93 61
135 94 61
135 95 61
134 95 60
134 96 60
134 97 60
134 97 60
134 98 59
134 99 59
134 99 59
133 100 59
133 100 58
133 101 58
133 102 58
133 102 58
133 103 57
133 104 57
132 104 57
132 105 57
132 106 56
132 106 56
132 107 56
132 108 56
131 108 55
131 109 55
131 109 55
131 110 55
131 111 54
131 111 54
131 112 54
130 113 54
130 113 53
130 114 53
130 115 53
130 115 53
130 116 52
129 116 52
129 117 52
129 118 52
129 118 51
129 119 51
129 120 51
129 120 51
128 121 51
128 122 50
128 122 50
128 123 50
128 123 50
128 124 49
128 125 49
127 125 49
127 126 49
127 127 48
127 127 48
127 128 48
127 129 48
126 129 47
126 130 47
126 131 47
126 131 47
126 132 46
126 132 46
126 133 46
125 134 46
125 134 45
125 135 45
125 136 45
125 136 45
125 137 44
125 138 44
124 138 44
124 139 44
124 139 43
124 140 43
124 141 43
124 141 43
123 142 42
123 143 42
123 143 42
123 144 42
123 145 41
123 145 41
123 146 41
122 146 41
122 147 41
122 148 40
122 148 40
122 149 40
122 150 40
121 150 39
121 151 39
121 152 39
121 152 39
121 153 38
121 154 38
121 154 38
120 155 38
120 155 37
120 156 37
120 157 37
120 157 37
120 158 36
120 159 36
119 159 36
119 160 36
119 161 35
119 161 35
119 162 35
119 162 35
118 163 34
118 164 34
118 164 34
118 165 34
118 166 33
118 166 33
118 167 33
117 168 33
117 168 32
117 169 32
117 170 32
117 170 32
117 171 31
117 171 31
116 172 31
116 173 31
116 173 30
116 174 30
116 175 30
116 175 30
115 176 30
115 177 29
115 177 29
115 178 29
115 178 29
115 179 28
115 180 28
114 180 28
114 181 28
114 182 27
114 182 27
114 183 27
114 184 27
113 184 26
113 185 26
113 185 26
113 186 26
113 187 25
113 187 25
113 188 25
112 189 25
112 189 24
112 190 24
112 191 24
112 191 24
112 192 23
112 193 23
111 193 23
111 194 23
111 194 22
111 195 22
111 196 22
111 196 22
110 197 21
110 198 21
110 198 21
110 199 21
110 200 20
110 200 20
110 201 20
109 201 20
109 202 20
109 203 19
109 203 19
109 204 19
109 205 19
109 205 18
108 206 18
108 207 18
108 207 18
108 208 17
108 208 17
108 209 17
107 210 17
107 210 16
107 211 16
107 212 16
107 212 16
107 213 15
107 214 15
106 214 15
106 215 15
106 216 14
106 216 14
106 217 14
106 217 14
105 218 13
105 219 13
105 219 13
105 220 13
105 221 12
105 221 12
105 222 12
104 223 12
104 223 11
104 224 11
104 224 11
104 225 11
104 226 10
104 226 10
103 227 10
103 228 10
103 228 10
103 229 9
103 230 9
103 230 9
102 231 9
102 231 8
102 232 8
102 233 8
102 233 8
102 234 7
102 235 7
101 235 7
101 236 7
101 237 6
101 237 6
101 238 6
101 239 6
101 239 5
100 240 5
100 240 5
100 241 5
100 242 4
100 242 4
100 243 4
99 244 4
99 244 3
99 245 3
99 246 3
99 246 3
99 247 2
99 247 2
98 248 2
98 249 2
98 249 1
98 250 1
98 251 1
98 251 1
97 252 0
97 253 0
97 253 0
97 254 0
97 255 0
158 0 96
158 0 95
158 1 95
158 1 95
158 2 95
158 3 94
157 3 94
157 4 94
157 5 94
157 5 93
157 6 93
157 7 93
157 7 93
156 8 92
156 8 92
156 9 92
156 10 92
156 10 92
156 11 91
155 12 91
155 12 91
155 13 91
155 14 90
155 14 90
155 15 90
154 15 90
154 16 89
154 17 89
154 17 89
154 18 89
154 19 88
154 19 88
153 20 88
153 21 88
153 21 87
153 22 87
153 23 87
153 23 87
152 24 86
152 24 86
152 25 86
152 26 86
152 26 85
152 27 85
151 28 85
151 28 85
151 29 85
151 30 84
151 30 84
151 31 84
151 31 84
150 32 83
150 33 83
150 33 83
150 34 83
150 35 82
150 35 82
149 36 82
149 37 82
149 37 81
149 38 81
149 38 81
149 39 81
148 40 80
148 40 80
148 41 80
148 42 80
148 42 79
148 43 79
148 44 79
147 44 79
147 45 79
147 46 78
147 46 78
147 47 78
147 47 78
146 48 77
146 49 77
146 49 77
146 50 77
146 51 76
146 51 76
145 52 76
145 53 76
145 53 75
145 54 75
145 54 75
145 55 75
145 56 74
144 56 74
144 57 74
144 58 74
144 58 73
144 59 73
144 60 73
143 60 73
143 61 72
143 61 72
143 62 72
143 63 72
143 63 72
143 64 71
142 65 71
142 65 71
142 66 71
142 67 70
142 67 70
142 68 70
141 69 70
141 69 69
141 70 69
141 70 69
141 71 69
141 72 68
140 72 68
140 73 68
140 74 68
140 74 67
140 75 67
140 76 67
140 76 67
139 77 66
139 77 66
139 78 66
139 79 66
139 79 65
139 80 65
138 81 65
138 81 65
138 82 65
138 83 64
138 83 64
138 84 64
137 85 64
137 85 63
137 86 63
137 86 63
137 87 63
137 88 62
137 88 62
136 89 62
136 90 62
136 90 61
136 91 61
136 92 61
136 92 61
135 93 60
135 93 60
135 94 60
135 95 60
135 95 59
135 96 59
134 97 59
134 97 59
134 98 59
134 99 58
134 99 58
134 100 58
134 100 58
133 101 57
133 102 57
133 102 57
133 103 57
133 104 56
133 104 56
132 105 56
132 106 56
132 106 55
132 107 55
132 108 55
132 108 55
131 109 54
131 109 54
131 110 54
131 111 54
131 111 53
131 112 53
131 113 53
130 113 53
130 114 52
130 115 52
130 115 52
130 116 52
130 116 52
129 117 51
129 118 51
129 118 51
129 119 51
129 120 50
129 120 50
128 121 50
128 122 50
128 122 49
128 123 49
128 123 49
128 124 49
128 125 48
127 125 48
127 126 48
127 127 48
127 127 47
127 128 47
127 129 47
126 129 47
126 130 46
126 131 46
126 131 46
126 132 46
126 132 46
126 133 45
125 134 45
125 134 45
125 135 45
125 136 44
125 136 44
125 137 44
124 138 44
124 138 43
124 139 43
124 139 43
124 140 43
124 141 42
123 141 42
123 142 42
123 143 42
123 143 41
123 144 41
123 145 41
123 145 41
122 146 40
122 146 40
122 147 40
122 148 40
122 148 39
122 149 39
121 150 39
121 150 39
121 151 39
121 152 38
121 152 38
121 153 38
120 154 38
120 154 37
120 155 37
120 155 37
120 156 37
120 157 36
120 157 36
119 158 36
119 159 36
119 159 35
119 160 35
119 161 35
119 161 35
118 162 34
118 162 34
118 163 34
118 164 34
118 164 33
118 165 33
117 166 33
117 166 33
117 167 32
117 168 32
117 168 32
117 169 32
117 170 32
116 170 31
116 171 31
116 171 31
116 172 31
116 173 30
116 173 30
115 174 30
115 175 30
115 175 29
115 176 29
115 177 29
115 177 29
114 178 28
114 178 28
114 179 28
114 180 28
114 180 27
114 181 27
114 182 27
113 182 27
113 183 26
113 184 26
113 184 26
113 185 26
113 185 26
112 186 25
112 187 25
112 187 25
112 188 25
112 189 24
112 189 24
111 190 24
111 191 24
111 191 23
111 192 23
111 193 23
111 193 23
111 194 22
110 194 22
110 195 22
110 196 22
110 196 21
110 197 21
110 198 21
109 198 21
109 199 20
109 200 20
109 200 20
109 201 20
109 201 19
109 202 19
108 203 19
108 203 19
108 204 19
108 205 18
108 205 18
108 206 18
107 207 18
107 207 17
107 208 17
107 208 17
107 209 17
107 210 16
106 210 16
106 211 16
106 212 16
106 212 15
106 213 15
106 214 15
106 214 15
105 215 14
105 216 14
105 216 14
105 217 14
105 217 13
105 218 13
104 219 13
104 219 13
104 220 13
104 221 12
104 221 12
104 222 12
103 223 12
103 223 11
103 224 11
103 224 11
103 225 11
103 226 10
103 226 10
102 227 10
102 228 10
102 228 9
102 229 9
102 230 9
102 230 9
101 231 8
101 231 8
101 232 8
101 233 8
101 233 7
101 234 7
100 235 7
100 235 7
100 236 6
100 237 6
100 237 6
100 238 6
100 239 6
99 239 5
99 240 5
99 240 5
99 241 5
99 242 4
99 242 4
98 243 4
98 244 4
98 244 3
98 245 3
98 246 3
98 246 3
97 247 2
97 247 2
97 248 2
97 249 2
97 249 1
97 250 1
97 251 1
96 251 1
96 252 0
96 253 0
96 253 0
96 254 0
96 255 0
160 0 94
160 0 94
159 1 94
159 1 94
159 2 93
159 3 93
159 3 93
159 4 93
158 5 92
158 5 92
158 6 92
158 7 92
158 7 91
158 8 91
157 8 91
157 9 91
157 10 91
157 10 90
157 11 90
157 12 90
156 12 90
156 13 89
156 14 89
156 14 89
156 15 89
156 15 88
155 16 88
155 17 88
155 17 88
155 18 87
155 19 87
155 19 87
154 20 87
154 21 86
154 21 86
154 22 86
154 23 86
154 23 86
153 24 85
153 24 85
153 25 85
153 26 85
153 26 84
153 27 84
152 28 84
152 28 84
152 29 83
152 30 83
152 30 83
152 31 83
151 31 82
151 32 82
151 33 82
151 33 82
151 34 81
151 35 81
151 35 81
150 36 81
150 37 81
150 37 80
150 38 80
150 38 80
150 39 80
149 40 79
149 40 79
149 41 79
149 42 79
149 42 78
149 43 78
148 44 78
148 44 78
148 45 77
148 46 77
148 46 77
148 47 77
147 47 77
147 48 76
147 49 76
147 49 76
147 50 76
147 51 75
146 51 75
146 52 75
146 53 75
146 53 74
146 54 74
146 54 74
145 55 74
145 56 73
145 56 73
145 57 73
145 58 73
145 58 72
144 59 72
144 60 72
144 60 72
144 61 72
144 61 71
144 62 71
143 63 71
143 63 71
143 64 70
143 65 70
143 65 70
143 66 70
142 67 69
142 67 69
142 68 69
142 69 69
142 69 68
142 70 68
141 70 68
141 71 68
141 72 67
141 72 67
141 73 67
141 74 67
141 74 67
140 75 66
140 76 66
140 76 66
140 77 66
140 77 65
140 78 65
139 79 65
139 79 65
139 80 64
139 81 64
139 81 64
139 82 64
138 83 63
138 83 63
138 84 63
138 85 63
138 85 62
138 86 62
137 86 62
137 87 62
137 88 62
137 88 61
137 89 61
137 90 61
136 90 61
136 91 60
136 92 60
136 92 60
136 93 60
136 93 59
135 94 59
135 95 59
135 95 59
135 96 58
135 97 58
135 97 58
134 98 58
134 99 57
134 99 57
134 100 57
134 100 57
134 101 57
133 102 56
133 102 56
133 103 56
133 104 56
133 104 55
133 105 55
132 106 55
132 106 55
132 107 54
132 108 54
132 108 54
132 109 54
132 109 53
131 110 53
131 111 53
131 111 53
131 112 52
131 113 52
131 113 52
130 114 52
130 115 52
130 115 51
130 116 51
130 116 51
130 117 51
129 118 50
129 118 50
129 119 50
129 120 50
129 120 49
129 121 49
128 122 49
128 122 49
128 123 48
128 123 48
128 124 48
128 125 48
127 125 48
127 126 47
127 127 47
127 127 47
127 128 47
127 129 46
126 129 46
126 130 46
126 131 46
126 131 45
126 132 45
126 132 45
125 133 45
125 134 44
125 134 44
125 135 44
125 136 44
125 136 43
124 137 43
124 138 43
124 138 43
124 139 43
124 139 42
124 140 42
123 141 42
123 141 42
123 142 41
123 143 41
123 143 41
123 144 41
122 145 40
122 145 40
122 146 40
122 146 40
122 147 39
122 148 39
122 148 39
121 149 39
121 150 38
121 150 38
121 151 38
121 152 38
121 152 38
120 153 37
120 154 37
120 154 37
120 155 37
120 155 36
120 156 36
119 157 36
119 157 36
119 158 35
119 159 35
119 159 35
119 160 35
118 161 34
118 161 34
118 162 34
118 162 34
118 163 33
118 164 33
117 164 33
117 165 33
117 166 33
117 166 32
117 167 32
117 168 32
116 168 32
116 169 31
116 170 31
116 170 31
116 171 31
116 171 30
115 172 30
115 173 30
115 173 30
115 174 29
115 175 29
115 175 29
114 176 29
114 177 28
114 177 28
114 178 28
114 178 28
114 179 28
113 180 27
113 180 27
113 181 27
113 182 27
113 182 26
113 183 26
113 184 26
112 184 26
112 185 25
112 185 25
112 186 25
112 187 25
112 187 24
111 188 24
111 189 24
111 189 24
111 190 24
111 191 23
111 191 23
110 192 23
110 193 23
110 193 22
110 194 22
110 194 22
110 195 22
109 196 21
109 196 21
109 197 21
109 198 21
109 198 20
109 199 20
108 200 20
108 200 20
108 201 19
108 201 19
108 202 19
108 203 19
107 203 19
107 204 18
107 205 18
107 205 18
107 206 18
107 207 17
106 207 17
106 208 17
106 208 17
106 209 16
106 210 16
106 210 16
105 211 16
105 212 15
105 212 15
105 213 15
105 214 15
105 214 14
104 215 14
104 216 14
104 216 14
104 217 14
104 217 13
104 218 13
103 219 13
103 219 13
103 220 12
103 221 12
103 221 12
103 222 12
103 223 11
102 223 11
102 224 11
102 224 11
102 225 10
102 226 10
102 226 10
101 227 10
101 228 9
101 228 9
101 229 9
101 230 9
101 230 9
100 231 8
100 231 8
100 232 8
100 233 8
100 233 7
100 234 7
99 235 7
99 235 7
99 236 6
99 237 6
99 237 6
99 238 6
98 239 5
98 239 5
98 240 5
98 240 5
98 241 4
98 242 4
97 242 4
97 243 4
97 244 4
97 244 3
97 245 3
97 246 3
96 246 3
96 247 2
96 247 2
96 248 2
96 249 2
96 249 1
95 250 1
95 251 1
95 251 1
95 252 0
95 253 0
95 253 0
94 254 0
94 255 0
161 0 93
161 0 93
161 1 93
160 1 92
160 2 92
160 3 92
160 3 92
160 4 91
160 5 91
159 5 91
159 6 91
159 7 90
159 7 90
159 8 90
159 8 90
158 9 90
158 10 89
158 10 89
158 11 89
158 12 89
158 12 88
157 13 88
157 14 88
157 14 88
157 15 87
157 15 87
157 16 87
156 17 87
156 17 86
156 18 86
156 19 86
156 19 86
156 20 86
155 21 85
155 21 85
155 22 85
155 23 85
155 23 84
154 24 84
154 24 84
154 25 84
154 26 83
154 26 83
154 27 83
153 28 83
153 28 82
153 29 82
153 30 82
153 30 82
153 31 82
152 31 81
152 32 81
152 33 81
152 33 81
152 34 80
152 35 80
151 35 80
151 36 80
151 37 79
151 37 79
151 38 79
151 38 79
150 39 79
150 40 78
150 40 78
150 41 78
150 42 78
150 42 77
149 43 77
149 44 77
149 44 77
149 45 76
149 46 76
149 46 76
148 47 76
148 47 75
148 48 75
148 49 75
148 49 75
148 50 75
147 51 74
147 51 74
147 52 74
147 53 74
147 53 73
146 54 73
146 54 73
146 55 73
146 56 72
146 56 72
146 57 72
145 58 72
145 58 71
145 59 71
145 60 71
145 60 71
145 61 71
144 61 70
144 62 70
144 63 70
144 63 70
144 64 69
144 65 69
143 65 69
143 66 69
143 67 68
143 67 68
143 68 68
143 69 68
142 69 67
142 70 67
142 70 67
142 71 67
142 72 67
142 72 66
141 73 66
141 74 66
141 74 66
141 75 65
141 76 65
141 76 65
140 77 65
140 77 64
140 78 64
140 79 64
140 79 64
140 80 64
139 81 63
139 81 63
139 82 63
139 83 63
139 83 62
138 84 62
138 85 62
138 85 62
138 86 61
138 86 61
138 87 61
137 88 61
137 88 60
137 89 60
137 90 60
137 90 60
137 91 60
136 92 59
136 92 59
136 93 59
136 93 59
136 94 58
136 95 58
135 95 58
135 96 58
135 97 57
135 97 57
135 98 57
135 99 57
134 99 56
134 100 56
134 100 56
134 101 56
134 102 56
134 102 55
133 103 55
133 104 55
133 104 55
133 105 54
133 106 54
133 106 54
132 107 54
132 108 53
132 108 53
132 109 53
132 109 53
132 110 52
131 111 52
131 111 52
131 112 52
131 113 52
131 113 51
130 114 51
130 115 51
130 115 51
130 116 50
130 116 50
130 117 50
129 118 50
129 118 49
129 119 49
129 120 49
129 120 49
129 121 48
128 122 48
128 122 48
128 123 48
128 123 48
128 124 47
128 125 47
127 125 47
127 126 47
127 127 46
127 127 46
127 128 46
127 129 46
126 129 45
126 130 45
126 131 45
126 131 45
126 132 45
126 132 44
125 133 44
125 134 44
125 134 44
125 135 43
125 136 43
125 136 43
124 137 43
124 138 42
124 138 42
124 139 42
124 139 42
124 140 41
123 141 41
123 141 41
123 142 41
123 143 41
123 143 40
122 144 40
122 145 40
122 145 40
122 146 39
122 146 39
122 147 39
121 148 39
121 148 38
121 149 38
121 150 38
121 150 38
121 151 37
120 152 37
120 152 37
120 153 37
120 154 37
120 154 36
120 155 36
119 155 36
119 156 36
119 157 35
119 157 35
119 158 35
119 159 35
118 159 34
118 160 34
118 161 34
118 161 34
118 162 33
118 162 33
117 163 33
117 164 33
117 164 33
117 165 32
117 166 32
117 166 32
116 167 32
116 168 31
116 168 31
116 169 31
116 170 31
116 170 30
115 171 30
115 171 30
115 172 30
115 173 30
115 173 29
114 174 29
114 175 29
114 175 29
114 176 28
114 177 28
114 177 28
113 178 28
113 178 27
113 179 27
113 180 27
113 180 27
113 181 26
112 182 26
112 182 26
112 183 26
112 184 26
112 184 25
112 185 25
111 185 25
111 186 25
111 187 24
111 187 24
111 188 24
111 189 24
110 189 23
110 190 23
110 191 23
110 191 23
110 192 22
110 193 22
109 193 22
109 194 22
109 194 22
109 195 21
109 196 21
109 196 21
108 197 21
108 198 20
108 198 20
108 199 20
108 200 20
108 200 19
107 201 19
107 201 19
107 202 19
107 203 18
107 203 18
106 204 18
106 205 18
106 205 18
106 206 17
106 207 17
106 207 17
105 208 17
105 208 16
105 209 16
105 210 16
105 210 16
105 211 15
104 212 15
104 212 15
104 213 15
104 214 15
104 214 14
104 215 14
103 216 14
103 216 14
103 217 13
103 217 13
103 218 13
103 219 13
102 219 12
102 220 12
102 221 12
102 221 12
102 222 11
102 223 11
101 223 11
101 224 11
101 224 11
101 225 10
101 226 10
101 226 10
100 227 10
100 228 9
100 228 9
100 229 9
100 230 9
100 230 8
99 231 8
99 231 8
99 232 8
99 233 7
99 233 7
98 234 7
98 235 7
98 235 7
98 236 6
98 237 6
98 237 6
97 238 6
97 239 5
97 239 5
97 240 5
97 240 5
97 241 4
96 242 4
96 242 4
96 243 4
96 244 3
96 244 3
96 245 3
95 246 3
95 246 3
95 247 2
95 247 2
95 248 2
95 249 2
94 249 1
94 250 1
94 251 1
94 251 1
94 252 0
94 253 0
93 253 0
93 254 0
93 255 0
162 0 92
162 0 92
162 1 91
162 1 91
162 2 91
161 3 91
161 3 90
161 4 90
161 5 90
161 5 90
160 6 89
160 7 89
160 7 89
160 8 89
160 8 89
160 9 88
159 10 88
159 10 88
159 11 88
159 12 87
159 12 87
159 13 87
158 14 87
158 14 86
158 15 86
158 15 86
158 16 86
157 17 86
157 17 85
157 18 85
157 19 85
157 19 85
157 20 84
156 21 84
156 21 84
156 22 84
156 23 83
156 23 83
156 24 83
155 24 83
155 25 83
155 26 82
155 26 82
155 27 82
154 28 82
154 28 81
154 29 81
154 30 81
154 30 81
154 31 80
153 31 80
153 32 80
153 33 80
153 33 80
153 34 79
153 35 79
152 35 79
152 36 79
152 37 78
152 37 78
152 38 78
151 38 78
151 39 77
151 40 77
151 40 77
151 41 77
151 42 77
150 42 76
150 43 76
150 44 76
150 44 76
150 45 75
150 46 75
149 46 75
149 47 75
149 47 74
149 48 74
149 49 74
148 49 74
148 50 73
148 51 73
148 51 73
148 52 73
148 53 73
147 53 72
147 54 72
147 54 72
147 55 72
147 56 71
147 56 71
146 57 71
146 58 71
146 58 70
146 59 70
146 60 70
145 60 70
145 61 70
145 61 69
145 62 69
145 63 69
145 63 69
144 64 68
144 65 68
144 65 68
144 66 68
144 67 67
144 67 67
143 68 67
143 69 67
143 69 67
143 70 66
143 70 66
142 71 66
142 72 66
142 72 65
142 73 65
142 74 65
142 74 65
141 75 64
141 76 64
141 76 64
141 77 64
141 77 64
141 78 63
140 79 63
140 79 63
140 80 63
140 81 62
140 81 62
139 82 62
139 83 62
139 83 61
139 84 61
139 85 61
139 85 61
138 86 61
138 86 60
138 87 60
138 88 60
138 88 60
138 89 59
137 90 59
137 90 59
137 91 59
137 92 58
137 92 58
136 93 58
136 93 58
136 94 58
136 95 57
136 95 57
136 96 57
135 97 57
135 97 56
135 98 56
135 99 56
135 99 56
135 100 55
134 100 55
134 101 55
134 102 55
134 102 55
134 103 54
133 104 54
133 104 54
133 105 54
133 106 53
133 106 53
133 107 53
132 108 53
132 108 52
132 109 52
132 109 52
132 110 52
132 111 52
131 111 51
131 112 51
131 113 51
131 113 51
131 114 50
130 115 50
130 115 50
130 116 50
130 116 49
130 117 49
130 118 49
129 118 49
129 119 49
129 120 48
129 120 48
129 121 48
129 122 48
128 122 47
128 123 47
128 123 47
128 124 47
128 125 46
127 125 46
127 126 46
127 127 46
127 127 46
127 128 45
127 129 45
126 129 45
126 130 45
126 131 44
126 131 44
126 132 44
125 132 44
125 133 43
125 134 43
125 134 43
125 135 43
125 136 43
124 136 42
124 137 42
124 138 42
124 138 42
124 139 41
124 139 41
123 140 41
123 141 41
123 141 40
123 142 40
123 143 40
122 143 40
122 144 40
122 145 39
122 145 39
122 146 39
122 146 39
121 147 38
121 148 38
121 148 38
121 149 38
121 150 37
121 150 37
120 151 37
120 152 37
120 152 36
120 153 36
120 154 36
119 154 36
119 155 36
119 155 35
119 156 35
119 157 35
119 157 35
118 158 34
118 159 34
118 159 34
118 160 34
118 161 33
118 161 33
117 162 33
117 162 33
117 163 33
117 164 32
117 164 32
116 165 32
116 166 32
116 166 31
116 167 31
116 168 31
116 168 31
115 169 30
115 170 30
115 170 30
115 171 30
115 171 30
115 172 29
114 173 29
114 173 29
114 174 29
114 175 28
114 175 28
113 176 28
113 177 28
113 177 27
113 178 27
113 178 27
113 179 27
112 180 27
112 180 26
112 181 26
112 182 26
112 182 26
112 183 25
111 184 25
111 184 25
111 185 25
111 185 24
111 186 24
110 187 24
110 187 24
110 188 24
110 189 23
110 189 23
110 190 23
109 191 23
109 191 22
109 192 22
109 193 22
109 193 22
109 194 21
108 194 21
108 195 21
108 196 21
108 196 21
108 197 20
107 198 20
107 198 20
107 199 20
107 200 19
107 200 19
107 201 19
106 201 19
106 202 18
106 203 18
106 203 18
106 204 18
106 205 18
105 205 17
105 206 17
105 207 17
105 207 17
105 208 16
104 208 16
104 209 16
104 210 16
104 210 15
104 211 15
104 212 15
103 212 15
103 213 15
103 214 14
103 214 14
103 215 14
103 216 14
102 216 13
102 217 13
102 217 13
102 218 13
102 219 12
101 219 12
101 220 12
101 221 12
101 221 12
101 222 11
101 223 11
100 223 11
100 224 11
100 224 10
100 225 10
100 226 10
100 226 10
99 227 9
99 228 9
99 228 9
99 229 9
99 230 9
98 230 8
98 231 8
98 231 8
98 232 8
98 233 7
98 233 7
97 234 7
97 235 7
97 235 6
97 236 6
97 237 6
97 237 6
96 238 6
96 239 5
96 239 5
96 240 5
96 240 5
95 241 4
95 242 4
95 242 4
95 243 4
95 244 3
95 244 3
94 245 3
94 246 3
94 246 3
94 247 2
94 247 2
94 248 2
93 249 2
93 249 1
93 250 1
93 251 1
93 251 1
92 252 0
92 253 0
92 253 0
92 254 0
92 255 0
164 0 90
163 0 90
163 1 90
163 1 90
163 2 90
163 3 89
162 3 89
162 4 89
162 5 89
162 5 88
162 6 88
162 7 88
161 7 88
161 8 88
161 8 87
161 9 87
161 10 87
160 10 87
160 11 86
160 12 86
160 12 86
160 13 86
159 14 85
159 14 85
159 15 85
159 15 85
159 16 85
159 17 84
158 17 84
158 18 84
158 19 84
158 19 83
158 20 83
157 21 83
157 21 83
157 22 82
157 23 82
157 23 82
157 24 82
156 24 82
156 25 81
156 26 81
156 26 81
156 27 81
155 28 80
155 28 80
155 29 80
155 30 80
155 30 80
155 31 79
154 31 79
154 32 79
154 33 79
154 33 78
154 34 78
153 35 78
153 35 78
153 36 77
153 37 77
153 37 77
153 38 77
152 38 77
152 39 76
152 40 76
152 40 76
152 41 76
151 42 75
151 42 75
151 43 75
151 44 75
151 44 75
151 45 74
150 46 74
150 46 74
150 47 74
150 47 73
150 48 73
149 49 73
149 49 73
149 50 72
149 51 72
149 51 72
149 52 72
148 53 72
148 53 71
148 54 71
148 54 71
148 55 71
147 56 70
147 56 70
147 57 70
147 58 70
147 58 70
146 59 69
146 60 69
146 60 69
146 61 69
146 61 68
146 62 68
145 63 68
145 63 68
145 64 67
145 65 67
145 65 67
144 66 67
144 67 67
144 67 66
144 68 66
144 69 66
144 69 66
143 70 65
143 70 65
143 71 65
143 72 65
143 72 64
142 73 64
142 74 64
142 74 64
142 75 64
142 76 63
142 76 63
141 77 63
141 77 63
141 78 62
141 79 62
141 79 62
140 80 62
140 81 62
140 81 61
140 82 61
140 83 61
140 83 61
139 84 60
139 85 60
139 85 60
139 86 60
139 86 59
138 87 59
138 88 59
138 88 59
138 89 59
138 90 58
138 90 58
137 91 58
137 92 58
137 92 57
137 93 57
137 93 57
136 94 57
136 95 57
136 95 56
136 96 56
136 97 56
136 97 56
135 98 55
135 99 55
135 99 55
135 100 55
135 100 54
134 101 54
134 102 54
134 102 54
134 103 54
134 104 53
133 104 53
133 105 53
133 106 53
133 106 52
133 107 52
133 108 52
132 108 52
132 109 51
132 109 51
132 110 51
132 111 51
131 111 51
131 112 50
131 113 50
131 113 50
131 114 50
131 115 49
130 115 49
130 116 49
130 116 49
130 117 49
130 118 48
129 118 48
129 119 48
129 120 48
129 120 47
129 121 47
129 122 47
128 122 47
128 123 46
128 123 46
128 124 46
128 125 46
127 125 46
127 126 45
127 127 45
127 127 45
127 128 45
127 129 44
126 129 44
126 130 44
126 131 44
126 131 44
126 132 43
125 132 43
125 133 43
125 134 43
125 134 42
125 135 42
125 136 42
124 136 42
124 137 41
124 138 41
124 138 41
124 139 41
123 139 41
123 140 40
123 141 40
123 141 40
123 142 40
123 143 39
122 143 39
122 144 39
122 145 39
122 145 38
122 146 38
121 146 38
121 147 38
121 148 38
121 148 37
121 149 37
121 150 37
120 150 37
120 151 36
120 152 36
120 152 36
120 153 36
119 154 36
119 154 35
119 155 35
119 155 35
119 156 35
118 157 34
118 157 34
118 158 34
118 159 34
118 159 33
118 160 33
117 161 33
117 161 33
117 162 33
117 162 32
117 163 32
116 164 32
116 164 32
116 165 31
116 166 31
116 166 31
116 167 31
115 168 31
115 168 30
115 169 30
115 170 30
115 170 30
114 171 29
114 171 29
114 172 29
114 173 29
114 173 28
114 174 28
113 175 28
113 175 28
113 176 28
113 177 27
113 177 27
112 178 27
112 178 27
112 179 26
112 180 26
112 180 26
112 181 26
111 182 25
111 182 25
111 183 25
111 184 25
111 184 25
110 185 24
110 185 24
110 186 24
110 187 24
110 187 23
110 188 23
109 189 23
109 189 23
109 190 23
109 191 22
109 191 22
108 192 22
108 193 22
108 193 21
108 194 21
108 194 21
108 195 21
107 196 20
107 196 20
107 197 20
107 198 20
107 198 20
106 199 19
106 200 19
106 200 19
106 201 19
106 201 18
105 202 18
105 203 18
105 203 18
105 204 18
105 205 17
105 205 17
104 206 17
104 207 17
104 207 16
104 208 16
104 208 16
103 209 16
103 210 15
103 210 15
103 211 15
103 212 15
103 212 15
102 213 14
102 214 14
102 214 14
102 215 14
102 216 13
101 216 13
101 217 13
101 217 13
101 218 12
101 219 12
101 219 12
100 220 12
100 221 12
100 221 11
100 222 11
100 223 11
99 223 11
99 224 10
99 224 10
99 225 10
99 226 10
99 226 10
98 227 9
98 228 9
98 228 9
98 229 9
98 230 8
97 230 8
97 231 8
97 231 8
97 232 7
97 233 7
97 233 7
96 234 7
96 235 7
96 235 6
96 236 6
96 237 6
95 237 6
95 238 5
95 239 5
95 239 5
95 240 5
95 240 5
94 241 4
94 242 4
94 242 4
94 243 4
94 244 3
93 244 3
93 245 3
93 246 3
93 246 2
93 247 2
92 247 2
92 248 2
92 249 2
92 249 1
92 250 1
92 251 1
91 251 1
91 252 0
91 253 0
91 253 0
91 254 0
90 255 0
165 0 89
165 0 89
164 1 89
164 1 89
164 2 88
164 3 88
164 3 88
163 4 88
163 5 87
163 5 87
163 6 87
163 7 87
163 7 87
162 8 86
162 8 86
162 9 86
162 10 86
162 10 85
161 11 85
161 12 85
161 12 85
161 13 84
161 14 84
160 14 84
160 15 84
160 15 84
160 16 83
160 17 83
159 17 83
159 18 83
159 19 82
159 19 82
159 20 82
159 21 82
158 21 82
158 22 81
158 23 81
158 23 81
158 24 81
157 24 80
157 25 80
157 26 80
157 26 80
157 27 80
156 28 79
156 28 79
156 29 79
156 30 79
156 30 78
156 31 78
155 31 78
155 32 78
155 33 78
155 33 77
155 34 77
154 35 77
154 35 77
154 36 76
154 37 76
154 37 76
153 38 76
153 38 75
153 39 75
153 40 75
153 40 75
152 41 75
152 42 74
152 42 74
152 43 74
152 44 74
152 44 73
151 45 73
151 46 73
151 46 73
151 47 73
151 47 72
150 48 72
150 49 72
150 49 72
150 50 71
150 51 71
149 51 71
149 52 71
149 53 71
149 53 70
149 54 70
149 54 70
148 55 70
148 56 69
148 56 69
148 57 69
148 58 69
147 58 69
147 59 68
147 60 68
147 60 68
147 61 68
146 61 67
146 62 67
146 63 67
146 63 67
146 64 66
145 65 66
145 65 66
145 66 66
145 67 66
145 67 65
145 68 65
144 69 65
144 69 65
144 70 64
144 70 64
144 71 64
143 72 64
143 72 64
143 73 63
143 74 63
143 74 63
142 75 63
142 76 62
142 76 62
142 77 62
142 77 62
141 78 62
141 79 61
141 79 61
141 80 61
141 81 61
141 81 60
140 82 60
140 83 60
140 83 60
140 84 60
140 85 59
139 85 59
139 86 59
139 86 59
139 87 58
139 88 58
138 88 58
138 89 58
138 90 58
138 90 57
138 91 57
138 92 57
137 92 57
137 93 56
137 93 56
137 94 56
137 95 56
136 95 55
136 96 55
136 97 55
136 97 55
136 98 55
135 99 54
135 99 54
135 100 54
135 100 54
135 101 53
134 102 53
134 102 53
134 103 53
134 104 53
134 104 52
134 105 52
133 106 52
133 106 52
133 107 51
133 108 51
133 108 51
132 109 51
132 109 51
132 110 50
132 111 50
132 111 50
131 112 50
131 113 49
131 113 49
131 114 49
131 115 49
131 115 49
130 116 48
130 116 48
130 117 48
130 118 48
130 118 47
129 119 47
129 120 47
129 120 47
129 121 46
129 122 46
128 122 46
128 123 46
128 123 46
128 124 45
128 125 45
127 125 45
127 126 45
127 127 44
127 127 44
127 128 44
127 129 44
126 129 44
126 130 43
126 131 43
126 131 43
126 132 43
125 132 42
125 133 42
125 134 42
125 134 42
125 135 42
124 136 41
124 136 41
124 137 41
124 138 41
124 138 40
123 139 40
123 139 40
123 140 40
123 141 40
123 141 39
123 142 39
122 143 39
122 143 39
122 144 38
122 145 38
122 145 38
121 146 38
121 146 37
121 147 37
121 148 37
121 148 37
120 149 37
120 150 36
120 150 36
120 151 36
120 152 36
120 152 35
119 153 35
119 154 35
119 154 35
119 155 35
119 155 34
118 156 34
118 157 34
118 157 34
118 158 33
118 159 33
117 159 33
117 160 33
117 161 33
117 161 32
117 162 32
116 162 32
116 163 32
116 164 31
116 164 31
116 165 31
116 166 31
115 166 31
115 167 30
115 168 30
115 168 30
115 169 30
114 170 29
114 170 29
114 171 29
114 171 29
114 172 29
113 173 28
113 173 28
113 174 28
113 175 28
113 175 27
113 176 27
112 177 27
112 177 27
112 178 26
112 178 26
112 179 26
111 180 26
111 180 26
111 181 25
111 182 25
111 182 25
110 183 25
110 184 24
110 184 24
110 185 24
110 185 24
109 186 24
109 187 23
109 187 23
109 188 23
109 189 23
109 189 22
108 190 22
108 191 22
108 191 22
108 192 22
108 193 21
107 193 21
107 194 21
107 194 21
107 195 20
107 196 20
106 196 20
106 197 20
106 198 20
106 198 19
106 199 19
105 200 19
105 200 19
105 201 18
105 201 18
105 202 18
105 203 18
104 203 17
104 204 17
104 205 17
104 205 17
104 206 17
103 207 16
103 207 16
103 208 16
103 208 16
103 209 15
102 210 15
102 210 15
102 211 15
102 212 15
102 212 14
102 213 14
101 214 14
101 214 14
101 215 13
101 216 13
101 216 13
100 217 13
100 217 13
100 218 12
100 219 12
100 219 12
99 220 12
99 221 11
99 221 11
99 222 11
99 223 11
98 223 11
98 224 10
98 224 10
98 225 10
98 226 10
98 226 9
97 227 9
97 228 9
97 228 9
97 229 8
97 230 8
96 230 8
96 231 8
96 231 8
96 232 7
96 233 7
95 233 7
95 234 7
95 235 6
95 235 6
95 236 6
95 237 6
94 237 6
94 238 5
94 239 5
94 239 5
94 240 5
93 240 4
93 241 4
93 242 4
93 242 4
93 243 4
92 244 3
92 244 3
92 245 3
92 246 3
92 246 2
91 247 2
91 247 2
91 248 2
91 249 2
91 249 1
91 250 1
90 251 1
90 251 1
90 252 0
90 253 0
90 253 0
89 254 0
89 255 0
166 0 88
166 0 88
166 1 87
165 1 87
165 2 87
165 3 87
165 3 87
165 4 86
165 5 86
164 5 86
164 6 86
164 7 85
164 7 85
164 8 85
163 8 85
163 9 85
163 10 84
163 10 84
163 11 84
162 12 84
162 12 83
162 13 83
162 14 83
162 14 83
161 15 83
161 15 82
161 16 82
161 17 82
161 17 82
160 18 81
160 19 81
160 19 81
160 20 81
160 21 81
159 21 80
159 22 80
159 23 80
159 23 80
159 24 79
158 24 79
158 25 79
158 26 79
158 26 79
158 27 78
157 28 78
157 28 78
157 29 78
157 30 78
157 30 77
156 31 77
156 31 77
156 32 77
156 33 76
156 33 76
156 34 76
155 35 76
155 35 76
155 36 75
155 37 75
155 37 75
154 38 75
154 38 74
154 39 74
154 40 74
154 40 74
153 41 74
153 42 73
153 42 73
153 43 73
153 44 73
152 44 72
152 45 72
152 46 72
152 46 72
152 47 72
151 47 71
151 48 71
151 49 71
151 49 71
151 50 70
150 51 70
150 51 70
150 52 70
150 53 70
150 53 69
149 54 69
149 54 69
149 55 69
149 56 68
149 56 68
148 57 68
148 58 68
148 58 68
148 59 67
148 60 67
147 60 67
147 61 67
147 61 66
147 62 66
147 63 66
146 63 66
146 64 66
146 65 65
146 65 65
146 66 65
146 67 65
145 67 64
145 68 64
145 69 64
145 69 64
145 70 64
144 70 63
144 71 63
144 72 63
144 72 63
144 73 62
143 74 62
143 74 62
143 75 62
143 76 62
143 76 61
142 77 61
142 77 61
142 78 61
142 79 60
142 79 60
141 80 60
141 81 60
141 81 60
141 82 59
141 83 59
140 83 59
140 84 59
140 85 58
140 85 58
140 86 58
139 86 58
139 87 58
139 88 57
139 88 57
139 89 57
138 90 57
138 90 56
138 91 56
138 92 56
138 92 56
137 93 56
137 93 55
137 94 55
137 95 55
137 95 55
137 96 54
136 97 54
136 97 54
136 98 54
136 99 54
136 99 53
135 100 53
135 100 53
135 101 53
135 102 52
135 102 52
134 103 52
134 104 52
134 104 52
134 105 51
134 106 51
133 106 51
133 107 51
133 108 50
133 108 50
133 109 50
132 109 50
132 110 50
132 111 49
132 111 49
132 112 49
131 113 49
131 113 48
131 114 48
131 115 48
131 115 48
130 116 48
130 116 47
130 117 47
130 118 47
130 118 47
129 119 46
129 120 46
129 120 46
129 121 46
129 122 46
128 122 45
128 123 45
128 123 45
128 124 45
128 125 44
127 125 44
127 126 44
127 127 44
127 127 44
127 128 43
127 129 43
126 129 43
126 130 43
126 131 42
126 131 42
126 132 42
125 132 42
125 133 42
125 134 41
125 134 41
125 135 41
124 136 41
124 136 40
124 137 40
124 138 40
124 138 40
123 139 40
123 139 39
123 140 39
123 141 39
123 141 39
122 142 39
122 143 38
122 143 38
122 144 38
122 145 38
121 145 37
121 146 37
121 146 37
121 147 37
121 148 37
120 148 36
120 149 36
120 150 36
120 150 36
120 151 35
119 152 35
119 152 35
119 153 35
119 154 35
119 154 34
118 155 34
118 155 34
118 156 34
118 157 33
118 157 33
117 158 33
117 159 33
117 159 33
117 160 32
117 161 32
117 161 32
116 162 32
116 162 31
116 163 31
116 164 31
116 164 31
115 165 31
115 166 30
115 166 30
115 167 30
115 168 30
114 168 29
114 169 29
114 170 29
114 170 29
114 171 29
113 171 28
113 172 28
113 173 28
113 173 28
113 174 27
112 175 27
112 175 27
112 176 27
112 177 27
112 177 26
111 178 26
111 178 26
111 179 26
111 180 25
111 180 25
110 181 25
110 182 25
110 182 25
110 183 24
110 184 24
109 184 24
109 185 24
109 185 23
109 186 23
109 187 23
108 187 23
108 188 23
108 189 22
108 189 22
108 190 22
108 191 22
107 191 21
107 192 21
107 193 21
107 193 21
107 194 21
106 194 20
106 195 20
106 196 20
106 196 20
106 197 19
105 198 19
105 198 19
105 199 19
105 200 19
105 200 18
104 201 18
104 201 18
104 202 18
104 203 17
104 203 17
103 204 17
103 205 17
103 205 17
103 206 16
103 207 16
102 207 16
102 208 16
102 208 15
102 209 15
102 210 15
101 210 15
101 211 15
101 212 14
101 212 14
101 213 14
100 214 14
100 214 13
100 215 13
100 216 13
100 216 13
99 217 13
99 217 12
99 218 12
99 219 12
99 219 12
98 220 11
98 221 11
98 221 11
98 222 11
98 223 11
98 223 10
97 224 10
97 224 10
97 225 10
97 226 9
97 226 9
96 227 9
96 228 9
96 228 9
96 229 8
96 230 8
95 230 8
95 231 8
95 231 7
95 232 7
95 233 7
94 233 7
94 234 7
94 235 6
94 235 6
94 236 6
93 237 6
93 237 5
93 238 5
93 239 5
93 239 5
92 240 5
92 240 4
92 241 4
92 242 4
92 242 4
91 243 3
91 244 3
91 244 3
91 245 3
91 246 3
90 246 2
90 247 2
90 247 2
90 248 2
90 249 1
89 249 1
89 250 1
89 251 1
89 251 1
89 252 0
89 253 0
88 253 0
88 254 0
88 255 0
167 0 87
167 0 86
167 1 86
167 1 86
167 2 86
166 3 86
166 3 85
166 4 85
166 5 85
166 5 85
165 6 84
165 7 84
165 7 84
165 8 84
165 8 84
164 9 83
164 10 83
164 10 83
164 11 83
164 12 82
163 12 82
163 13 82
163 14 82
163 14 82
163 15 81
162 15 81
162 16 81
162 17 81
162 17 81
161 18 80
161 19 80
161 19 80
161 20 80
161 21 79
160 21 79
160 22 79
160 23 79
160 23 79
160 24 78
159 24 78
159 25 78
159 26 78
159 26 77
159 27 77
158 28 77
158 28 77
158 29 77
158 30 76
158 30 76
157 31 76
157 31 76
157 32 75
157 33 75
157 33 75
156 34 75
156 35 75
156 35 74
156 36 74
156 37 74
155 37 74
155 38 74
155 38 73
155 39 73
155 40 73
154 40 73
154 41 72
154 42 72
154 42 72
154 43 72
153 44 72
153 44 71
153 45 71
153 46 71
153 46 71
152 47 70
152 47 70
152 48 70
152 49 70
152 49 70
151 50 69
151 51 69
151 51 69
151 52 69
151 53 69
150 53 68
150 54 68
150 54 68
150 55 68
150 56 67
149 56 67
149 57 67
149 58 67
149 58 67
149 59 66
148 60 66
148 60 66
148 61 66
148 61 65
148 62 65
147 63 65
147 63 65
147 64 65
147 65 64
147 65 64
146 66 64
146 67 64
146 67 63
146 68 63
146 69 63
145 69 63
145 70 63
145 70 62
145 71 62
145 72 62
144 72 62
144 73 62
144 74 61
144 74 61
143 75 61
143 76 61
143 76 60
143 77 60
143 77 60
142 78 60
142 79 60
142 79 59
142 80 59
142 81 59
141 81 59
141 82 58
141 83 58
141 83 58
141 84 58
140 85 58
140 85 57
140 86 57
140 86 57
140 87 57
139 88 56
139 88 56
139 89 56
139 90 56
139 90 56
138 91 55
138 92 55
138 92 55
138 93 55
138 93 55
137 94 54
137 95 54
137 95 54
137 96 54
137 97 53
136 97 53
136 98 53
136 99 53
136 99 53
136 100 52
135 100 52
135 101 52
135 102 52
135 102 51
135 103 51
134 104 51
134 104 51
134 105 51
134 106 50
134 106 50
133 107 50
133 108 50
133 108 50
133 109 49
133 109 49
132 110 49
132 111 49
132 111 48
132 112 48
132 113 48
131 113 48
131 114 48
131 115 47
131 115 47
131 116 47
130 116 47
130 117 46
130 118 46
130 118 46
130 119 46
129 120 46
129 120 45
129 121 45
129 122 45
129 122 45
128 123 44
128 123 44
128 124 44
128 125 44
128 125 44
127 126 43
127 127 43
127 127 43
127 128 43
126 129 43
126 129 42
126 130 42
126 131 42
126 131 42
125 132 41
125 132 41
125 133 41
125 134 41
125 134 41
124 135 40
124 136 40
124 136 40
124 137 40
124 138 39
123 138 39
123 139 39
123 139 39
123 140 39
123 141 38
122 141 38
122 142 38
122 143 38
122 143 37
122 144 37
121 145 37
121 145 37
121 146 37
121 146 36
121 147 36
120 148 36
120 148 36
120 149 36
120 150 35
120 150 35
119 151 35
119 152 35
119 152 34
119 153 34
119 154 34
118 154 34
118 155 34
118 155 33
118 156 33
118 157 33
117 157 33
117 158 32
117 159 32
117 159 32
117 160 32
116 161 32
116 161 31
116 162 31
116 162 31
116 163 31
115 164 31
115 164 30
115 165 30
115 166 30
115 166 30
114 167 29
114 168 29
114 168 29
114 169 29
114 170 29
113 170 28
113 171 28
113 171 28
113 172 28
113 173 27
112 173 27
112 174 27
112 175 27
112 175 27
112 176 26
111 177 26
111 177 26
111 178 26
111 178 25
111 179 25
110 180 25
110 180 25
110 181 25
110 182 24
109 182 24
109 183 24
109 184 24
109 184 24
109 185 23
108 185 23
108 186 23
108 187 23
108 187 22
108 188 22
107 189 22
107 189 22
107 190 22
107 191 21
107 191 21
106 192 21
106 193 21
106 193 20
106 194 20
106 194 20
105 195 20
105 196 20
105 196 19
105 197 19
105 198 19
104 198 19
104 199 18
104 200 18
104 200 18
104 201 18
103 201 18
103 202 17
103 203 17
103 203 17
103 204 17
102 205 17
102 205 16
102 206 16
102 207 16
102 207 16
101 208 15
101 208 15
101 209 15
101 210 15
101 210 15
100 211 14
100 212 14
100 212 14
100 213 14
100 214 13
99 214 13
99 215 13
99 216 13
99 216 13
99 217 12
98 217 12
98 218 12
98 219 12
98 219 12
98 220 11
97 221 11
97 221 11
97 222 11
97 223 10
97 223 10
96 224 10
96 224 10
96 225 10
96 226 9
96 226 9
95 227 9
95 228 9
95 228 8
95 229 8
95 230 8
94 230 8
94 231 8
94 231 7
94 232 7
94 233 7
93 233 7
93 234 6
93 235 6
93 235 6
93 236 6
92 237 6
92 237 5
92 238 5
92 239 5
91 239 5
91 240 5
91 240 4
91 241 4
91 242 4
90 242 4
90 243 3
90 244 3
90 244 3
90 245 3
89 246 3
89 246 2
89 247 2
89 247 2
89 248 2
88 249 1
88 249 1
88 250 1
88 251 1
88 251 1
87 252 0
87 253 0
87 253 0
87 254 0
87 255 0
169 0 85
168 0 85
168 1 85
168 1 85
168 2 84
168 3 84
167 3 84
167 4 84
167 5 84
167 5 83
167 6 83
166 7 83
166 7 83
166 8 83
166 8 82
166 9 82
165 10 82
165 10 82
165 11 81
165 12 81
164 12 81
164 13 81
164 14 81
164 14 80
164 15 80
163 15 80
163 16 80
163 17 80
163 17 79
163 18 79
162 19 79
162 19 79
162 20 78
162 21 78
162 21 78
161 22 78
161 23 78
161 23 77
161 24 77
161 24 77
160 25 77
160 26 77
160 26 76
160 27 76
159 28 76
159 28 76
159 29 75
159 30 75
159 30 75
158 31 75
158 31 75
158 32 74
158 33 74
158 33 74
157 34 74
157 35 74
157 35 73
157 36 73
157 37 73
156 37 73
156 38 72
156 38 72
156 39 72
155 40 72
155 40 72
155 41 71
155 42 71
155 42 71
154 43 71
154 44 71
154 44 70
154 45 70
154 46 70
153 46 70
153 47 69
153 47 69
153 48 69
153 49 69
152 49 69
152 50 68
152 51 68
152 51 68
152 52 68
151 53 67
151 53 67
151 54 67
151 54 67
150 55 67
150 56 66
150 56 66
150 57 66
150 58 66
149 58 66
149 59 65
149 60 65
149 60 65
149 61 65
148 61 64
148 62 64
148 63 64
148 63 64
148 64 64
147 65 63
147 65 63
147 66 63
147 67 63
147 67 63
146 68 62
146 69 62
146 69 62
146 70 62
145 70 61
145 71 61
145 72 61
145 72 61
145 73 61
144 74 60
144 74 60
144 75 60
144 76 60
144 76 60
143 77 59
143 77 59
143 78 59
143 79 59
143 79 58
142 80 58
142 81 58
142 81 58
142 82 58
142 83 57
141 83 57
141 84 57
141 85 57
141 85 57
140 86 56
140 86 56
140 87 56
140 88 56
140 88 55
139 89 55
139 90 55
139 90 55
139 91 55
139 92 54
138 92 54
138 93 54
138 93 54
138 94 54
138 95 53
137 95 53
137 96 53
137 97 53
137 97 52
136 98 52
136 99 52
136 99 52
136 100 52
136 100 51
135 101 51
135 102 51
135 102 51
135 103 50
135 104 50
134 104 50
134 105 50
134 106 50
134 106 49
134 107 49
133 108 49
133 108 49
133 109 49
133 109 48
133 110 48
132 111 48
132 111 48
132 112 47
132 113 47
131 113 47
131 114 47
131 115 47
131 115 46
131 116 46
130 116 46
130 117 46
130 118 46
130 118 45
130 119 45
129 120 45
129 120 45
129 121 44
129 122 44
129 122 44
128 123 44
128 123 44
128 124 43
128 125 43
128 125 43
127 126 43
127 127 43
127 127 42
127 128 42
126 129 42
126 129 42
126 130 41
126 131 41
126 131 41
125 132 41
125 132 41
125 133 40
125 134 40
125 134 40
124 135 40
124 136 40
124 136 39
124 137 39
124 138 39
123 138 39
123 139 38
123 139 38
123 140 38
123 141 38
122 141 38
122 142 37
122 143 37
122 143 37
121 144 37
121 145 37
121 145 36
121 146 36
121 146 36
120 147 36
120 148 35
120 148 35
120 149 35
120 150 35
119 150 35
119 151 34
119 152 34
119 152 34
119 153 34
118 154 33
118 154 33
118 155 33
118 155 33
118 156 33
117 157 32
117 157 32
117 158 32
117 159 32
116 159 32
116 160 31
116 161 31
116 161 31
116 162 31
115 162 30
115 163 30
115 164 30
115 164 30
115 165 30
114 166 29
114 166 29
114 167 29
114 168 29
114 168 29
113 169 28
113 170 28
113 170 28
113 171 28
112 171 27
112 172 27
112 173 27
112 173 27
112 174 27
111 175 26
111 175 26
111 176 26
111 177 26
111 177 26
110 178 25
110 178 25
110 179 25
110 180 25
110 180 24
109 181 24
109 182 24
109 182 24
109 183 24
109 184 23
108 184 23
108 185 23
108 185 23
108 186 23
107 187 22
107 187 22
107 188 22
107 189 22
107 189 21
106 190 21
106 191 21
106 191 21
106 192 21
106 193 20
105 193 20
105 194 20
105 194 20
105 195 20
105 196 19
104 196 19
104 197 19
104 198 19
104 198 18
104 199 18
103 200 18
103 200 18
103 201 18
103 201 17
102 202 17
102 203 17
102 203 17
102 204 16
102 205 16
101 205 16
101 206 16
101 207 16
101 207 15
101 208 15
100 208 15
100 209 15
100 210 15
100 210 14
100 211 14
99 212 14
99 212 14
99 213 13
99 214 13
99 214 13
98 215 13
98 216 13
98 216 12
98 217 12
97 217 12
97 218 12
97 219 12
97 219 11
97 220 11
96 221 11
96 221 11
96 222 10
96 223 10
96 223 10
95 224 10
95 224 10
95 225 9
95 226 9
95 226 9
94 227 9
94 228 9
94 228 8
94 229 8
93 230 8
93 230 8
93 231 7
93 231 7
93 232 7
92 233 7
92 233 7
92 234 6
92 235 6
92 235 6
91 236 6
91 237 6
91 237 5
91 238 5
91 239 5
90 239 5
90 240 4
90 240 4
90 241 4
90 242 4
89 242 4
89 243 3
89 244 3
89 244 3
88 245 3
88 246 3
88 246 2
88 247 2
88 247 2
87 248 2
87 249 1
87 249 1
87 250 1
87 251 1
86 251 1
86 252 0
86 253 0
86 253 0
86 254 0
85 255 0
170 0 84
170 0 84
169 1 84
169 1 83
169 2 83
169 3 83
169 3 83
168 4 83
168 5 82
168 5 82
168 6 82
168 7 82
167 7 82
167 8 81
167 8 81
167 9 81
166 10 81
166 10 80
166 11 80
166 12 80
166 12 80
165 13 80
165 14 79
165 14 79
165 15 79
165 15 79
164 16 79
164 17 78
164 17 78
164 18 78
163 19 78
163 19 78
163 20 77
163 21 77
163 21 77
162 22 77
162 23 76
162 23 76
162 24 76
162 24 76
161 25 76
161 26 75
161 26 75
161 27 75
160 28 75
160 28 75
160 29 74
160 30 74
160 30 74
159 31 74
159 31 73
159 32 73
159 33 73
159 33 73
158 34 73
158 35 72
158 35 72
158 36 72
157 37 72
157 37 72
157 38 71
157 38 71
157 39 71
156 40 71
156 40 71
156 41 70
156 42 70
156 42 70
155 43 70
155 44 69
155 44 69
155 45 69
154 46 69
154 46 69
154 47 68
154 47 68
154 48 68
153 49 68
153 49 68
153 50 67
153 51 67
152 51 67
152 52 67
152 53 66
152 53 66
152 54 66
151 54 66
151 55 66
151 56 65
151 56 65
151 57 65
150 58 65
150 58 65
150 59 64
150 60 64
149 60 64
149 61 64
149 61 64
149 62 63
149 63 63
148 63 63
148 64 63
148 65 62
148 65 62
148 66 62
147 67 62
147 67 62
147 68 61
147 69 61
146 69 61
146 70 61
146 70 61
146 71 60
146 72 60
145 72 60
145 73 60
145 74 59
145 74 59
145 75 59
144 76 59
144 76 59
144 77 58
144 77 58
143 78 58
143 79 58
143 79 58
143 80 57
143 81 57
142 81 57
142 82 57
142 83 57
142 83 56
142 84 56
141 85 56
141 85 56
141 86 55
141 86 55
140 87 55
140 88 55
140 88 55
140 89 54
140 90 54
139 90 54
139 91 54
139 92 54
139 92 53
139 93 53
138 93 53
138 94 53
138 95 52
138 95 52
137 96 52
137 97 52
137 97 52
137 98 51
137 99 51
136 99 51
136 100 51
136 100 51
136 101 50
135 102 50
135 102 50
135 103 50
135 104 50
135 104 49
134 105 49
134 106 49
134 106 49
134 107 48
134 108 48
133 108 48
133 109 48
133 109 48
133 110 47
132 111 47
132 111 47
132 112 47
132 113 47
132 113 46
131 114 46
131 115 46
131 115 46
131 116 45
131 116 45
130 117 45
130 118 45
130 118 45
130 119 44
129 120 44
129 120 44
129 121 44
129 122 44
129 122 43
128 123 43
128 123 43
128 124 43
128 125 43
128 125 42
127 126 42
127 127 42
127 127 42
127 128 41
126 129 41
126 129 41
126 130 41
126 131 41
126 131 40
125 132 40
125 132 40
125 133 40
125 134 40
125 134 39
124 135 39
124 136 39
124 136 39
124 137 39
123 138 38
123 138 38
123 139 38
123 139 38
123 140 37
122 141 37
122 141 37
122 142 37
122 143 37
122 143 36
121 144 36
121 145 36
121 145 36
121 146 36
120 146 35
120 147 35
120 148 35
120 148 35
120 149 34
119 150 34
119 150 34
119 151 34
119 152 34
119 152 33
118 153 33
118 154 33
118 154 33
118 155 33
117 155 32
117 156 32
117 157 32
117 157 32
117 158 32
116 159 31
116 159 31
116 160 31
116 161 31
115 161 30
115 162 30
115 162 30
115 163 30
115 164 30
114 164 29
114 165 29
114 166 29
114 166 29
114 167 29
113 168 28
113 168 28
113 169 28
113 170 28
112 170 27
112 171 27
112 171 27
112 172 27
112 173 27
111 173 26
111 174 26
111 175 26
111 175 26
111 176 26
110 177 25
110 177 25
110 178 25
110 178 25
109 179 25
109 180 24
109 180 24
109 181 24
109 182 24
108 182 23
108 183 23
108 184 23
108 184 23
108 185 23
107 185 22
107 186 22
107 187 22
107 187 22
106 188 22
106 189 21
106 189 21
106 190 21
106 191 21
105 191 20
105 192 20
105 193 20
105 193 20
105 194 20
104 194 19
104 195 19
104 196 19
104 196 19
103 197 19
103 198 18
103 198 18
103 199 18
103 200 18
102 200 18
102 201 17
102 201 17
102 202 17
102 203 17
101 203 16
101 204 16
101 205 16
101 205 16
100 206 16
100 207 15
100 207 15
100 208 15
100 208 15
99 209 15
99 210 14
99 210 14
99 211 14
98 212 14
98 212 13
98 213 13
98 214 13
98 214 13
97 215 13
97 216 12
97 216 12
97 217 12
97 217 12
96 218 12
96 219 11
96 219 11
96 220 11
95 221 11
95 221 11
95 222 10
95 223 10
95 223 10
94 224 10
94 224 9
94 225 9
94 226 9
94 226 9
93 227 9
93 228 8
93 228 8
93 229 8
92 230 8
92 230 8
92 231 7
92 231 7
92 232 7
91 233 7
91 233 6
91 234 6
91 235 6
91 235 6
90 236 6
90 237 5
90 237 5
90 238 5
89 239 5
89 239 5
89 240 4
89 240 4
89 241 4
88 242 4
88 242 4
88 243 3
88 244 3
88 244 3
87 245 3
87 246 2
87 246 2
87 247 2
86 247 2
86 248 2
86 249 1
86 249 1
86 250 1
85 251 1
85 251 1
85 252 0
85 253 0
85 253 0
84 254 0
84 255 0
171 0 83
171 0 83
171 1 82
171 1 82
170 2 82
170 3 82
170 3 82
170 4 81
169 5 81
169 5 81
169 6 81
169 7 80
169 7 80
168 8 80
168 8 80
168 9 80
168 10 79
167 10 79
167 11 79
167 12 79
167 12 79
167 13 78
166 14 78
166 14 78
166 15 78
166 15 78
165 16 77
165 17 77
165 17 77
165 18 77
165 19 77
164 19 76
164 20 76
164 21 76
164 21 76
163 22 75
163 23 75
163 23 75
163 24 75
163 24 75
162 25 74
162 26 74
162 26 74
162 27 74
161 28 74
161 28 73
161 29 73
161 30 73
161 30 73
160 31 73
160 31 72
160 32 72
160 33 72
159 33 72
159 34 72
159 35 71
159 35 71
159 36 71
158 37 71
158 37 70
158 38 70
158 38 70
157 39 70
157 40 70
157 40 69
157 41 69
157 42 69
156 42 69
156 43 69
156 44 68
156 44 68
155 45 68
155 46 68
155 46 68
155 47 67
155 47 67
154 48 67
154 49 67
154 49 67
154 50 66
153 51 66
153 51 66
153 52 66
153 53 65
153 53 65
152 54 65
152 54 65
152 55 65
152 56 64
151 56 64
151 57 64
151 58 64
151 58 64
151 59 63
150 60 63
150 60 63
150 61 63
150 61 63
149 62 62
149 63 62
149 63 62
149 64 62
149 65 61
148 65 61
148 66 61
148 67 61
148 67 61
147 68 60
147 69 60
147 69 60
147 70 60
147 70 60
146 71 59
146 72 59
146 72 59
146 73 59
146 74 59
145 74 58
145 75 58
145 76 58
145 76 58
144 77 58
144 77 57
144 78 57
144 79 57
144 79 57
143 80 56
143 81 56
143 81 56
143 82 56
142 83 56
142 83 55
142 84 55
142 85 55
142 85 55
141 86 55
141 86 54
141 87 54
141 88 54
140 88 54
140 89 54
140 90 53
140 90 53
140 91 53
139 92 53
139 92 53
139 93 52
139 93 52
138 94 52
138 95 52
138 95 51
138 96 51
138 97 51
137 97 51
137 98 51
137 99 50
137 99 50
136 100 50
136 100 50
136 101 50
136 102 49
136 102 49
135 103 49
135 104 49
135 104 49
135 105 48
134 106 48
134 106 48
134 107 48
134 108 48
134 108 47
133 109 47
133 109 47
133 110 47
133 111 46
132 111 46
132 112 46
132 113 46
132 113 46
132 114 45
131 115 45
131 115 45
131 116 45
131 116 45
130 117 44
130 118 44
130 118 44
130 119 44
130 120 44
129 120 43
129 121 43
129 122 43
129 122 43
128 123 43
128 123 42
128 124 42
128 125 42
128 125 42
127 126 41
127 127 41
127 127 41
127 128 41
126 129 41
126 129 40
126 130 40
126 131 40
126 131 40
125 132 40
125 132 39
125 133 39
125 134 39
124 134 39
124 135 39
124 136 38
124 136 38
124 137 38
123 138 38
123 138 37
123 139 37
123 139 37
122 140 37
122 141 37
122 141 36
122 142 36
122 143 36
121 143 36
121 144 36
121 145 35
121 145 35
120 146 35
120 146 35
120 147 35
120 148 34
120 148 34
119 149 34
119 150 34
119 150 34
119 151 33
118 152 33
118 152 33
118 153 33
118 154 32
118 154 32
117 155 32
117 155 32
117 156 32
117 157 31
116 157 31
116 158 31
116 159 31
116 159 31
116 160 30
115 161 30
115 161 30
115 162 30
115 162 30
114 163 29
114 164 29
114 164 29
114 165 29
114 166 29
113 166 28
113 167 28
113 168 28
113 168 28
112 169 27
112 170 27
112 170 27
112 171 27
112 171 27
111 172 26
111 173 26
111 173 26
111 174 26
110 175 26
110 175 25
110 176 25
110 177 25
110 177 25
109 178 25
109 178 24
109 179 24
109 180 24
108 180 24
108 181 24
108 182 23
108 182 23
108 183 23
107 184 23
107 184 22
107 185 22
107 185 22
107 186 22
106 187 22
106 187 21
106 188 21
106 189 21
105 189 21
105 190 21
105 191 20
105 191 20
105 192 20
104 193 20
104 193 20
104 194 19
104 194 19
103 195 19
103 196 19
103 196 18
103 197 18
103 198 18
102 198 18
102 199 18
102 200 17
102 200 17
101 201 17
101 201 17
101 202 17
101 203 16
101 203 16
100 204 16
100 205 16
100 205 16
100 206 15
99 207 15
99 207 15
99 208 15
99 208 15
99 209 14
98 210 14
98 210 14
98 211 14
98 212 13
97 212 13
97 213 13
97 214 13
97 214 13
97 215 12
96 216 12
96 216 12
96 217 12
96 217 12
95 218 11
95 219 11
95 219 11
95 220 11
95 221 11
94 221 10
94 222 10
94 223 10
94 223 10
93 224 10
93 224 9
93 225 9
93 226 9
93 226 9
92 227 8
92 228 8
92 228 8
92 229 8
91 230 8
91 230 7
91 231 7
91 231 7
91 232 7
90 233 7
90 233 6
90 234 6
90 235 6
89 235 6
89 236 6
89 237 5
89 237 5
89 238 5
88 239 5
88 239 5
88 240 4
88 240 4
87 241 4
87 242 4
87 242 3
87 243 3
87 244 3
86 244 3
86 245 3
86 246 2
86 246 2
85 247 2
85 247 2
85 248 2
85 249 1
85 249 1
84 250 1
84 251 1
84 251 1
84 252 0
83 253 0
83 253 0
83 254 0
83 255 0
172 0 82
172 0 81
172 1 81
172 1 81
172 2 81
171 3 80
171 3 80
171 4 80
171 5 80
170 5 80
170 6 79
170 7 79
170 7 79
170 8 79
169 8 79
169 9 78
169 10 78
169 10 78
168 11 78
168 12 78
168 12 77
168 13 77
167 14 77
167 14 77
167 15 77
167 15 76
167 16 76
166 17 76
166 17 76
166 18 76
166 19 75
165 19 75
165 20 75
165 21 75
165 21 75
165 22 74
164 23 74
164 23 74
164 24 74
164 24 73
163 25 73
163 26 73
163 26 73
163 27 73
162 28 72
162 28 72
162 29 72
162 30 72
162 30 72
161 31 71
161 31 71
161 32 71
161 33 71
160 33 71
160 34 70
160 35 70
160 35 70
159 36 70
159 37 70
159 37 69
159 38 69
159 38 69
158 39 69
158 40 69
158 40 68
158 41 68
157 42 68
157 42 68
157 43 68
157 44 67
157 44 67
156 45 67
156 46 67
156 46 67
156 47 66
155 47 66
155 48 66
155 49 66
155 49 65
154 50 65
154 51 65
154 51 65
154 52 65
154 53 64
153 53 64
153 54 64
153 54 64
153 55 64
152 56 63
152 56 63
152 57 63
152 58 63
152 58 63
151 59 62
151 60 62
151 60 62
151 61 62
150 61 62
150 62 61
150 63 61
150 63 61
149 64 61
149 65 61
149 65 60
149 66 60
149 67 60
148 67 60
148 68 60
148 69 59
148 69 59
147 70 59
147 70 59
147 71 58
147 72 58
146 72 58
146 73 58
146 74 58
146 74 57
146 75 57
145 76 57
145 76 57
145 77 57
145 77 56
144 78 56
144 79 56
144 79 56
144 80 56
144 81 55
143 81 55
143 82 55
143 83 55
143 83 55
142 84 54
142 85 54
142 85 54
142 86 54
141 86 54
141 87 53
141 88 53
141 88 53
141 89 53
140 90 53
140 90 52
140 91 52
140 92 52
139 92 52
139 93 52
139 93 51
139 94 51
139 95 51
138 95 51
138 96 50
138 97 50
138 97 50
137 98 50
137 99 50
137 99 49
137 100 49
136 100 49
136 101 49
136 102 49
136 102 48
136 103 48
135 104 48
135 104 48
135 105 48
135 106 47
134 106 47
134 107 47
134 108 47
134 108 47
133 109 46
133 109 46
133 110 46
133 111 46
133 111 46
132 112 45
132 113 45
132 113 45
132 114 45
131 115 45
131 115 44
131 116 44
131 116 44
131 117 44
130 118 43
130 118 43
130 119 43
130 120 43
129 120 43
129 121 42
129 122 42
129 122 42
128 123 42
128 123 42
128 124 41
128 125 41
128 125 41
127 126 41
127 127 41
127 127 40
127 128 40
126 129 40
126 129 40
126 130 40
126 131 39
126 131 39
125 132 39
125 132 39
125 133 39
125 134 38
124 134 38
124 135 38
124 136 38
124 136 38
123 137 37
123 138 37
123 138 37
123 139 37
123 139 36
122 140 36
122 141 36
122 141 36
122 142 36
121 143 35
121 143 35
121 144 35
121 145 35
121 145 35
120 146 34
120 146 34
120 147 34
120 148 34
119 148 34
119 149 33
119 150 33
119 150 33
118 151 33
118 152 33
118 152 32
118 153 32
118 154 32
117 154 32
117 155 32
117 155 31
117 156 31
116 157 31
116 157 31
116 158 31
116 159 30
115 159 30
115 160 30
115 161 30
115 161 30
115 162 29
114 162 29
114 163 29
114 164 29
114 164 28
113 165 28
113 166 28
113 166 28
113 167 28
113 168 27
112 168 27
112 169 27
112 170 27
112 170 27
111 171 26
111 171 26
111 172 26
111 173 26
110 173 26
110 174 25
110 175 25
110 175 25
110 176 25
109 177 25
109 177 24
109 178 24
109 178 24
108 179 24
108 180 24
108 180 23
108 181 23
108 182 23
107 182 23
107 183 23
107 184 22
107 184 22
106 185 22
106 185 22
106 186 21
106 187 21
105 187 21
105 188 21
105 189 21
105 189 20
105 190 20
104 191 20
104 191 20
104 192 20
104 193 19
103 193 19
103 194 19
103 194 19
103 195 19
102 196 18
102 196 18
102 197 18
102 198 18
102 198 18
101 199 17
101 200 17
101 200 17
101 201 17
100 201 17
100 202 16
100 203 16
100 203 16
100 204 16
99 205 16
99 205 15
99 206 15
99 207 15
98 207 15
98 208 15
98 208 14
98 209 14
97 210 14
97 210 14
97 211 13
97 212 13
97 212 13
96 213 13
96 214 13
96 214 12
96 215 12
95 216 12
95 216 12
95 217 12
95 217 11
95 218 11
94 219 11
94 219 11
94 220 11
94 221 10
93 221 10
93 222 10
93 223 10
93 223 10
92 224 9
92 224 9
92 225 9
92 226 9
92 226 9
91 227 8
91 228 8
91 228 8
91 229 8
90 230 8
90 230 7
90 231 7
90 231 7
89 232 7
89 233 6
89 233 6
89 234 6
89 235 6
88 235 6
88 236 5
88 237 5
88 237 5
87 238 5
87 239 5
87 239 4
87 240 4
87 240 4
86 241 4
86 242 4
86 242 3
86 243 3
85 244 3
85 244 3
85 245 3
85 246 2
84 246 2
84 247 2
84 247 2
84 248 2
84 249 1
83 249 1
83 250 1
83 251 1
83 251 1
82 252 0
82 253 0
82 253 0
82 254 0
82 255 0
174 0 80
174 0 80
173 1 80
173 1 80
173 2 79
173 3 79
172 3 79
172 4 79
172 5 79
172 5 78
171 6 78
171 7 78
171 7 78
171 8 78
170 8 77
170 9 77
170 10 77
170 10 77
170 11 77
169 12 76
169 12 76
169 13 76
169 14 76
168 14 76
168 15 75
168 15 75
168 16 75
167 17 75
167 17 75
167 18 74
167 19 74
167 19 74
166 20 74
166 21 74
166 21 73
166 22 73
165 23 73
165 23 73
165 24 73
165 24 72
164 25 72
164 26 72
164 26 72
164 27 72
163 28 71
163 28 71
163 29 71
163 30 71
163 30 71
162 31 70
162 31 70
162 32 70
162 33 70
161 33 70
161 34 69
161 35 69
161 35 69
160 36 69
160 37 68
160 37 68
160 38 68
159 38 68
159 39 68
159 40 67
159 40 67
159 41 67
158 42 67
158 42 67
158 43 66
158 44 66
157 44 66
157 45 66
157 46 66
157 46 65
156 47 65
156 47 65
156 48 65
156 49 65
155 49 64
155 50 64
155 51 64
155 51 64
155 52 64
154 53 63
154 53 63
154 54 63
154 54 63
153 55 63
153 56 62
153 56 62
153 57 62
152 58 62
152 58 62
152 59 61
152 60 61
151 60 61
151 61 61
151 61 61
151 62 60
151 63 60
150 63 60
150 64 60
150 65 60
150 65 59
149 66 59
149 67 59
149 67 59
149 68 59
148 69 58
148 69 58
148 70 58
148 70 58
148 71 58
147 72 57
147 72 57
147 73 57
147 74 57
146 74 57
146 75 56
146 76 56
146 76 56
145 77 56
145 77 56
145 78 55
145 79 55
144 79 55
144 80 55
144 81 55
144 81 54
144 82 54
143 83 54
143 83 54
143 84 54
143 85 53
142 85 53
142 86 53
142 86 53
142 87 53
141 88 52
141 88 52
141 89 52
141 90 52
140 90 51
140 91 51
140 92 51
140 92 51
140 93 51
139 93 50
139 94 50
139 95 50
139 95 50
138 96 50
138 97 49
138 97 49
138 98 49
137 99 49
137 99 49
137 100 48
137 100 48
136 101 48
136 102 48
136 102 48
136 103 47
136 104 47
135 104 47
135 105 47
135 106 47
135 106 46
134 107 46
134 108 46
134 108 46
134 109 46
133 109 45
133 110 45
133 111 45
133 111 45
133 112 45
132 113 44
132 113 44
132 114 44
132 115 44
131 115 44
131 116 43
131 116 43
131 117 43
130 118 43
130 118 43
130 119 42
130 120 42
129 120 42
129 121 42
129 122 42
129 122 41
129 123 41
128 123 41
128 124 41
128 125 41
128 125 40
127 126 40
127 127 40
127 127 40
127 128 40
126 129 39
126 129 39
126 130 39
126 131 39
125 131 39
125 132 38
125 132 38
125 133 38
125 134 38
124 134 38
124 135 37
124 136 37
124 136 37
123 137 37
123 138 37
123 138 36
123 139 36
122 139 36
122 140 36
122 141 36
122 141 35
121 142 35
121 143 35
121 143 35
121 144 35
121 145 34
120 145 34
120 146 34
120 146 34
120 147 33
119 148 33
119 148 33
119 149 33
119 150 33
118 150 32
118 151 32
118 152 32
118 152 32
118 153 32
117 154 31
117 154 31
117 155 31
117 155 31
116 156 31
116 157 30
116 157 30
116 158 30
115 159 30
115 159 30
115 160 29
115 161 29
114 161 29
114 162 29
114 162 29
114 163 28
114 164 28
113 164 28
113 165 28
113 166 28
113 166 27
112 167 27
112 168 27
112 168 27
112 169 27
111 170 26
111 170 26
111 171 26
111 171 26
110 172 26
110 173 25
110 173 25
110 174 25
110 175 25
109 175 25
109 176 24
109 177 24
109 177 24
108 178 24
108 178 24
108 179 23
108 180 23
107 180 23
107 181 23
107 182 23
107 182 22
106 183 22
106 184 22
106 184 22
106 185 22
106 185 21
105 186 21
105 187 21
105 187 21
105 188 21
104 189 20
104 189 20
104 190 20
104 191 20
103 191 20
103 192 19
103 193 19
103 193 19
103 194 19
102 194 19
102 195 18
102 196 18
102 196 18
101 197 18
101 198 18
101 198 17
101 199 17
100 200 17
100 200 17
100 201 16
100 201 16
99 202 16
99 203 16
99 203 16
99 204 15
99 205 15
98 205 15
98 206 15
98 207 15
98 207 14
97 208 14
97 208 14
97 209 14
97 210 14
96 210 13
96 211 13
96 212 13
96 212 13
95 213 13
95 214 12
95 214 12
95 215 12
95 216 12
94 216 12
94 217 11
94 217 11
94 218 11
93 219 11
93 219 11
93 220 10
93 221 10
92 221 10
92 222 10
92 223 10
92 223 9
91 224 9
91 224 9
91 225 9
91 226 9
91 226 8
90 227 8
90 228 8
90 228 8
90 229 8
89 230 7
89 230 7
89 231 7
89 231 7
88 232 7
88 233 6
88 233 6
88 234 6
87 235 6
87 235 6
87 236 5
87 237 5
87 237 5
86 238 5
86 239 5
86 239 4
86 240 4
85 240 4
85 241 4
85 242 4
85 242 3
84 243 3
84 244 3
84 244 3
84 245 3
84 246 2
83 246 2
83 247 2
83 247 2
83 248 2
82 249 1
82 249 1
82 250 1
82 251 1
81 251 1
81 252 0
81 253 0
81 253 0
80 254 0
80 255 0
175 0 79
175 0 79
175 1 79
174 1 78
174 2 78
174 3 78
174 3 78
173 4 78
173 5 77
173 5 77
173 6 77
172 7 77
172 7 77
172 8 76
172 8 76
171 9 76
171 10 76
171 10 76
171 11 75
170 12 75
170 12 75
170 13 75
170 14 75
170 14 74
169 15 74
169 15 74
169 16 74
169 17 74
168 17 73
168 18 73
168 19 73
168 19 73
167 20 73
167 21 72
167 21 72
167 22 72
166 23 72
166 23 72
166 24 71
166 24 71
165 25 71
165 26 71
165 26 71
165 27 70
164 28 70
164 28 70
164 29 70
164 30 70
163 30 69
163 31 69
163 31 69
163 32 69
163 33 69
162 33 68
162 34 68
162 35 68
162 35 68
161 36 68
161 37 67
161 37 67
161 38 67
160 38 67
160 39 67
160 40 66
160 40 66
159 41 66
159 42 66
159 42 66
159 43 65
158 44 65
158 44 65
158 45 65
158 46 65
157 46 64
157 47 64
157 47 64
157 48 64
157 49 64
156 49 63
156 50 63
156 51 63
156 51 63
155 52 63
155 53 62
155 53 62
155 54 62
154 54 62
154 55 62
154 56 61
154 56 61
153 57 61
153 58 61
153 58 61
153 59 60
152 60 60
152 60 60
152 61 60
152 61 60
151 62 59
151 63 59
151 63 59
151 64 59
150 65 59
150 65 58
150 66 58
150 67 58
150 67 58
149 68 58
149 69 57
149 69 57
149 70 57
148 70 57
148 71 57
148 72 56
148 72 56
147 73 56
147 74 56
147 74 56
147 75 55
146 76 55
146 76 55
146 77 55
146 77 55
145 78 54
145 79 54
145 79 54
145 80 54
144 81 54
144 81 53
144 82 53
144 83 53
143 83 53
143 84 53
143 85 52
143 85 52
143 86 52
142 86 52
142 87 52
142 88 51
142 88 51
141 89 51
141 90 51
141 90 51
141 91 50
140 92 50
140 92 50
140 93 50
140 93 50
139 94 49
139 95 49
139 95 49
139 96 49
138 97 49
138 97 48
138 98 48
138 99 48
137 99 48
137 100 48
137 100 47
137 101 47
137 102 47
136 102 47
136 103 47
136 104 46
136 104 46
135 105 46
135 106 46
135 106 46
135 107 45
134 108 45
134 108 45
134 109 45
134 109 45
133 110 45
133 111 44
133 111 44
133 112 44
132 113 44
132 113 44
132 114 43
132 115 43
131 115 43
131 116 43
131 116 43
131 117 42
130 118 42
130 118 42
130 119 42
130 120 42
130 120 41
129 121 41
129 122 41
129 122 41
129 123 41
128 123 40
128 124 40
128 125 40
128 125 40
127 126 40
127 127 39
127 127 39
127 128 39
126 129 39
126 129 39
126 130 38
126 131 38
125 131 38
125 132 38
125 132 38
125 133 37
124 134 37
124 134 37
124 135 37
124 136 37
124 136 36
123 137 36
123 138 36
123 138 36
123 139 36
122 139 35
122 140 35
122 141 35
122 141 35
121 142 35
121 143 34
121 143 34
121 144 34
120 145 34
120 145 34
120 146 33
120 146 33
119 147 33
119 148 33
119 148 33
119 149 32
118 150 32
118 150 32
118 151 32
118 152 32
117 152 31
117 153 31
117 154 31
117 154 31
117 155 31
116 155 30
116 156 30
116 157 30
116 157 30
115 158 30
115 159 29
115 159 29
115 160 29
114 161 29
114 161 29
114 162 28
114 162 28
113 163 28
113 164 28
113 164 28
113 165 27
112 166 27
112 166 27
112 167 27
112 168 27
111 168 26
111 169 26
111 170 26
111 170 26
111 171 26
110 171 25
110 172 25
110 173 25
110 173 25
109 174 25
109 175 24
109 175 24
109 176 24
108 177 24
108 177 24
108 178 23
108 178 23
107 179 23
107 180 23
107 180 23
107 181 22
106 182 22
106 182 22
106 183 22
106 184 22
105 184 21
105 185 21
105 185 21
105 186 21
104 187 21
104 187 20
104 188 20
104 189 20
104 189 20
103 190 20
103 191 19
103 191 19
103 192 19
102 193 19
102 193 19
102 194 18
102 194 18
101 195 18
101 196 18
101 196 18
101 197 17
100 198 17
100 198 17
100 199 17
100 200 17
99 200 16
99 201 16
99 201 16
99 202 16
98 203 16
98 203 15
98 204 15
98 205 15
97 205 15
97 206 15
97 207 14
97 207 14
97 208 14
96 208 14
96 209 14
96 210 13
96 210 13
95 211 13
95 212 13
95 212 13
95 213 12
94 214 12
94 214 12
94 215 12
94 216 12
93 216 11
93 217 11
93 217 11
93 218 11
92 219 11
92 219 10
92 220 10
92 221 10
91 221 10
91 222 10
91 223 9
91 223 9
91 224 9
90 224 9
90 225 9
90 226 8
90 226 8
89 227 8
89 228 8
89 228 8
89 229 7
88 230 7
88 230 7
88 231 7
88 231 7
87 232 6
87 233 6
87 233 6
87 234 6
86 235 6
86 235 5
86 236 5
86 237 5
85 237 5
85 238 5
85 239 4
85 239 4
84 240 4
84 240 4
84 241 4
84 242 3
84 242 3
83 243 3
83 244 3
83 244 3
83 245 2
82 246 2
82 246 2
82 247 2
82 247 2
81 248 1
81 249 1
81 249 1
81 250 1
80 251 1
80 251 0
80 252 0
80 253 0
79 253 0
79 254 0
79 255 0
176 0 78
176 0 77
176 1 77
176 1 77
175 2 77
175 3 77
175 3 76
175 4 76
174 5 76
174 5 76
174 6 76
174 7 76
173 7 75
173 8 75
173 8 75
173 9 75
172 10 75
172 10 74
172 11 74
172 12 74
171 12 74
171 13 74
171 14 73
171 14 73
170 15 73
170 15 73
170 16 73
170 17 72
169 17 72
169 18 72
169 19 72
169 19 72
168 20 71
168 21 71
168 21 71
168 22 71
167 23 71
167 23 70
167 24 70
167 24 70
166 25 70
166 26 70
166 26 69
166 27 69
165 28 69
165 28 69
165 29 69
165 30 68
164 30 68
164 31 68
164 31 68
164 32 68
163 33 67
163 33 67
163 34 67
163 35 67
162 35 67
162 36 66
162 37 66
162 37 66
161 38 66
161 38 66
161 39 66
161 40 65
161 40 65
160 41 65
160 42 65
160 42 65
160 43 64
159 44 64
159 44 64
159 45 64
159 46 64
158 46 63
158 47 63
158 47 63
158 48 63
157 49 63
157 49 62
157 50 62
157 51 62
156 51 62
156 52 62
156 53 61
156 53 61
155 54 61
155 54 61
155 55 61
155 56 60
154 56 60
154 57 60
154 58 60
154 58 60
153 59 59
153 60 59
153 60 59
153 61 59
152 61 59
152 62 58
152 63 58
152 63 58
151 64 58
151 65 58
151 65 57
151 66 57
150 67 57
150 67 57
150 68 57
150 69 57
149 69 56
149 70 56
149 70 56
149 71 56
148 72 56
148 72 55
148 73 55
148 74 55
147 74 55
147 75 55
147 76 54
147 76 54
146 77 54
146 77 54
146 78 54
146 79 53
145 79 53
145 80 53
145 81 53
145 81 53
144 82 52
144 83 52
144 83 52
144 84 52
143 85 52
143 85 51
143 86 51
143 86 51
142 87 51
142 88 51
142 88 50
142 89 50
141 90 50
141 90 50
141 91 50
141 92 49
140 92 49
140 93 49
140 93 49
140 94 49
139 95 48
139 95 48
139 96 48
139 97 48
138 97 48
138 98 47
138 99 47
138 99 47
138 100 47
137 100 47
137 101 47
137 102 46
137 102 46
136 103 46
136 104 46
136 104 46
136 105 45
135 106 45
135 106 45
135 107 45
135 108 45
134 108 44
134 109 44
134 109 44
134 110 44
133 111 44
133 111 43
133 112 43
133 113 43
132 113 43
132 114 43
132 115 42
132 115 42
131 116 42
131 116 42
131 117 42
131 118 41
130 118 41
130 119 41
130 120 41
130 120 41
129 121 40
129 122 40
129 122 40
129 123 40
128 123 40
128 124 39
128 125 39
128 125 39
127 126 39
127 127 39
127 127 38
127 128 38
126 129 38
126 129 38
126 130 38
126 131 38
125 131 37
125 132 37
125 132 37
125 133 37
124 134 37
124 134 36
124 135 36
124 136 36
123 136 36
123 137 36
123 138 35
123 138 35
122 139 35
122 139 35
122 140 35
122 141 34
121 141 34
121 142 34
121 143 34
121 143 34
120 144 33
120 145 33
120 145 33
120 146 33
119 146 33
119 147 32
119 148 32
119 148 32
118 149 32
118 150 32
118 150 31
118 151 31
117 152 31
117 152 31
117 153 31
117 154 30
116 154 30
116 155 30
116 155 30
116 156 30
116 157 29
115 157 29
115 158 29
115 159 29
115 159 29
114 160 28
114 161 28
114 161 28
114 162 28
113 162 28
113 163 28
113 164 27
113 164 27
112 165 27
112 166 27
112 166 27
112 167 26
111 168 26
111 168 26
111 169 26
111 170 26
110 170 25
110 171 25
110 171 25
110 172 25
109 173 25
109 173 24
109 174 24
109 175 24
108 175 24
108 176 24
108 177 23
108 177 23
107 178 23
107 178 23
107 179 23
107 180 22
106 180 22
106 181 22
106 182 22
106 182 22
105 183 21
105 184 21
105 184 21
105 185 21
104 185 21
104 186 20
104 187 20
104 187 20
103 188 20
103 189 20
103 189 19
103 190 19
102 191 19
102 191 19
102 192 19
102 193 19
101 193 18
101 194 18
101 194 18
101 195 18
100 196 18
100 196 17
100 197 17
100 198 17
99 198 17
99 199 17
99 200 16
99 200 16
98 201 16
98 201 16
98 202 16
98 203 15
97 203 15
97 204 15
97 205 15
97 205 15
96 206 14
96 207 14
96 207 14
96 208 14
95 208 14
95 209 13
95 210 13
95 210 13
94 211 13
94 212 13
94 212 12
94 213 12
93 214 12
93 214 12
93 215 12
93 216 11
93 216 11
92 217 11
92 217 11
92 218 11
92 219 10
91 219 10
91 220 10
91 221 10
91 221 10
90 222 9
90 223 9
90 223 9
90 224 9
89 224 9
89 225 9
89 226 8
89 226 8
88 227 8
88 228 8
88 228 8
88 229 7
87 230 7
87 230 7
87 231 7
87 231 7
86 232 6
86 233 6
86 233 6
86 234 6
85 235 6
85 235 5
85 236 5
85 237 5
84 237 5
84 238 5
84 239 4
84 239 4
83 240 4
83 240 4
83 241 4
83 242 3
82 242 3
82 243 3
82 244 3
82 244 3
81 245 2
81 246 2
81 246 2
81 247 2
80 247 2
80 248 1
80 249 1
80 249 1
79 250 1
79 251 1
79 251 0
79 252 0
78 253 0
78 253 0
78 254 0
78 255 0
178 0 76
177 0 76
177 1 76
177 1 76
177 2 76
176 3 75
176 3 75
176 4 75
176 5 75
175 5 75
175 6 74
175 7 74
175 7 74
174 8 74
174 8 74
174 9 73
174 10 73
173 10 73
173 11 73
173 12 73
173 12 73
172 13 72
172 14 72
172 14 72
172 15 72
171 15 72
171 16 71
171 17 71
171 17 71
170 18 71
170 19 71
170 19 70
169 20 70
169 21 70
169 21 70
169 22 70
168 23 69
168 23 69
168 24 69
168 24 69
167 25 69
167 26 68
167 26 68
167 27 68
166 28 68
166 28 68
166 29 68
166 30 67
165 30 67
165 31 67
165 31 67
165 32 67
164 33 66
164 33 66
164 34 66
164 35 66
163 35 66
163 36 65
163 37 65
163 37 65
162 38 65
162 38 65
162 39 64
162 40 64
161 40 64
161 41 64
161 42 64
161 42 63
160 43 63
160 44 63
160 44 63
160 45 63
159 46 63
159 46 62
159 47 62
159 47 62
158 48 62
158 49 62
158 49 61
158 50 61
157 51 61
157 51 61
157 52 61
157 53 60
156 53 60
156 54 60
156 54 60
156 55 60
155 56 59
155 56 59
155 57 59
155 58 59
154 58 59
154 59 58
154 60 58
154 60 58
153 61 58
153 61 58
153 62 58
152 63 57
152 63 57
152 64 57
152 65 57
151 65 57
151 66 56
151 67 56
151 67 56
150 68 56
150 69 56
150 69 55
150 70 55
149 70 55
149 71 55
149 72 55
149 72 54
148 73 54
148 74 54
148 74 54
148 75 54
147 76 53
147 76 53
147 77 53
147 77 53
146 78 53
146 79 52
146 79 52
146 80 52
145 81 52
145 81 52
145 82 52
145 83 51
144 83 51
144 84 51
144 85 51
144 85 51
143 86 50
143 86 50
143 87 50
143 88 50
142 88 50
142 89 49
142 90 49
142 90 49
141 91 49
141 92 49
141 92 48
141 93 48
140 93 48
140 94 48
140 95 48
140 95 47
139 96 47
139 97 47
139 97 47
139 98 47
138 99 47
138 99 46
138 100 46
138 100 46
137 101 46
137 102 46
137 102 45
137 103 45
136 104 45
136 104 45
136 105 45
135 106 44
135 106 44
135 107 44
135 108 44
134 108 44
134 109 43
134 109 43
134 110 43
133 111 43
133 111 43
133 112 42
133 113 42
132 113 42
132 114 42
132 115 42
132 115 42
131 116 41
131 116 41
131 117 41
131 118 41
130 118 41
130 119 40
130 120 40
130 120 40
129 121 40
129 122 40
129 122 39
129 123 39
128 123 39
128 124 39
128 125 39
128 125 38
127 126 38
127 127 38
127 127 38
127 128 38
126 129 37
126 129 37
126 130 37
126 131 37
125 131 37
125 132 36
125 132 36
125 133 36
124 134 36
124 134 36
124 135 36
124 136 35
123 136 35
123 137 35
123 138 35
123 138 35
122 139 34
122 139 34
122 140 34
122 141 34
121 141 34
121 142 33
121 143 33
121 143 33
120 144 33
120 145 33
120 145 32
120 146 32
119 146 32
119 147 32
119 148 32
119 148 31
118 149 31
118 150 31
118 150 31
117 151 31
117 152 31
117 152 30
117 153 30
116 154 30
116 154 30
116 155 30
116 155 29
115 156 29
115 157 29
115 157 29
115 158 29
114 159 28
114 159 28
114 160 28
114 161 28
113 161 28
113 162 27
113 162 27
113 163 27
112 164 27
112 164 27
112 165 26
112 166 26
111 166 26
111 167 26
111 168 26
111 168 26
110 169 25
110 170 25
110 170 25
110 171 25
109 171 25
109 172 24
109 173 24
109 173 24
108 174 24
108 175 24
108 175 23
108 176 23
107 177 23
107 177 23
107 178 23
107 178 22
106 179 22
106 180 22
106 180 22
106 181 22
105 182 21
105 182 21
105 183 21
105 184 21
104 184 21
104 185 21
104 185 20
104 186 20
103 187 20
103 187 20
103 188 20
103 189 19
102 189 19
102 190 19
102 191 19
102 191 19
101 192 18
101 193 18
101 193 18
100 194 18
100 194 18
100 195 17
100 196 17
99 196 17
99 197 17
99 198 17
99 198 16
98 199 16
98 200 16
98 200 16
98 201 16
97 201 15
97 202 15
97 203 15
97 203 15
96 204 15
96 205 15
96 205 14
96 206 14
95 207 14
95 207 14
95 208 14
95 208 13
94 209 13
94 210 13
94 210 13
94 211 13
93 212 12
93 212 12
93 213 12
93 214 12
92 214 12
92 215 11
92 216 11
92 216 11
91 217 11
91 217 11
91 218 10
91 219 10
90 219 10
90 220 10
90 221 10
90 221 10
89 222 9
89 223 9
89 223 9
89 224 9
88 224 9
88 225 8
88 226 8
88 226 8
87 227 8
87 228 8
87 228 7
87 229 7
86 230 7
86 230 7
86 231 7
86 231 6
85 232 6
85 233 6
85 233 6
85 234 6
84 235 5
84 235 5
84 236 5
83 237 5
83 237 5
83 238 5
83 239 4
82 239 4
82 240 4
82 240 4
82 241 4
81 242 3
81 242 3
81 243 3
81 244 3
80 244 3
80 245 2
80 246 2
80 246 2
79 247 2
79 247 2
79 248 1
79 249 1
78 249 1
78 250 1
78 251 1
78 251 0
77 252 0
77 253 0
77 253 0
77 254 0
76 255 0
179 0 75
179 0 75
178 1 75
178 1 75
178 2 74
178 3 74
177 3 74
177 4 74
177 5 74
177 5 73
176 6 73
176 7 73
176 7 73
176 8 73
175 8 72
175 9 72
175 10 72
174 10 72
174 11 72
174 12 72
174 12 71
173 13 71
173 14 71
173 14 71
173 15 71
172 15 70
172 16 70
172 17 70
172 17 70
171 18 70
171 19 69
171 19 69
171 20 69
170 21 69
170 21 69
170 22 68
170 23 68
169 23 68
169 24 68
169 24 68
168 25 68
168 26 67
168 26 67
168 27 67
167 28 67
167 28 67
167 29 66
167 30 66
166 30 66
166 31 66
166 31 66
166 32 65
165 33 65
165 33 65
165 34 65
165 35 65
164 35 64
164 36 64
164 37 64
164 37 64
163 38 64
163 38 64
163 39 63
163 40 63
162 40 63
162 41 63
162 42 63
161 42 62
161 43 62
161 44 62
161 44 62
160 45 62
160 46 61
160 46 61
160 47 61
159 47 61
159 48 61
159 49 61
159 49 60
158 50 60
158 51 60
158 51 60
158 52 60
157 53 59
157 53 59
157 54 59
157 54 59
156 55 59
156 56 58
156 56 58
155 57 58
155 58 58
155 58 58
155 59 57
154 60 57
154 60 57
154 61 57
154 61 57
153 62 57
153 63 56
153 63 56
153 64 56
152 65 56
152 65 56
152 66 55
152 67 55
151 67 55
151 68 55
151 69 55
151 69 54
150 70 54
150 70 54
150 71 54
150 72 54
149 72 54
149 73 53
149 74 53
148 74 53
148 75 53
148 76 53
148 76 52
147 77 52
147 77 52
147 78 52
147 79 52
146 79 51
146 80 51
146 81 51
146 81 51
145 82 51
145 83 50
145 83 50
145 84 50
144 85 50
144 85 50
144 86 50
144 86 49
143 87 49
143 88 49
143 88 49
142 89 49
142 90 48
142 90 48
142 91 48
141 92 48
141 92 48
141 93 47
141 93 47
140 94 47
140 95 47
140 95 47
140 96 46
139 97 46
139 97 46
139 98 46
139 99 46
138 99 46
138 100 45
138 100 45
138 101 45
137 102 45
137 102 45
137 103 44
136 104 44
136 104 44
136 105 44
136 106 44
135 106 43
135 107 43
135 108 43
135 108 43
134 109 43
134 109 43
134 110 42
134 111 42
133 111 42
133 112 42
133 113 42
133 113 41
132 114 41
132 115 41
132 115 41
132 116 41
131 116 40
131 117 40
131 118 40
131 118 40
130 119 40
130 120 39
130 120 39
129 121 39
129 122 39
129 122 39
129 123 39
128 123 38
128 124 38
128 125 38
128 125 38
127 126 38
127 127 37
127 127 37
127 128 37
126 129 37
126 129 37
126 130 36
126 131 36
125 131 36
125 132 36
125 132 36
125 133 36
124 134 35
124 134 35
124 135 35
123 136 35
123 136 35
123 137 34
123 138 34
122 138 34
122 139 34
122 139 34
122 140 33
121 141 33
121 141 33
121 142 33
121 143 33
120 143 32
120 144 32
120 145 32
120 145 32
119 146 32
119 146 32
119 147 31
119 148 31
118 148 31
118 149 31
118 150 31
118 150 30
117 151 30
117 152 30
117 152 30
116 153 30
116 154 29
116 154 29
116 155 29
115 155 29
115 156 29
115 157 28
115 157 28
114 158 28
114 159 28
114 159 28
114 160 28
113 161 27
113 161 27
113 162 27
113 162 27
112 163 27
112 164 26
112 164 26
112 165 26
111 166 26
111 166 26
111 167 25
110 168 25
110 168 25
110 169 25
110 170 25
109 170 25
109 171 24
109 171 24
109 172 24
108 173 24
108 173 24
108 174 23
108 175 23
107 175 23
107 176 23
107 177 23
107 177 22
106 178 22
106 178 22
106 179 22
106 180 22
105 180 21
105 181 21
105 182 21
104 182 21
104 183 21
104 184 21
104 184 20
103 185 20
103 185 20
103 186 20
103 187 20
102 187 19
102 188 19
102 189 19
102 189 19
101 190 19
101 191 18
101 191 18
101 192 18
100 193 18
100 193 18
100 194 18
100 194 17
99 195 17
99 196 17
99 196 17
99 197 17
98 198 16
98 198 16
98 199 16
97 200 16
97 200 16
97 201 15
97 201 15
96 202 15
96 203 15
96 203 15
96 204 14
95 205 14
95 205 14
95 206 14
95 207 14
94 207 14
94 208 13
94 208 13
94 209 13
93 210 13
93 210 13
93 211 12
93 212 12
92 212 12
92 213 12
92 214 12
91 214 11
91 215 11
91 216 11
91 216 11
90 217 11
90 217 10
90 218 10
90 219 10
89 219 10
89 220 10
89 221 10
89 221 9
88 222 9
88 223 9
88 223 9
88 224 9
87 224 8
87 225 8
87 226 8
87 226 8
86 227 8
86 228 7
86 228 7
86 229 7
85 230 7
85 230 7
85 231 7
84 231 6
84 232 6
84 233 6
84 233 6
83 234 6
83 235 5
83 235 5
83 236 5
82 237 5
82 237 5
82 238 4
82 239 4
81 239 4
81 240 4
81 240 4
81 241 3
80 242 3
80 242 3
80 243 3
80 244 3
79 244 3
79 245 2
79 246 2
78 246 2
78 247 2
78 247 2
78 248 1
77 249 1
77 249 1
77 250 1
77 251 1
76 251 0
76 252 0
76 253 0
76 253 0
75 254 0
75 255 0
180 0 74
180 0 74
180 1 73
179 1 73
179 2 73
179 3 73
179 3 73
178 4 73
178 5 72
178 5 72
178 6 72
177 7 72
177 7 72
177 8 71
176 8 71
176 9 71
176 10 71
176 10 71
175 11 70
175 12 70
175 12 70
175 13 70
174 14 70
174 14 70
174 15 69
174 15 69
173 16 69
173 17 69
173 17 69
172 18 68
172 19 68
172 19 68
172 20 68
171 21 68
171 21 67
171 22 67
171 23 67
170 23 67
170 24 67
170 24 67
170 25 66
169 26 66
169 26 66
169 27 66
168 28 66
168 28 65
168 29 65
168 30 65
167 30 65
167 31 65
167 31 65
167 32 64
166 33 64
166 33 64
166 34 64
166 35 64
165 35 63
165 36 63
165 37 63
164 37 63
164 38 63
164 38 62
164 39 62
163 40 62
163 40 62
163 41 62
163 42 62
162 42 61
162 43 61
162 44 61
162 44 61
161 45 61
161 46 60
161 46 60
160 47 60
160 47 60
160 48 60
160 49 59
159 49 59
159 50 59
159 51 59
159 51 59
158 52 59
158 53 58
158 53 58
158 54 58
157 54 58
157 55 58
157 56 57
156 56 57
156 57 57
156 58 57
156 58 57
155 59 56
155 60 56
155 60 56
155 61 56
154 61 56
154 62 56
154 63 55
154 63 55
153 64 55
153 65 55
153 65 55
152 66 54
152 67 54
152 67 54
152 68 54
151 69 54
151 69 54
151 70 53
151 70 53
150 71 53
150 72 53
150 72 53
150 73 52
149 74 52
149 74 52
149 75 52
148 76 52
148 76 51
148 77 51
148 77 51
147 78 51
147 79 51
147 79 51
147 80 50
146 81 50
146 81 50
146 82 50
146 83 50
145 83 49
145 84 49
145 85 49
144 85 49
144 86 49
144 86 48
144 87 48
143 88 48
143 88 48
143 89 48
143 90 48
142 90 47
142 91 47
142 92 47
142 92 47
141 93 47
141 93 46
141 94 46
140 95 46
140 95 46
140 96 46
140 97 46
139 97 45
139 98 45
139 99 45
139 99 45
138 100 45
138 100 44
138 101 44
138 102 44
137 102 44
137 103 44
137 104 43
136 104 43
136 105 43
136 106 43
136 106 43
135 107 43
135 108 42
135 108 42
135 109 42
134 109 42
134 110 42
134 111 41
134 111 41
133 112 41
133 113 41
133 113 41
132 114 40
132 115 40
132 115 40
132 116 40
131 116 40
131 117 40
131 118 39
131 118 39
130 119 39
130 120 39
130 120 39
130 121 38
129 122 38
129 122 38
129 123 38
128 123 38
128 124 37
128 125 37
128 125 37
127 126 37
127 127 37
127 127 37
127 128 36
126 129 36
126 129 36
126 130 36
126 131 36
125 131 35
125 132 35
125 132 35
124 133 35
124 134 35
124 134 35
124 135 34
123 136 34
123 136 34
123 137 34
123 138 34
122 138 33
122 139 33
122 139 33
122 140 33
121 141 33
121 141 32
121 142 32
120 143 32
120 143 32
120 144 32
120 145 32
119 145 31
119 146 31
119 146 31
119 147 31
118 148 31
118 148 30
118 149 30
118 150 30
117 150 30
117 151 30
117 152 29
116 152 29
116 153 29
116 154 29
116 154 29
115 155 29
115 155 28
115 156 28
115 157 28
114 157 28
114 158 28
114 159 27
114 159 27
113 160 27
113 161 27
113 161 27
112 162 27
112 162 26
112 163 26
112 164 26
111 164 26
111 165 26
111 166 25
111 166 25
110 167 25
110 168 25
110 168 25
110 169 24
109 170 24
109 170 24
109 171 24
108 171 24
108 172 24
108 173 23
108 173 23
107 174 23
107 175 23
107 175 23
107 176 22
106 177 22
106 177 22
106 178 22
106 178 22
105 179 21
105 180 21
105 180 21
104 181 21
104 182 21
104 182 21
104 183 20
103 184 20
103 184 20
103 185 20
103 185 20
102 186 19
102 187 19
102 187 19
102 188 19
101 189 19
101 189 18
101 190 18
100 191 18
100 191 18
100 192 18
100 193 18
99 193 17
99 194 17
99 194 17
99 195 17
98 196 17
98 196 16
98 197 16
98 198 16
97 198 16
97 199 16
97 200 16
96 200 15
96 201 15
96 201 15
96 202 15
95 203 15
95 203 14
95 204 14
95 205 14
94 205 14
94 206 14
94 207 13
94 207 13
93 208 13
93 208 13
93 209 13
92 210 13
92 210 12
92 211 12
92 212 12
91 212 12
91 213 12
91 214 11
91 214 11
90 215 11
90 216 11
90 216 11
90 217 10
89 217 10
89 218 10
89 219 10
88 219 10
88 220 10
88 221 9
88 221 9
87 222 9
87 223 9
87 223 9
87 224 8
86 224 8
86 225 8
86 226 8
86 226 8
85 227 8
85 228 7
85 228 7
84 229 7
84 230 7
84 230 7
84 231 6
83 231 6
83 232 6
83 233 6
83 233 6
82 234 5
82 235 5
82 235 5
82 236 5
81 237 5
81 237 5
81 238 4
80 239 4
80 239 4
80 240 4
80 240 4
79 241 3
79 242 3
79 242 3
79 243 3
78 244 3
78 244 2
78 245 2
78 246 2
77 246 2
77 247 2
77 247 2
76 248 1
76 249 1
76 249 1
76 250 1
75 251 1
75 251 0
75 252 0
75 253 0
74 253 0
74 254 0
74 255 0
181 0 73
181 0 72
181 1 72
181 1 72
180 2 72
180 3 72
180 3 71
180 4 71
179 5 71
179 5 71
179 6 71
178 7 71
178 7 70
178 8 70
178 8 70
177 9 70
177 10 70
177 10 69
177 11 69
176 12 69
176 12 69
176 13 69
175 14 69
175 14 68
175 15 68
175 15 68
174 16 68
174 17 68
174 17 67
174 18 67
173 19 67
173 19 67
173 20 67
172 21 66
172 21 66
172 22 66
172 23 66
171 23 66
171 24 66
171 24 65
171 25 65
170 26 65
170 26 65
170 27 65
169 28 64
169 28 64
169 29 64
169 30 64
168 30 64
168 31 64
168 31 63
168 32 63
167 33 63
167 33 63
167 34 63
166 35 62
166 35 62
166 36 62
166 37 62
165 37 62
165 38 62
165 38 61
165 39 61
164 40 61
164 40 61
164 41 61
163 42 60
163 42 60
163 43 60
163 44 60
162 44 60
162 45 60
162 46 59
162 46 59
161 47 59
161 47 59
161 48 59
160 49 58
160 49 58
160 50 58
160 51 58
159 51 58
159 52 58
159 53 57
159 53 57
158 54 57
158 54 57
158 55 57
157 56 56
157 56 56
157 57 56
157 58 56
156 58 56
156 59 56
156 60 55
156 60 55
155 61 55
155 61 55
155 62 55
154 63 54
154 63 54
154 64 54
154 65 54
153 65 54
153 66 54
153 67 53
153 67 53
152 68 53
152 69 53
152 69 53
151 70 52
151 70 52
151 71 52
151 72 52
150 72 52
150 73 51
150 74 51
150 74 51
149 75 51
149 76 51
149 76 51
148 77 50
148 77 50
148 78 50
148 79 50
147 79 50
147 80 49
147 81 49
147 81 49
146 82 49
146 83 49
146 83 49
145 84 48
145 85 48
145 85 48
145 86 48
144 86 48
144 87 47
144 88 47
144 88 47
143 89 47
143 90 47
143 90 47
142 91 46
142 92 46
142 92 46
142 93 46
141 93 46
141 94 45
141 95 45
141 95 45
140 96 45
140 97 45
140 97 45
139 98 44
139 99 44
139 99 44
139 100 44
138 100 44
138 101 43
138 102 43
138 102 43
137 103 43
137 104 43
137 104 43
136 105 42
136 106 42
136 106 42
136 107 42
135 108 42
135 108 41
135 109 41
135 109 41
134 110 41
134 111 41
134 111 41
133 112 40
133 113 40
133 113 40
133 114 40
132 115 40
132 115 39
132 116 39
132 116 39
131 117 39
131 118 39
131 118 38
130 119 38
130 120 38
130 120 38
130 121 38
129 122 38
129 122 37
129 123 37
129 123 37
128 124 37
128 125 37
128 125 36
127 126 36
127 127 36
127 127 36
127 128 36
126 129 36
126 129 35
126 130 35
125 131 35
125 131 35
125 132 35
125 132 34
124 133 34
124 134 34
124 134 34
124 135 34
123 136 34
123 136 33
123 137 33
122 138 33
122 138 33
122 139 33
122 139 32
121 140 32
121 141 32
121 141 32
121 142 32
120 143 32
120 143 31
120 144 31
119 145 31
119 145 31
119 146 31
119 146 30
118 147 30
118 148 30
118 148 30
118 149 30
117 150 30
117 150 29
117 151 29
116 152 29
116 152 29
116 153 29
116 154 28
115 154 28
115 155 28
115 155 28
115 156 28
114 157 28
114 157 27
114 158 27
113 159 27
113 159 27
113 160 27
113 161 26
112 161 26
112 162 26
112 162 26
112 163 26
111 164 25
111 164 25
111 165 25
110 166 25
110 166 25
110 167 25
110 168 24
109 168 24
109 169 24
109 170 24
109 170 24
108 171 23
108 171 23
108 172 23
107 173 23
107 173 23
107 174 23
107 175 22
106 175 22
106 176 22
106 177 22
106 177 22
105 178 21
105 178 21
105 179 21
104 180 21
104 180 21
104 181 21
104 182 20
103 182 20
103 183 20
103 184 20
103 184 20
102 185 19
102 185 19
102 186 19
101 187 19
101 187 19
101 188 19
101 189 18
100 189 18
100 190 18
100 191 18
100 191 18
99 192 17
99 193 17
99 193 17
98 194 17
98 194 17
98 195 17
98 196 16
97 196 16
97 197 16
97 198 16
97 198 16
96 199 15
96 200 15
96 200 15
95 201 15
95 201 15
95 202 15
95 203 14
94 203 14
94 204 14
94 205 14
94 205 14
93 206 13
93 207 13
93 207 13
92 208 13
92 208 13
92 209 12
92 210 12
91 210 12
91 211 12
91 212 12
91 212 12
90 213 11
90 214 11
90 214 11
89 215 11
89 216 11
89 216 10
89 217 10
88 217 10
88 218 10
88 219 10
88 219 10
87 220 9
87 221 9
87 221 9
86 222 9
86 223 9
86 223 8
86 224 8
85 224 8
85 225 8
85 226 8
85 226 8
84 227 7
84 228 7
84 228 7
83 229 7
83 230 7
83 230 6
83 231 6
82 231 6
82 232 6
82 233 6
82 233 6
81 234 5
81 235 5
81 235 5
80 236 5
80 237 5
80 237 4
80 238 4
79 239 4
79 239 4
79 240 4
79 240 4
78 241 3
78 242 3
78 242 3
77 243 3
77 244 3
77 244 2
77 245 2
76 246 2
76 246 2
76 247 2
76 247 2
75 248 1
75 249 1
75 249 1
74 250 1
74 251 1
74 251 0
74 252 0
73 253 0
73 253 0
73 254 0
73 255 0
183 0 71
182 0 71
182 1 71
182 1 71
182 2 71
181 3 70
181 3 70
181 4 70
181 5 70
180 5 70
180 6 69
180 7 69
179 7 69
179 8 69
179 8 69
179 9 69
178 10 68
178 10 68
178 11 68
177 12 68
177 12 68
177 13 67
177 14 67
176 14 67
176 15 67
176 15 67
175 16 67
175 17 66
175 17 66
175 18 66
174 19 66
174 19 66
174 20 66
174 21 65
173 21 65
173 22 65
173 23 65
172 23 65
172 24 64
172 24 64
172 25 64
171 26 64
171 26 64
171 27 64
170 28 63
170 28 63
170 29 63
170 30 63
169 30 63
169 31 62
169 31 62
168 32 62
168 33 62
168 33 62
168 34 62
167 35 61
167 35 61
167 36 61
167 37 61
166 37 61
166 38 60
166 38 60
165 39 60
165 40 60
165 40 60
165 41 60
164 42 59
164 42 59
164 43 59
163 44 59
163 44 59
163 45 58
163 46 58
162 46 58
162 47 58
162 47 58
162 48 58
161 49 57
161 49 57
161 50 57
160 51 57
160 51 57
160 52 57
160 53 56
159 53 56
159 54 56
159 54 56
158 55 56
158 56 55
158 56 55
158 57 55
157 58 55
157 58 55
157 59 55
156 60 54
156 60 54
156 61 54
156 61 54
155 62 54
155 63 53
155 63 53
155 64 53
154 65 53
154 65 53
154 66 53
153 67 52
153 67 52
153 68 52
153 69 52
152 69 52
152 70 51
152 70 51
151 71 51
151 72 51
151 72 51
151 73 51
150 74 50
150 74 50
150 75 50
149 76 50
149 76 50
149 77 49
149 77 49
148 78 49
148 79 49
148 79 49
148 80 49
147 81 48
147 81 48
147 82 48
146 83 48
146 83 48
146 84 48
146 85 47
145 85 47
145 86 47
145 86 47
144 87 47
144 88 46
144 88 46
144 89 46
143 90 46
143 90 46
143 91 46
143 92 45
142 92 45
142 93 45
142 93 45
141 94 45
141 95 44
141 95 44
141 96 44
140 97 44
140 97 44
140 98 44
139 99 43
139 99 43
139 100 43
139 100 43
138 101 43
138 102 42
138 102 42
137 103 42
137 104 42
137 104 42
137 105 42
136 106 41
136 106 41
136 107 41
136 108 41
135 108 41
135 109 41
135 109 40
134 110 40
134 111 40
134 111 40
134 112 40
133 113 39
133 113 39
133 114 39
132 115 39
132 115 39
132 116 39
132 116 38
131 117 38
131 118 38
131 118 38
130 119 38
130 120 37
130 120 37
130 121 37
129 122 37
129 122 37
129 123 37
129 123 36
128 124 36
128 125 36
128 125 36
127 126 36
127 127 35
127 127 35
127 128 35
126 129 35
126 129 35
126 130 35
125 131 34
125 131 34
125 132 34
125 132 34
124 133 34
124 134 33
124 134 33
124 135 33
123 136 33
123 136 33
123 137 33
122 138 32
122 138 32
122 139 32
122 139 32
121 140 32
121 141 32
121 141 31
120 142 31
120 143 31
120 143 31
120 144 31
119 145 30
119 145 30
119 146 30
118 146 30
118 147 30
118 148 30
118 148 29
117 149 29
117 150 29
117 150 29
117 151 29
116 152 28
116 152 28
116 153 28
115 154 28
115 154 28
115 155 28
115 155 27
114 156 27
114 157 27
114 157 27
113 158 27
113 159 26
113 159 26
113 160 26
112 161 26
112 161 26
112 162 26
111 162 25
111 163 25
111 164 25
111 164 25
110 165 25
110 166 24
110 166 24
110 167 24
109 168 24
109 168 24
109 169 24
108 170 23
108 170 23
108 171 23
108 171 23
107 172 23
107 173 23
107 173 22
106 174 22
106 175 22
106 175 22
106 176 22
105 177 21
105 177 21
105 178 21
105 178 21
104 179 21
104 180 21
104 180 20
103 181 20
103 182 20
103 182 20
103 183 20
102 184 19
102 184 19
102 185 19
101 185 19
101 186 19
101 187 19
101 187 18
100 188 18
100 189 18
100 189 18
99 190 18
99 191 17
99 191 17
99 192 17
98 193 17
98 193 17
98 194 17
98 194 16
97 195 16
97 196 16
97 196 16
96 197 16
96 198 16
96 198 15
96 199 15
95 200 15
95 200 15
95 201 15
94 201 14
94 202 14
94 203 14
94 203 14
93 204 14
93 205 14
93 205 13
92 206 13
92 207 13
92 207 13
92 208 13
91 208 12
91 209 12
91 210 12
91 210 12
90 211 12
90 212 12
90 212 11
89 213 11
89 214 11
89 214 11
89 215 11
88 216 10
88 216 10
88 217 10
87 217 10
87 218 10
87 219 10
87 219 9
86 220 9
86 221 9
86 221 9
86 222 9
85 223 8
85 223 8
85 224 8
84 224 8
84 225 8
84 226 8
84 226 7
83 227 7
83 228 7
83 228 7
82 229 7
82 230 7
82 230 6
82 231 6
81 231 6
81 232 6
81 233 6
80 233 5
80 234 5
80 235 5
80 235 5
79 236 5
79 237 5
79 237 4
79 238 4
78 239 4
78 239 4
78 240 4
77 240 3
77 241 3
77 242 3
77 242 3
76 243 3
76 244 3
76 244 2
75 245 2
75 246 2
75 246 2
75 247 2
74 247 1
74 248 1
74 249 1
73 249 1
73 250 1
73 251 1
73 251 0
72 252 0
72 253 0
72 253 0
72 254 0
71 255 0
184 0 70
184 0 70
183 1 70
183 1 69
183 2 69
183 3 69
182 3 69
182 4 69
182 5 69
181 5 68
181 6 68
181 7 68
181 7 68
180 8 68
180 8 68
180 9 67
179 10 67
179 10 67
179 11 67
179 12 67
178 12 66
178 13 66
178 14 66
177 14 66
177 15 66
177 15 66
177 16 65
176 17 65
176 17 65
176 18 65
175 19 65
175 19 65
175 20 64
175 21 64
174 21 64
174 22 64
174 23 64
173 23 63
173 24 63
173 24 63
173 25 63
172 26 63
172 26 63
172 27 62
171 28 62
171 28 62
171 29 62
171 30 62
170 30 61
170 31 61
170 31 61
169 32 61
169 33 61
169 33 61
169 34 60
168 35 60
168 35 60
168 36 60
167 37 60
167 37 60
167 38 59
167 38 59
166 39 59
166 40 59
166 40 59
165 41 58
165 42 58
165 42 58
165 43 58
164 44 58
164 44 58
164 45 57
163 46 57
163 46 57
163 47 57
163 47 57
162 48 57
162 49 56
162 49 56
161 50 56
161 51 56
161 51 56
161 52 55
160 53 55
160 53 55
160 54 55
159 54 55
159 55 55
159 56 54
159 56 54
158 57 54
158 58 54
158 58 54
157 59 54
157 60 53
157 60 53
157 61 53
156 61 53
156 62 53
156 63 52
155 63 52
155 64 52
155 65 52
155 65 52
154 66 52
154 67 51
154 67 51
153 68 51
153 69 51
153 69 51
153 70 51
152 70 50
152 71 50
152 72 50
151 72 50
151 73 50
151 74 49
151 74 49
150 75 49
150 76 49
150 76 49
149 77 49
149 77 48
149 78 48
149 79 48
148 79 48
148 80 48
148 81 48
147 81 47
147 82 47
147 83 47
147 83 47
146 84 47
146 85 46
146 85 46
145 86 46
145 86 46
145 87 46
145 88 46
144 88 45
144 89 45
144 90 45
143 90 45
143 91 45
143 92 45
143 92 44
142 93 44
142 93 44
142 94 44
141 95 44
141 95 43
141 96 43
141 97 43
140 97 43
140 98 43
140 99 43
139 99 42
139 100 42
139 100 42
139 101 42
138 102 42
138 102 42
138 103 41
137 104 41
137 104 41
137 105 41
137 106 41
136 106 40
136 107 40
136 108 40
135 108 40
135 109 40
135 109 40
135 110 39
134 111 39
134 111 39
134 112 39
133 113 39
133 113 39
133 114 38
133 115 38
132 115 38
132 116 38
132 116 38
131 117 37
131 118 37
131 118 37
131 119 37
130 120 37
130 120 37
130 121 36
129 122 36
129 122 36
129 123 36
129 123 36
128 124 36
128 125 35
128 125 35
127 126 35
127 127 35
127 127 35
127 128 34
126 129 34
126 129 34
126 130 34
125 131 34
125 131 34
125 132 33
125 132 33
124 133 33
124 134 33
124 134 33
123 135 33
123 136 32
123 136 32
123 137 32
122 138 32
122 138 32
122 139 31
121 139 31
121 140 31
121 141 31
121 141 31
120 142 31
120 143 30
120 143 30
119 144 30
119 145 30
119 145 30
119 146 30
118 146 29
118 147 29
118 148 29
117 148 29
117 149 29
117 150 28
117 150 28
116 151 28
116 152 28
116 152 28
115 153 28
115 154 27
115 154 27
115 155 27
114 155 27
114 156 27
114 157 27
113 157 26
113 158 26
113 159 26
113 159 26
112 160 26
112 161 25
112 161 25
111 162 25
111 162 25
111 163 25
111 164 25
110 164 24
110 165 24
110 166 24
109 166 24
109 167 24
109 168 24
109 168 23
108 169 23
108 170 23
108 170 23
107 171 23
107 171 22
107 172 22
107 173 22
106 173 22
106 174 22
106 175 22
105 175 21
105 176 21
105 177 21
105 177 21
104 178 21
104 178 21
104 179 20
103 180 20
103 180 20
103 181 20
103 182 20
102 182 19
102 183 19
102 184 19
101 184 19
101 185 19
101 185 19
101 186 18
100 187 18
100 187 18
100 188 18
99 189 18
99 189 18
99 190 17
99 191 17
98 191 17
98 192 17
98 193 17
97 193 16
97 194 16
97 194 16
97 195 16
96 196 16
96 196 16
96 197 15
95 198 15
95 198 15
95 199 15
95 200 15
94 200 15
94 201 14
94 201 14
93 202 14
93 203 14
93 203 14
93 204 13
92 205 13
92 205 13
92 206 13
91 207 13
91 207 13
91 208 12
91 208 12
90 209 12
90 210 12
90 210 12
89 211 12
89 212 11
89 212 11
89 213 11
88 214 11
88 214 11
88 215 10
87 216 10
87 216 10
87 217 10
87 217 10
86 218 10
86 219 9
86 219 9
85 220 9
85 221 9
85 221 9
85 222 9
84 223 8
84 223 8
84 224 8
83 224 8
83 225 8
83 226 7
83 226 7
82 227 7
82 228 7
82 228 7
81 229 7
81 230 6
81 230 6
81 231 6
80 231 6
80 232 6
80 233 6
79 233 5
79 234 5
79 235 5
79 235 5
78 236 5
78 237 4
78 237 4
77 238 4
77 239 4
77 239 4
77 240 4
76 240 3
76 241 3
76 242 3
75 242 3
75 243 3
75 244 3
75 244 2
74 245 2
74 246 2
74 246 2
73 247 2
73 247 1
73 248 1
73 249 1
72 249 1
72 250 1
72 251 1
71 251 0
71 252 0
71 253 0
71 253 0
70 254 0
70 255 0
185 0 69
185 0 69
185 1 68
184 1 68
184 2 68
184 3 68
184 3 68
183 4 67
183 5 67
183 5 67
182 6 67
182 7 67
182 7 67
182 8 66
181 8 66
181 9 66
181 10 66
180 10 66
180 11 66
180 12 65
179 12 65
179 13 65
179 14 65
179 14 65
178 15 65
178 15 64
178 16 64
177 17 64
177 17 64
177 18 64
177 19 63
176 19 63
176 20 63
176 21 63
175 21 63
175 22 63
175 23 62
174 23 62
174 24 62
174 24 62
174 25 62
173 26 62
173 26 61
173 27 61
172 28 61
172 28 61
172 29 61
172 30 61
171 30 60
171 31 60
171 31 60
170 32 60
170 33 60
170 33 60
170 34 59
169 35 59
169 35 59
169 36 59
168 37 59
168 37 58
168 38 58
167 38 58
167 39 58
167 40 58
167 40 58
166 41 57
166 42 57
166 42 57
165 43 57
165 44 57
165 44 57
165 45 56
164 46 56
164 46 56
164 47 56
163 47 56
163 48 56
163 49 55
163 49 55
162 50 55
162 51 55
162 51 55
161 52 54
161 53 54
161 53 54
160 54 54
160 54 54
160 55 54
160 56 53
159 56 53
159 57 53
159 58 53
158 58 53
158 59 53
158 60 52
158 60 52
157 61 52
157 61 52
157 62 52
156 63 52
156 63 51
156 64 51
155 65 51
155 65 51
155 66 51
155 67 50
154 67 50
154 68 50
154 69 50
153 69 50
153 70 50
153 70 49
153 71 49
152 72 49
152 72 49
152 73 49
151 74 49
151 74 48
151 75 48
151 76 48
150 76 48
150 77 48
150 77 48
149 78 47
149 79 47
149 79 47
148 80 47
148 81 47
148 81 46
148 82 46
147 83 46
147 83 46
147 84 46
146 85 46
146 85 45
146 86 45
146 86 45
145 87 45
145 88 45
145 88 45
144 89 44
144 90 44
144 90 44
144 91 44
143 92 44
143 92 44
143 93 43
142 93 43
142 94 43
142 95 43
141 95 43
141 96 43
141 97 42
141 97 42
140 98 42
140 99 42
140 99 42
139 100 41
139 100 41
139 101 41
139 102 41
138 102 41
138 103 41
138 104 40
137 104 40
137 105 40
137 106 40
136 106 40
136 107 40
136 108 39
136 108 39
135 109 39
135 109 39
135 110 39
134 111 39
134 111 38
134 112 38
134 113 38
133 113 38
133 114 38
133 115 37
132 115 37
132 116 37
132 116 37
132 117 37
131 118 37
131 118 36
131 119 36
130 120 36
130 120 36
130 121 36
129 122 36
129 122 35
129 123 35
129 123 35
128 124 35
128 125 35
128 125 35
127 126 34
127 127 34
127 127 34
127 128 34
126 129 34
126 129 33
126 130 33
125 131 33
125 131 33
125 132 33
125 132 33
124 133 32
124 134 32
124 134 32
123 135 32
123 136 32
123 136 32
122 137 31
122 138 31
122 138 31
122 139 31
121 139 31
121 140 31
121 141 30
120 141 30
120 142 30
120 143 30
120 143 30
119 144 30
119 145 29
119 145 29
118 146 29
118 146 29
118 147 29
118 148 28
117 148 28
117 149 28
117 150 28
116 150 28
116 151 28
116 152 27
115 152 27
115 153 27
115 154 27
115 154 27
114 155 27
114 155 26
114 156 26
113 157 26
113 157 26
113 158 26
113 159 26
112 159 25
112 160 25
112 161 25
111 161 25
111 162 25
111 162 24
110 163 24
110 164 24
110 164 24
110 165 24
109 166 24
109 166 23
109 167 23
108 168 23
108 168 23
108 169 23
108 170 23
107 170 22
107 171 22
107 171 22
106 172 22
106 173 22
106 173 22
106 174 21
105 175 21
105 175 21
105 176 21
104 177 21
104 177 20
104 178 20
103 178 20
103 179 20
103 180 20
103 180 20
102 181 19
102 182 19
102 182 19
101 183 19
101 184 19
101 184 19
101 185 18
100 185 18
100 186 18
100 187 18
99 187 18
99 188 18
99 189 17
99 189 17
98 190 17
98 191 17
98 191 17
97 192 16
97 193 16
97 193 16
96 194 16
96 194 16
96 195 16
96 196 15
95 196 15
95 197 15
95 198 15
94 198 15
94 199 15
94 200 14
94 200 14
93 201 14
93 201 14
93 202 14
92 203 14
92 203 13
92 204 13
91 205 13
91 205 13
91 206 13
91 207 13
90 207 12
90 208 12
90 208 12
89 209 12
89 210 12
89 210 11
89 211 11
88 212 11
88 212 11
88 213 11
87 214 11
87 214 10
87 215 10
87 216 10
86 216 10
86 217 10
86 217 10
85 218 9
85 219 9
85 219 9
84 220 9
84 221 9
84 221 9
84 222 8
83 223 8
83 223 8
83 224 8
82 224 8
82 225 7
82 226 7
82 226 7
81 227 7
81 228 7
81 228 7
80 229 6
80 230 6
80 230 6
80 231 6
79 231 6
79 232 6
79 233 5
78 233 5
78 234 5
78 235 5
77 235 5
77 236 5
77 237 4
77 237 4
76 238 4
76 239 4
76 239 4
75 240 3
75 240 3
75 241 3
75 242 3
74 242 3
74 243 3
74 244 2
73 244 2
73 245 2
73 246 2
72 246 2
72 247 2
72 247 1
72 248 1
71 249 1
71 249 1
71 250 1
70 251 1
70 251 0
70 252 0
70 253 0
69 253 0
69 254 0
69 255 0
187 0 67
186 0 67
186 1 67
186 1 67
185 2 67
185 3 67
185 3 66
184 4 66
184 5 66
184 5 66
184 6 66
183 7 66
183 7 65
183 8 65
182 8 65
182 9 65
182 10 65
182 10 65
181 11 64
181 12 64
181 12 64
180 13 64
180 14 64
180 14 63
179 15 63
179 15 63
179 16 63
179 17 63
178 17 63
178 18 62
178 19 62
177 19 62
177 20 62
177 21 62
176 21 62
176 22 61
176 23 61
176 23 61
175 24 61
175 24 61
175 25 61
174 26 60
174 26 60
174 27 60
173 28 60
173 28 60
173 29 60
173 30 59
172 30 59
172 31 59
172 31 59
171 32 59
171 33 59
171 33 58
170 34 58
170 35 58
170 35 58
170 36 58
169 37 58
169 37 57
169 38 57
168 38 57
168 39 57
168 40 57
167 40 57
167 41 56
167 42 56
167 42 56
166 43 56
166 44 56
166 44 55
165 45 55
165 46 55
165 46 55
164 47 55
164 47 55
164 48 54
164 49 54
163 49 54
163 50 54
163 51 54
162 51 54
162 52 53
162 53 53
161 53 53
161 54 53
161 54 53
161 55 53
160 56 52
160 56 52
160 57 52
159 58 52
159 58 52
159 59 52
159 60 51
158 60 51
158 61 51
158 61 51
157 62 51
157 63 51
157 63 50
156 64 50
156 65 50
156 65 50
156 66 50
155 67 50
155 67 49
155 68 49
154 69 49
154 69 49
154 70 49
153 70 49
153 71 48
153 72 48
153 72 48
152 73 48
152 74 48
152 74 47
151 75 47
151 76 47
151 76 47
150 77 47
150 77 47
150 78 46
150 79 46
149 79 46
149 80 46
149 81 46
148 81 46
148 82 45
148 83 45
147 83 45
147 84 45
147 85 45
147 85 45
146 86 44
146 86 44
146 87 44
145 88 44
145 88 44
145 89 44
144 90 43
144 90 43
144 91 43
144 92 43
143 92 43
143 93 43
143 93 42
142 94 42
142 95 42
142 95 42
141 96 42
141 97 42
141 97 41
141 98 41
140 99 41
140 99 41
140 100 41
139 100 41
139 101 40
139 102 40
138 102 40
138 103 40
138 104 40
138 104 39
137 105 39
137 106 39
137 106 39
136 107 39
136 108 39
136 108 38
136 109 38
135 109 38
135 110 38
135 111 38
134 111 38
134 112 37
134 113 37
133 113 37
133 114 37
133 115 37
133 115 37
132 116 36
132 116 36
132 117 36
131 118 36
131 118 36
131 119 36
130 120 35
130 120 35
130 121 35
130 122 35
129 122 35
129 123 35
129 123 34
128 124 34
128 125 34
128 125 34
127 126 34
127 127 34
127 127 33
127 128 33
126 129 33
126 129 33
126 130 33
125 131 33
125 131 32
125 132 32
124 132 32
124 133 32
124 134 32
124 134 31
123 135 31
123 136 31
123 136 31
122 137 31
122 138 31
122 138 30
121 139 30
121 139 30
121 140 30
121 141 30
120 141 30
120 142 29
120 143 29
119 143 29
119 144 29
119 145 29
118 145 29
118 146 28
118 146 28
118 147 28
117 148 28
117 148 28
117 149 28
116 150 27
116 150 27
116 151 27
116 152 27
115 152 27
115 153 27
115 154 26
114 154 26
114 155 26
114 155 26
113 156 26
113 157 26
113 157 25
113 158 25
112 159 25
112 159 25
112 160 25
111 161 25
111 161 24
111 162 24
110 162 24
110 163 24
110 164 24
110 164 23
109 165 23
109 166 23
109 166 23
108 167 23
108 168 23
108 168 22
107 169 22
107 170 22
107 170 22
107 171 22
106 171 22
106 172 21
106 173 21
105 173 21
105 174 21
105 175 21
104 175 21
104 176 20
104 177 20
104 177 20
103 178 20
103 178 20
103 179 20
102 180 19
102 180 19
102 181 19
101 182 19
101 182 19
101 183 19
101 184 18
100 184 18
100 185 18
100 185 18
99 186 18
99 187 18
99 187 17
98 188 17
98 189 17
98 189 17
98 190 17
97 191 17
97 191 16
97 192 16
96 193 16
96 193 16
96 194 16
95 194 15
95 195 15
95 196 15
95 196 15
94 197 15
94 198 15
94 198 14
93 199 14
93 200 14
93 200 14
93 201 14
92 201 14
92 202 13
92 203 13
91 203 13
91 204 13
91 205 13
90 205 13
90 206 12
90 207 12
90 207 12
89 208 12
89 208 12
89 209 12
88 210 11
88 210 11
88 211 11
87 212 11
87 212 11
87 213 11
87 214 10
86 214 10
86 215 10
86 216 10
85 216 10
85 217 10
85 217 9
84 218 9
84 219 9
84 219 9
84 220 9
83 221 9
83 221 8
83 222 8
82 223 8
82 223 8
82 224 8
81 224 7
81 225 7
81 226 7
81 226 7
80 227 7
80 228 7
80 228 6
79 229 6
79 230 6
79 230 6
78 231 6
78 231 6
78 232 5
78 233 5
77 233 5
77 234 5
77 235 5
76 235 5
76 236 4
76 237 4
75 237 4
75 238 4
75 239 4
75 239 4
74 240 3
74 240 3
74 241 3
73 242 3
73 242 3
73 243 3
72 244 2
72 244 2
72 245 2
72 246 2
71 246 2
71 247 2
71 247 1
70 248 1
70 249 1
70 249 1
70 250 1
69 251 1
69 251 0
69 252 0
68 253 0
68 253 0
68 254 0
67 255 0
188 0 66
188 0 66
187 1 66
187 1 66
187 2 65
186 3 65
186 3 65
186 4 65
185 5 65
185 5 65
185 6 64
185 7 64
184 7 64
184 8 64
184 8 64
183 9 64
183 10 63
183 10 63
182 11 63
182 12 63
182 12 63
181 13 63
181 14 62
181 14 62
181 15 62
180 15 62
180 16 62
180 17 62
179 17 61
179 18 61
179 19 61
178 19 61
178 20 61
178 21 61
177 21 60
177 22 60
177 23 60
177 23 60
176 24 60
176 24 60
176 25 59
175 26 59
175 26 59
175 27 59
174 28 59
174 28 59
174 29 58
174 30 58
173 30 58
173 31 58
173 31 58
172 32 58
172 33 57
172 33 57
171 34 57
171 35 57
171 35 57
170 36 57
170 37 56
170 37 56
170 38 56
169 38 56
169 39 56
169 40 56
168 40 55
168 41 55
168 42 55
167 42 55
167 43 55
167 44 55
167 44 54
166 45 54
166 46 54
166 46 54
165 47 54
165 47 54
165 48 53
164 49 53
164 49 53
164 50 53
163 51 53
163 51 53
163 52 52
163 53 52
162 53 52
162 54 52
162 54 52
161 55 52
161 56 51
161 56 51
160 57 51
160 58 51
160 58 51
159 59 51
159 60 50
159 60 50
159 61 50
158 61 50
158 62 50
158 63 50
157 63 49
157 64 49
157 65 49
156 65 49
156 66 49
156 67 49
156 67 48
155 68 48
155 69 48
155 69 48
154 70 48
154 70 48
154 71 47
153 72 47
153 72 47
153 73 47
152 74 47
152 74 47
152 75 46
152 76 46
151 76 46
151 77 46
151 77 46
150 78 46
150 79 45
150 79 45
149 80 45
149 81 45
149 81 45
149 82 45
148 83 44
148 83 44
148 84 44
147 85 44
147 85 44
147 86 44
146 86 43
146 87 43
146 88 43
145 88 43
145 89 43
145 90 43
145 90 42
144 91 42
144 92 42
144 92 42
143 93 42
143 93 42
143 94 41
142 95 41
142 95 41
142 96 41
141 97 41
141 97 41
141 98 40
141 99 40
140 99 40
140 100 40
140 100 40
139 101 40
139 102 39
139 102 39
138 103 39
138 104 39
138 104 39
138 105 39
137 106 38
137 106 38
137 107 38
136 108 38
136 108 38
136 109 38
135 109 37
135 110 37
135 111 37
134 111 37
134 112 37
134 113 37
134 113 36
133 114 36
133 115 36
133 115 36
132 116 36
132 116 36
132 117 35
131 118 35
131 118 35
131 119 35
131 120 35
130 120 35
130 121 34
130 122 34
129 122 34
129 123 34
129 123 34
128 124 34
128 125 33
128 125 33
127 126 33
127 127 33
127 127 33
127 128 33
126 129 32
126 129 32
126 130 32
125 131 32
125 131 32
125 132 32
124 132 31
124 133 31
124 134 31
123 134 31
123 135 31
123 136 31
123 136 30
122 137 30
122 138 30
122 138 30
121 139 30
121 139 30
121 140 29
120 141 29
120 141 29
120 142 29
120 143 29
119 143 29
119 144 28
119 145 28
118 145 28
118 146 28
118 146 28
117 147 28
117 148 27
117 148 27
116 149 27
116 150 27
116 150 27
116 151 27
115 152 26
115 152 26
115 153 26
114 154 26
114 154 26
114 155 26
113 155 25
113 156 25
113 157 25
113 157 25
112 158 25
112 159 25
112 159 24
111 160 24
111 161 24
111 161 24
110 162 24
110 162 24
110 163 23
109 164 23
109 164 23
109 165 23
109 166 23
108 166 23
108 167 22
108 168 22
107 168 22
107 169 22
107 170 22
106 170 22
106 171 21
106 171 21
105 172 21
105 173 21
105 173 21
105 174 21
104 175 20
104 175 20
104 176 20
103 177 20
103 177 20
103 178 20
102 178 19
102 179 19
102 180 19
102 180 19
101 181 19
101 182 19
101 182 18
100 183 18
100 184 18
100 184 18
99 185 18
99 185 18
99 186 17
98 187 17
98 187 17
98 188 17
98 189 17
97 189 17
97 190 16
97 191 16
96 191 16
96 192 16
96 193 16
95 193 16
95 194 15
95 194 15
95 195 15
94 196 15
94 196 15
94 197 15
93 198 14
93 198 14
93 199 14
92 200 14
92 200 14
92 201 14
91 201 13
91 202 13
91 203 13
91 203 13
90 204 13
90 205 13
90 205 12
89 206 12
89 207 12
89 207 12
88 208 12
88 208 12
88 209 11
87 210 11
87 210 11
87 211 11
87 212 11
86 212 11
86 213 10
86 214 10
85 214 10
85 215 10
85 216 10
84 216 10
84 217 9
84 217 9
84 218 9
83 219 9
83 219 9
83 220 9
82 221 8
82 221 8
82 222 8
81 223 8
81 223 8
81 224 8
80 224 7
80 225 7
80 226 7
80 226 7
79 227 7
79 228 7
79 228 6
78 229 6
78 230 6
78 230 6
77 231 6
77 231 6
77 232 5
77 233 5
76 233 5
76 234 5
76 235 5
75 235 5
75 236 4
75 237 4
74 237 4
74 238 4
74 239 4
73 239 4
73 240 3
73 240 3
73 241 3
72 242 3
72 242 3
72 243 3
71 244 2
71 244 2
71 245 2
70 246 2
70 246 2
70 247 2
69 247 1
69 248 1
69 249 1
69 249 1
68 250 1
68 251 1
68 251 0
67 252 0
67 253 0
67 253 0
66 254 0
66 255 0
189 0 65
189 0 65
189 1 65
188 1 64
188 2 64
188 3 64
187 3 64
187 4 64
187 5 64
186 5 63
186 6 63
186 7 63
185 7 63
185 8 63
185 8 63
184 9 62
184 10 62
184 10 62
184 11 62
183 12 62
183 12 62
183 13 61
182 14 61
182 14 61
182 15 61
181 15 61
181 16 61
181 17 60
180 17 60
180 18 60
180 19 60
179 19 60
179 20 60
179 21 59
179 21 59
178 22 59
178 23 59
178 23 59
177 24 59
177 24 58
177 25 58
176 26 58
176 26 58
176 27 58
175 28 58
175 28 57
175 29 57
175 30 57
174 30 57
174 31 57
174 31 57
173 32 56
173 33 56
173 33 56
172 34 56
172 35 56
172 35 56
171 36 56
171 37 55
171 37 55
170 38 55
170 38 55
170 39 55
170 40 55
169 40 54
169 41 54
169 42 54
168 42 54
168 43 54
168 44 54
167 44 53
167 45 53
167 46 53
166 46 53
166 47 53
166 47 53
165 48 52
165 49 52
165 49 52
165 50 52
164 51 52
164 51 52
164 52 51
163 53 51
163 53 51
163 54 51
162 54 51
162 55 51
162 56 50
161 56 50
161 57 50
161 58 50
160 58 50
160 59 50
160 60 49
160 60 49
159 61 49
159 61 49
159 62 49
158 63 49
158 63 48
158 64 48
157 65 48
157 65 48
157 66 48
156 67 48
156 67 47
156 68 47
156 69 47
155 69 47
155 70 47
155 70 47
154 71 47
154 72 46
154 72 46
153 73 46
153 74 46
153 74 46
152 75 46
152 76 45
152 76 45
151 77 45
151 77 45
151 78 45
151 79 45
150 79 44
150 80 44
150 81 44
149 81 44
149 82 44
149 83 44
148 83 43
148 84 43
148 85 43
147 85 43
147 86 43
147 86 43
146 87 42
146 88 42
146 88 42
146 89 42
145 90 42
145 90 42
145 91 41
144 92 41
144 92 41
144 93 41
143 93 41
143 94 41
143 95 40
142 95 40
142 96 40
142 97 40
141 97 40
141 98 40
141 99 39
141 99 39
140 100 39
140 100 39
140 101 39
139 102 39
139 102 38
139 103 38
138 104 38
138 104 38
138 105 38
137 106 38
137 106 37
137 107 37
137 108 37
136 108 37
136 109 37
136 109 37
135 110 37
135 111 36
135 111 36
134 112 36
134 113 36
134 113 36
133 114 36
133 115 35
133 115 35
132 116 35
132 116 35
132 117 35
132 118 35
131 118 34
131 119 34
131 120 34
130 120 34
130 121 34
130 122 34
129 122 33
129 123 33
129 123 33
128 124 33
128 125 33
128 125 33
127 126 32
127 127 32
127 127 32
127 128 32
126 129 32
126 129 32
126 130 31
125 131 31
125 131 31
125 132 31
124 132 31
124 133 31
124 134 30
123 134 30
123 135 30
123 136 30
122 136 30
122 137 30
122 138 29
122 138 29
121 139 29
121 139 29
121 140 29
120 141 29
120 141 28
120 142 28
119 143 28
119 143 28
119 144 28
118 145 28
118 145 28
118 146 27
117 146 27
117 147 27
117 148 27
117 148 27
116 149 27
116 150 26
116 150 26
115 151 26
115 152 26
115 152 26
114 153 26
114 154 25
114 154 25
113 155 25
113 155 25
113 156 25
113 157 25
112 157 24
112 158 24
112 159 24
111 159 24
111 160 24
111 161 24
110 161 23
110 162 23
110 162 23
109 163 23
109 164 23
109 164 23
108 165 22
108 166 22
108 166 22
108 167 22
107 168 22
107 168 22
107 169 21
106 170 21
106 170 21
106 171 21
105 171 21
105 172 21
105 173 20
104 173 20
104 174 20
104 175 20
103 175 20
103 176 20
103 177 19
103 177 19
102 178 19
102 178 19
102 179 19
101 180 19
101 180 18
101 181 18
100 182 18
100 182 18
100 183 18
99 184 18
99 184 18
99 185 17
98 185 17
98 186 17
98 187 17
98 187 17
97 188 17
97 189 16
97 189 16
96 190 16
96 191 16
96 191 16
95 192 16
95 193 15
95 193 15
94 194 15
94 194 15
94 195 15
94 196 15
93 196 14
93 197 14
93 198 14
92 198 14
92 199 14
92 200 14
91 200 13
91 201 13
91 201 13
90 202 13
90 203 13
90 203 13
89 204 12
89 205 12
89 205 12
89 206 12
88 207 12
88 207 12
88 208 11
87 208 11
87 209 11
87 210 11
86 210 11
86 211 11
86 212 10
85 212 10
85 213 10
85 214 10
84 214 10
84 215 10
84 216 9
84 216 9
83 217 9
83 217 9
83 218 9
82 219 9
82 219 9
82 220 8
81 221 8
81 221 8
81 222 8
80 223 8
80 223 8
80 224 7
79 224 7
79 225 7
79 226 7
79 226 7
78 227 7
78 228 6
78 228 6
77 229 6
77 230 6
77 230 6
76 231 6
76 231 5
76 232 5
75 233 5
75 233 5
75 234 5
75 235 5
74 235 4
74 236 4
74 237 4
73 237 4
73 238 4
73 239 4
72 239 3
72 240 3
72 240 3
71 241 3
71 242 3
71 242 3
70 243 2
70 244 2
70 244 2
70 245 2
69 246 2
69 246 2
69 247 1
68 247 1
68 248 1
68 249 1
67 249 1
67 250 1
67 251 0
66 251 0
66 252 0
66 253 0
65 253 0
65 254 0
65 255 0
190 0 64
190 0 63
190 1 63
189 1 63
189 2 63
189 3 63
189 3 63
188 4 62
188 5 62
188 5 62
187 6 62
187 7 62
187 7 62
186 8 61
186 8 61
186 9 61
185 10 61
185 10 61
185 11 61
184 12 61
184 12 60
184 13 60
183 14 60
183 14 60
183 15 60
182 15 60
182 16 59
182 17 59
182 17 59
181 18 59
181 19 59
181 19 59
180 20 58
180 21 58
180 21 58
179 22 58
179 23 58
179 23 58
178 24 57
178 24 57
178 25 57
177 26 57
177 26 57
177 27 57
176 28 57
176 28 56
176 29 56
175 30 56
175 30 56
175 31 56
175 31 56
174 32 55
174 33 55
174 33 55
173 34 55
173 35 55
173 35 55
172 36 54
172 37 54
172 37 54
171 38 54
171 38 54
171 39 54
170 40 53
170 40 53
170 41 53
169 42 53
169 42 53
169 43 53
168 44 52
168 44 52
168 45 52
168 46 52
167 46 52
167 47 52
167 47 52
166 48 51
166 49 51
166 49 51
165 50 51
165 51 51
165 51 51
164 52 50
164 53 50
164 53 50
163 54 50
163 54 50
163 55 50
162 56 49
162 56 49
162 57 49
161 58 49
161 58 49
161 59 49
161 60 48
160 60 48
160 61 48
160 61 48
159 62 48
159 63 48
159 63 48
158 64 47
158 65 47
158 65 47
157 66 47
157 67 47
157 67 47
156 68 46
156 69 46
156 69 46
155 70 46
155 70 46
155 71 46
155 72 45
154 72 45
154 73 45
154 74 45
153 74 45
153 75 45
153 76 44
152 76 44
152 77 44
152 77 44
151 78 44
151 79 44
151 79 43
150 80 43
150 81 43
150 81 43
149 82 43
149 83 43
149 83 43
148 84 42
148 85 42
148 85 42
148 86 42
147 86 42
147 87 42
147 88 41
146 88 41
146 89 41
146 90 41
145 90 41
145 91 41
145 92 40
144 92 40
144 93 40
144 93 40
143 94 40
143 95 40
143 95 39
142 96 39
142 97 39
142 97 39
141 98 39
141 99 39
141 99 39
141 100 38
140 100 38
140 101 38
140 102 38
139 102 38
139 103 38
139 104 37
138 104 37
138 105 37
138 106 37
137 106 37
137 107 37
137 108 36
136 108 36
136 109 36
136 109 36
135 110 36
135 111 36
135 111 35
134 112 35
134 113 35
134 113 35
134 114 35
133 115 35
133 115 35
133 116 34
132 116 34
132 117 34
132 118 34
131 118 34
131 119 34
131 120 33
130 120 33
130 121 33
130 122 33
129 122 33
129 123 33
129 123 32
128 124 32
128 125 32
128 125 32
127 126 32
127 127 32
127 127 31
127 128 31
126 129 31
126 129 31
126 130 31
125 131 31
125 131 30
125 132 30
124 132 30
124 133 30
124 134 30
123 134 30
123 135 30
123 136 29
122 136 29
122 137 29
122 138 29
121 138 29
121 139 29
121 139 28
120 140 28
120 141 28
120 141 28
120 142 28
119 143 28
119 143 27
119 144 27
118 145 27
118 145 27
118 146 27
117 146 27
117 147 26
117 148 26
116 148 26
116 149 26
116 150 26
115 150 26
115 151 26
115 152 25
114 152 25
114 153 25
114 154 25
113 154 25
113 155 25
113 155 24
113 156 24
112 157 24
112 157 24
112 158 24
111 159 24
111 159 23
111 160 23
110 161 23
110 161 23
110 162 23
109 162 23
109 163 22
109 164 22
108 164 22
108 165 22
108 166 22
107 166 22
107 167 21
107 168 21
106 168 21
106 169 21
106 170 21
106 170 21
105 171 21
105 171 20
105 172 20
104 173 20
104 173 20
104 174 20
103 175 20
103 175 19
103 176 19
102 177 19
102 177 19
102 178 19
101 178 19
101 179 18
101 180 18
100 180 18
100 181 18
100 182 18
99 182 18
99 183 17
99 184 17
99 184 17
98 185 17
98 185 17
98 186 17
97 187 17
97 187 16
97 188 16
96 189 16
96 189 16
96 190 16
95 191 16
95 191 15
95 192 15
94 193 15
94 193 15
94 194 15
93 194 15
93 195 14
93 196 14
93 196 14
92 197 14
92 198 14
92 198 14
91 199 13
91 200 13
91 200 13
90 201 13
90 201 13
90 202 13
89 203 13
89 203 12
89 204 12
88 205 12
88 205 12
88 206 12
87 207 12
87 207 11
87 208 11
86 208 11
86 209 11
86 210 11
86 210 11
85 211 10
85 212 10
85 212 10
84 213 10
84 214 10
84 214 10
83 215 9
83 216 9
83 216 9
82 217 9
82 217 9
82 218 9
81 219 8
81 219 8
81 220 8
80 221 8
80 221 8
80 222 8
79 223 8
79 223 7
79 224 7
79 224 7
78 225 7
78 226 7
78 226 7
77 227 6
77 228 6
77 228 6
76 229 6
76 230 6
76 230 6
75 231 5
75 231 5
75 232 5
74 233 5
74 233 5
74 234 5
73 235 4
73 235 4
73 236 4
72 237 4
72 237 4
72 238 4
72 239 4
71 239 3
71 240 3
71 240 3
70 241 3
70 242 3
70 242 3
69 243 2
69 244 2
69 244 2
68 245 2
68 246 2
68 246 2
67 247 1
67 247 1
67 248 1
66 249 1
66 249 1
66 250 1
65 251 0
65 251 0
65 252 0
65 253 0
64 253 0
64 254 0
64 255 0
192 0 62
191 0 62
191 1 62
191 1 62
190 2 62
190 3 62
190 3 61
189 4 61
189 5 61
189 5 61
188 6 61
188 7 61
188 7 60
187 8 60
187 8 60
187 9 60
187 10 60
186 10 60
186 11 59
186 12 59
185 12 59
185 13 59
185 14 59
184 14 59
184 15 59
184 15 58
183 16 58
183 17 58
183 17 58
182 18 58
182 19 58
182 19 57
181 20 57
181 21 57
181 21 57
180 22 57
180 23 57
180 23 56
179 24 56
179 24 56
179 25 56
178 26 56
178 26 56
178 27 56
177 28 55
177 28 55
177 29 55
176 30 55
176 30 55
176 31 55
175 31 54
175 32 54
175 33 54
175 33 54
174 34 54
174 35 54
174 35 53
173 36 53
173 37 53
173 37 53
172 38 53
172 38 53
172 39 53
171 40 52
171 40 52
171 41 52
170 42 52
170 42 52
170 43 52
169 44 51
169 44 51
169 45 51
168 46 51
168 46 51
168 47 51
167 47 50
167 48 50
167 49 50
166 49 50
166 50 50
166 51 50
165 51 50
165 52 49
165 53 49
164 53 49
164 54 49
164 54 49
163 55 49
163 56 48
163 56 48
163 57 48
162 58 48
162 58 48
162 59 48
161 60 47
161 60 47
161 61 47
160 61 47
160 62 47
160 63 47
159 63 47
159 64 46
159 65 46
158 65 46
158 66 46
158 67 46
157 67 46
157 68 45
157 69 45
156 69 45
156 70 45
156 70 45
155 71 45
155 72 45
155 72 44
154 73 44
154 74 44
154 74 44
153 75 44
153 76 44
153 76 43
152 77 43
152 77 43
152 78 43
151 79 43
151 79 43
151 80 42
151 81 42
150 81 42
150 82 42
150 83 42
149 83 42
149 84 42
149 85 41
148 85 41
148 86 41
148 86 41
147 87 41
147 88 41
147 88 40
146 89 40
146 90 40
146 90 40
145 91 40
145 92 40
145 92 39
144 93 39
144 93 39
144 94 39
143 95 39
143 95 39
143 96 39
142 97 38
142 97 38
142 98 38
141 99 38
141 99 38
141 100 38
140 100 37
140 101 37
140 102 37
139 102 37
139 103 37
139 104 37
139 104 36
138 105 36
138 106 36
138 106 36
137 107 36
137 108 36
137 108 36
136 109 35
136 109 35
136 110 35
135 111 35
135 111 35
135 112 35
134 113 34
134 113 34
134 114 34
133 115 34
133 115 34
133 116 34
132 116 33
132 117 33
132 118 33
131 118 33
131 119 33
131 120 33
130 120 33
130 121 32
130 122 32
129 122 32
129 123 32
129 123 32
128 124 32
128 125 31
128 125 31
127 126 31
127 127 31
127 127 31
127 128 31
126 129 31
126 129 30
126 130 30
125 131 30
125 131 30
125 132 30
124 132 30
124 133 29
124 134 29
123 134 29
123 135 29
123 136 29
122 136 29
122 137 28
122 138 28
121 138 28
121 139 28
121 139 28
120 140 28
120 141 28
120 141 27
119 142 27
119 143 27
119 143 27
118 144 27
118 145 27
118 145 26
117 146 26
117 146 26
117 147 26
116 148 26
116 148 26
116 149 25
115 150 25
115 150 25
115 151 25
115 152 25
114 152 25
114 153 25
114 154 24
113 154 24
113 155 24
113 155 24
112 156 24
112 157 24
112 157 23
111 158 23
111 159 23
111 159 23
110 160 23
110 161 23
110 161 22
109 162 22
109 162 22
109 163 22
108 164 22
108 164 22
108 165 22
107 166 21
107 166 21
107 167 21
106 168 21
106 168 21
106 169 21
105 170 20
105 170 20
105 171 20
104 171 20
104 172 20
104 173 20
103 173 19
103 174 19
103 175 19
103 175 19
102 176 19
102 177 19
102 177 19
101 178 18
101 178 18
101 179 18
100 180 18
100 180 18
100 181 18
99 182 17
99 182 17
99 183 17
98 184 17
98 184 17
98 185 17
97 185 16
97 186 16
97 187 16
96 187 16
96 188 16
96 189 16
95 189 16
95 190 15
95 191 15
94 191 15
94 192 15
94 193 15
93 193 15
93 194 14
93 194 14
92 195 14
92 196 14
92 196 14
91 197 14
91 198 14
91 198 13
91 199 13
90 200 13
90 200 13
90 201 13
89 201 13
89 202 12
89 203 12
88 203 12
88 204 12
88 205 12
87 205 12
87 206 11
87 207 11
86 207 11
86 208 11
86 208 11
85 209 11
85 210 11
85 210 10
84 211 10
84 212 10
84 212 10
83 213 10
83 214 10
83 214 9
82 215 9
82 216 9
82 216 9
81 217 9
81 217 9
81 218 8
80 219 8
80 219 8
80 220 8
79 221 8
79 221 8
79 222 8
79 223 7
78 223 7
78 224 7
78 224 7
77 225 7
77 226 7
77 226 6
76 227 6
76 228 6
76 228 6
75 229 6
75 230 6
75 230 5
74 231 5
74 231 5
74 232 5
73 233 5
73 233 5
73 234 5
72 235 4
72 235 4
72 236 4
71 237 4
71 237 4
71 238 4
70 239 3
70 239 3
70 240 3
69 240 3
69 241 3
69 242 3
68 242 2
68 243 2
68 244 2
67 244 2
67 245 2
67 246 2
67 246 2
66 247 1
66 247 1
66 248 1
65 249 1
65 249 1
65 250 1
64 251 0
64 251 0
64 252 0
63 253 0
63 253 0
63 254 0
62 255 0
193 0 61
193 0 61
192 1 61
192 1 61
192 2 60
191 3 60
191 3 60
191 4 60
190 5 60
190 5 60
190 6 59
189 7 59
189 7 59
189 8 59
188 8 59
188 9 59
188 10 59
187 10 58
187 11 58
187 12 58
186 12 58
186 13 58
186 14 58
185 14 57
185 15 57
185 15 57
184 16 57
184 17 57
184 17 57
183 18 57
183 19 56
183 19 56
182 20 56
182 21 56
182 21 56
181 22 56
181 23 55
181 23 55
180 24 55
180 24 55
180 25 55
179 26 55
179 26 55
179 27 54
178 28 54
178 28 54
178 29 54
177 30 54
177 30 54
177 31 53
176 31 53
176 32 53
176 33 53
175 33 53
175 34 53
175 35 53
174 35 52
174 36 52
174 37 52
173 37 52
173 38 52
173 38 52
172 39 51
172 40 51
172 40 51
171 41 51
171 42 51
171 42 51
170 43 51
170 44 50
170 44 50
170 45 50
169 46 50
169 46 50
169 47 50
168 47 49
168 48 49
168 49 49
167 49 49
167 50 49
167 51 49
166 51 49
166 52 48
166 53 48
165 53 48
165 54 48
165 54 48
164 55 48
164 56 47
164 56 47
163 57 47
163 58 47
163 58 47
162 59 47
162 60 47
162 60 46
161 61 46
161 61 46
161 62 46
160 63 46
160 63 46
160 64 45
159 65 45
159 65 45
159 66 45
158 67 45
158 67 45
158 68 45
157 69 44
157 69 44
157 70 44
156 70 44
156 71 44
156 72 44
155 72 43
155 73 43
155 74 43
154 74 43
154 75 43
154 76 43
153 76 43
153 77 42
153 77 42
152 78 42
152 79 42
152 79 42
151 80 42
151 81 41
151 81 41
150 82 41
150 83 41
150 83 41
149 84 41
149 85 41
149 85 40
148 86 40
148 86 40
148 87 40
147 88 40
147 88 40
147 89 39
146 90 39
146 90 39
146 91 39
145 92 39
145 92 39
145 93 39
144 93 38
144 94 38
144 95 38
143 95 38
143 96 38
143 97 38
142 97 37
142 98 37
142 99 37
141 99 37
141 100 37
141 100 37
140 101 36
140 102 36
140 102 36
139 103 36
139 104 36
139 104 36
138 105 36
138 106 35
138 106 35
137 107 35
137 108 35
137 108 35
136 109 35
136 109 34
136 110 34
135 111 34
135 111 34
135 112 34
134 113 34
134 113 34
134 114 33
133 115 33
133 115 33
133 116 33
132 116 33
132 117 33
132 118 32
131 118 32
131 119 32
131 120 32
130 120 32
130 121 32
130 122 32
129 122 31
129 123 31
129 123 31
128 124 31
128 125 31
128 125 31
127 126 30
127 127 30
127 127 30
127 128 30
126 129 30
126 129 30
126 130 30
125 131 29
125 131 29
125 132 29
124 132 29
124 133 29
124 134 29
123 134 28
123 135 28
123 136 28
122 136 28
122 137 28
122 138 28
121 138 28
121 139 27
121 139 27
120 140 27
120 141 27
120 141 27
119 142 27
119 143 26
119 143 26
118 144 26
118 145 26
118 145 26
117 146 26
117 146 26
117 147 25
116 148 25
116 148 25
116 149 25
115 150 25
115 150 25
115 151 24
114 152 24
114 152 24
114 153 24
113 154 24
113 154 24
113 155 24
112 155 23
112 156 23
112 157 23
111 157 23
111 158 23
111 159 23
110 159 22
110 160 22
110 161 22
109 161 22
109 162 22
109 162 22
108 163 22
108 164 21
108 164 21
107 165 21
107 166 21
107 166 21
106 167 21
106 168 20
106 168 20
105 169 20
105 170 20
105 170 20
104 171 20
104 171 20
104 172 19
103 173 19
103 173 19
103 174 19
102 175 19
102 175 19
102 176 18
101 177 18
101 177 18
101 178 18
100 178 18
100 179 18
100 180 18
99 180 17
99 181 17
99 182 17
98 182 17
98 183 17
98 184 17
97 184 16
97 185 16
97 185 16
96 186 16
96 187 16
96 187 16
95 188 16
95 189 15
95 189 15
94 190 15
94 191 15
94 191 15
93 192 15
93 193 14
93 193 14
92 194 14
92 194 14
92 195 14
91 196 14
91 196 14
91 197 13
90 198 13
90 198 13
90 199 13
89 200 13
89 200 13
89 201 12
88 201 12
88 202 12
88 203 12
87 203 12
87 204 12
87 205 12
86 205 11
86 206 11
86 207 11
85 207 11
85 208 11
85 208 11
84 209 10
84 210 10
84 210 10
84 211 10
83 212 10
83 212 10
83 213 10
82 214 9
82 214 9
82 215 9
81 216 9
81 216 9
81 217 9
80 217 8
80 218 8
80 219 8
79 219 8
79 220 8
79 221 8
78 221 8
78 222 7
78 223 7
77 223 7
77 224 7
77 224 7
76 225 7
76 226 6
76 226 6
75 227 6
75 228 6
75 228 6
74 229 6
74 230 6
74 230 5
73 231 5
73 231 5
73 232 5
72 233 5
72 233 5
72 234 4
71 235 4
71 235 4
71 236 4
70 237 4
70 237 4
70 238 4
69 239 3
69 239 3
69 240 3
68 240 3
68 241 3
68 242 3
67 242 2
67 243 2
67 244 2
66 244 2
66 245 2
66 246 2
65 246 2
65 247 1
65 247 1
64 248 1
64 249 1
64 249 1
63 250 1
63 251 0
63 251 0
62 252 0
62 253 0
62 253 0
61 254 0
61 255 0
194 0 60
194 0 60
194 1 59
193 1 59
193 2 59
193 3 59
192 3 59
192 4 59
192 5 59
191 5 58
191 6 58
191 7 58
190 7 58
190 8 58
190 8 58
189 9 57
189 10 57
189 10 57
188 11 57
188 12 57
188 12 57
187 13 57
187 14 56
187 14 56
186 15 56
186 15 56
186 16 56
185 17 56
185 17 55
184 18 55
184 19 55
184 19 55
183 20 55
183 21 55
183 21 55
182 22 54
182 23 54
182 23 54
181 24 54
181 24 54
181 25 54
180 26 54
180 26 53
180 27 53
179 28 53
179 28 53
179 29 53
178 30 53
178 30 52
178 31 52
177 31 52
177 32 52
177 33 52
176 33 52
176 34 52
176 35 51
175 35 51
175 36 51
175 37 51
174 37 51
174 38 51
174 38 51
173 39 50
173 40 50
173 40 50
172 41 50
172 42 50
172 42 50
171 43 49
171 44 49
171 44 49
170 45 49
170 46 49
170 46 49
169 47 49
169 47 48
169 48 48
168 49 48
168 49 48
168 50 48
167 51 48
167 51 47
167 52 47
166 53 47
166 53 47
166 54 47
165 54 47
165 55 47
165 56 46
164 56 46
164 57 46
164 58 46
163 58 46
163 59 46
163 60 46
162 60 45
162 61 45
162 61 45
161 62 45
161 63 45
161 63 45
160 64 44
160 65 44
160 65 44
159 66 44
159 67 44
159 67 44
158 68 44
158 69 43
158 69 43
157 70 43
157 70 43
157 71 43
156 72 43
156 72 43
155 73 42
155 74 42
155 74 42
154 75 42
154 76 42
154 76 42
153 77 41
153 77 41
153 78 41
152 79 41
152 79 41
152 80 41
151 81 41
151 81 40
151 82 40
150 83 40
150 83 40
150 84 40
149 85 40
149 85 39
149 86 39
148 86 39
148 87 39
148 88 39
147 88 39
147 89 39
147 90 38
146 90 38
146 91 38
146 92 38
145 92 38
145 93 38
145 93 38
144 94 37
144 95 37
144 95 37
143 96 37
143 97 37
143 97 37
142 98 36
142 99 36
142 99 36
141 100 36
141 100 36
141 101 36
140 102 36
140 102 35
140 103 35
139 104 35
139 104 35
139 105 35
138 106 35
138 106 35
138 107 34
137 108 34
137 108 34
137 109 34
136 109 34
136 110 34
136 111 33
135 111 33
135 112 33
135 113 33
134 113 33
134 114 33
134 115 33
133 115 32
133 116 32
133 116 32
132 117 32
132 118 32
132 118 32
131 119 31
131 120 31
131 120 31
130 121 31
130 122 31
130 122 31
129 123 31
129 123 30
129 124 30
128 125 30
128 125 30
128 126 30
127 127 30
127 127 30
126 128 29
126 129 29
126 129 29
125 130 29
125 131 29
125 131 29
124 132 28
124 132 28
124 133 28
123 134 28
123 134 28
123 135 28
122 136 28
122 136 27
122 137 27
121 138 27
121 138 27
121 139 27
120 139 27
120 140 27
120 141 26
119 141 26
119 142 26
119 143 26
118 143 26
118 144 26
118 145 25
117 145 25
117 146 25
117 146 25
116 147 25
116 148 25
116 148 25
115 149 24
115 150 24
115 150 24
114 151 24
114 152 24
114 152 24
113 153 23
113 154 23
113 154 23
112 155 23
112 155 23
112 156 23
111 157 23
111 157 22
111 158 22
110 159 22
110 159 22
110 160 22
109 161 22
109 161 22
109 162 21
108 162 21
108 163 21
108 164 21
107 164 21
107 165 21
107 166 20
106 166 20
106 167 20
106 168 20
105 168 20
105 169 20
105 170 20
104 170 19
104 171 19
104 171 19
103 172 19
103 173 19
103 173 19
102 174 19
102 175 18
102 175 18
101 176 18
101 177 18
101 177 18
100 178 18
100 178 17
100 179 17
99 180 17
99 180 17
99 181 17
98 182 17
98 182 17
97 183 16
97 184 16
97 184 16
96 185 16
96 185 16
96 186 16
95 187 15
95 187 15
95 188 15
94 189 15
94 189 15
94 190 15
93 191 15
93 191 14
93 192 14
92 193 14
92 193 14
92 194 14
91 194 14
91 195 14
91 196 13
90 196 13
90 197 13
90 198 13
89 198 13
89 199 13
89 200 12
88 200 12
88 201 12
88 201 12
87 202 12
87 203 12
87 203 12
86 204 11
86 205 11
86 205 11
85 206 11
85 207 11
85 207 11
84 208 11
84 208 10
84 209 10
83 210 10
83 210 10
83 211 10
82 212 10
82 212 9
82 213 9
81 214 9
81 214 9
81 215 9
80 216 9
80 216 9
80 217 8
79 217 8
79 218 8
79 219 8
78 219 8
78 220 8
78 221 7
77 221 7
77 222 7
77 223 7
76 223 7
76 224 7
76 224 7
75 225 6
75 226 6
75 226 6
74 227 6
74 228 6
74 228 6
73 229 6
73 230 5
73 230 5
72 231 5
72 231 5
72 232 5
71 233 5
71 233 4
71 234 4
70 235 4
70 235 4
70 236 4
69 237 4
69 237 4
68 238 3
68 239 3
68 239 3
67 240 3
67 240 3
67 241 3
66 242 3
66 242 2
66 243 2
65 244 2
65 244 2
65 245 2
64 246 2
64 246 1
64 247 1
63 247 1
63 248 1
63 249 1
62 249 1
62 250 1
62 251 0
61 251 0
61 252 0
61 253 0
60 253 0
60 254 0
60 255 0
196 0 58
195 0 58
195 1 58
195 1 58
194 2 58
194 3 58
193 3 58
193 4 57
193 5 57
192 5 57
192 6 57
192 7 57
191 7 57
191 8 57
191 8 56
190 9 56
190 10 56
190 10 56
189 11 56
189 12 56
189 12 55
188 13 55
188 14 55
188 14 55
187 15 55
187 15 55
187 16 55
186 17 54
186 17 54
186 18 54
185 19 54
185 19 54
185 20 54
184 21 54
184 21 53
184 22 53
183 23 53
183 23 53
182 24 53
182 24 53
182 25 53
181 26 52
181 26 52
181 27 52
180 28 52
180 28 52
180 29 52
179 30 52
179 30 51
179 31 51
178 31 51
178 32 51
178 33 51
177 33 51
177 34 50
177 35 50
176 35 50
176 36 50
176 37 50
175 37 50
175 38 50
175 38 49
174 39 49
174 40 49
174 40 49
173 41 49
173 42 49
173 42 49
172 43 48
172 44 48
172 44 48
171 45 48
171 46 48
170 46 48
170 47 48
170 47 47
169 48 47
169 49 47
169 49 47
168 50 47
168 51 47
168 51 46
167 52 46
167 53 46
167 53 46
166 54 46
166 54 46
166 55 46
165 56 45
165 56 45
165 57 45
164 58 45
164 58 45
164 59 45
163 60 45
163 60 44
163 61 44
162 61 44
162 62 44
162 63 44
161 63 44
161 64 44
161 65 43
160 65 43
160 66 43
159 67 43
159 67 43
159 68 43
158 69 42
158 69 42
158 70 42
157 70 42
157 71 42
157 72 42
156 72 42
156 73 41
156 74 41
155 74 41
155 75 41
155 76 41
154 76 41
154 77 41
154 77 40
153 78 40
153 79 40
153 79 40
152 80 40
152 81 40
152 81 40
151 82 39
151 83 39
151 83 39
150 84 39
150 85 39
150 85 39
149 86 39
149 86 38
148 87 38
148 88 38
148 88 38
147 89 38
147 90 38
147 90 37
146 91 37
146 92 37
146 92 37
145 93 37
145 93 37
145 94 37
144 95 36
144 95 36
144 96 36
143 97 36
143 97 36
143 98 36
142 99 36
142 99 35
142 100 35
141 100 35
141 101 35
141 102 35
140 102 35
140 103 35
140 104 34
139 104 34
139 105 34
139 106 34
138 106 34
138 107 34
137 108 33
137 108 33
137 109 33
136 109 33
136 110 33
136 111 33
135 111 33
135 112 32
135 113 32
134 113 32
134 114 32
134 115 32
133 115 32
133 116 32
133 116 31
132 117 31
132 118 31
132 118 31
131 119 31
131 120 31
131 120 31
130 121 30
130 122 30
130 122 30
129 123 30
129 123 30
129 124 30
128 125 29
128 125 29
128 126 29
127 127 29
127 127 29
126 128 29
126 129 29
126 129 28
125 130 28
125 131 28
125 131 28
124 132 28
124 132 28
124 133 28
123 134 27
123 134 27
123 135 27
122 136 27
122 136 27
122 137 27
121 138 27
121 138 26
121 139 26
120 139 26
120 140 26
120 141 26
119 141 26
119 142 26
119 143 25
118 143 25
118 144 25
118 145 25
117 145 25
117 146 25
117 146 24
116 147 24
116 148 24
115 148 24
115 149 24
115 150 24
114 150 24
114 151 23
114 152 23
113 152 23
113 153 23
113 154 23
112 154 23
112 155 23
112 155 22
111 156 22
111 157 22
111 157 22
110 158 22
110 159 22
110 159 22
109 160 21
109 161 21
109 161 21
108 162 21
108 162 21
108 163 21
107 164 20
107 164 20
107 165 20
106 166 20
106 166 20
106 167 20
105 168 20
105 168 19
104 169 19
104 170 19
104 170 19
103 171 19
103 171 19
103 172 19
102 173 18
102 173 18
102 174 18
101 175 18
101 175 18
101 176 18
100 177 18
100 177 17
100 178 17
99 178 17
99 179 17
99 180 17
98 180 17
98 181 16
98 182 16
97 182 16
97 183 16
97 184 16
96 184 16
96 185 16
96 185 15
95 186 15
95 187 15
95 187 15
94 188 15
94 189 15
93 189 15
93 190 14
93 191 14
92 191 14
92 192 14
92 193 14
91 193 14
91 194 14
91 194 13
90 195 13
90 196 13
90 196 13
89 197 13
89 198 13
89 198 13
88 199 12
88 200 12
88 200 12
87 201 12
87 201 12
87 202 12
86 203 11
86 203 11
86 204 11
85 205 11
85 205 11
85 206 11
84 207 11
84 207 10
84 208 10
83 208 10
83 209 10
82 210 10
82 210 10
82 211 10
81 212 9
81 212 9
81 213 9
80 214 9
80 214 9
80 215 9
79 216 9
79 216 8
79 217 8
78 217 8
78 218 8
78 219 8
77 219 8
77 220 7
77 221 7
76 221 7
76 222 7
76 223 7
75 223 7
75 224 7
75 224 6
74 225 6
74 226 6
74 226 6
73 227 6
73 228 6
73 228 6
72 229 5
72 230 5
72 230 5
71 231 5
71 231 5
70 232 5
70 233 5
70 233 4
69 234 4
69 235 4
69 235 4
68 236 4
68 237 4
68 237 3
67 238 3
67 239 3
67 239 3
66 240 3
66 240 3
66 241 3
65 242 2
65 242 2
65 243 2
64 244 2
64 244 2
64 245 2
63 246 2
63 246 1
63 247 1
62 247 1
62 248 1
62 249 1
61 249 1
61 250 1
61 251 0
60 251 0
60 252 0
59 253 0
59 253 0
59 254 0
58 255 0
197 0 57
196 0 57
196 1 57
196 1 57
195 2 57
195 3 56
195 3 56
194 4 56
194 5 56
194 5 56
193 6 56
193 7 56
193 7 55
192 8 55
192 8 55
192 9 55
191 10 55
191 10 55
191 11 55
190 12 54
190 12 54
189 13 54
189 14 54
189 14 54
188 15 54
188 15 54
188 16 53
187 17 53
187 17 53
187 18 53
186 19 53
186 19 53
186 20 53
185 21 52
185 21 52
185 22 52
184 23 52
184 23 52
184 24 52
183 24 52
183 25 51
182 26 51
182 26 51
182 27 51
181 28 51
181 28 51
181 29 51
180 30 50
180 30 50
180 31 50
179 31 50
179 32 50
179 33 50
178 33 50
178 34 49
178 35 49
177 35 49
177 36 49
177 37 49
176 37 49
176 38 48
175 38 48
175 39 48
175 40 48
174 40 48
174 41 48
174 42 48
173 42 47
173 43 47
173 44 47
172 44 47
172 45 47
172 46 47
171 46 47
171 47 46
171 47 46
170 48 46
170 49 46
170 49 46
169 50 46
169 51 46
168 51 45
168 52 45
168 53 45
167 53 45
167 54 45
167 54 45
166 55 45
166 56 44
166 56 44
165 57 44
165 58 44
165 58 44
164 59 44
164 60 44
164 60 43
163 61 43
163 61 43
163 62 43
162 63 43
162 63 43
161 64 43
161 65 42
161 65 42
160 66 42
160 67 42
160 67 42
159 68 42
159 69 42
159 69 41
158 70 41
158 70 41
158 71 41
157 72 41
157 72 41
157 73 41
156 74 40
156 74 40
156 75 40
155 76 40
155 76 40
154 77 40
154 77 40
154 78 39
153 79 39
153 79 39
153 80 39
152 81 39
152 81 39
152 82 39
151 83 38
151 83 38
151 84 38
150 85 38
150 85 38
150 86 38
149 86 38
149 87 37
149 88 37
148 88 37
148 89 37
147 90 37
147 90 37
147 91 36
146 92 36
146 92 36
146 93 36
145 93 36
145 94 36
145 95 36
144 95 35
144 96 35
144 97 35
143 97 35
143 98 35
143 99 35
142 99 35
142 100 34
142 100 34
141 101 34
141 102 34
140 102 34
140 103 34
140 104 34
139 104 33
139 105 33
139 106 33
138 106 33
138 107 33
138 108 33
137 108 33
137 109 32
137 109 32
136 110 32
136 111 32
136 111 32
135 112 32
135 113 32
135 113 31
134 114 31
134 115 31
133 115 31
133 116 31
133 116 31
132 117 31
132 118 30
132 118 30
131 119 30
131 120 30
131 120 30
130 121 30
130 122 30
130 122 29
129 123 29
129 123 29
129 124 29
128 125 29
128 125 29
128 126 29
127 127 28
127 127 28
126 128 28
126 129 28
126 129 28
125 130 28
125 131 28
125 131 27
124 132 27
124 132 27
124 133 27
123 134 27
123 134 27
123 135 27
122 136 26
122 136 26
122 137 26
121 138 26
121 138 26
121 139 26
120 139 26
120 140 25
119 141 25
119 141 25
119 142 25
118 143 25
118 143 25
118 144 25
117 145 24
117 145 24
117 146 24
116 146 24
116 147 24
116 148 24
115 148 23
115 149 23
115 150 23
114 150 23
114 151 23
114 152 23
113 152 23
113 153 22
112 154 22
112 154 22
112 155 22
111 155 22
111 156 22
111 157 22
110 157 21
110 158 21
110 159 21
109 159 21
109 160 21
109 161 21
108 161 21
108 162 20
108 162 20
107 163 20
107 164 20
107 164 20
106 165 20
106 166 20
105 166 19
105 167 19
105 168 19
104 168 19
104 169 19
104 170 19
103 170 19
103 171 18
103 171 18
102 172 18
102 173 18
102 173 18
101 174 18
101 175 18
101 175 17
100 176 17
100 177 17
100 177 17
99 178 17
99 178 17
98 179 17
98 180 16
98 180 16
97 181 16
97 182 16
97 182 16
96 183 16
96 184 16
96 184 15
95 185 15
95 185 15
95 186 15
94 187 15
94 187 15
94 188 15
93 189 14
93 189 14
93 190 14
92 191 14
92 191 14
91 192 14
91 193 14
91 193 13
90 194 13
90 194 13
90 195 13
89 196 13
89 196 13
89 197 13
88 198 12
88 198 12
88 199 12
87 200 12
87 200 12
87 201 12
86 201 11
86 202 11
86 203 11
85 203 11
85 204 11
84 205 11
84 205 11
84 206 10
83 207 10
83 207 10
83 208 10
82 208 10
82 209 10
82 210 10
81 210 9
81 211 9
81 212 9
80 212 9
80 213 9
80 214 9
79 214 9
79 215 8
79 216 8
78 216 8
78 217 8
77 217 8
77 218 8
77 219 8
76 219 7
76 220 7
76 221 7
75 221 7
75 222 7
75 223 7
74 223 7
74 224 6
74 224 6
73 225 6
73 226 6
73 226 6
72 227 6
72 228 6
72 228 5
71 229 5
71 230 5
70 230 5
70 231 5
70 231 5
69 232 5
69 233 4
69 233 4
68 234 4
68 235 4
68 235 4
67 236 4
67 237 4
67 237 3
66 238 3
66 239 3
66 239 3
65 240 3
65 240 3
65 241 3
64 242 2
64 242 2
63 243 2
63 244 2
63 244 2
62 245 2
62 246 2
62 246 1
61 247 1
61 247 1
61 248 1
60 249 1
60 249 1
60 250 1
59 251 0
59 251 0
59 252 0
58 253 0
58 253 0
58 254 0
57 255 0
198 0 56
198 0 56
197 1 56
197 1 55
197 2 55
196 3 55
196 3 55
196 4 55
195 5 55
195 5 55
195 6 54
194 7 54
194 7 54
193 8 54
193 8 54
193 9 54
192 10 54
192 10 53
192 11 53
191 12 53
191 12 53
191 13 53
190 14 53
190 14 53
190 15 52
189 15 52
189 16 52
188 17 52
188 17 52
188 18 52
187 19 52
187 19 52
187 20 51
186 21 51
186 21 51
186 22 51
185 23 51
185 23 51
185 24 51
184 24 50
184 25 50
184 26 50
183 26 50
183 27 50
182 28 50
182 28 50
182 29 49
181 30 49
181 30 49
181 31 49
180 31 49
180 32 49
180 33 49
179 33 48
179 34 48
179 35 48
178 35 48
178 36 48
177 37 48
177 37 48
177 38 47
176 38 47
176 39 47
176 40 47
175 40 47
175 41 47
175 42 47
174 42 46
174 43 46
174 44 46
173 44 46
173 45 46
172 46 46
172 46 46
172 47 45
171 47 45
171 48 45
171 49 45
170 49 45
170 50 45
170 51 45
169 51 44
169 52 44
169 53 44
168 53 44
168 54 44
167 54 44
167 55 44
167 56 43
166 56 43
166 57 43
166 58 43
165 58 43
165 59 43
165 60 43
164 60 42
164 61 42
164 61 42
163 62 42
163 63 42
162 63 42
162 64 42
162 65 41
161 65 41
161 66 41
161 67 41
160 67 41
160 68 41
160 69 41
159 69 40
159 70 40
159 70 40
158 71 40
158 72 40
157 72 40
157 73 40
157 74 39
156 74 39
156 75 39
156 76 39
155 76 39
155 77 39
155 77 39
154 78 39
154 79 38
154 79 38
153 80 38
153 81 38
152 81 38
152 82 38
152 83 38
151 83 37
151 84 37
151 85 37
150 85 37
150 86 37
150 86 37
149 87 37
149 88 36
149 88 36
148 89 36
148 90 36
147 90 36
147 91 36
147 92 36
146 92 35
146 93 35
146 93 35
145 94 35
145 95 35
145 95 35
144 96 35
144 97 34
144 97 34
143 98 34
143 99 34
143 99 34
142 100 34
142 100 34
141 101 33
141 102 33
141 102 33
140 103 33
140 104 33
140 104 33
139 105 33
139 106 32
139 106 32
138 107 32
138 108 32
138 108 32
137 109 32
137 109 32
136 110 31
136 111 31
136 111 31
135 112 31
135 113 31
135 113 31
134 114 31
134 115 30
134 115 30
133 116 30
133 116 30
133 117 30
132 118 30
132 118 30
131 119 29
131 120 29
131 120 29
130 121 29
130 122 29
130 122 29
129 123 29
129 123 28
129 124 28
128 125 28
128 125 28
128 126 28
127 127 28
127 127 28
126 128 27
126 129 27
126 129 27
125 130 27
125 131 27
125 131 27
124 132 27
124 132 26
124 133 26
123 134 26
123 134 26
123 135 26
122 136 26
122 136 26
121 137 26
121 138 25
121 138 25
120 139 25
120 139 25
120 140 25
119 141 25
119 141 25
119 142 24
118 143 24
118 143 24
118 144 24
117 145 24
117 145 24
116 146 24
116 146 23
116 147 23
115 148 23
115 148 23
115 149 23
114 150 23
114 150 23
114 151 22
113 152 22
113 152 22
113 153 22
112 154 22
112 154 22
111 155 22
111 155 21
111 156 21
110 157 21
110 157 21
110 158 21
109 159 21
109 159 21
109 160 20
108 161 20
108 161 20
108 162 20
107 162 20
107 163 20
107 164 20
106 164 19
106 165 19
105 166 19
105 166 19
105 167 19
104 168 19
104 168 19
104 169 18
103 170 18
103 170 18
103 171 18
102 171 18
102 172 18
102 173 18
101 173 17
101 174 17
100 175 17
100 175 17
100 176 17
99 177 17
99 177 17
99 178 16
98 178 16
98 179 16
98 180 16
97 180 16
97 181 16
97 182 16
96 182 15
96 183 15
95 184 15
95 184 15
95 185 15
94 185 15
94 186 15
94 187 14
93 187 14
93 188 14
93 189 14
92 189 14
92 190 14
92 191 14
91 191 13
91 192 13
90 193 13
90 193 13
90 194 13
89 194 13
89 195 13
89 196 13
88 196 12
88 197 12
88 198 12
87 198 12
87 199 12
87 200 12
86 200 12
86 201 11
85 201 11
85 202 11
85 203 11
84 203 11
84 204 11
84 205 11
83 205 10
83 206 10
83 207 10
82 207 10
82 208 10
82 208 10
81 209 10
81 210 9
80 210 9
80 211 9
80 212 9
79 212 9
79 213 9
79 214 9
78 214 8
78 215 8
78 216 8
77 216 8
77 217 8
77 217 8
76 218 8
76 219 7
75 219 7
75 220 7
75 221 7
74 221 7
74 222 7
74 223 7
73 223 6
73 224 6
73 224 6
72 225 6
72 226 6
72 226 6
71 227 6
71 228 5
70 228 5
70 229 5
70 230 5
69 230 5
69 231 5
69 231 5
68 232 4
68 233 4
68 233 4
67 234 4
67 235 4
67 235 4
66 236 4
66 237 3
66 237 3
65 238 3
65 239 3
64 239 3
64 240 3
64 240 3
63 241 2
63 242 2
63 242 2
62 243 2
62 244 2
62 244 2
61 245 2
61 246 1
61 246 1
60 247 1
60 247 1
59 248 1
59 249 1
59 249 1
58 250 0
58 251 0
58 251 0
57 252 0
57 253 0
57 253 0
56 254 0
56 255 0
199 0 55
199 0 54
199 1 54
198 1 54
198 2 54
198 3 54
197 3 54
197 4 54
196 5 53
196 5 53
196 6 53
195 7 53
195 7 53
195 8 53
194 8 53
194 9 53
194 10 52
193 10 52
193 11 52
193 12 52
192 12 52
192 13 52
191 14 52
191 14 51
191 15 51
190 15 51
190 16 51
190 17 51
189 17 51
189 18 51
189 19 50
188 19 50
188 20 50
187 21 50
187 21 50
187 22 50
186 23 50
186 23 49
186 24 49
185 24 49
185 25 49
185 26 49
184 26 49
184 27 49
183 28 49
183 28 48
183 29 48
182 30 48
182 30 48
182 31 48
181 31 48
181 32 48
181 33 47
180 33 47
180 34 47
179 35 47
179 35 47
179 36 47
178 37 47
178 37 46
178 38 46
177 38 46
177 39 46
177 40 46
176 40 46
176 41 46
175 42 45
175 42 45
175 43 45
174 44 45
174 44 45
174 45 45
173 46 45
173 46 45
173 47 44
172 47 44
172 48 44
171 49 44
171 49 44
171 50 44
170 51 44
170 51 43
170 52 43
169 53 43
169 53 43
169 54 43
168 54 43
168 55 43
167 56 42
167 56 42
167 57 42
166 58 42
166 58 42
166 59 42
165 60 42
165 60 41
165 61 41
164 61 41
164 62 41
163 63 41
163 63 41
163 64 41
162 65 41
162 65 40
162 66 40
161 67 40
161 67 40
161 68 40
160 69 40
160 69 40
159 70 39
159 70 39
159 71 39
158 72 39
158 72 39
158 73 39
157 74 39
157 74 38
157 75 38
156 76 38
156 76 38
155 77 38
155 77 38
155 78 38
154 79 37
154 79 37
154 80 37
153 81 37
153 81 37
153 82 37
152 83 37
152 83 37
151 84 36
151 85 36
151 85 36
150 86 36
150 86 36
150 87 36
149 88 36
149 88 35
149 89 35
148 90 35
148 90 35
148 91 35
147 92 35
147 92 35
146 93 34
146 93 34
146 94 34
145 95 34
145 95 34
145 96 34
144 97 34
144 97 33
144 98 33
143 99 33
143 99 33
142 100 33
142 100 33
142 101 33
141 102 33
141 102 32
141 103 32
140 104 32
140 104 32
140 105 32
139 106 32
139 106 32
138 107 31
138 108 31
138 108 31
137 109 31
137 109 31
137 110 31
136 111 31
136 111 30
136 112 30
135 113 30
135 113 30
134 114 30
134 115 30
134 115 30
133 116 29
133 116 29
133 117 29
132 118 29
132 118 29
132 119 29
131 120 29
131 120 29
130 121 28
130 122 28
130 122 28
129 123 28
129 123 28
129 124 28
128 125 28
128 125 27
128 126 27
127 127 27
127 127 27
126 128 27
126 129 27
126 129 27
125 130 26
125 131 26
125 131 26
124 132 26
124 132 26
124 133 26
123 134 26
123 134 25
122 135 25
122 136 25
122 136 25
121 137 25
121 138 25
121 138 25
120 139 24
120 139 24
120 140 24
119 141 24
119 141 24
118 142 24
118 143 24
118 143 24
117 144 23
117 145 23
117 145 23
116 146 23
116 146 23
116 147 23
115 148 23
115 148 22
114 149 22
114 150 22
114 150 22
113 151 22
113 152 22
113 152 22
112 153 21
112 154 21
112 154 21
111 155 21
111 155 21
110 156 21
110 157 21
110 157 20
109 158 20
109 159 20
109 159 20
108 160 20
108 161 20
108 161 20
107 162 20
107 162 19
106 163 19
106 164 19
106 164 19
105 165 19
105 166 19
105 166 19
104 167 18
104 168 18
104 168 18
103 169 18
103 170 18
103 170 18
102 171 18
102 171 17
101 172 17
101 173 17
101 173 17
100 174 17
100 175 17
100 175 17
99 176 16
99 177 16
99 177 16
98 178 16
98 178 16
97 179 16
97 180 16
97 180 16
96 181 15
96 182 15
96 182 15
95 183 15
95 184 15
95 184 15
94 185 15
94 185 14
93 186 14
93 187 14
93 187 14
92 188 14
92 189 14
92 189 14
91 190 13
91 191 13
91 191 13
90 192 13
90 193 13
89 193 13
89 194 13
89 194 12
88 195 12
88 196 12
88 196 12
87 197 12
87 198 12
87 198 12
86 199 12
86 200 11
85 200 11
85 201 11
85 201 11
84 202 11
84 203 11
84 203 11
83 204 10
83 205 10
83 205 10
82 206 10
82 207 10
81 207 10
81 208 10
81 208 9
80 209 9
80 210 9
80 210 9
79 211 9
79 212 9
79 212 9
78 213 8
78 214 8
77 214 8
77 215 8
77 216 8
76 216 8
76 217 8
76 217 8
75 218 7
75 219 7
75 219 7
74 220 7
74 221 7
73 221 7
73 222 7
73 223 6
72 223 6
72 224 6
72 224 6
71 225 6
71 226 6
71 226 6
70 227 5
70 228 5
69 228 5
69 229 5
69 230 5
68 230 5
68 231 5
68 231 4
67 232 4
67 233 4
67 233 4
66 234 4
66 235 4
65 235 4
65 236 4
65 237 3
64 237 3
64 238 3
64 239 3
63 239 3
63 240 3
63 240 3
62 241 2
62 242 2
61 242 2
61 243 2
61 244 2
60 244 2
60 245 2
60 246 1
59 246 1
59 247 1
59 247 1
58 248 1
58 249 1
58 249 1
57 250 0
57 251 0
56 251 0
56 252 0
56 253 0
55 253 0
55 254 0
55 255 0
201 0 53
200 0 53
200 1 53
200 1 53
199 2 53
199 3 53
198 3 53
198 4 52
198 5 52
197 5 52
197 6 52
197 7 52
196 7 52
196 8 52
196 8 51
195 9 51
195 10 51
194 10 51
194 11 51
194 12 51
193 12 51
193 13 50
193 14 50
192 14 50
192 15 50
191 15 50
191 16 50
191 17 50
190 17 50
190 18 49
190 19 49
189 19 49
189 20 49
188 21 49
188 21 49
188 22 49
187 23 48
187 23 48
187 24 48
186 24 48
186 25 48
186 26 48
185 26 48
185 27 48
184 28 47
184 28 47
184 29 47
183 30 47
183 30 47
183 31 47
182 31 47
182 32 46
181 33 46
181 33 46
181 34 46
180 35 46
180 35 46
180 36 46
179 37 45
179 37 45
179 38 45
178 38 45
178 39 45
177 40 45
177 40 45
177 41 45
176 42 44
176 42 44
176 43 44
175 44 44
175 44 44
174 45 44
174 46 44
174 46 43
173 47 43
173 47 43
173 48 43
172 49 43
172 49 43
172 50 43
171 51 43
171 51 42
170 52 42
170 53 42
170 53 42
169 54 42
169 54 42
169 55 42
168 56 41
168 56 41
167 57 41
167 58 41
167 58 41
166 59 41
166 60 41
166 60 41
165 61 40
165 61 40
164 62 40
164 63 40
164 63 40
163 64 40
163 65 40
163 65 39
162 66 39
162 67 39
162 67 39
161 68 39
161 69 39
160 69 39
160 70 38
160 70 38
159 71 38
159 72 38
159 72 38
158 73 38
158 74 38
157 74 38
157 75 37
157 76 37
156 76 37
156 77 37
156 77 37
155 78 37
155 79 37
155 79 36
154 80 36
154 81 36
153 81 36
153 82 36
153 83 36
152 83 36
152 84 36
152 85 35
151 85 35
151 86 35
150 86 35
150 87 35
150 88 35
149 88 35
149 89 34
149 90 34
148 90 34
148 91 34
147 92 34
147 92 34
147 93 34
146 93 33
146 94 33
146 95 33
145 95 33
145 96 33
145 97 33
144 97 33
144 98 33
143 99 32
143 99 32
143 100 32
142 100 32
142 101 32
142 102 32
141 102 32
141 103 31
140 104 31
140 104 31
140 105 31
139 106 31
139 106 31
139 107 31
138 108 31
138 108 30
138 109 30
137 109 30
137 110 30
136 111 30
136 111 30
136 112 30
135 113 29
135 113 29
135 114 29
134 115 29
134 115 29
133 116 29
133 116 29
133 117 29
132 118 28
132 118 28
132 119 28
131 120 28
131 120 28
131 121 28
130 122 28
130 122 27
129 123 27
129 123 27
129 124 27
128 125 27
128 125 27
128 126 27
127 127 26
127 127 26
126 128 26
126 129 26
126 129 26
125 130 26
125 131 26
125 131 26
124 132 25
124 132 25
123 133 25
123 134 25
123 134 25
122 135 25
122 136 25
122 136 24
121 137 24
121 138 24
121 138 24
120 139 24
120 139 24
119 140 24
119 141 24
119 141 23
118 142 23
118 143 23
118 143 23
117 144 23
117 145 23
116 145 23
116 146 22
116 146 22
115 147 22
115 148 22
115 148 22
114 149 22
114 150 22
114 150 21
113 151 21
113 152 21
112 152 21
112 153 21
112 154 21
111 154 21
111 155 21
111 155 20
110 156 20
110 157 20
109 157 20
109 158 20
109 159 20
108 159 20
108 160 19
108 161 19
107 161 19
107 162 19
107 162 19
106 163 19
106 164 19
105 164 19
105 165 18
105 166 18
104 166 18
104 167 18
104 168 18
103 168 18
103 169 18
102 170 17
102 170 17
102 171 17
101 171 17
101 172 17
101 173 17
100 173 17
100 174 16
99 175 16
99 175 16
99 176 16
98 177 16
98 177 16
98 178 16
97 178 16
97 179 15
97 180 15
96 180 15
96 181 15
95 182 15
95 182 15
95 183 15
94 184 14
94 184 14
94 185 14
93 185 14
93 186 14
92 187 14
92 187 14
92 188 14
91 189 13
91 189 13
91 190 13
90 191 13
90 191 13
90 192 13
89 193 13
89 193 12
88 194 12
88 194 12
88 195 12
87 196 12
87 196 12
87 197 12
86 198 12
86 198 11
85 199 11
85 200 11
85 200 11
84 201 11
84 201 11
84 202 11
83 203 10
83 203 10
82 204 10
82 205 10
82 205 10
81 206 10
81 207 10
81 207 9
80 208 9
80 208 9
80 209 9
79 210 9
79 210 9
78 211 9
78 212 9
78 212 8
77 213 8
77 214 8
77 214 8
76 215 8
76 216 8
75 216 8
75 217 7
75 217 7
74 218 7
74 219 7
74 219 7
73 220 7
73 221 7
73 221 7
72 222 6
72 223 6
71 223 6
71 224 6
71 224 6
70 225 6
70 226 6
70 226 5
69 227 5
69 228 5
68 228 5
68 229 5
68 230 5
67 230 5
67 231 4
67 231 4
66 232 4
66 233 4
66 233 4
65 234 4
65 235 4
64 235 4
64 236 3
64 237 3
63 237 3
63 238 3
63 239 3
62 239 3
62 240 3
61 240 2
61 241 2
61 242 2
60 242 2
60 243 2
60 244 2
59 244 2
59 245 2
58 246 1
58 246 1
58 247 1
57 247 1
57 248 1
57 249 1
56 249 1
56 250 0
56 251 0
55 251 0
55 252 0
54 253 0
54 253 0
54 254 0
53 255 0
202 0 52
202 0 52
201 1 52
201 1 52
200 2 52
200 3 51
200 3 51
199 4 51
199 5 51
199 5 51
198 6 51
198 7 51
197 7 50
197 8 50
197 8 50
196 9 50
196 10 50
196 10 50
195 11 50
195 12 50
194 12 49
194 13 49
194 14 49
193 14 49
193 15 49
193 15 49
192 16 49
192 17 48
191 17 48
191 18 48
191 19 48
190 19 48
190 20 48
190 21 48
189 21 48
189 22 47
188 23 47
188 23 47
188 24 47
187 24 47
187 25 47
187 26 47
186 26 47
186 27 46
185 28 46
185 28 46
185 29 46
184 30 46
184 30 46
184 31 46
183 31 45
183 32 45
182 33 45
182 33 45
182 34 45
181 35 45
181 35 45
181 36 45
180 37 44
180 37 44
179 38 44
179 38 44
179 39 44
178 40 44
178 40 44
178 41 43
177 42 43
177 42 43
176 43 43
176 44 43
176 44 43
175 45 43
175 46 43
175 46 42
174 47 42
174 47 42
173 48 42
173 49 42
173 49 42
172 50 42
172 51 42
172 51 41
171 52 41
171 53 41
170 53 41
170 54 41
170 54 41
169 55 41
169 56 40
169 56 40
168 57 40
168 58 40
167 58 40
167 59 40
167 60 40
166 60 40
166 61 39
166 61 39
165 62 39
165 63 39
164 63 39
164 64 39
164 65 39
163 65 38
163 66 38
163 67 38
162 67 38
162 68 38
161 69 38
161 69 38
161 70 38
160 70 37
160 71 37
160 72 37
159 72 37
159 73 37
158 74 37
158 74 37
158 75 37
157 76 36
157 76 36
156 77 36
156 77 36
156 78 36
155 79 36
155 79 36
155 80 35
154 81 35
154 81 35
153 82 35
153 83 35
153 83 35
152 84 35
152 85 35
152 85 34
151 86 34
151 86 34
150 87 34
150 88 34
150 88 34
149 89 34
149 90 33
149 90 33
148 91 33
148 92 33
147 92 33
147 93 33
147 93 33
146 94 33
146 95 32
146 95 32
145 96 32
145 97 32
144 97 32
144 98 32
144 99 32
143 99 31
143 100 31
143 100 31
142 101 31
142 102 31
141 102 31
141 103 31
141 104 31
140 104 30
140 105 30
140 106 30
139 106 30
139 107 30
138 108 30
138 108 30
138 109 30
137 109 29
137 110 29
137 111 29
136 111 29
136 112 29
135 113 29
135 113 29
135 114 28
134 115 28
134 115 28
134 116 28
133 116 28
133 117 28
132 118 28
132 118 28
132 119 27
131 120 27
131 120 27
131 121 27
130 122 27
130 122 27
129 123 27
129 123 26
129 124 26
128 125 26
128 125 26
128 126 26
127 127 26
127 127 26
126 128 26
126 129 25
126 129 25
125 130 25
125 131 25
125 131 25
124 132 25
124 132 25
123 133 25
123 134 24
123 134 24
122 135 24
122 136 24
122 136 24
121 137 24
121 138 24
120 138 23
120 139 23
120 139 23
119 140 23
119 141 23
119 141 23
118 142 23
118 143 23
117 143 22
117 144 22
117 145 22
116 145 22
116 146 22
116 146 22
115 147 22
115 148 21
114 148 21
114 149 21
114 150 21
113 150 21
113 151 21
113 152 21
112 152 21
112 153 20
111 154 20
111 154 20
111 155 20
110 155 20
110 156 20
110 157 20
109 157 20
109 158 19
108 159 19
108 159 19
108 160 19
107 161 19
107 161 19
107 162 19
106 162 18
106 163 18
105 164 18
105 164 18
105 165 18
104 166 18
104 166 18
104 167 18
103 168 17
103 168 17
102 169 17
102 170 17
102 170 17
101 171 17
101 171 17
101 172 16
100 173 16
100 173 16
99 174 16
99 175 16
99 175 16
98 176 16
98 177 16
98 177 15
97 178 15
97 178 15
96 179 15
96 180 15
96 180 15
95 181 15
95 182 15
94 182 14
94 183 14
94 184 14
93 184 14
93 185 14
93 185 14
92 186 14
92 187 13
91 187 13
91 188 13
91 189 13
90 189 13
90 190 13
90 191 13
89 191 13
89 192 12
88 193 12
88 193 12
88 194 12
87 194 12
87 195 12
87 196 12
86 196 11
86 197 11
85 198 11
85 198 11
85 199 11
84 200 11
84 200 11
84 201 11
83 201 10
83 202 10
82 203 10
82 203 10
82 204 10
81 205 10
81 205 10
81 206 10
80 207 9
80 207 9
79 208 9
79 208 9
79 209 9
78 210 9
78 210 9
78 211 8
77 212 8
77 212 8
76 213 8
76 214 8
76 214 8
75 215 8
75 216 8
75 216 7
74 217 7
74 217 7
73 218 7
73 219 7
73 219 7
72 220 7
72 221 6
72 221 6
71 222 6
71 223 6
70 223 6
70 224 6
70 224 6
69 225 6
69 226 5
69 226 5
68 227 5
68 228 5
67 228 5
67 229 5
67 230 5
66 230 5
66 231 4
66 231 4
65 232 4
65 233 4
64 233 4
64 234 4
64 235 4
63 235 3
63 236 3
63 237 3
62 237 3
62 238 3
61 239 3
61 239 3
61 240 3
60 240 2
60 241 2
60 242 2
59 242 2
59 243 2
58 244 2
58 244 2
58 245 1
57 246 1
57 246 1
57 247 1
56 247 1
56 248 1
55 249 1
55 249 1
55 250 0
54 251 0
54 251 0
54 252 0
53 253 0
53 253 0
52 254 0
52 255 0
203 0 51
203 0 51
202 1 50
202 1 50
202 2 50
201 3 50
201 3 50
201 4 50
200 5 50
200 5 50
199 6 49
199 7 49
199 7 49
198 8 49
198 8 49
198 9 49
197 10 49
197 10 49
196 11 48
196 12 48
196 12 48
195 13 48
195 14 48
194 14 48
194 15 48
194 15 48
193 16 47
193 17 47
193 17 47
192 18 47
192 19 47
191 19 47
191 20 47
191 21 47
190 21 46
190 22 46
189 23 46
189 23 46
189 24 46
188 24 46
188 25 46
188 26 45
187 26 45
187 27 45
186 28 45
186 28 45
186 29 45
185 30 45
185 30 45
185 31 44
184 31 44
184 32 44
183 33 44
183 33 44
183 34 44
182 35 44
182 35 44
181 36 43
181 37 43
181 37 43
180 38 43
180 38 43
180 39 43
179 40 43
179 40 43
178 41 42
178 42 42
178 42 42
177 43 42
177 44 42
176 44 42
176 45 42
176 46 42
175 46 41
175 47 41
175 47 41
174 48 41
174 49 41
173 49 41
173 50 41
173 51 40
172 51 40
172 52 40
172 53 40
171 53 40
171 54 40
170 54 40
170 55 40
170 56 39
169 56 39
169 57 39
168 58 39
168 58 39
168 59 39
167 60 39
167 60 39
167 61 38
166 61 38
166 62 38
165 63 38
165 63 38
165 64 38
164 65 38
164 65 38
163 66 37
163 67 37
163 67 37
162 68 37
162 69 37
162 69 37
161 70 37
161 70 36
160 71 36
160 72 36
160 72 36
159 73 36
159 74 36
159 74 36
158 75 36
158 76 35
157 76 35
157 77 35
157 77 35
156 78 35
156 79 35
155 79 35
155 80 35
155 81 34
154 81 34
154 82 34
154 83 34
153 83 34
153 84 34
152 85 34
152 85 34
152 86 33
151 86 33
151 87 33
151 88 33
150 88 33
150 89 33
149 90 33
149 90 33
149 91 32
148 92 32
148 92 32
147 93 32
147 93 32
147 94 32
146 95 32
146 95 31
146 96 31
145 97 31
145 97 31
144 98 31
144 99 31
144 99 31
143 100 31
143 100 30
142 101 30
142 102 30
142 102 30
141 103 30
141 104 30
141 104 30
140 105 30
140 106 29
139 106 29
139 107 29
139 108 29
138 108 29
138 109 29
138 109 29
137 110 29
137 111 28
136 111 28
136 112 28
136 113 28
135 113 28
135 114 28
134 115 28
134 115 28
134 116 27
133 116 27
133 117 27
133 118 27
132 118 27
132 119 27
131 120 27
131 120 26
131 121 26
130 122 26
130 122 26
129 123 26
129 123 26
129 124 26
128 125 26
128 125 25
128 126 25
127 127 25
127 127 25
126 128 25
126 129 25
126 129 25
125 130 25
125 131 24
125 131 24
124 132 24
124 132 24
123 133 24
123 134 24
123 134 24
122 135 24
122 136 23
121 136 23
121 137 23
121 138 23
120 138 23
120 139 23
120 139 23
119 140 22
119 141 22
118 141 22
118 142 22
118 143 22
117 143 22
117 144 22
116 145 22
116 145 21
116 146 21
115 146 21
115 147 21
115 148 21
114 148 21
114 149 21
113 150 21
113 150 20
113 151 20
112 152 20
112 152 20
112 153 20
111 154 20
111 154 20
110 155 20
110 155 19
110 156 19
109 157 19
109 157 19
108 158 19
108 159 19
108 159 19
107 160 19
107 161 18
107 161 18
106 162 18
106 162 18
105 163 18
105 164 18
105 164 18
104 165 17
104 166 17
103 166 17
103 167 17
103 168 17
102 168 17
102 169 17
102 170 17
101 170 16
101 171 16
100 171 16
100 172 16
100 173 16
99 173 16
99 174 16
99 175 16
98 175 15
98 176 15
97 177 15
97 177 15
97 178 15
96 178 15
96 179 15
95 180 15
95 180 14
95 181 14
94 182 14
94 182 14
94 183 14
93 184 14
93 184 14
92 185 14
92 185 13
92 186 13
91 187 13
91 187 13
91 188 13
90 189 13
90 189 13
89 190 12
89 191 12
89 191 12
88 192 12
88 193 12
87 193 12
87 194 12
87 194 12
86 195 11
86 196 11
86 196 11
85 197 11
85 198 11
84 198 11
84 199 11
84 200 11
83 200 10
83 201 10
82 201 10
82 202 10
82 203 10
81 203 10
81 204 10
81 205 10
80 205 9
80 206 9
79 207 9
79 207 9
79 208 9
78 208 9
78 209 9
78 210 8
77 210 8
77 211 8
76 212 8
76 212 8
76 213 8
75 214 8
75 214 8
74 215 7
74 216 7
74 216 7
73 217 7
73 217 7
73 218 7
72 219 7
72 219 7
71 220 6
71 221 6
71 221 6
70 222 6
70 223 6
69 223 6
69 224 6
69 224 6
68 225 5
68 226 5
68 226 5
67 227 5
67 228 5
66 228 5
66 229 5
66 230 5
65 230 4
65 231 4
65 231 4
64 232 4
64 233 4
63 233 4
63 234 4
63 235 3
62 235 3
62 236 3
61 237 3
61 237 3
61 238 3
60 239 3
60 239 3
60 240 2
59 240 2
59 241 2
58 242 2
58 242 2
58 243 2
57 244 2
57 244 2
56 245 1
56 246 1
56 246 1
55 247 1
55 247 1
55 248 1
54 249 1
54 249 1
53 250 0
53 251 0
53 251 0
52 252 0
52 253 0
52 253 0
51 254 0
51 255 0
205 0 49
204 0 49
204 1 49
203 1 49
203 2 49
203 3 49
202 3 49
202 4 49
201 5 48
201 5 48
201 6 48
200 7 48
200 7 48
199 8 48
199 8 48
199 9 48
198 10 47
198 10 47
198 11 47
197 12 47
197 12 47
196 13 47
196 14 47
196 14 47
195 15 46
195 15 46
194 16 46
194 17 46
194 17 46
193 18 46
193 19 46
192 19 46
192 20 45
192 21 45
191 21 45
191 22 45
191 23 45
190 23 45
190 24 45
189 24 45
189 25 44
189 26 44
188 26 44
188 27 44
187 28 44
187 28 44
187 29 44
186 30 44
186 30 43
185 31 43
185 31 43
185 32 43
184 33 43
184 33 43
184 34 43
183 35 43
183 35 42
182 36 42
182 37 42
182 37 42
181 38 42
181 38 42
180 39 42
180 40 42
180 40 41
179 41 41
179 42 41
178 42 41
178 43 41
178 44 41
177 44 41
177 45 41
177 46 40
176 46 40
176 47 40
175 47 40
175 48 40
175 49 40
174 49 40
174 50 40
173 51 39
173 51 39
173 52 39
172 53 39
172 53 39
171 54 39
171 54 39
171 55 39
170 56 38
170 56 38
170 57 38
169 58 38
169 58 38
168 59 38
168 60 38
168 60 38
167 61 37
167 61 37
166 62 37
166 63 37
166 63 37
165 64 37
165 65 37
164 65 37
164 66 36
164 67 36
163 67 36
163 68 36
163 69 36
162 69 36
162 70 36
161 70 36
161 71 35
161 72 35
160 72 35
160 73 35
159 74 35
159 74 35
159 75 35
158 76 35
158 76 34
158 77 34
157 77 34
157 78 34
156 79 34
156 79 34
156 80 34
155 81 34
155 81 33
154 82 33
154 83 33
154 83 33
153 84 33
153 85 33
152 85 33
152 86 33
152 86 32
151 87 32
151 88 32
151 88 32
150 89 32
150 90 32
149 90 32
149 91 32
149 92 31
148 92 31
148 93 31
147 93 31
147 94 31
147 95 31
146 95 31
146 96 31
145 97 30
145 97 30
145 98 30
144 99 30
144 99 30
144 100 30
143 100 30
143 101 30
142 102 29
142 102 29
142 103 29
141 104 29
141 104 29
140 105 29
140 106 29
140 106 29
139 107 28
139 108 28
138 108 28
138 109 28
138 109 28
137 110 28
137 111 28
137 111 28
136 112 27
136 113 27
135 113 27
135 114 27
135 115 27
134 115 27
134 116 27
133 116 27
133 117 26
133 118 26
132 118 26
132 119 26
131 120 26
131 120 26
131 121 26
130 122 26
130 122 25
130 123 25
129 123 25
129 124 25
128 125 25
128 125 25
128 126 25
127 127 25
127 127 24
126 128 24
126 129 24
126 129 24
125 130 24
125 131 24
124 131 24
124 132 24
124 132 23
123 133 23
123 134 23
123 134 23
122 135 23
122 136 23
121 136 23
121 137 23
121 138 22
120 138 22
120 139 22
119 139 22
119 140 22
119 141 22
118 141 22
118 142 22
117 143 21
117 143 21
117 144 21
116 145 21
116 145 21
116 146 21
115 146 21
115 147 21
114 148 20
114 148 20
114 149 20
113 150 20
113 150 20
112 151 20
112 152 20
112 152 20
111 153 19
111 154 19
110 154 19
110 155 19
110 155 19
109 156 19
109 157 19
109 157 19
108 158 18
108 159 18
107 159 18
107 160 18
107 161 18
106 161 18
106 162 18
105 162 18
105 163 17
105 164 17
104 164 17
104 165 17
103 166 17
103 166 17
103 167 17
102 168 17
102 168 16
102 169 16
101 170 16
101 170 16
100 171 16
100 171 16
100 172 16
99 173 16
99 173 15
98 174 15
98 175 15
98 175 15
97 176 15
97 177 15
96 177 15
96 178 15
96 178 14
95 179 14
95 180 14
95 180 14
94 181 14
94 182 14
93 182 14
93 183 14
93 184 13
92 184 13
92 185 13
91 185 13
91 186 13
91 187 13
90 187 13
90 188 13
90 189 12
89 189 12
89 190 12
88 191 12
88 191 12
88 192 12
87 193 12
87 193 12
86 194 11
86 194 11
86 195 11
85 196 11
85 196 11
84 197 11
84 198 11
84 198 11
83 199 10
83 200 10
83 200 10
82 201 10
82 201 10
81 202 10
81 203 10
81 203 10
80 204 9
80 205 9
79 205 9
79 206 9
79 207 9
78 207 9
78 208 9
77 208 9
77 209 8
77 210 8
76 210 8
76 211 8
76 212 8
75 212 8
75 213 8
74 214 8
74 214 7
74 215 7
73 216 7
73 216 7
72 217 7
72 217 7
72 218 7
71 219 7
71 219 6
70 220 6
70 221 6
70 221 6
69 222 6
69 223 6
69 223 6
68 224 6
68 224 5
67 225 5
67 226 5
67 226 5
66 227 5
66 228 5
65 228 5
65 229 5
65 230 4
64 230 4
64 231 4
63 231 4
63 232 4
63 233 4
62 233 4
62 234 4
62 235 3
61 235 3
61 236 3
60 237 3
60 237 3
60 238 3
59 239 3
59 239 3
58 240 2
58 240 2
58 241 2
57 242 2
57 242 2
56 243 2
56 244 2
56 244 2
55 245 1
55 246 1
55 246 1
54 247 1
54 247 1
53 248 1
53 249 1
53 249 1
52 250 0
52 251 0
51 251 0
51 252 0
51 253 0
50 253 0
50 254 0
49 255 0
206 0 48
205 0 48
205 1 48
205 1 48
204 2 48
204 3 48
203 3 47
203 4 47
203 5 47
202 5 47
202 6 47
201 7 47
201 7 47
201 8 47
200 8 46
200 9 46
199 10 46
199 10 46
199 11 46
198 12 46
198 12 46
198 13 46
197 14 46
197 14 45
196 15 45
196 15 45
196 16 45
195 17 45
195 17 45
194 18 45
194 19 45
194 19 44
193 20 44
193 21 44
192 21 44
192 22 44
192 23 44
191 23 44
191 24 44
190 24 43
190 25 43
190 26 43
189 26 43
189 27 43
188 28 43
188 28 43
188 29 43
187 30 42
187 30 42
186 31 42
186 31 42
186 32 42
185 33 42
185 33 42
184 34 42
184 35 41
184 35 41
183 36 41
183 37 41
183 37 41
182 38 41
182 38 41
181 39 41
181 40 41
181 40 40
180 41 40
180 42 40
179 42 40
179 43 40
179 44 40
178 44 40
178 45 40
177 46 39
177 46 39
177 47 39
176 47 39
176 48 39
175 49 39
175 49 39
175 50 39
174 51 38
174 51 38
173 52 38
173 53 38
173 53 38
172 54 38
172 54 38
171 55 38
171 56 37
171 56 37
170 57 37
170 58 37
169 58 37
169 59 37
169 60 37
168 60 37
168 61 36
167 61 36
167 62 36
167 63 36
166 63 36
166 64 36
166 65 36
165 65 36
165 66 36
164 67 35
164 67 35
164 68 35
163 69 35
163 69 35
162 70 35
162 70 35
162 71 35
161 72 34
161 72 34
160 73 34
160 74 34
160 74 34
159 75 34
159 76 34
158 76 34
158 77 33
158 77 33
157 78 33
157 79 33
156 79 33
156 80 33
156 81 33
155 81 33
155 82 32
154 83 32
154 83 32
154 84 32
153 85 32
153 85 32
152 86 32
152 86 32
152 87 31
151 88 31
151 88 31
151 89 31
150 90 31
150 90 31
149 91 31
149 92 31
149 92 30
148 93 30
148 93 30
147 94 30
147 95 30
147 95 30
146 96 30
146 97 30
145 97 30
145 98 29
145 99 29
144 99 29
144 100 29
143 100 29
143 101 29
143 102 29
142 102 29
142 103 28
141 104 28
141 104 28
141 105 28
140 106 28
140 106 28
139 107 28
139 108 28
139 108 27
138 109 27
138 109 27
137 110 27
137 111 27
137 111 27
136 112 27
136 113 27
135 113 26
135 114 26
135 115 26
134 115 26
134 116 26
134 116 26
133 117 26
133 118 26
132 118 25
132 119 25
132 120 25
131 120 25
131 121 25
130 122 25
130 122 25
130 123 25
129 123 25
129 124 24
128 125 24
128 125 24
128 126 24
127 127 24
127 127 24
126 128 24
126 129 24
126 129 23
125 130 23
125 131 23
124 131 23
124 132 23
124 132 23
123 133 23
123 134 23
122 134 22
122 135 22
122 136 22
121 136 22
121 137 22
120 138 22
120 138 22
120 139 22
119 139 21
119 140 21
119 141 21
118 141 21
118 142 21
117 143 21
117 143 21
117 144 21
116 145 20
116 145 20
115 146 20
115 146 20
115 147 20
114 148 20
114 148 20
113 149 20
113 150 20
113 150 19
112 151 19
112 152 19
111 152 19
111 153 19
111 154 19
110 154 19
110 155 19
109 155 18
109 156 18
109 157 18
108 157 18
108 158 18
107 159 18
107 159 18
107 160 18
106 161 17
106 161 17
105 162 17
105 162 17
105 163 17
104 164 17
104 164 17
103 165 17
103 166 16
103 166 16
102 167 16
102 168 16
102 168 16
101 169 16
101 170 16
100 170 16
100 171 15
100 171 15
99 172 15
99 173 15
98 173 15
98 174 15
98 175 15
97 175 15
97 176 15
96 177 14
96 177 14
96 178 14
95 178 14
95 179 14
94 180 14
94 180 14
94 181 14
93 182 13
93 182 13
92 183 13
92 184 13
92 184 13
91 185 13
91 185 13
90 186 13
90 187 12
90 187 12
89 188 12
89 189 12
88 189 12
88 190 12
88 191 12
87 191 12
87 192 11
87 193 11
86 193 11
86 194 11
85 194 11
85 195 11
85 196 11
84 196 11
84 197 10
83 198 10
83 198 10
83 199 10
82 200 10
82 200 10
81 201 10
81 201 10
81 202 10
80 203 9
80 203 9
79 204 9
79 205 9
79 205 9
78 206 9
78 207 9
77 207 9
77 208 8
77 208 8
76 209 8
76 210 8
75 210 8
75 211 8
75 212 8
74 212 8
74 213 7
73 214 7
73 214 7
73 215 7
72 216 7
72 216 7
71 217 7
71 217 7
71 218 6
70 219 6
70 219 6
70 220 6
69 221 6
69 221 6
68 222 6
68 223 6
68 223 5
67 224 5
67 224 5
66 225 5
66 226 5
66 226 5
65 227 5
65 228 5
64 228 5
64 229 4
64 230 4
63 230 4
63 231 4
62 231 4
62 232 4
62 233 4
61 233 4
61 234 3
60 235 3
60 235 3
60 236 3
59 237 3
59 237 3
58 238 3
58 239 3
58 239 2
57 240 2
57 240 2
56 241 2
56 242 2
56 242 2
55 243 2
55 244 2
55 244 1
54 245 1
54 246 1
53 246 1
53 247 1
53 247 1
52 248 1
52 249 1
51 249 0
51 250 0
51 251 0
50 251 0
50 252 0
49 253 0
49 253 0
49 254 0
48 255 0
207 0 47
207 0 47
206 1 47
206 1 47
205 2 46
205 3 46
205 3 46
204 4 46
204 5 46
203 5 46
203 6 46
203 7 46
202 7 45
202 8 45
201 8 45
201 9 45
201 10 45
200 10 45
200 11 45
199 12 45
199 12 45
199 13 44
198 14 44
198 14 44
197 15 44
197 15 44
197 16 44
196 17 44
196 17 44
195 18 43
195 19 43
195 19 43
194 20 43
194 21 43
193 21 43
193 22 43
193 23 43
192 23 43
192 24 42
191 24 42
191 25 42
191 26 42
190 26 42
190 27 42
189 28 42
189 28 42
189 29 41
188 30 41
188 30 41
187 31 41
187 31 41
187 32 41
186 33 41
186 33 41
185 34 40
185 35 40
185 35 40
184 36 40
184 37 40
183 37 40
183 38 40
183 38 40
182 39 40
182 40 39
181 40 39
181 41 39
181 42 39
180 42 39
180 43 39
179 44 39
179 44 39
179 45 38
178 46 38
178 46 38
177 47 38
177 47 38
177 48 38
176 49 38
176 49 38
175 50 38
175 51 37
175 51 37
174 52 37
174 53 37
173 53 37
173 54 37
173 54 37
172 55 37
172 56 36
171 56 36
171 57 36
171 58 36
170 58 36
170 59 36
169 60 36
169 60 36
169 61 36
168 61 35
168 62 35
167 63 35
167 63 35
167 64 35
166 65 35
166 65 35
165 66 35
165 67 34
165 67 34
164 68 34
164 69 34
163 69 34
163 70 34
163 70 34
162 71 34
162 72 33
161 72 33
161 73 33
161 74 33
160 74 33
160 75 33
159 76 33
159 76 33
159 77 33
158 77 32
158 78 32
157 79 32
157 79 32
157 80 32
156 81 32
156 81 32
155 82 32
155 83 31
154 83 31
154 84 31
154 85 31
153 85 31
153 86 31
152 86 31
152 87 31
152 88 31
151 88 30
151 89 30
150 90 30
150 90 30
150 91 30
149 92 30
149 92 30
148 93 30
148 93 29
148 94 29
147 95 29
147 95 29
146 96 29
146 97 29
146 97 29
145 98 29
145 99 28
144 99 28
144 100 28
144 100 28
143 101 28
143 102 28
142 102 28
142 103 28
142 104 28
141 104 27
141 105 27
140 106 27
140 106 27
140 107 27
139 108 27
139 108 27
138 109 27
138 109 26
138 110 26
137 111 26
137 111 26
136 112 26
136 113 26
136 113 26
135 114 26
135 115 26
134 115 25
134 116 25
134 116 25
133 117 25
133 118 25
132 118 25
132 119 25
132 120 25
131 120 24
131 121 24
130 122 24
130 122 24
130 123 24
129 123 24
129 124 24
128 125 24
128 125 24
128 126 23
127 127 23
127 127 23
126 128 23
126 129 23
126 129 23
125 130 23
125 131 23
124 131 22
124 132 22
124 132 22
123 133 22
123 134 22
122 134 22
122 135 22
122 136 22
121 136 21
121 137 21
120 138 21
120 138 21
120 139 21
119 139 21
119 140 21
118 141 21
118 141 21
118 142 20
117 143 20
117 143 20
116 144 20
116 145 20
116 145 20
115 146 20
115 146 20
114 147 19
114 148 19
114 148 19
113 149 19
113 150 19
112 150 19
112 151 19
112 152 19
111 152 19
111 153 18
110 154 18
110 154 18
110 155 18
109 155 18
109 156 18
108 157 18
108 157 18
108 158 17
107 159 17
107 159 17
106 160 17
106 161 17
106 161 17
105 162 17
105 162 17
104 163 16
104 164 16
104 164 16
103 165 16
103 166 16
102 166 16
102 167 16
102 168 16
101 168 16
101 169 15
100 170 15
100 170 15
100 171 15
99 171 15
99 172 15
98 173 15
98 173 15
97 174 14
97 175 14
97 175 14
96 176 14
96 177 14
95 177 14
95 178 14
95 178 14
94 179 14
94 180 13
93 180 13
93 181 13
93 182 13
92 182 13
92 183 13
91 184 13
91 184 13
91 185 12
90 185 12
90 186 12
89 187 12
89 187 12
89 188 12
88 189 12
88 189 12
87 190 12
87 191 11
87 191 11
86 192 11
86 193 11
85 193 11
85 194 11
85 194 11
84 195 11
84 196 10
83 196 10
83 197 10
83 198 10
82 198 10
82 199 10
81 200 10
81 200 10
81 201 9
80 201 9
80 202 9
79 203 9
79 203 9
79 204 9
78 205 9
78 205 9
77 206 9
77 207 8
77 207 8
76 208 8
76 208 8
75 209 8
75 210 8
75 210 8
74 211 8
74 212 7
73 212 7
73 213 7
73 214 7
72 214 7
72 215 7
71 216 7
71 216 7
71 217 7
70 217 6
70 218 6
69 219 6
69 219 6
69 220 6
68 221 6
68 221 6
67 222 6
67 223 5
67 223 5
66 224 5
66 224 5
65 225 5
65 226 5
65 226 5
64 227 5
64 228 4
63 228 4
63 229 4
63 230 4
62 230 4
62 231 4
61 231 4
61 232 4
61 233 4
60 233 3
60 234 3
59 235 3
59 235 3
59 236 3
58 237 3
58 237 3
57 238 3
57 239 2
57 239 2
56 240 2
56 240 2
55 241 2
55 242 2
55 242 2
54 243 2
54 244 2
53 244 1
53 245 1
53 246 1
52 246 1
52 247 1
51 247 1
51 248 1
51 249 1
50 249 0
50 250 0
49 251 0
49 251 0
49 252 0
48 253 0
48 253 0
47 254 0
47 255 0
208 0 46
208 0 46
208 1 45
207 1 45
207 2 45
206 3 45
206 3 45
206 4 45
205 5 45
205 5 45
204 6 44
204 7 44
203 7 44
203 8 44
203 8 44
202 9 44
202 10 44
201 10 44
201 11 44
201 12 43
200 12 43
200 13 43
199 14 43
199 14 43
199 15 43
198 15 43
198 16 43
197 17 43
197 17 42
197 18 42
196 19 42
196 19 42
195 20 42
195 21 42
195 21 42
194 22 42
194 23 41
193 23 41
193 24 41
192 24 41
192 25 41
192 26 41
191 26 41
191 27 41
190 28 41
190 28 40
190 29 40
189 30 40
189 30 40
188 31 40
188 31 40
188 32 40
187 33 40
187 33 40
186 34 39
186 35 39
186 35 39
185 36 39
185 37 39
184 37 39
184 38 39
183 38 39
183 39 38
183 40 38
182 40 38
182 41 38
181 42 38
181 42 38
181 43 38
180 44 38
180 44 38
179 45 37
179 46 37
179 46 37
178 47 37
178 47 37
177 48 37
177 49 37
177 49 37
176 50 36
176 51 36
175 51 36
175 52 36
175 53 36
174 53 36
174 54 36
173 54 36
173 55 36
172 56 35
172 56 35
172 57 35
171 58 35
171 58 35
170 59 35
170 60 35
170 60 35
169 61 35
169 61 34
168 62 34
168 63 34
168 63 34
167 64 34
167 65 34
166 65 34
166 66 34
166 67 33
165 67 33
165 68 33
164 69 33
164 69 33
164 70 33
163 70 33
163 71 33
162 72 33
162 72 32
161 73 32
161 74 32
161 74 32
160 75 32
160 76 32
159 76 32
159 77 32
159 77 32
158 78 31
158 79 31
157 79 31
157 80 31
157 81 31
156 81 31
156 82 31
155 83 31
155 83 30
155 84 30
154 85 30
154 85 30
153 86 30
153 86 30
152 87 30
152 88 30
152 88 30
151 89 29
151 90 29
150 90 29
150 91 29
150 92 29
149 92 29
149 93 29
148 93 29
148 94 29
148 95 28
147 95 28
147 96 28
146 97 28
146 97 28
146 98 28
145 99 28
145 99 28
144 100 27
144 100 27
144 101 27
143 102 27
143 102 27
142 103 27
142 104 27
141 104 27
141 105 27
141 106 26
140 106 26
140 107 26
139 108 26
139 108 26
139 109 26
138 109 26
138 110 26
137 111 26
137 111 25
137 112 25
136 113 25
136 113 25
135 114 25
135 115 25
135 115 25
134 116 25
134 116 24
133 117 24
133 118 24
133 118 24
132 119 24
132 120 24
131 120 24
131 121 24
130 122 24
130 122 23
130 123 23
129 123 23
129 124 23
128 125 23
128 125 23
128 126 23
127 127 23
127 127 23
126 128 22
126 129 22
126 129 22
125 130 22
125 131 22
124 131 22
124 132 22
124 132 22
123 133 21
123 134 21
122 134 21
122 135 21
121 136 21
121 136 21
121 137 21
120 138 21
120 138 21
119 139 20
119 139 20
119 140 20
118 141 20
118 141 20
117 142 20
117 143 20
117 143 20
116 144 20
116 145 19
115 145 19
115 146 19
115 146 19
114 147 19
114 148 19
113 148 19
113 149 19
113 150 18
112 150 18
112 151 18
111 152 18
111 152 18
110 153 18
110 154 18
110 154 18
109 155 18
109 155 17
108 156 17
108 157 17
108 157 17
107 158 17
107 159 17
106 159 17
106 160 17
106 161 16
105 161 16
105 162 16
104 162 16
104 163 16
104 164 16
103 164 16
103 165 16
102 166 16
102 166 15
102 167 15
101 168 15
101 168 15
100 169 15
100 170 15
99 170 15
99 171 15
99 171 15
98 172 14
98 173 14
97 173 14
97 174 14
97 175 14
96 175 14
96 176 14
95 177 14
95 177 13
95 178 13
94 178 13
94 179 13
93 180 13
93 180 13
93 181 13
92 182 13
92 182 13
91 183 12
91 184 12
90 184 12
90 185 12
90 185 12
89 186 12
89 187 12
88 187 12
88 188 12
88 189 11
87 189 11
87 190 11
86 191 11
86 191 11
86 192 11
85 193 11
85 193 11
84 194 10
84 194 10
84 195 10
83 196 10
83 196 10
82 197 10
82 198 10
82 198 10
81 199 10
81 200 9
80 200 9
80 201 9
79 201 9
79 202 9
79 203 9
78 203 9
78 204 9
77 205 9
77 205 8
77 206 8
76 207 8
76 207 8
75 208 8
75 208 8
75 209 8
74 210 8
74 210 7
73 211 7
73 212 7
73 212 7
72 213 7
72 214 7
71 214 7
71 215 7
71 216 7
70 216 6
70 217 6
69 217 6
69 218 6
68 219 6
68 219 6
68 220 6
67 221 6
67 221 6
66 222 5
66 223 5
66 223 5
65 224 5
65 224 5
64 225 5
64 226 5
64 226 5
63 227 4
63 228 4
62 228 4
62 229 4
62 230 4
61 230 4
61 231 4
60 231 4
60 232 4
59 233 3
59 233 3
59 234 3
58 235 3
58 235 3
57 236 3
57 237 3
57 237 3
56 238 3
56 239 2
55 239 2
55 240 2
55 240 2
54 241 2
54 242 2
53 242 2
53 243 2
53 244 1
52 244 1
52 245 1
51 246 1
51 246 1
51 247 1
50 247 1
50 248 1
49 249 1
49 249 0
48 250 0
48 251 0
48 251 0
47 252 0
47 253 0
46 253 0
46 254 0
46 255 0
210 0 44
209 0 44
209 1 44
208 1 44
208 2 44
208 3 44
207 3 44
207 4 44
206 5 43
206 5 43
206 6 43
205 7 43
205 7 43
204 8 43
204 8 43
203 9 43
203 10 43
203 10 42
202 11 42
202 12 42
201 12 42
201 13 42
201 14 42
200 14 42
200 15 42
199 15 42
199 16 41
198 17 41
198 17 41
198 18 41
197 19 41
197 19 41
196 20 41
196 21 41
196 21 41
195 22 40
195 23 40
194 23 40
194 24 40
193 24 40
193 25 40
193 26 40
192 26 40
192 27 40
191 28 39
191 28 39
191 29 39
190 30 39
190 30 39
189 31 39
189 31 39
189 32 39
188 33 39
188 33 38
187 34 38
187 35 38
186 35 38
186 36 38
186 37 38
185 37 38
185 38 38
184 38 37
184 39 37
184 40 37
183 40 37
183 41 37
182 42 37
182 42 37
181 43 37
181 44 37
181 44 36
180 45 36
180 46 36
179 46 36
179 47 36
179 47 36
178 48 36
178 49 36
177 49 36
177 50 35
177 51 35
176 51 35
176 52 35
175 53 35
175 53 35
174 54 35
174 54 35
174 55 35
173 56 34
173 56 34
172 57 34
172 58 34
172 58 34
171 59 34
171 60 34
170 60 34
170 61 34
169 61 33
169 62 33
169 63 33
168 63 33
168 64 33
167 65 33
167 65 33
167 66 33
166 67 33
166 67 32
165 68 32
165 69 32
164 69 32
164 70 32
164 70 32
163 71 32
163 72 32
162 72 32
162 73 31
162 74 31
161 74 31
161 75 31
160 76 31
160 76 31
160 77 31
159 77 31
159 78 31
158 79 30
158 79 30
157 80 30
157 81 30
157 81 30
156 82 30
156 83 30
155 83 30
155 84 30
155 85 29
154 85 29
154 86 29
153 86 29
153 87 29
152 88 29
152 88 29
152 89 29
151 90 29
151 90 28
150 91 28
150 92 28
150 92 28
149 93 28
149 93 28
148 94 28
148 95 28
148 95 27
147 96 27
147 97 27
146 97 27
146 98 27
145 99 27
145 99 27
145 100 27
144 100 27
144 101 26
143 102 26
143 102 26
143 103 26
142 104 26
142 104 26
141 105 26
141 106 26
140 106 26
140 107 25
140 108 25
139 108 25
139 109 25
138 109 25
138 110 25
138 111 25
137 111 25
137 112 25
136 113 24
136 113 24
135 114 24
135 115 24
135 115 24
134 116 24
134 116 24
133 117 24
133 118 24
133 118 23
132 119 23
132 120 23
131 120 23
131 121 23
131 122 23
130 122 23
130 123 23
129 123 23
129 124 22
128 125 22
128 125 22
128 126 22
127 127 22
127 127 22
126 128 22
126 129 22
126 129 22
125 130 21
125 131 21
124 131 21
124 132 21
123 132 21
123 133 21
123 134 21
122 134 21
122 135 21
121 136 20
121 136 20
121 137 20
120 138 20
120 138 20
119 139 20
119 139 20
119 140 20
118 141 20
118 141 19
117 142 19
117 143 19
116 143 19
116 144 19
116 145 19
115 145 19
115 146 19
114 146 18
114 147 18
114 148 18
113 148 18
113 149 18
112 150 18
112 150 18
111 151 18
111 152 18
111 152 17
110 153 17
110 154 17
109 154 17
109 155 17
109 155 17
108 156 17
108 157 17
107 157 17
107 158 16
106 159 16
106 159 16
106 160 16
105 161 16
105 161 16
104 162 16
104 162 16
104 163 16
103 164 15
103 164 15
102 165 15
102 166 15
102 166 15
101 167 15
101 168 15
100 168 15
100 169 15
99 170 14
99 170 14
99 171 14
98 171 14
98 172 14
97 173 14
97 173 14
97 174 14
96 175 14
96 175 13
95 176 13
95 177 13
94 177 13
94 178 13
94 178 13
93 179 13
93 180 13
92 180 13
92 181 12
92 182 12
91 182 12
91 183 12
90 184 12
90 184 12
90 185 12
89 185 12
89 186 12
88 187 11
88 187 11
87 188 11
87 189 11
87 189 11
86 190 11
86 191 11
85 191 11
85 192 11
85 193 10
84 193 10
84 194 10
83 194 10
83 195 10
82 196 10
82 196 10
82 197 10
81 198 10
81 198 9
80 199 9
80 200 9
80 200 9
79 201 9
79 201 9
78 202 9
78 203 9
77 203 8
77 204 8
77 205 8
76 205 8
76 206 8
75 207 8
75 207 8
75 208 8
74 208 8
74 209 7
73 210 7
73 210 7
73 211 7
72 212 7
72 212 7
71 213 7
71 214 7
70 214 7
70 215 6
70 216 6
69 216 6
69 217 6
68 217 6
68 218 6
68 219 6
67 219 6
67 220 6
66 221 5
66 221 5
65 222 5
65 223 5
65 223 5
64 224 5
64 224 5
63 225 5
63 226 5
63 226 4
62 227 4
62 228 4
61 228 4
61 229 4
61 230 4
60 230 4
60 231 4
59 231 4
59 232 3
58 233 3
58 233 3
58 234 3
57 235 3
57 235 3
56 236 3
56 237 3
56 237 3
55 238 2
55 239 2
54 239 2
54 240 2
53 240 2
53 241 2
53 242 2
52 242 2
52 243 2
51 244 1
51 244 1
51 245 1
50 246 1
50 246 1
49 247 1
49 247 1
48 248 1
48 249 1
48 249 0
47 250 0
47 251 0
46 251 0
46 252 0
46 253 0
45 253 0
45 254 0
44 255 0
211 0 43
211 0 43
210 1 43
210 1 43
209 2 43
209 3 43
208 3 42
208 4 42
208 5 42
207 5 42
207 6 42
206 7 42
206 7 42
205 8 42
205 8 42
205 9 41
204 10 41
204 10 41
203 11 41
203 12 41
203 12 41
202 13 41
202 14 41
201 14 41
201 15 40
200 15 40
200 16 40
200 17 40
199 17 40
199 18 40
198 19 40
198 19 40
197 20 40
197 21 39
197 21 39
196 22 39
196 23 39
195 23 39
195 24 39
195 24 39
194 25 39
194 26 39
193 26 38
193 27 38
192 28 38
192 28 38
192 29 38
191 30 38
191 30 38
190 31 38
190 31 38
189 32 37
189 33 37
189 33 37
188 34 37
188 35 37
187 35 37
187 36 37
187 37 37
186 37 37
186 38 37
185 38 36
185 39 36
184 40 36
184 40 36
184 41 36
183 42 36
183 42 36
182 43 36
182 44 36
181 44 35
181 45 35
181 46 35
180 46 35
180 47 35
179 47 35
179 48 35
179 49 35
178 49 35
178 50 34
177 51 34
177 51 34
176 52 34
176 53 34
176 53 34
175 54 34
175 54 34
174 55 34
174 56 33
173 56 33
173 57 33
173 58 33
172 58 33
172 59 33
171 60 33
171 60 33
171 61 33
170 61 32
170 62 32
169 63 32
169 63 32
168 64 32
168 65 32
168 65 32
167 66 32
167 67 32
166 67 31
166 68 31
165 69 31
165 69 31
165 70 31
164 70 31
164 71 31
163 72 31
163 72 31
163 73 31
162 74 30
162 74 30
161 75 30
161 76 30
160 76 30
160 77 30
160 77 30
159 78 30
159 79 30
158 79 29
158 80 29
158 81 29
157 81 29
157 82 29
156 83 29
156 83 29
155 84 29
155 85 29
155 85 28
154 86 28
154 86 28
153 87 28
153 88 28
152 88 28
152 89 28
152 90 28
151 90 28
151 91 27
150 92 27
150 92 27
150 93 27
149 93 27
149 94 27
148 95 27
148 95 27
147 96 27
147 97 26
147 97 26
146 98 26
146 99 26
145 99 26
145 100 26
144 100 26
144 101 26
144 102 26
143 102 25
143 103 25
142 104 25
142 104 25
142 105 25
141 106 25
141 106 25
140 107 25
140 108 25
139 108 25
139 109 24
139 109 24
138 110 24
138 111 24
137 111 24
137 112 24
136 113 24
136 113 24
136 114 24
135 115 23
135 115 23
134 116 23
134 116 23
134 117 23
133 118 23
133 118 23
132 119 23
132 120 23
131 120 22
131 121 22
131 122 22
130 122 22
130 123 22
129 123 22
129 124 22
128 125 22
128 125 22
128 126 21
127 127 21
127 127 21
126 128 21
126 129 21
126 129 21
125 130 21
125 131 21
124 131 21
124 132 20
123 132 20
123 133 20
123 134 20
122 134 20
122 135 20
121 136 20
121 136 20
120 137 20
120 138 19
120 138 19
119 139 19
119 139 19
118 140 19
118 141 19
118 141 19
117 142 19
117 143 19
116 143 18
116 144 18
115 145 18
115 145 18
115 146 18
114 146 18
114 147 18
113 148 18
113 148 18
112 149 18
112 150 17
112 150 17
111 151 17
111 152 17
110 152 17
110 153 17
110 154 17
109 154 17
109 155 17
108 155 16
108 156 16
107 157 16
107 157 16
107 158 16
106 159 16
106 159 16
105 160 16
105 161 16
104 161 15
104 162 15
104 162 15
103 163 15
103 164 15
102 164 15
102 165 15
102 166 15
101 166 15
101 167 14
100 168 14
100 168 14
99 169 14
99 170 14
99 170 14
98 171 14
98 171 14
97 172 14
97 173 13
96 173 13
96 174 13
96 175 13
95 175 13
95 176 13
94 177 13
94 177 13
94 178 13
93 178 12
93 179 12
92 180 12
92 180 12
91 181 12
91 182 12
91 182 12
90 183 12
90 184 12
89 184 12
89 185 11
89 185 11
88 186 11
88 187 11
87 187 11
87 188 11
86 189 11
86 189 11
86 190 11
85 191 10
85 191 10
84 192 10
84 193 10
83 193 10
83 194 10
83 194 10
82 195 10
82 196 10
81 196 9
81 197 9
81 198 9
80 198 9
80 199 9
79 200 9
79 200 9
78 201 9
78 201 9
78 202 8
77 203 8
77 203 8
76 204 8
76 205 8
75 205 8
75 206 8
75 207 8
74 207 8
74 208 7
73 208 7
73 209 7
73 210 7
72 210 7
72 211 7
71 212 7
71 212 7
70 213 7
70 214 6
70 214 6
69 215 6
69 216 6
68 216 6
68 217 6
67 217 6
67 218 6
67 219 6
66 219 6
66 220 5
65 221 5
65 221 5
65 222 5
64 223 5
64 223 5
63 224 5
63 224 5
62 225 5
62 226 4
62 226 4
61 227 4
61 228 4
60 228 4
60 229 4
59 230 4
59 230 4
59 231 4
58 231 3
58 232 3
57 233 3
57 233 3
57 234 3
56 235 3
56 235 3
55 236 3
55 237 3
54 237 2
54 238 2
54 239 2
53 239 2
53 240 2
52 240 2
52 241 2
51 242 2
51 242 2
51 243 1
50 244 1
50 244 1
49 245 1
49 246 1
49 246 1
48 247 1
48 247 1
47 248 1
47 249 0
46 249 0
46 250 0
46 251 0
45 251 0
45 252 0
44 253 0
44 253 0
43 254 0
43 255 0
212 0 42
212 0 42
211 1 42
211 1 41
211 2 41
210 3 41
210 3 41
209 4 41
209 5 41
208 5 41
208 6 41
208 7 41
207 7 41
207 8 40
206 8 40
206 9 40
205 10 40
205 10 40
205 11 40
204 12 40
204 12 40
203 13 40
203 14 39
202 14 39
202 15 39
202 15 39
201 16 39
201 17 39
200 17 39
200 18 39
199 19 39
199 19 39
199 20 38
198 21 38
198 21 38
197 22 38
197 23 38
196 23 38
196 24 38
196 24 38
195 25 38
195 26 37
194 26 37
194 27 37
193 28 37
193 28 37
193 29 37
192 30 37
192 30 37
191 31 37
191 31 36
190 32 36
190 33 36
190 33 36
189 34 36
189 35 36
188 35 36
188 36 36
187 37 36
187 37 36
187 38 35
186 38 35
186 39 35
185 40 35
185 40 35
184 41 35
184 42 35
184 42 35
183 43 35
183 44 34
182 44 34
182 45 34
181 46 34
181 46 34
181 47 34
180 47 34
180 48 34
179 49 34
179 49 34
178 50 33
178 51 33
178 51 33
177 52 33
177 53 33
176 53 33
176 54 33
175 54 33
175 55 33
175 56 32
174 56 32
174 57 32
173 58 32
173 58 32
172 59 32
172 60 32
172 60 32
171 61 32
171 61 32
170 62 31
170 63 31
170 63 31
169 64 31
169 65 31
168 65 31
168 66 31
167 67 31
167 67 31
167 68 30
166 69 30
166 69 30
165 70 30
165 70 30
164 71 30
164 72 30
164 72 30
163 73 30
163 74 29
162 74 29
162 75 29
161 76 29
161 76 29
161 77 29
160 77 29
160 78 29
159 79 29
159 79 29
158 80 28
158 81 28
158 81 28
157 82 28
157 83 28
156 83 28
156 84 28
155 85 28
155 85 28
155 86 27
154 86 27
154 87 27
153 88 27
153 88 27
152 89 27
152 90 27
152 90 27
151 91 27
151 92 27
150 92 26
150 93 26
149 93 26
149 94 26
149 95 26
148 95 26
148 96 26
147 97 26
147 97 26
146 98 25
146 99 25
146 99 25
145 100 25
145 100 25
144 101 25
144 102 25
143 102 25
143 103 25
143 104 25
142 104 24
142 105 24
141 106 24
141 106 24
140 107 24
140 108 24
140 108 24
139 109 24
139 109 24
138 110 23
138 111 23
137 111 23
137 112 23
137 113 23
136 113 23
136 114 23
135 115 23
135 115 23
134 116 22
134 116 22
134 117 22
133 118 22
133 118 22
132 119 22
132 120 22
131 120 22
131 121 22
131 122 22
130 122 21
130 123 21
129 123 21
129 124 21
128 125 21
128 125 21
128 126 21
127 127 21
127 127 21
126 128 20
126 129 20
126 129 20
125 130 20
125 131 20
124 131 20
124 132 20
123 132 20
123 133 20
123 134 20
122 134 19
122 135 19
121 136 19
121 136 19
120 137 19
120 138 19
120 138 19
119 139 19
119 139 19
118 140 18
118 141 18
117 141 18
117 142 18
117 143 18
116 143 18
116 144 18
115 145 18
115 145 18
114 146 18
114 146 17
114 147 17
113 148 17
113 148 17
112 149 17
112 150 17
111 150 17
111 151 17
111 152 17
110 152 16
110 153 16
109 154 16
109 154 16
108 155 16
108 155 16
108 156 16
107 157 16
107 157 16
106 158 16
106 159 15
105 159 15
105 160 15
105 161 15
104 161 15
104 162 15
103 162 15
103 163 15
102 164 15
102 164 14
102 165 14
101 166 14
101 166 14
100 167 14
100 168 14
99 168 14
99 169 14
99 170 14
98 170 13
98 171 13
97 171 13
97 172 13
96 173 13
96 173 13
96 174 13
95 175 13
95 175 13
94 176 13
94 177 12
93 177 12
93 178 12
93 178 12
92 179 12
92 180 12
91 180 12
91 181 12
90 182 12
90 182 11
90 183 11
89 184 11
89 184 11
88 185 11
88 185 11
87 186 11
87 187 11
87 187 11
86 188 11
86 189 10
85 189 10
85 190 10
85 191 10
84 191 10
84 192 10
83 193 10
83 193 10
82 194 10
82 194 9
82 195 9
81 196 9
81 196 9
80 197 9
80 198 9
79 198 9
79 199 9
79 200 9
78 200 9
78 201 8
77 201 8
77 202 8
76 203 8
76 203 8
76 204 8
75 205 8
75 205 8
74 206 8
74 207 7
73 207 7
73 208 7
73 208 7
72 209 7
72 210 7
71 210 7
71 211 7
70 212 7
70 212 6
70 213 6
69 214 6
69 214 6
68 215 6
68 216 6
67 216 6
67 217 6
67 217 6
66 218 6
66 219 5
65 219 5
65 220 5
64 221 5
64 221 5
64 222 5
63 223 5
63 223 5
62 224 5
62 224 4
61 225 4
61 226 4
61 226 4
60 227 4
60 228 4
59 228 4
59 229 4
58 230 4
58 230 4
58 231 3
57 231 3
57 232 3
56 233 3
56 233 3
55 234 3
55 235 3
55 235 3
54 236 3
54 237 2
53 237 2
53 238 2
52 239 2
52 239 2
52 240 2
51 240 2
51 241 2
50 242 2
50 242 2
49 243 1
49 244 1
49 244 1
48 245 1
48 246 1
47 246 1
47 247 1
46 247 1
46 248 1
46 249 0
45 249 0
45 250 0
44 251 0
44 251 0
43 252 0
43 253 0
43 253 0
42 254 0
42 255 0
213 0 41
213 0 40
213 1 40
212 1 40
212 2 40
211 3 40
211 3 40
210 4 40
210 5 40
210 5 40
209 6 39
209 7 39
208 7 39
208 8 39
207 8 39
207 9 39
207 10 39
206 10 39
206 11 39
205 12 39
205 12 38
204 13 38
204 14 38
204 14 38
203 15 38
203 15 38
202 16 38
202 17 38
201 17 38
201 18 38
200 19 37
200 19 37
200 20 37
199 21 37
199 21 37
198 22 37
198 23 37
197 23 37
197 24 37
197 24 36
196 25 36
196 26 36
195 26 36
195 27 36
194 28 36
194 28 36
194 29 36
193 30 36
193 30 36
192 31 35
192 31 35
191 32 35
191 33 35
191 33 35
190 34 35
190 35 35
189 35 35
189 36 35
188 37 35
188 37 34
187 38 34
187 38 34
187 39 34
186 40 34
186 40 34
185 41 34
185 42 34
184 42 34
184 43 34
184 44 33
183 44 33
183 45 33
182 46 33
182 46 33
181 47 33
181 47 33
181 48 33
180 49 33
180 49 32
179 50 32
179 51 32
178 51 32
178 52 32
178 53 32
177 53 32
177 54 32
176 54 32
176 55 32
175 56 31
175 56 31
174 57 31
174 58 31
174 58 31
173 59 31
173 60 31
172 60 31
172 61 31
171 61 31
171 62 30
171 63 30
170 63 30
170 64 30
169 65 30
169 65 30
168 66 30
168 67 30
168 67 30
167 68 30
167 69 29
166 69 29
166 70 29
165 70 29
165 71 29
165 72 29
164 72 29
164 73 29
163 74 29
163 74 28
162 75 28
162 76 28
161 76 28
161 77 28
161 77 28
160 78 28
160 79 28
159 79 28
159 80 28
158 81 27
158 81 27
158 82 27
157 83 27
157 83 27
156 84 27
156 85 27
155 85 27
155 86 27
155 86 27
154 87 26
154 88 26
153 88 26
153 89 26
152 90 26
152 90 26
151 91 26
151 92 26
151 92 26
150 93 26
150 93 25
149 94 25
149 95 25
148 95 25
148 96 25
148 97 25
147 97 25
147 98 25
146 99 25
146 99 24
145 100 24
145 100 24
145 101 24
144 102 24
144 102 24
143 103 24
143 104 24
142 104 24
142 105 24
142 106 23
141 106 23
141 107 23
140 108 23
140 108 23
139 109 23
139 109 23
138 110 23
138 111 23
138 111 23
137 112 22
137 113 22
136 113 22
136 114 22
135 115 22
135 115 22
135 116 22
134 116 22
134 117 22
133 118 21
133 118 21
132 119 21
132 120 21
132 120 21
131 121 21
131 122 21
130 122 21
130 123 21
129 123 21
129 124 20
129 125 20
128 125 20
128 126 20
127 127 20
127 127 20
126 128 20
126 129 20
125 129 20
125 130 20
125 131 19
124 131 19
124 132 19
123 132 19
123 133 19
122 134 19
122 134 19
122 135 19
121 136 19
121 136 19
120 137 18
120 138 18
119 138 18
119 139 18
119 139 18
118 140 18
118 141 18
117 141 18
117 142 18
116 143 17
116 143 17
116 144 17
115 145 17
115 145 17
114 146 17
114 146 17
113 147 17
113 148 17
112 148 17
112 149 16
112 150 16
111 150 16
111 151 16
110 152 16
110 152 16
109 153 16
109 154 16
109 154 16
108 155 16
108 155 15
107 156 15
107 157 15
106 157 15
106 158 15
106 159 15
105 159 15
105 160 15
104 161 15
104 161 15
103 162 14
103 162 14
103 163 14
102 164 14
102 164 14
101 165 14
101 166 14
100 166 14
100 167 14
99 168 13
99 168 13
99 169 13
98 170 13
98 170 13
97 171 13
97 171 13
96 172 13
96 173 13
96 173 13
95 174 12
95 175 12
94 175 12
94 176 12
93 177 12
93 177 12
93 178 12
92 178 12
92 179 12
91 180 12
91 180 11
90 181 11
90 182 11
89 182 11
89 183 11
89 184 11
88 184 11
88 185 11
87 185 11
87 186 10
86 187 10
86 187 10
86 188 10
85 189 10
85 189 10
84 190 10
84 191 10
83 191 10
83 192 10
83 193 9
82 193 9
82 194 9
81 194 9
81 195 9
80 196 9
80 196 9
80 197 9
79 198 9
79 198 9
78 199 8
78 200 8
77 200 8
77 201 8
76 201 8
76 202 8
76 203 8
75 203 8
75 204 8
74 205 8
74 205 7
73 206 7
73 207 7
73 207 7
72 208 7
72 208 7
71 209 7
71 210 7
70 210 7
70 211 6
70 212 6
69 212 6
69 213 6
68 214 6
68 214 6
67 215 6
67 216 6
67 216 6
66 217 6
66 217 5
65 218 5
65 219 5
64 219 5
64 220 5
63 221 5
63 221 5
63 222 5
62 223 5
62 223 5
61 224 4
61 224 4
60 225 4
60 226 4
60 226 4
59 227 4
59 228 4
58 228 4
58 229 4
57 230 4
57 230 3
57 231 3
56 231 3
56 232 3
55 233 3
55 233 3
54 234 3
54 235 3
54 235 3
53 236 2
53 237 2
52 237 2
52 238 2
51 239 2
51 239 2
50 240 2
50 240 2
50 241 2
49 242 2
49 242 1
48 243 1
48 244 1
47 244 1
47 245 1
47 246 1
46 246 1
46 247 1
45 247 1
45 248 1
44 249 0
44 249 0
44 250 0
43 251 0
43 251 0
42 252 0
42 253 0
41 253 0
41 254 0
41 255 0
215 0 39
214 0 39
214 1 39
213 1 39
213 2 39
213 3 39
212 3 39
212 4 39
211 5 38
211 5 38
210 6 38
210 7 38
209 7 38
209 8 38
209 8 38
208 9 38
208 10 38
207 10 38
207 11 37
206 12 37
206 12 37
206 13 37
205 14 37
205 14 37
204 15 37
204 15 37
203 16 37
203 17 37
202 17 36
202 18 36
202 19 36
201 19 36
201 20 36
200 21 36
200 21 36
199 22 36
199 23 36
198 23 36
198 24 35
198 24 35
197 25 35
197 26 35
196 26 35
196 27 35
195 28 35
195 28 35
195 29 35
194 30 35
194 30 34
193 31 34
193 31 34
192 32 34
192 33 34
191 33 34
191 34 34
191 35 34
190 35 34
190 36 34
189 37 33
189 37 33
188 38 33
188 38 33
187 39 33
187 40 33
187 40 33
186 41 33
186 42 33
185 42 33
185 43 32
184 44 32
184 44 32
184 45 32
183 46 32
183 46 32
182 47 32
182 47 32
181 48 32
181 49 32
180 49 31
180 50 31
180 51 31
179 51 31
179 52 31
178 53 31
178 53 31
177 54 31
177 54 31
176 55 31
176 56 30
176 56 30
175 57 30
175 58 30
174 58 30
174 59 30
173 60 30
173 60 30
173 61 30
172 61 30
172 62 29
171 63 29
171 63 29
170 64 29
170 65 29
169 65 29
169 66 29
169 67 29
168 67 29
168 68 29
167 69 28
167 69 28
166 70 28
166 70 28
165 71 28
165 72 28
165 72 28
164 73 28
164 74 28
163 74 28
163 75 27
162 76 27
162 76 27
162 77 27
161 77 27
161 78 27
160 79 27
160 79 27
159 80 27
159 81 27
158 81 26
158 82 26
158 83 26
157 83 26
157 84 26
156 85 26
156 85 26
155 86 26
155 86 26
154 87 26
154 88 25
154 88 25
153 89 25
153 90 25
152 90 25
152 91 25
151 92 25
151 92 25
151 93 25
150 93 25
150 94 24
149 95 24
149 95 24
148 96 24
148 97 24
147 97 24
147 98 24
147 99 24
146 99 24
146 100 24
145 100 23
145 101 23
144 102 23
144 102 23
143 103 23
143 104 23
143 104 23
142 105 23
142 106 23
141 106 23
141 107 22
140 108 22
140 108 22
140 109 22
139 109 22
139 110 22
138 111 22
138 111 22
137 112 22
137 113 22
136 113 22
136 114 21
136 115 21
135 115 21
135 116 21
134 116 21
134 117 21
133 118 21
133 118 21
132 119 21
132 120 21
132 120 20
131 121 20
131 122 20
130 122 20
130 123 20
129 123 20
129 124 20
129 125 20
128 125 20
128 126 20
127 127 19
127 127 19
126 128 19
126 129 19
125 129 19
125 130 19
125 131 19
124 131 19
124 132 19
123 132 19
123 133 18
122 134 18
122 134 18
122 135 18
121 136 18
121 136 18
120 137 18
120 138 18
119 138 18
119 139 18
118 139 17
118 140 17
118 141 17
117 141 17
117 142 17
116 143 17
116 143 17
115 144 17
115 145 17
114 145 17
114 146 16
114 146 16
113 147 16
113 148 16
112 148 16
112 149 16
111 150 16
111 150 16
111 151 16
110 152 16
110 152 15
109 153 15
109 154 15
108 154 15
108 155 15
107 155 15
107 156 15
107 157 15
106 157 15
106 158 15
105 159 14
105 159 14
104 160 14
104 161 14
103 161 14
103 162 14
103 162 14
102 163 14
102 164 14
101 164 14
101 165 13
100 166 13
100 166 13
100 167 13
99 168 13
99 168 13
98 169 13
98 170 13
97 170 13
97 171 13
96 171 12
96 172 12
96 173 12
95 173 12
95 174 12
94 175 12
94 175 12
93 176 12
93 177 12
92 177 12
92 178 11
92 178 11
91 179 11
91 180 11
90 180 11
90 181 11
89 182 11
89 182 11
89 183 11
88 184 11
88 184 10
87 185 10
87 185 10
86 186 10
86 187 10
85 187 10
85 188 10
85 189 10
84 189 10
84 190 10
83 191 9
83 191 9
82 192 9
82 193 9
81 193 9
81 194 9
81 194 9
80 195 9
80 196 9
79 196 9
79 197 8
78 198 8
78 198 8
78 199 8
77 200 8
77 200 8
76 201 8
76 201 8
75 202 8
75 203 8
74 203 7
74 204 7
74 205 7
73 205 7
73 206 7
72 207 7
72 207 7
71 208 7
71 208 7
70 209 7
70 210 6
70 210 6
69 211 6
69 212 6
68 212 6
68 213 6
67 214 6
67 214 6
67 215 6
66 216 6
66 216 5
65 217 5
65 217 5
64 218 5
64 219 5
63 219 5
63 220 5
63 221 5
62 221 5
62 222 5
61 223 4
61 223 4
60 224 4
60 224 4
59 225 4
59 226 4
59 226 4
58 227 4
58 228 4
57 228 4
57 229 3
56 230 3
56 230 3
56 231 3
55 231 3
55 232 3
54 233 3
54 233 3
53 234 3
53 235 3
52 235 2
52 236 2
52 237 2
51 237 2
51 238 2
50 239 2
50 239 2
49 240 2
49 240 2
48 241 2
48 242 1
48 242 1
47 243 1
47 244 1
46 244 1
46 245 1
45 246 1
45 246 1
45 247 1
44 247 1
44 248 0
43 249 0
43 249 0
42 250 0
42 251 0
41 251 0
41 252 0
41 253 0
40 253 0
40 254 0
39 255 0
216 0 38
216 0 38
215 1 38
215 1 38
214 2 38
214 3 37
213 3 37
213 4 37
212 5 37
212 5 37
212 6 37
211 7 37
211 7 37
210 8 37
210 8 37
209 9 36
209 10 36
208 10 36
208 11 36
208 12 36
207 12 36
207 13 36
206 14 36
206 14 36
205 15 36
205 15 36
204 16 35
204 17 35
204 17 35
203 18 35
203 19 35
202 19 35
202 20 35
201 21 35
201 21 35
200 22 35
200 23 34
200 23 34
199 24 34
199 24 34
198 25 34
198 26 34
197 26 34
197 27 34
196 28 34
196 28 34
196 29 34
195 30 33
195 30 33
194 31 33
194 31 33
193 32 33
193 33 33
192 33 33
192 34 33
192 35 33
191 35 33
191 36 32
190 37 32
190 37 32
189 38 32
189 38 32
188 39 32
188 40 32
187 40 32
187 41 32
187 42 32
186 42 31
186 43 31
185 44 31
185 44 31
184 45 31
184 46 31
183 46 31
183 47 31
183 47 31
182 48 31
182 49 31
181 49 30
181 50 30
180 51 30
180 51 30
179 52 30
179 53 30
179 53 30
178 54 30
178 54 30
177 55 30
177 56 29
176 56 29
176 57 29
175 58 29
175 58 29
175 59 29
174 60 29
174 60 29
173 61 29
173 61 29
172 62 29
172 63 28
171 63 28
171 64 28
171 65 28
170 65 28
170 66 28
169 67 28
169 67 28
168 68 28
168 69 28
167 69 27
167 70 27
167 70 27
166 71 27
166 72 27
165 72 27
165 73 27
164 74 27
164 74 27
163 75 27
163 76 26
162 76 26
162 77 26
162 77 26
161 78 26
161 79 26
160 79 26
160 80 26
159 81 26
159 81 26
158 82 26
158 83 25
158 83 25
157 84 25
157 85 25
156 85 25
156 86 25
155 86 25
155 87 25
154 88 25
154 88 25
154 89 24
153 90 24
153 90 24
152 91 24
152 92 24
151 92 24
151 93 24
150 93 24
150 94 24
150 95 24
149 95 23
149 96 23
148 97 23
148 97 23
147 98 23
147 99 23
146 99 23
146 100 23
146 100 23
145 101 23
145 102 23
144 102 22
144 103 22
143 104 22
143 104 22
142 105 22
142 106 22
142 106 22
141 107 22
141 108 22
140 108 22
140 109 21
139 109 21
139 110 21
138 111 21
138 111 21
137 112 21
137 113 21
137 113 21
136 114 21
136 115 21
135 115 21
135 116 20
134 116 20
134 117 20
133 118 20
133 118 20
133 119 20
132 120 20
132 120 20
131 121 20
131 122 20
130 122 19
130 123 19
129 123 19
129 124 19
129 125 19
128 125 19
128 126 19
127 127 19
127 127 19
126 128 19
126 129 18
125 129 18
125 130 18
125 131 18
124 131 18
124 132 18
123 132 18
123 133 18
122 134 18
122 134 18
121 135 18
121 136 17
121 136 17
120 137 17
120 138 17
119 138 17
119 139 17
118 139 17
118 140 17
117 141 17
117 141 17
117 142 16
116 143 16
116 143 16
115 144 16
115 145 16
114 145 16
114 146 16
113 146 16
113 147 16
112 148 16
112 148 15
112 149 15
111 150 15
111 150 15
110 151 15
110 152 15
109 152 15
109 153 15
108 154 15
108 154 15
108 155 15
107 155 14
107 156 14
106 157 14
106 157 14
105 158 14
105 159 14
104 159 14
104 160 14
104 161 14
103 161 14
103 162 13
102 162 13
102 163 13
101 164 13
101 164 13
100 165 13
100 166 13
100 166 13
99 167 13
99 168 13
98 168 13
98 169 12
97 170 12
97 170 12
96 171 12
96 171 12
96 172 12
95 173 12
95 173 12
94 174 12
94 175 12
93 175 11
93 176 11
92 177 11
92 177 11
92 178 11
91 178 11
91 179 11
90 180 11
90 180 11
89 181 11
89 182 10
88 182 10
88 183 10
87 184 10
87 184 10
87 185 10
86 185 10
86 186 10
85 187 10
85 187 10
84 188 10
84 189 9
83 189 9
83 190 9
83 191 9
82 191 9
82 192 9
81 193 9
81 193 9
80 194 9
80 194 9
79 195 8
79 196 8
79 196 8
78 197 8
78 198 8
77 198 8
77 199 8
76 200 8
76 200 8
75 201 8
75 201 7
75 202 7
74 203 7
74 203 7
73 204 7
73 205 7
72 205 7
72 206 7
71 207 7
71 207 7
71 208 7
70 208 6
70 209 6
69 210 6
69 210 6
68 211 6
68 212 6
67 212 6
67 213 6
67 214 6
66 214 6
66 215 5
65 216 5
65 216 5
64 217 5
64 217 5
63 218 5
63 219 5
62 219 5
62 220 5
62 221 5
61 221 5
61 222 4
60 223 4
60 223 4
59 224 4
59 224 4
58 225 4
58 226 4
58 226 4
57 227 4
57 228 4
56 228 3
56 229 3
55 230 3
55 230 3
54 231 3
54 231 3
54 232 3
53 233 3
53 233 3
52 234 3
52 235 2
51 235 2
51 236 2
50 237 2
50 237 2
50 238 2
49 239 2
49 239 2
48 240 2
48 240 2
47 241 2
47 242 1
46 242 1
46 243 1
46 244 1
45 244 1
45 245 1
44 246 1
44 246 1
43 247 1
43 247 1
42 248 0
42 249 0
42 249 0
41 250 0
41 251 0
40 251 0
40 252 0
39 253 0
39 253 0
38 254 0
38 255 0
217 0 37
217 0 37
216 1 36
216 1 36
216 2 36
215 3 36
215 3 36
214 4 36
214 5 36
213 5 36
213 6 36
212 7 36
212 7 36
211 8 35
211 8 35
211 9 35
210 10 35
210 10 35
209 11 35
209 12 35
208 12 35
208 13 35
207 14 35
207 14 35
206 15 34
206 15 34
206 16 34
205 17 34
205 17 34
204 18 34
204 19 34
203 19 34
203 20 34
202 21 34
202 21 33
201 22 33
201 23 33
201 23 33
200 24 33
200 24 33
199 25 33
199 26 33
198 26 33
198 27 33
197 28 33
197 28 32
197 29 32
196 30 32
196 30 32
195 31 32
195 31 32
194 32 32
194 33 32
193 33 32
193 34 32
192 35 32
192 35 31
192 36 31
191 37 31
191 37 31
190 38 31
190 38 31
189 39 31
189 40 31
188 40 31
188 41 31
187 42 31
187 42 30
187 43 30
186 44 30
186 44 30
185 45 30
185 46 30
184 46 30
184 47 30
183 47 30
183 48 30
182 49 29
182 49 29
182 50 29
181 51 29
181 51 29
180 52 29
180 53 29
179 53 29
179 54 29
178 54 29
178 55 29
177 56 28
177 56 28
177 57 28
176 58 28
176 58 28
175 59 28
175 60 28
174 60 28
174 61 28
173 61 28
173 62 28
173 63 27
172 63 27
172 64 27
171 65 27
171 65 27
170 66 27
170 67 27
169 67 27
169 68 27
168 69 27
168 69 27
168 70 26
167 70 26
167 71 26
166 72 26
166 72 26
165 73 26
165 74 26
164 74 26
164 75 26
163 76 26
163 76 25
163 77 25
162 77 25
162 78 25
161 79 25
161 79 25
160 80 25
160 81 25
159 81 25
159 82 25
158 83 25
158 83 24
158 84 24
157 85 24
157 85 24
156 86 24
156 86 24
155 87 24
155 88 24
154 88 24
154 89 24
153 90 24
153 90 23
153 91 23
152 92 23
152 92 23
151 93 23
151 93 23
150 94 23
150 95 23
149 95 23
149 96 23
149 97 23
148 97 22
148 98 22
147 99 22
147 99 22
146 100 22
146 100 22
145 101 22
145 102 22
144 102 22
144 103 22
144 104 21
143 104 21
143 105 21
142 106 21
142 106 21
141 107 21
141 108 21
140 108 21
140 109 21
139 109 21
139 110 21
139 111 20
138 111 20
138 112 20
137 113 20
137 113 20
136 114 20
136 115 20
135 115 20
135 116 20
134 116 20
134 117 20
134 118 19
133 118 19
133 119 19
132 120 19
132 120 19
131 121 19
131 122 19
130 122 19
130 123 19
129 123 19
129 124 18
129 125 18
128 125 18
128 126 18
127 127 18
127 127 18
126 128 18
126 129 18
125 129 18
125 130 18
125 131 18
124 131 17
124 132 17
123 132 17
123 133 17
122 134 17
122 134 17
121 135 17
121 136 17
120 136 17
120 137 17
120 138 17
119 138 16
119 139 16
118 139 16
118 140 16
117 141 16
117 141 16
116 142 16
116 143 16
115 143 16
115 144 16
115 145 16
114 145 15
114 146 15
113 146 15
113 147 15
112 148 15
112 148 15
111 149 15
111 150 15
110 150 15
110 151 15
110 152 14
109 152 14
109 153 14
108 154 14
108 154 14
107 155 14
107 155 14
106 156 14
106 157 14
105 157 14
105 158 14
105 159 13
104 159 13
104 160 13
103 161 13
103 161 13
102 162 13
102 162 13
101 163 13
101 164 13
101 164 13
100 165 13
100 166 12
99 166 12
99 167 12
98 168 12
98 168 12
97 169 12
97 170 12
96 170 12
96 171 12
96 171 12
95 172 12
95 173 11
94 173 11
94 174 11
93 175 11
93 175 11
92 176 11
92 177 11
91 177 11
91 178 11
91 178 11
90 179 10
90 180 10
89 180 10
89 181 10
88 182 10
88 182 10
87 183 10
87 184 10
86 184 10
86 185 10
86 185 10
85 186 9
85 187 9
84 187 9
84 188 9
83 189 9
83 189 9
82 190 9
82 191 9
81 191 9
81 192 9
81 193 9
80 193 8
80 194 8
79 194 8
79 195 8
78 196 8
78 196 8
77 197 8
77 198 8
77 198 8
76 199 8
76 200 8
75 200 7
75 201 7
74 201 7
74 202 7
73 203 7
73 203 7
72 204 7
72 205 7
72 205 7
71 206 7
71 207 6
70 207 6
70 208 6
69 208 6
69 209 6
68 210 6
68 210 6
67 211 6
67 212 6
67 212 6
66 213 6
66 214 5
65 214 5
65 215 5
64 216 5
64 216 5
63 217 5
63 217 5
62 218 5
62 219 5
62 219 5
61 220 5
61 221 4
60 221 4
60 222 4
59 223 4
59 223 4
58 224 4
58 224 4
57 225 4
57 226 4
57 226 4
56 227 4
56 228 3
55 228 3
55 229 3
54 230 3
54 230 3
53 231 3
53 231 3
53 232 3
52 233 3
52 233 3
51 234 2
51 235 2
50 235 2
50 236 2
49 237 2
49 237 2
48 238 2
48 239 2
48 239 2
47 240 2
47 240 2
46 241 1
46 242 1
45 242 1
45 243 1
44 244 1
44 244 1
43 245 1
43 246 1
43 246 1
42 247 1
42 247 1
41 248 0
41 249 0
40 249 0
40 250 0
39 251 0
39 251 0
38 252 0
38 253 0
38 253 0
37 254 0
37 255 0
219 0 35
218 0 35
218 1 35
217 1 35
217 2 35
216 3 35
216 3 35
215 4 35
215 5 35
214 5 35
214 6 34
214 7 34
213 7 34
213 8 34
212 8 34
212 9 34
211 10 34
211 10 34
210 11 34
210 12 34
209 12 34
209 13 33
209 14 33
208 14 33
208 15 33
207 15 33
207 16 33
206 17 33
206 17 33
205 18 33
205 19 33
204 19 33
204 20 33
203 21 32
203 21 32
203 22 32
202 23 32
202 23 32
201 24 32
201 24 32
200 25 32
200 26 32
199 26 32
199 27 32
198 28 31
198 28 31
197 29 31
197 30 31
197 30 31
196 31 31
196 31 31
195 32 31
195 33 31
194 33 31
194 34 31
193 35 30
193 35 30
192 36 30
192 37 30
192 37 30
191 38 30
191 38 30
190 39 30
190 40 30
189 40 30
189 41 30
188 42 29
188 42 29
187 43 29
187 44 29
186 44 29
186 45 29
186 46 29
185 46 29
185 47 29
184 47 29
184 48 29
183 49 28
183 49 28
182 50 28
182 51 28
181 51 28
181 52 28
181 53 28
180 53 28
180 54 28
179 54 28
179 55 28
178 56 27
178 56 27
177 57 27
177 58 27
176 58 27
176 59 27
175 60 27
175 60 27
175 61 27
174 61 27
174 62 27
173 63 26
173 63 26
172 64 26
172 65 26
171 65 26
171 66 26
170 67 26
170 67 26
169 68 26
169 69 26
169 69 26
168 70 25
168 70 25
167 71 25
167 72 25
166 72 25
166 73 25
165 74 25
165 74 25
164 75 25
164 76 25
164 76 25
163 77 24
163 77 24
162 78 24
162 79 24
161 79 24
161 80 24
160 81 24
160 81 24
159 82 24
159 83 24
158 83 24
158 84 24
158 85 23
157 85 23
157 86 23
156 86 23
156 87 23
155 88 23
155 88 23
154 89 23
154 90 23
153 90 23
153 91 23
152 92 22
152 92 22
152 93 22
151 93 22
151 94 22
150 95 22
150 95 22
149 96 22
149 97 22
148 97 22
148 98 22
147 99 21
147 99 21
147 100 21
146 100 21
146 101 21
145 102 21
145 102 21
144 103 21
144 104 21
143 104 21
143 105 21
142 106 20
142 106 20
141 107 20
141 108 20
141 108 20
140 109 20
140 109 20
139 110 20
139 111 20
138 111 20
138 112 20
137 113 19
137 113 19
136 114 19
136 115 19
135 115 19
135 116 19
135 116 19
134 117 19
134 118 19
133 118 19
133 119 19
132 120 18
132 120 18
131 121 18
131 122 18
130 122 18
130 123 18
130 123 18
129 124 18
129 125 18
128 125 18
128 126 18
127 127 17
127 127 17
126 128 17
126 129 17
125 129 17
125 130 17
124 131 17
124 131 17
124 132 17
123 132 17
123 133 17
122 134 16
122 134 16
121 135 16
121 136 16
120 136 16
120 137 16
119 138 16
119 138 16
119 139 16
118 139 16
118 140 16
117 141 16
117 141 15
116 142 15
116 143 15
115 143 15
115 144 15
114 145 15
114 145 15
113 146 15
113 146 15
113 147 15
112 148 15
112 148 14
111 149 14
111 150 14
110 150 14
110 151 14
109 152 14
109 152 14
108 153 14
108 154 14
107 154 14
107 155 14
107 155 13
106 156 13
106 157 13
105 157 13
105 158 13
104 159 13
104 159 13
103 160 13
103 161 13
102 161 13
102 162 13
102 162 12
101 163 12
101 164 12
100 164 12
100 165 12
99 166 12
99 166 12
98 167 12
98 168 12
97 168 12
97 169 12
96 170 11
96 170 11
96 171 11
95 171 11
95 172 11
94 173 11
94 173 11
93 174 11
93 175 11
92 175 11
92 176 11
91 177 10
91 177 10
90 178 10
90 178 10
90 179 10
89 180 10
89 180 10
88 181 10
88 182 10
87 182 10
87 183 10
86 184 9
86 184 9
85 185 9
85 185 9
85 186 9
84 187 9
84 187 9
83 188 9
83 189 9
82 189 9
82 190 9
81 191 8
81 191 8
80 192 8
80 193 8
79 193 8
79 194 8
79 194 8
78 195 8
78 196 8
77 196 8
77 197 8
76 198 8
76 198 7
75 199 7
75 200 7
74 200 7
74 201 7
73 201 7
73 202 7
73 203 7
72 203 7
72 204 7
71 205 7
71 205 6
70 206 6
70 207 6
69 207 6
69 208 6
68 208 6
68 209 6
68 210 6
67 210 6
67 211 6
66 212 6
66 212 5
65 213 5
65 214 5
64 214 5
64 215 5
63 216 5
63 216 5
62 217 5
62 217 5
62 218 5
61 219 5
61 219 4
60 220 4
60 221 4
59 221 4
59 222 4
58 223 4
58 223 4
57 224 4
57 224 4
57 225 4
56 226 4
56 226 3
55 227 3
55 228 3
54 228 3
54 229 3
53 230 3
53 230 3
52 231 3
52 231 3
51 232 3
51 233 3
51 233 2
50 234 2
50 235 2
49 235 2
49 236 2
48 237 2
48 237 2
47 238 2
47 239 2
46 239 2
46 240 2
45 240 1
45 241 1
45 242 1
44 242 1
44 243 1
43 244 1
43 244 1
42 245 1
42 246 1
41 246 1
41 247 1
40 247 0
40 248 0
40 249 0
39 249 0
39 250 0
38 251 0
38 251 0
37 252 0
37 253 0
36 253 0
36 254 0
35 255 0
220 0 34
219 0 34
219 1 34
219 1 34
218 2 34
218 3 34
217 3 34
217 4 33
216 5 33
216 5 33
215 6 33
215 7 33
214 7 33
214 8 33
213 8 33
213 9 33
212 10 33
212 10 33
212 11 33
211 12 32
211 12 32
210 13 32
210 14 32
209 14 32
209 15 32
208 15 32
208 16 32
207 17 32
207 17 32
206 18 32
206 19 31
205 19 31
205 20 31
205 21 31
204 21 31
204 22 31
203 23 31
203 23 31
202 24 31
202 24 31
201 25 31
201 26 31
200 26 30
200 27 30
199 28 30
199 28 30
198 29 30
198 30 30
198 30 30
197 31 30
197 31 30
196 32 30
196 33 30
195 33 30
195 34 29
194 35 29
194 35 29
193 36 29
193 37 29
192 37 29
192 38 29
191 38 29
191 39 29
191 40 29
190 40 29
190 41 28
189 42 28
189 42 28
188 43 28
188 44 28
187 44 28
187 45 28
186 46 28
186 46 28
185 47 28
185 47 28
185 48 28
184 49 27
184 49 27
183 50 27
183 51 27
182 51 27
182 52 27
181 53 27
181 53 27
180 54 27
180 54 27
179 55 27
179 56 26
178 56 26
178 57 26
178 58 26
177 58 26
177 59 26
176 60 26
176 60 26
175 61 26
175 61 26
174 62 26
174 63 26
173 63 25
173 64 25
172 65 25
172 65 25
171 66 25
171 67 25
171 67 25
170 68 25
170 69 25
169 69 25
169 70 25
168 70 24
168 71 24
167 72 24
167 72 24
166 73 24
166 74 24
165 74 24
165 75 24
164 76 24
164 76 24
164 77 24
163 77 24
163 78 23
162 79 23
162 79 23
161 80 23
161 81 23
160 81 23
160 82 23
159 83 23
159 83 23
158 84 23
158 85 23
158 85 22
157 86 22
157 86 22
156 87 22
156 88 22
155 88 22
155 89 22
154 90 22
154 90 22
153 91 22
153 92 22
152 92 22
152 93 21
151 93 21
151 94 21
151 95 21
150 95 21
150 96 21
149 97 21
149 97 21
148 98 21
148 99 21
147 99 21
147 100 20
146 100 20
146 101 20
145 102 20
145 102 20
144 103 20
144 104 20
144 104 20
143 105 20
143 106 20
142 106 20
142 107 20
141 108 19
141 108 19
140 109 19
140 109 19
139 110 19
139 111 19
138 111 19
138 112 19
137 113 19
137 113 19
137 114 19
136 115 18
136 115 18
135 116 18
135 116 18
134 117 18
134 118 18
133 118 18
133 119 18
132 120 18
132 120 18
131 121 18
131 122 18
130 122 17
130 123 17
130 123 17
129 124 17
129 125 17
128 125 17
128 126 17
127 127 17
127 127 17
126 128 17
126 129 17
125 129 16
125 130 16
124 131 16
124 131 16
124 132 16
123 132 16
123 133 16
122 134 16
122 134 16
121 135 16
121 136 16
120 136 16
120 137 15
119 138 15
119 138 15
118 139 15
118 139 15
117 140 15
117 141 15
117 141 15
116 142 15
116 143 15
115 143 15
115 144 15
114 145 14
114 145 14
113 146 14
113 146 14
112 147 14
112 148 14
111 148 14
111 149 14
110 150 14
110 150 14
110 151 14
109 152 13
109 152 13
108 153 13
108 154 13
107 154 13
107 155 13
106 155 13
106 156 13
105 157 13
105 157 13
104 158 13
104 159 13
103 159 12
103 160 12
103 161 12
102 161 12
102 162 12
101 162 12
101 163 12
100 164 12
100 164 12
99 165 12
99 166 12
98 166 11
98 167 11
97 168 11
97 168 11
96 169 11
96 170 11
96 170 11
95 171 11
95 171 11
94 172 11
94 173 11
93 173 11
93 174 10
92 175 10
92 175 10
91 176 10
91 177 10
90 177 10
90 178 10
90 178 10
89 179 10
89 180 10
88 180 10
88 181 9
87 182 9
87 182 9
86 183 9
86 184 9
85 184 9
85 185 9
84 185 9
84 186 9
83 187 9
83 187 9
83 188 9
82 189 8
82 189 8
81 190 8
81 191 8
80 191 8
80 192 8
79 193 8
79 193 8
78 194 8
78 194 8
77 195 8
77 196 7
76 196 7
76 197 7
76 198 7
75 198 7
75 199 7
74 200 7
74 200 7
73 201 7
73 201 7
72 202 7
72 203 7
71 203 6
71 204 6
70 205 6
70 205 6
69 206 6
69 207 6
69 207 6
68 208 6
68 208 6
67 209 6
67 210 6
66 210 5
66 211 5
65 212 5
65 212 5
64 213 5
64 214 5
63 214 5
63 215 5
63 216 5
62 216 5
62 217 5
61 217 5
61 218 4
60 219 4
60 219 4
59 220 4
59 221 4
58 221 4
58 222 4
57 223 4
57 223 4
56 224 4
56 224 4
56 225 3
55 226 3
55 226 3
54 227 3
54 228 3
53 228 3
53 229 3
52 230 3
52 230 3
51 231 3
51 231 3
50 232 3
50 233 2
49 233 2
49 234 2
49 235 2
48 235 2
48 236 2
47 237 2
47 237 2
46 238 2
46 239 2
45 239 2
45 240 1
44 240 1
44 241 1
43 242 1
43 242 1
42 243 1
42 244 1
42 244 1
41 245 1
41 246 1
40 246 1
40 247 1
39 247 0
39 248 0
38 249 0
38 249 0
37 250 0
37 251 0
36 251 0
36 252 0
35 253 0
35 253 0
35 254 0
34 255 0
221 0 33
221 0 33
220 1 33
220 1 33
219 2 32
219 3 32
218 3 32
218 4 32
217 5 32
217 5 32
216 6 32
216 7 32
216 7 32
215 8 32
215 8 32
214 9 32
214 10 31
213 10 31
213 11 31
212 12 31
212 12 31
211 13 31
211 14 31
210 14 31
210 15 31
209 15 31
209 16 31
208 17 31
208 17 30
207 18 30
207 19 30
207 19 30
206 20 30
206 21 30
205 21 30
205 22 30
204 23 30
204 23 30
203 24 30
203 24 30
202 25 29
202 26 29
201 26 29
201 27 29
200 28 29
200 28 29
199 29 29
199 30 29
199 30 29
198 31 29
198 31 29
197 32 29
197 33 28
196 33 28
196 34 28
195 35 28
195 35 28
194 36 28
194 37 28
193 37 28
193 38 28
192 38 28
192 39 28
191 40 28
191 40 27
190 41 27
190 42 27
190 42 27
189 43 27
189 44 27
188 44 27
188 45 27
187 46 27
187 46 27
186 47 27
186 47 27
185 48 26
185 49 26
184 49 26
184 50 26
183 51 26
183 51 26
182 52 26
182 53 26
182 53 26
181 54 26
181 54 26
180 55 26
180 56 25
179 56 25
179 57 25
178 58 25
178 58 25
177 59 25
177 60 25
176 60 25
176 61 25
175 61 25
175 62 25
174 63 25
174 63 24
174 64 24
173 65 24
173 65 24
172 66 24
172 67 24
171 67 24
171 68 24
170 69 24
170 69 24
169 70 24
169 70 24
168 71 23
168 72 23
167 72 23
167 73 23
166 74 23
166 74 23
165 75 23
165 76 23
165 76 23
164 77 23
164 77 23
163 78 23
163 79 22
162 79 22
162 80 22
161 81 22
161 81 22
160 82 22
160 83 22
159 83 22
159 84 22
158 85 22
158 85 22
157 86 22
157 86 21
157 87 21
156 88 21
156 88 21
155 89 21
155 90 21
154 90 21
154 91 21
153 92 21
153 92 21
152 93 21
152 93 21
151 94 20
151 95 20
150 95 20
150 96 20
149 97 20
149 97 20
148 98 20
148 99 20
148 99 20
147 100 20
147 100 20
146 101 20
146 102 19
145 102 19
145 103 19
144 104 19
144 104 19
143 105 19
143 106 19
142 106 19
142 107 19
141 108 19
141 108 19
140 109 19
140 109 18
140 110 18
139 111 18
139 111 18
138 112 18
138 113 18
137 113 18
137 114 18
136 115 18
136 115 18
135 116 18
135 116 18
134 117 17
134 118 17
133 118 17
133 119 17
132 120 17
132 120 17
131 121 17
131 122 17
131 122 17
130 123 17
130 123 17
129 124 17
129 125 16
128 125 16
128 126 16
127 127 16
127 127 16
126 128 16
126 129 16
125 129 16
125 130 16
124 131 16
124 131 16
123 132 16
123 132 15
123 133 15
122 134 15
122 134 15
121 135 15
121 136 15
120 136 15
120 137 15
119 138 15
119 138 15
118 139 15
118 139 15
117 140 14
117 141 14
116 141 14
116 142 14
115 143 14
115 143 14
114 144 14
114 145 14
114 145 14
113 146 14
113 146 14
112 147 14
112 148 13
111 148 13
111 149 13
110 150 13
110 150 13
109 151 13
109 152 13
108 152 13
108 153 13
107 154 13
107 154 13
106 155 13
106 155 12
106 156 12
105 157 12
105 157 12
104 158 12
104 159 12
103 159 12
103 160 12
102 161 12
102 161 12
101 162 12
101 162 12
100 163 11
100 164 11
99 164 11
99 165 11
98 166 11
98 166 11
97 167 11
97 168 11
97 168 11
96 169 11
96 170 11
95 170 11
95 171 10
94 171 10
94 172 10
93 173 10
93 173 10
92 174 10
92 175 10
91 175 10
91 176 10
90 177 10
90 177 10
89 178 10
89 178 9
89 179 9
88 180 9
88 180 9
87 181 9
87 182 9
86 182 9
86 183 9
85 184 9
85 184 9
84 185 9
84 185 9
83 186 8
83 187 8
82 187 8
82 188 8
81 189 8
81 189 8
80 190 8
80 191 8
80 191 8
79 192 8
79 193 8
78 193 8
78 194 7
77 194 7
77 195 7
76 196 7
76 196 7
75 197 7
75 198 7
74 198 7
74 199 7
73 200 7
73 200 7
72 201 7
72 201 6
72 202 6
71 203 6
71 203 6
70 204 6
70 205 6
69 205 6
69 206 6
68 207 6
68 207 6
67 208 6
67 208 6
66 209 5
66 210 5
65 210 5
65 211 5
64 212 5
64 212 5
64 213 5
63 214 5
63 214 5
62 215 5
62 216 5
61 216 5
61 217 4
60 217 4
60 218 4
59 219 4
59 219 4
58 220 4
58 221 4
57 221 4
57 222 4
56 223 4
56 223 4
55 224 4
55 224 3
55 225 3
54 226 3
54 226 3
53 227 3
53 228 3
52 228 3
52 229 3
51 230 3
51 230 3
50 231 3
50 231 3
49 232 2
49 233 2
48 233 2
48 234 2
47 235 2
47 235 2
47 236 2
46 237 2
46 237 2
45 238 2
45 239 2
44 239 2
44 240 1
43 240 1
43 241 1
42 242 1
42 242 1
41 243 1
41 244 1
40 244 1
40 245 1
39 246 1
39 246 1
38 247 1
38 247 0
38 248 0
37 249 0
37 249 0
36 250 0
36 251 0
35 251 0
35 252 0
34 253 0
34 253 0
33 254 0
33 255 0
222 0 32
222 0 31
222 1 31
221 1 31
221 2 31
220 3 31
220 3 31
219 4 31
219 5 31
218 5 31
218 6 31
217 7 31
217 7 31
216 8 30
216 8 30
215 9 30
215 10 30
214 10 30
214 11 30
213 12 30
213 12 30
212 13 30
212 14 30
211 14 30
211 15 30
211 15 30
210 16 29
210 17 29
209 17 29
209 18 29
208 19 29
208 19 29
207 20 29
207 21 29
206 21 29
206 22 29
205 23 29
205 23 29
204 24 28
204 24 28
203 25 28
203 26 28
202 26 28
202 27 28
201 28 28
201 28 28
200 29 28
200 30 28
199 30 28
199 31 28
199 31 28
198 32 27
198 33 27
197 33 27
197 34 27
196 35 27
196 35 27
195 36 27
195 37 27
194 37 27
194 38 27
193 38 27
193 39 27
192 40 26
192 40 26
191 41 26
191 42 26
190 42 26
190 43 26
189 44 26
189 44 26
188 45 26
188 46 26
188 46 26
187 47 26
187 47 26
186 48 25
186 49 25
185 49 25
185 50 25
184 51 25
184 51 25
183 52 25
183 53 25
182 53 25
182 54 25
181 54 25
181 55 25
180 56 24
180 56 24
179 57 24
179 58 24
178 58 24
178 59 24
177 60 24
177 60 24
177 61 24
176 61 24
176 62 24
175 63 24
175 63 24
174 64 23
174 65 23
173 65 23
173 66 23
172 67 23
172 67 23
171 68 23
171 69 23
170 69 23
170 70 23
169 70 23
169 71 23
168 72 22
168 72 22
167 73 22
167 74 22
166 74 22
166 75 22
166 76 22
165 76 22
165 77 22
164 77 22
164 78 22
163 79 22
163 79 21
162 80 21
162 81 21
161 81 21
161 82 21
160 83 21
160 83 21
159 84 21
159 85 21
158 85 21
158 86 21
157 86 21
157 87 21
156 88 20
156 88 20
155 89 20
155 90 20
155 90 20
154 91 20
154 92 20
153 92 20
153 93 20
152 93 20
152 94 20
151 95 20
151 95 19
150 96 19
150 97 19
149 97 19
149 98 19
148 99 19
148 99 19
147 100 19
147 100 19
146 101 19
146 102 19
145 102 19
145 103 19
144 104 18
144 104 18
144 105 18
143 106 18
143 106 18
142 107 18
142 108 18
141 108 18
141 109 18
140 109 18
140 110 18
139 111 18
139 111 17
138 112 17
138 113 17
137 113 17
137 114 17
136 115 17
136 115 17
135 116 17
135 116 17
134 117 17
134 118 17
133 118 17
133 119 17
133 120 16
132 120 16
132 121 16
131 122 16
131 122 16
130 123 16
130 123 16
129 124 16
129 125 16
128 125 16
128 126 16
127 127 16
127 127 15
126 128 15
126 129 15
125 129 15
125 130 15
124 131 15
124 131 15
123 132 15
123 132 15
122 133 15
122 134 15
121 134 15
121 135 15
121 136 14
120 136 14
120 137 14
119 138 14
119 138 14
118 139 14
118 139 14
117 140 14
117 141 14
116 141 14
116 142 14
115 143 14
115 143 13
114 144 13
114 145 13
113 145 13
113 146 13
112 146 13
112 147 13
111 148 13
111 148 13
110 149 13
110 150 13
110 150 13
109 151 13
109 152 12
108 152 12
108 153 12
107 154 12
107 154 12
106 155 12
106 155 12
105 156 12
105 157 12
104 157 12
104 158 12
103 159 12
103 159 11
102 160 11
102 161 11
101 161 11
101 162 11
100 162 11
100 163 11
99 164 11
99 164 11
99 165 11
98 166 11
98 166 11
97 167 10
97 168 10
96 168 10
96 169 10
95 170 10
95 170 10
94 171 10
94 171 10
93 172 10
93 173 10
92 173 10
92 174 10
91 175 10
91 175 9
90 176 9
90 177 9
89 177 9
89 178 9
88 178 9
88 179 9
88 180 9
87 180 9
87 181 9
86 182 9
86 182 9
85 183 8
85 184 8
84 184 8
84 185 8
83 185 8
83 186 8
82 187 8
82 187 8
81 188 8
81 189 8
80 189 8
80 190 8
79 191 8
79 191 7
78 192 7
78 193 7
77 193 7
77 194 7
77 194 7
76 195 7
76 196 7
75 196 7
75 197 7
74 198 7
74 198 7
73 199 6
73 200 6
72 200 6
72 201 6
71 201 6
71 202 6
70 203 6
70 203 6
69 204 6
69 205 6
68 205 6
68 206 6
67 207 6
67 207 5
66 208 5
66 208 5
66 209 5
65 210 5
65 210 5
64 211 5
64 212 5
63 212 5
63 213 5
62 214 5
62 214 5
61 215 4
61 216 4
60 216 4
60 217 4
59 217 4
59 218 4
58 219 4
58 219 4
57 220 4
57 221 4
56 221 4
56 222 4
55 223 4
55 223 3
55 224 3
54 224 3
54 225 3
53 226 3
53 226 3
52 227 3
52 228 3
51 228 3
51 229 3
50 230 3
50 230 3
49 231 2
49 231 2
48 232 2
48 233 2
47 233 2
47 234 2
46 235 2
46 235 2
45 236 2
45 237 2
44 237 2
44 238 2
43 239 2
43 239 1
43 240 1
42 240 1
42 241 1
41 242 1
41 242 1
40 243 1
40 244 1
39 244 1
39 245 1
38 246 1
38 246 1
37 247 0
37 247 0
36 248 0
36 249 0
35 249 0
35 250 0
34 251 0
34 251 0
33 252 0
33 253 0
32 253 0
32 254 0
32 255 0
224 0 30
223 0 30
223 1 30
222 1 30
222 2 30
221 3 30
221 3 30
220 4 30
220 5 30
219 5 30
219 6 29
218 7 29
218 7 29
217 8 29
217 8 29
216 9 29
216 10 29
216 10 29
215 11 29
215 12 29
214 12 29
214 13 29
213 14 29
213 14 28
212 15 28
212 15 28
211 16 28
211 17 28
210 17 28
210 18 28
209 19 28
209 19 28
208 20 28
208 21 28
207 21 28
207 22 28
206 23 27
206 23 27
205 24 27
205 24 27
204 25 27
204 26 27
203 26 27
203 27 27
202 28 27
202 28 27
201 29 27
201 30 27
200 30 27
200 31 26
199 31 26
199 32 26
199 33 26
198 33 26
198 34 26
197 35 26
197 35 26
196 36 26
196 37 26
195 37 26
195 38 26
194 38 26
194 39 25
193 40 25
193 40 25
192 41 25
192 42 25
191 42 25
191 43 25
190 44 25
190 44 25
189 45 25
189 46 25
188 46 25
188 47 25
187 47 24
187 48 24
186 49 24
186 49 24
185 50 24
185 51 24
184 51 24
184 52 24
183 53 24
183 53 24
183 54 24
182 54 24
182 55 24
181 56 23
181 56 23
180 57 23
180 58 23
179 58 23
179 59 23
178 60 23
178 60 23
177 61 23
177 61 23
176 62 23
176 63 23
175 63 23
175 64 22
174 65 22
174 65 22
173 66 22
173 67 22
172 67 22
172 68 22
171 69 22
171 69 22
170 70 22
170 70 22
169 71 22
169 72 22
168 72 21
168 73 21
167 74 21
167 74 21
167 75 21
166 76 21
166 76 21
165 77 21
165 77 21
164 78 21
164 79 21
163 79 21
163 80 21
162 81 20
162 81 20
161 82 20
161 83 20
160 83 20
160 84 20
159 85 20
159 85 20
158 86 20
158 86 20
157 87 20
157 88 20
156 88 20
156 89 19
155 90 19
155 90 19
154 91 19
154 92 19
153 92 19
153 93 19
152 93 19
152 94 19
151 95 19
151 95 19
151 96 19
150 97 19
150 97 18
149 98 18
149 99 18
148 99 18
148 100 18
147 100 18
147 101 18
146 102 18
146 102 18
145 103 18
145 104 18
144 104 18
144 105 18
143 106 17
143 106 17
142 107 17
142 108 17
141 108 17
141 109 17
140 109 17
140 110 17
139 111 17
139 111 17
138 112 17
138 113 17
137 113 17
137 114 16
136 115 16
136 115 16
135 116 16
135 116 16
135 117 16
134 118 16
134 118 16
133 119 16
133 120 16
132 120 16
132 121 16
131 122 16
131 122 15
130 123 15
130 123 15
129 124 15
129 125 15
128 125 15
128 126 15
127 127 15
127 127 15
126 128 15
126 129 15
125 129 15
125 130 15
124 131 14
124 131 14
123 132 14
123 132 14
122 133 14
122 134 14
121 134 14
121 135 14
120 136 14
120 136 14
119 137 14
119 138 14
119 138 14
118 139 13
118 139 13
117 140 13
117 141 13
116 141 13
116 142 13
115 143 13
115 143 13
114 144 13
114 145 13
113 145 13
113 146 13
112 146 13
112 147 12
111 148 12
111 148 12
110 149 12
110 150 12
109 150 12
109 151 12
108 152 12
108 152 12
107 153 12
107 154 12
106 154 12
106 155 12
105 155 11
105 156 11
104 157 11
104 157 11
103 158 11
103 159 11
103 159 11
102 160 11
102 161 11
101 161 11
101 162 11
100 162 11
100 163 11
99 164 10
99 164 10
98 165 10
98 166 10
97 166 10
97 167 10
96 168 10
96 168 10
95 169 10
95 170 10
94 170 10
94 171 10
93 171 10
93 172 9
92 173 9
92 173 9
91 174 9
91 175 9
90 175 9
90 176 9
89 177 9
89 177 9
88 178 9
88 178 9
87 179 9
87 180 9
87 180 8
86 181 8
86 182 8
85 182 8
85 183 8
84 184 8
84 184 8
83 185 8
83 185 8
82 186 8
82 187 8
81 187 8
81 188 8
80 189 7
80 189 7
79 190 7
79 191 7
78 191 7
78 192 7
77 193 7
77 193 7
76 194 7
76 194 7
75 195 7
75 196 7
74 196 7
74 197 6
73 198 6
73 198 6
72 199 6
72 200 6
71 200 6
71 201 6
71 201 6
70 202 6
70 203 6
69 203 6
69 204 6
68 205 6
68 205 5
67 206 5
67 207 5
66 207 5
66 208 5
65 208 5
65 209 5
64 210 5
64 210 5
63 211 5
63 212 5
62 212 5
62 213 5
61 214 4
61 214 4
60 215 4
60 216 4
59 216 4
59 217 4
58 217 4
58 218 4
57 219 4
57 219 4
56 220 4
56 221 4
55 221 4
55 222 3
55 223 3
54 223 3
54 224 3
53 224 3
53 225 3
52 226 3
52 226 3
51 227 3
51 228 3
50 228 3
50 229 3
49 230 3
49 230 2
48 231 2
48 231 2
47 232 2
47 233 2
46 233 2
46 234 2
45 235 2
45 235 2
44 236 2
44 237 2
43 237 2
43 238 2
42 239 1
42 239 1
41 240 1
41 240 1
40 241 1
40 242 1
39 242 1
39 243 1
38 244 1
38 244 1
38 245 1
37 246 1
37 246 1
36 247 0
36 247 0
35 248 0
35 249 0
34 249 0
34 250 0
33 251 0
33 251 0
32 252 0
32 253 0
31 253 0
31 254 0
30 255 0
225 0 29
225 0 29
224 1 29
224 1 29
223 2 29
223 3 29
222 3 29
222 4 28
221 5 28
221 5 28
220 6 28
220 7 28
219 7 28
219 8 28
218 8 28
218 9 28
217 10 28
217 10 28
216 11 28
216 12 28
215 12 27
215 13 27
214 14 27
214 14 27
213 15 27
213 15 27
212 16 27
212 17 27
211 17 27
211 18 27
210 19 27
210 19 27
209 20 27
209 21 27
208 21 26
208 22 26
207 23 26
207 23 26
206 24 26
206 24 26
205 25 26
205 26 26
204 26 26
204 27 26
203 28 26
203 28 26
202 29 26
202 30 26
201 30 25
201 31 25
200 31 25
200 32 25
199 33 25
199 33 25
198 34 25
198 35 25
198 35 25
197 36 25
197 37 25
196 37 25
196 38 25
195 38 24
195 39 24
194 40 24
194 40 24
193 41 24
193 42 24
192 42 24
192 43 24
191 44 24
191 44 24
190 45 24
190 46 24
189 46 24
189 47 24
188 47 23
188 48 23
187 49 23
187 49 23
186 50 23
186 51 23
185 51 23
185 52 23
184 53 23
184 53 23
183 54 23
183 54 23
182 55 23
182 56 22
181 56 22
181 57 22
180 58 22
180 58 22
179 59 22
179 60 22
178 60 22
178 61 22
177 61 22
177 62 22
176 63 22
176 63 22
175 64 22
175 65 21
174 65 21
174 66 21
173 67 21
173 67 21
172 68 21
172 69 21
171 69 21
171 70 21
170 70 21
170 71 21
170 72 21
169 72 21
169 73 20
168 74 20
168 74 20
167 75 20
167 76 20
166 76 20
166 77 20
165 77 20
165 78 20
164 79 20
164 79 20
163 80 20
163 81 20
162 81 20
162 82 19
161 83 19
161 83 19
160 84 19
160 85 19
159 85 19
159 86 19
158 86 19
158 87 19
157 88 19
157 88 19
156 89 19
156 90 19
155 90 18
155 91 18
154 92 18
154 92 18
153 93 18
153 93 18
152 94 18
152 95 18
151 95 18
151 96 18
150 97 18
150 97 18
149 98 18
149 99 18
148 99 17
148 100 17
147 100 17
147 101 17
146 102 17
146 102 17
145 103 17
145 104 17
144 104 17
144 105 17
143 106 17
143 106 17
142 107 17
142 108 16
141 108 16
141 109 16
141 109 16
140 110 16
140 111 16
139 111 16
139 112 16
138 113 16
138 113 16
137 114 16
137 115 16
136 115 16
136 116 16
135 116 15
135 117 15
134 118 15
134 118 15
133 119 15
133 120 15
132 120 15
132 121 15
131 122 15
131 122 15
130 123 15
130 123 15
129 124 15
129 125 14
128 125 14
128 126 14
127 127 14
127 127 14
126 128 14
126 129 14
125 129 14
125 130 14
124 131 14
124 131 14
123 132 14
123 132 14
122 133 14
122 134 13
121 134 13
121 135 13
120 136 13
120 136 13
119 137 13
119 138 13
118 138 13
118 139 13
117 139 13
117 140 13
116 141 13
116 141 13
115 142 13
115 143 12
114 143 12
114 144 12
113 145 12
113 145 12
113 146 12
112 146 12
112 147 12
111 148 12
111 148 12
110 149 12
110 150 12
109 150 12
109 151 11
108 152 11
108 152 11
107 153 11
107 154 11
106 154 11
106 155 11
105 155 11
105 156 11
104 157 11
104 157 11
103 158 11
103 159 11
102 159 11
102 160 10
101 161 10
101 161 10
100 162 10
100 162 10
99 163 10
99 164 10
98 164 10
98 165 10
97 166 10
97 166 10
96 167 10
96 168 10
95 168 9
95 169 9
94 170 9
94 170 9
93 171 9
93 171 9
92 172 9
92 173 9
91 173 9
91 174 9
90 175 9
90 175 9
89 176 9
89 177 9
88 177 8
88 178 8
87 178 8
87 179 8
86 180 8
86 180 8
85 181 8
85 182 8
84 182 8
84 183 8
84 184 8
83 184 8
83 185 8
82 185 7
82 186 7
81 187 7
81 187 7
80 188 7
80 189 7
79 189 7
79 190 7
78 191 7
78 191 7
77 192 7
77 193 7
76 193 7
76 194 7
75 194 6
75 195 6
74 196 6
74 196 6
73 197 6
73 198 6
72 198 6
72 199 6
71 200 6
71 200 6
70 201 6
70 201 6
69 202 6
69 203 5
68 203 5
68 204 5
67 205 5
67 205 5
66 206 5
66 207 5
65 207 5
65 208 5
64 208 5
64 209 5
63 210 5
63 210 5
62 211 5
62 212 4
61 212 4
61 213 4
60 214 4
60 214 4
59 215 4
59 216 4
58 216 4
58 217 4
57 217 4
57 218 4
56 219 4
56 219 4
56 220 3
55 221 3
55 221 3
54 222 3
54 223 3
53 223 3
53 224 3
52 224 3
52 225 3
51 226 3
51 226 3
50 227 3
50 228 3
49 228 3
49 229 2
48 230 2
48 230 2
47 231 2
47 231 2
46 232 2
46 233 2
45 233 2
45 234 2
44 235 2
44 235 2
43 236 2
43 237 2
42 237 1
42 238 1
41 239 1
41 239 1
40 240 1
40 240 1
39 241 1
39 242 1
38 242 1
38 243 1
37 244 1
37 244 1
36 245 1
36 246 1
35 246 0
35 247 0
34 247 0
34 248 0
33 249 0
33 249 0
32 250 0
32 251 0
31 251 0
31 252 0
30 253 0
30 253 0
29 254 0
29 255 0
226 0 28
226 0 28
225 1 28
225 1 27
224 2 27
224 3 27
223 3 27
223 4 27
222 5 27
222 5 27
221 6 27
221 7 27
220 7 27
220 8 27
219 8 27
219 9 27
218 10 27
218 10 26
217 11 26
217 12 26
216 12 26
216 13 26
215 14 26
215 14 26
214 15 26
214 15 26
213 16 26
213 17 26
212 17 26
212 18 26
211 19 26
211 19 26
210 20 25
210 21 25
209 21 25
209 22 25
208 23 25
208 23 25
207 24 25
207 24 25
206 25 25
206 26 25
205 26 25
205 27 25
204 28 25
204 28 25
203 29 24
203 30 24
202 30 24
202 31 24
201 31 24
201 32 24
200 33 24
200 33 24
199 34 24
199 35 24
198 35 24
198 36 24
197 37 24
197 37 24
196 38 23
196 38 23
195 39 23
195 40 23
194 40 23
194 41 23
193 42 23
193 42 23
192 43 23
192 44 23
191 44 23
191 45 23
190 46 23
190 46 23
189 47 22
189 47 22
188 48 22
188 49 22
187 49 22
187 50 22
186 51 22
186 51 22
185 52 22
185 53 22
184 53 22
184 54 22
183 54 22
183 55 22
183 56 21
182 56 21
182 57 21
181 58 21
181 58 21
180 59 21
180 60 21
179 60 21
179 61 21
178 61 21
178 62 21
177 63 21
177 63 21
176 64 21
176 65 20
175 65 20
175 66 20
174 67 20
174 67 20
173 68 20
173 69 20
172 69 20
172 70 20
171 70 20
171 71 20
170 72 20
170 72 20
169 73 20
169 74 19
168 74 19
168 75 19
167 76 19
167 76 19
166 77 19
166 77 19
165 78 19
165 79 19
164 79 19
164 80 19
163 81 19
163 81 19
162 82 19
162 83 19
161 83 18
161 84 18
160 85 18
160 85 18
159 86 18
159 86 18
158 87 18
158 88 18
157 88 18
157 89 18
156 90 18
156 90 18
155 91 18
155 92 18
154 92 17
154 93 17
153 93 17
153 94 17
152 95 17
152 95 17
151 96 17
151 97 17
150 97 17
150 98 17
149 99 17
149 99 17
148 100 17
148 100 17
147 101 16
147 102 16
146 102 16
146 103 16
145 104 16
145 104 16
144 105 16
144 106 16
143 106 16
143 107 16
142 108 16
142 108 16
141 109 16
141 109 16
140 110 15
140 111 15
139 111 15
139 112 15
138 113 15
138 113 15
137 114 15
137 115 15
136 115 15
136 116 15
135 116 15
135 117 15
134 118 15
134 118 15
133 119 14
133 120 14
132 120 14
132 121 14
131 122 14
131 122 14
130 123 14
130 123 14
129 124 14
129 125 14
128 125 14
128 126 14
127 127 14
127 127 14
126 128 13
126 129 13
125 129 13
125 130 13
124 131 13
124 131 13
123 132 13
123 132 13
122 133 13
122 134 13
121 134 13
121 135 13
120 136 13
120 136 13
119 137 13
119 138 12
118 138 12
118 139 12
117 139 12
117 140 12
116 141 12
116 141 12
115 142 12
115 143 12
114 143 12
114 144 12
113 145 12
113 145 12
112 146 12
112 146 11
111 147 11
111 148 11
110 148 11
110 149 11
109 150 11
109 150 11
108 151 11
108 152 11
107 152 11
107 153 11
106 154 11
106 154 11
105 155 11
105 155 10
104 156 10
104 157 10
103 157 10
103 158 10
102 159 10
102 159 10
101 160 10
101 161 10
100 161 10
100 162 10
99 162 10
99 163 10
98 164 10
98 164 9
97 165 9
97 166 9
96 166 9
96 167 9
95 168 9
95 168 9
94 169 9
94 170 9
93 170 9
93 171 9
92 171 9
92 172 9
91 173 9
91 173 8
90 174 8
90 175 8
89 175 8
89 176 8
88 177 8
88 177 8
87 178 8
87 178 8
86 179 8
86 180 8
85 180 8
85 181 8
84 182 8
84 182 7
83 183 7
83 184 7
82 184 7
82 185 7
81 185 7
81 186 7
80 187 7
80 187 7
79 188 7
79 189 7
78 189 7
78 190 7
77 191 7
77 191 6
76 192 6
76 193 6
75 193 6
75 194 6
74 194 6
74 195 6
73 196 6
73 196 6
72 197 6
72 198 6
71 198 6
71 199 6
71 200 6
70 200 6
70 201 5
69 201 5
69 202 5
68 203 5
68 203 5
67 204 5
67 205 5
66 205 5
66 206 5
65 207 5
65 207 5
64 208 5
64 208 5
63 209 5
63 210 4
62 210 4
62 211 4
61 212 4
61 212 4
60 213 4
60 214 4
59 214 4
59 215 4
58 216 4
58 216 4
57 217 4
57 217 4
56 218 4
56 219 3
55 219 3
55 220 3
54 221 3
54 221 3
53 222 3
53 223 3
52 223 3
52 224 3
51 224 3
51 225 3
50 226 3
50 226 3
49 227 3
49 228 2
48 228 2
48 229 2
47 230 2
47 230 2
46 231 2
46 231 2
45 232 2
45 233 2
44 233 2
44 234 2
43 235 2
43 235 2
42 236 2
42 237 1
41 237 1
41 238 1
40 239 1
40 239 1
39 240 1
39 240 1
38 241 1
38 242 1
37 242 1
37 243 1
36 244 1
36 244 1
35 245 1
35 246 0
34 246 0
34 247 0
33 247 0
33 248 0
32 249 0
32 249 0
31 250 0
31 251 0
30 251 0
30 252 0
29 253 0
29 253 0
28 254 0
28 255 0
228 0 26
227 0 26
227 1 26
226 1 26
226 2 26
225 3 26
225 3 26
224 4 26
224 5 26
223 5 26
223 6 26
222 7 26
222 7 26
221 8 26
221 8 25
220 9 25
220 10 25
219 10 25
219 11 25
218 12 25
218 12 25
217 13 25
216 14 25
216 14 25
215 15 25
215 15 25
214 16 25
214 17 25
213 17 25
213 18 24
212 19 24
212 19 24
211 20 24
211 21 24
210 21 24
210 22 24
209 23 24
209 23 24
208 24 24
208 24 24
207 25 24
207 26 24
206 26 24
206 27 24
205 28 23
205 28 23
204 29 23
204 30 23
203 30 23
203 31 23
202 31 23
202 32 23
201 33 23
201 33 23
200 34 23
200 35 23
199 35 23
199 36 23
198 37 22
198 37 22
197 38 22
197 38 22
196 39 22
196 40 22
195 40 22
195 41 22
194 42 22
194 42 22
193 43 22
193 44 22
192 44 22
192 45 22
191 46 22
191 46 21
190 47 21
190 47 21
189 48 21
189 49 21
188 49 21
188 50 21
187 51 21
187 51 21
186 52 21
186 53 21
185 53 21
185 54 21
184 54 21
184 55 21
183 56 20
183 56 20
182 57 20
182 58 20
181 58 20
181 59 20
180 60 20
180 60 20
179 61 20
179 61 20
178 62 20
178 63 20
177 63 20
177 64 20
176 65 20
176 65 19
175 66 19
175 67 19
174 67 19
174 68 19
173 69 19
173 69 19
172 70 19
172 70 19
171 71 19
171 72 19
170 72 19
170 73 19
169 74 19
169 74 19
168 75 18
168 76 18
167 76 18
167 77 18
166 77 18
166 78 18
165 79 18
165 79 18
164 80 18
164 81 18
163 81 18
163 82 18
162 83 18
162 83 18
161 84 18
161 85 17
160 85 17
160 86 17
159 86 17
159 87 17
158 88 17
158 88 17
157 89 17
156 90 17
156 90 17
155 91 17
155 92 17
154 92 17
154 93 17
153 93 16
153 94 16
152 95 16
152 95 16
151 96 16
151 97 16
150 97 16
150 98 16
149 99 16
149 99 16
148 100 16
148 100 16
147 101 16
147 102 16
146 102 16
146 103 15
145 104 15
145 104 15
144 105 15
144 106 15
143 106 15
143 107 15
142 108 15
142 108 15
141 109 15
141 109 15
140 110 15
140 111 15
139 111 15
139 112 15
138 113 14
138 113 14
137 114 14
137 115 14
136 115 14
136 116 14
135 116 14
135 117 14
134 118 14
134 118 14
133 119 14
133 120 14
132 120 14
132 121 14
131 122 14
131 122 13
130 123 13
130 123 13
129 124 13
129 125 13
128 125 13
128 126 13
127 127 13
127 127 13
126 128 13
126 129 13
125 129 13
125 130 13
124 131 13
124 131 13
123 132 12
123 132 12
122 133 12
122 134 12
121 134 12
121 135 12
120 136 12
120 136 12
119 137 12
119 138 12
118 138 12
118 139 12
117 139 12
117 140 12
116 141 12
116 141 11
115 142 11
115 143 11
114 143 11
114 144 11
113 145 11
113 145 11
112 146 11
112 146 11
111 147 11
111 148 11
110 148 11
110 149 11
109 150 11
109 150 10
108 151 10
108 152 10
107 152 10
107 153 10
106 154 10
106 154 10
105 155 10
105 155 10
104 156 10
104 157 10
103 157 10
103 158 10
102 159 10
102 159 10
101 160 9
101 161 9
100 161 9
100 162 9
99 162 9
99 163 9
98 164 9
98 164 9
97 165 9
96 166 9
96 166 9
95 167 9
95 168 9
94 168 9
94 169 9
93 170 8
93 170 8
92 171 8
92 171 8
91 172 8
91 173 8
90 173 8
90 174 8
89 175 8
89 175 8
88 176 8
88 177 8
87 177 8
87 178 8
86 178 8
86 179 7
85 180 7
85 180 7
84 181 7
84 182 7
83 182 7
83 183 7
82 184 7
82 184 7
81 185 7
81 185 7
80 186 7
80 187 7
79 187 7
79 188 7
78 189 6
78 189 6
77 190 6
77 191 6
76 191 6
76 192 6
75 193 6
75 193 6
74 194 6
74 194 6
73 195 6
73 196 6
72 196 6
72 197 6
71 198 6
71 198 5
70 199 5
70 200 5
69 200 5
69 201 5
68 201 5
68 202 5
67 203 5
67 203 5
66 204 5
66 205 5
65 205 5
65 206 5
64 207 5
64 207 4
63 208 4
63 208 4
62 209 4
62 210 4
61 210 4
61 211 4
60 212 4
60 212 4
59 213 4
59 214 4
58 214 4
58 215 4
57 216 4
57 216 4
56 217 3
56 217 3
55 218 3
55 219 3
54 219 3
54 220 3
53 221 3
53 221 3
52 222 3
52 223 3
51 223 3
51 224 3
50 224 3
50 225 3
49 226 3
49 226 2
48 227 2
48 228 2
47 228 2
47 229 2
46 230 2
46 230 2
45 231 2
45 231 2
44 232 2
44 233 2
43 233 2
43 234 2
42 235 2
42 235 2
41 236 1
41 237 1
40 237 1
40 238 1
39 239 1
39 239 1
38 240 1
38 240 1
37 241 1
36 242 1
36 242 1
35 243 1
35 244 1
34 244 1
34 245 1
33 246 0
33 246 0
32 247 0
32 247 0
31 248 0
31 249 0
30 249 0
30 250 0
29 251 0
29 251 0
28 252 0
28 253 0
27 253 0
27 254 0
26 255 0
229 0 25
228 0 25
228 1 25
227 1 25
227 2 25
226 3 25
226 3 25
225 4 25
225 5 25
224 5 25
224 6 24
223 7 24
223 7 24
222 8 24
222 8 24
221 9 24
221 10 24
220 10 24
220 11 24
219 12 24
219 12 24
218 13 24
218 14 24
217 14 24
217 15 24
216 15 24
216 16 23
215 17 23
215 17 23
214 18 23
214 19 23
213 19 23
213 20 23
212 21 23
212 21 23
211 22 23
210 23 23
210 23 23
209 24 23
209 24 23
208 25 23
208 26 22
207 26 22
207 27 22
206 28 22
206 28 22
205 29 22
205 30 22
204 30 22
204 31 22
203 31 22
203 32 22
202 33 22
202 33 22
201 34 22
201 35 22
200 35 22
200 36 21
199 37 21
199 37 21
198 38 21
198 38 21
197 39 21
197 40 21
196 40 21
196 41 21
195 42 21
195 42 21
194 43 21
194 44 21
193 44 21
193 45 21
192 46 21
192 46 20
191 47 20
191 47 20
190 48 20
190 49 20
189 49 20
189 50 20
188 51 20
188 51 20
187 52 20
186 53 20
186 53 20
185 54 20
185 54 20
184 55 20
184 56 19
183 56 19
183 57 19
182 58 19
182 58 19
181 59 19
181 60 19
180 60 19
180 61 19
179 61 19
179 62 19
178 63 19
178 63 19
177 64 19
177 65 19
176 65 19
176 66 18
175 67 18
175 67 18
174 68 18
174 69 18
173 69 18
173 70 18
172 70 18
172 71 18
171 72 18
171 72 18
170 73 18
170 74 18
169 74 18
169 75 18
168 76 17
168 76 17
167 77 17
167 77 17
166 78 17
166 79 17
165 79 17
165 80 17
164 81 17
164 81 17
163 82 17
162 83 17
162 83 17
161 84 17
161 85 17
160 85 17
160 86 16
159 86 16
159 87 16
158 88 16
158 88 16
157 89 16
157 90 16
156 90 16
156 91 16
155 92 16
155 92 16
154 93 16
154 93 16
153 94 16
153 95 16
152 95 15
152 96 15
151 97 15
151 97 15
150 98 15
150 99 15
149 99 15
149 100 15
148 100 15
148 101 15
147 102 15
147 102 15
146 103 15
146 104 15
145 104 15
145 105 15
144 106 14
144 106 14
143 107 14
143 108 14
142 108 14
142 109 14
141 109 14
141 110 14
140 111 14
140 111 14
139 112 14
138 113 14
138 113 14
137 114 14
137 115 14
136 115 14
136 116 13
135 116 13
135 117 13
134 118 13
134 118 13
133 119 13
133 120 13
132 120 13
132 121 13
131 122 13
131 122 13
130 123 13
130 123 13
129 124 13
129 125 13
128 125 12
128 126 12
127 127 12
127 127 12
126 128 12
126 129 12
125 129 12
125 130 12
124 131 12
124 131 12
123 132 12
123 132 12
122 133 12
122 134 12
121 134 12
121 135 12
120 136 11
120 136 11
119 137 11
119 138 11
118 138 11
118 139 11
117 139 11
117 140 11
116 141 11
116 141 11
115 142 11
114 143 11
114 143 11
113 144 11
113 145 11
112 145 10
112 146 10
111 146 10
111 147 10
110 148 10
110 148 10
109 149 10
109 150 10
108 150 10
108 151 10
107 152 10
107 152 10
106 153 10
106 154 10
105 154 10
105 155 10
104 155 9
104 156 9
103 157 9
103 157 9
102 158 9
102 159 9
101 159 9
101 160 9
100 161 9
100 161 9
99 162 9
99 162 9
98 163 9
98 164 9
97 164 9
97 165 8
96 166 8
96 166 8
95 167 8
95 168 8
94 168 8
94 169 8
93 170 8
93 170 8
92 171 8
92 171 8
91 172 8
90 173 8
90 173 8
89 174 8
89 175 8
88 175 7
88 176 7
87 177 7
87 177 7
86 178 7
86 178 7
85 179 7
85 180 7
84 180 7
84 181 7
83 182 7
83 182 7
82 183 7
82 184 7
81 184 7
81 185 7
80 185 6
80 186 6
79 187 6
79 187 6
78 188 6
78 189 6
77 189 6
77 190 6
76 191 6
76 191 6
75 192 6
75 193 6
74 193 6
74 194 6
73 194 6
73 195 5
72 196 5
72 196 5
71 197 5
71 198 5
70 198 5
70 199 5
69 200 5
69 200 5
68 201 5
68 201 5
67 202 5
66 203 5
66 203 5
65 204 5
65 205 5
64 205 4
64 206 4
63 207 4
63 207 4
62 208 4
62 208 4
61 209 4
61 210 4
60 210 4
60 211 4
59 212 4
59 212 4
58 213 4
58 214 4
57 214 4
57 215 3
56 216 3
56 216 3
55 217 3
55 217 3
54 218 3
54 219 3
53 219 3
53 220 3
52 221 3
52 221 3
51 222 3
51 223 3
50 223 3
50 224 3
49 224 3
49 225 2
48 226 2
48 226 2
47 227 2
47 228 2
46 228 2
46 229 2
45 230 2
45 230 2
44 231 2
44 231 2
43 232 2
42 233 2
42 233 2
41 234 2
41 235 1
40 235 1
40 236 1
39 237 1
39 237 1
38 238 1
38 239 1
37 239 1
37 240 1
36 240 1
36 241 1
35 242 1
35 242 1
34 243 1
34 244 1
33 244 1
33 245 0
32 246 0
32 246 0
31 247 0
31 247 0
30 248 0
30 249 0
29 249 0
29 250 0
28 251 0
28 251 0
27 252 0
27 253 0
26 253 0
26 254 0
25 255 0
230 0 24
230 0 24
229 1 24
229 1 24
228 2 24
228 3 24
227 3 23
227 4 23
226 5 23
225 5 23
225 6 23
224 7 23
224 7 23
223 8 23
223 8 23
222 9 23
222 10 23
221 10 23
221 11 23
220 12 23
220 12 23
219 13 23
219 14 23
218 14 22
218 15 22
217 15 22
217 16 22
216 17 22
216 17 22
215 18 22
215 19 22
214 19 22
214 20 22
213 21 22
213 21 22
212 22 22
212 23 22
211 23 22
211 24 22
210 24 21
209 25 21
209 26 21
208 26 21
208 27 21
207 28 21
207 28 21
206 29 21
206 30 21
205 30 21
205 31 21
204 31 21
204 32 21
203 33 21
203 33 21
202 34 21
202 35 20
201 35 20
201 36 20
200 37 20
200 37 20
199 38 20
199 38 20
198 39 20
198 40 20
197 40 20
197 41 20
196 42 20
196 42 20
195 43 20
194 44 20
194 44 20
193 45 20
193 46 19
192 46 19
192 47 19
191 47 19
191 48 19
190 49 19
190 49 19
189 50 19
189 51 19
188 51 19
188 52 19
187 53 19
187 53 19
186 54 19
186 54 19
185 55 19
185 56 18
184 56 18
184 57 18
183 58 18
183 58 18
182 59 18
182 60 18
181 60 18
181 61 18
180 61 18
179 62 18
179 63 18
178 63 18
178 64 18
177 65 18
177 65 18
176 66 18
176 67 17
175 67 17
175 68 17
174 69 17
174 69 17
173 70 17
173 70 17
172 71 17
172 72 17
171 72 17
171 73 17
170 74 17
170 74 17
169 75 17
169 76 17
168 76 17
168 77 16
167 77 16
167 78 16
166 79 16
166 79 16
165 80 16
164 81 16
164 81 16
163 82 16
163 83 16
162 83 16
162 84 16
161 85 16
161 85 16
160 86 16
160 86 16
159 87 15
159 88 15
158 88 15
158 89 15
157 90 15
157 90 15
156 91 15
156 92 15
155 92 15
155 93 15
154 93 15
154 94 15
153 95 15
153 95 15
152 96 15
152 97 15
151 97 15
151 98 14
150 99 14
149 99 14
149 100 14
148 100 14
148 101 14
147 102 14
147 102 14
146 103 14
146 104 14
145 104 14
145 105 14
144 106 14
144 106 14
143 107 14
143 108 14
142 108 13
142 109 13
141 109 13
141 110 13
140 111 13
140 111 13
139 112 13
139 113 13
138 113 13
138 114 13
137 115 13
137 115 13
136 116 13
136 116 13
135 117 13
134 118 13
134 118 12
133 119 12
133 120 12
132 120 12
132 121 12
131 122 12
131 122 12
130 123 12
130 123 12
129 124 12
129 125 12
128 125 12
128 126 12
127 127 12
127 127 12
126 128 12
126 129 12
125 129 11
125 130 11
124 131 11
124 131 11
123 132 11
123 132 11
122 133 11
122 134 11
121 134 11
121 135 11
120 136 11
120 136 11
119 137 11
118 138 11
118 138 11
117 139 11
117 139 10
116 140 10
116 141 10
115 141 10
115 142 10
114 143 10
114 143 10
113 144 10
113 145 10
112 145 10
112 146 10
111 146 10
111 147 10
110 148 10
110 148 10
109 149 10
109 150 10
108 150 9
108 151 9
107 152 9
107 152 9
106 153 9
106 154 9
105 154 9
105 155 9
104 155 9
103 156 9
103 157 9
102 157 9
102 158 9
101 159 9
101 159 9
100 160 9
100 161 8
99 161 8
99 162 8
98 162 8
98 163 8
97 164 8
97 164 8
96 165 8
96 166 8
95 166 8
95 167 8
94 168 8
94 168 8
93 169 8
93 170 8
92 170 8
92 171 7
91 171 7
91 172 7
90 173 7
90 173 7
89 174 7
88 175 7
88 175 7
87 176 7
87 177 7
86 177 7
86 178 7
85 178 7
85 179 7
84 180 7
84 180 7
83 181 7
83 182 6
82 182 6
82 183 6
81 184 6
81 184 6
80 185 6
80 185 6
79 186 6
79 187 6
78 187 6
78 188 6
77 189 6
77 189 6
76 190 6
76 191 6
75 191 6
75 192 5
74 193 5
73 193 5
73 194 5
72 194 5
72 195 5
71 196 5
71 196 5
70 197 5
70 198 5
69 198 5
69 199 5
68 200 5
68 200 5
67 201 5
67 201 5
66 202 5
66 203 4
65 203 4
65 204 4
64 205 4
64 205 4
63 206 4
63 207 4
62 207 4
62 208 4
61 208 4
61 209 4
60 210 4
60 210 4
59 211 4
58 212 4
58 212 4
57 213 3
57 214 3
56 214 3
56 215 3
55 216 3
55 216 3
54 217 3
54 217 3
53 218 3
53 219 3
52 219 3
52 220 3
51 221 3
51 221 3
50 222 3
50 223 3
49 223 2
49 224 2
48 224 2
48 225 2
47 226 2
47 226 2
46 227 2
46 228 2
45 228 2
45 229 2
44 230 2
43 230 2
43 231 2
42 231 2
42 232 2
41 233 2
41 233 2
40 234 1
40 235 1
39 235 1
39 236 1
38 237 1
38 237 1
37 238 1
37 239 1
36 239 1
36 240 1
35 240 1
35 241 1
34 242 1
34 242 1
33 243 1
33 244 1
32 244 0
32 245 0
31 246 0
31 246 0
30 247 0
30 247 0
29 248 0
29 249 0
28 249 0
27 250 0
27 251 0
26 251 0
26 252 0
25 253 0
25 253 0
24 254 0
24 255 0
231 0 23
231 0 23
230 1 22
230 1 22
229 2 22
229 3 22
228 3 22
228 4 22
227 5 22
227 5 22
226 6 22
226 7 22
225 7 22
225 8 22
224 8 22
224 9 22
223 10 22
223 10 22
222 11 22
221 12 21
221 12 21
220 13 21
220 14 21
219 14 21
219 15 21
218 15 21
218 16 21
217 17 21
217 17 21
216 18 21
216 19 21
215 19 21
215 20 21
214 21 21
214 21 21
213 22 21
213 23 20
212 23 20
212 24 20
211 24 20
210 25 20
210 26 20
209 26 20
209 27 20
208 28 20
208 28 20
207 29 20
207 30 20
206 30 20
206 31 20
205 31 20
205 32 20
204 33 20
204 33 20
203 34 19
203 35 19
202 35 19
202 36 19
201 37 19
201 37 19
200 38 19
200 38 19
199 39 19
198 40 19
198 40 19
197 41 19
197 42 19
196 42 19
196 43 19
195 44 19
195 44 19
194 45 18
194 46 18
193 46 18
193 47 18
192 47 18
192 48 18
191 49 18
191 49 18
190 50 18
190 51 18
189 51 18
189 52 18
188 53 18
187 53 18
187 54 18
186 54 18
186 55 18
185 56 17
185 56 17
184 57 17
184 58 17
183 58 17
183 59 17
182 60 17
182 60 17
181 61 17
181 61 17
180 62 17
180 63 17
179 63 17
179 64 17
178 65 17
178 65 17
177 66 17
176 67 16
176 67 16
175 68 16
175 69 16
174 69 16
174 70 16
173 70 16
173 71 16
172 72 16
172 72 16
171 73 16
171 74 16
170 74 16
170 75 16
169 76 16
169 76 16
168 77 16
168 77 16
167 78 15
167 79 15
166 79 15
165 80 15
165 81 15
164 81 15
164 82 15
163 83 15
163 83 15
162 84 15
162 85 15
161 85 15
161 86 15
160 86 15
160 87 15
159 88 15
159 88 15
158 89 14
158 90 14
157 90 14
157 91 14
156 92 14
156 92 14
155 93 14
154 93 14
154 94 14
153 95 14
153 95 14
152 96 14
152 97 14
151 97 14
151 98 14
150 99 14
150 99 14
149 100 13
149 100 13
148 101 13
148 102 13
147 102 13
147 103 13
146 104 13
146 104 13
145 105 13
145 106 13
144 106 13
143 107 13
143 108 13
142 108 13
142 109 13
141 109 13
141 110 13
140 111 13
140 111 12
139 112 12
139 113 12
138 113 12
138 114 12
137 115 12
137 115 12
136 116 12
136 116 12
135 117 12
135 118 12
134 118 12
134 119 12
133 120 12
132 120 12
132 121 12
131 122 12
131 122 11
130 123 11
130 123 11
129 124 11
129 125 11
128 125 11
128 126 11
127 127 11
127 127 11
126 128 11
126 129 11
125 129 11
125 130 11
124 131 11
124 131 11
123 132 11
123 132 11
122 133 10
122 134 10
121 134 10
120 135 10
120 136 10
119 136 10
119 137 10
118 138 10
118 138 10
117 139 10
117 139 10
116 140 10
116 141 10
115 141 10
115 142 10
114 143 10
114 143 10
113 144 10
113 145 9
112 145 9
112 146 9
111 146 9
111 147 9
110 148 9
109 148 9
109 149 9
108 150 9
108 150 9
107 151 9
107 152 9
106 152 9
106 153 9
105 154 9
105 154 9
104 155 9
104 155 8
103 156 8
103 157 8
102 157 8
102 158 8
101 159 8
101 159 8
100 160 8
100 161 8
99 161 8
98 162 8
98 162 8
97 163 8
97 164 8
96 164 8
96 165 8
95 166 8
95 166 7
94 167 7
94 168 7
93 168 7
93 169 7
92 170 7
92 170 7
91 171 7
91 171 7
90 172 7
90 173 7
89 173 7
89 174 7
88 175 7
87 175 7
87 176 7
86 177 7
86 177 6
85 178 6
85 178 6
84 179 6
84 180 6
83 180 6
83 181 6
82 182 6
82 182 6
81 183 6
81 184 6
80 184 6
80 185 6
79 185 6
79 186 6
78 187 6
78 187 6
77 188 6
76 189 5
76 189 5
75 190 5
75 191 5
74 191 5
74 192 5
73 193 5
73 193 5
72 194 5
72 194 5
71 195 5
71 196 5
70 196 5
70 197 5
69 198 5
69 198 5
68 199 5
68 200 4
67 200 4
67 201 4
66 201 4
65 202 4
65 203 4
64 203 4
64 204 4
63 205 4
63 205 4
62 206 4
62 207 4
61 207 4
61 208 4
60 208 4
60 209 4
59 210 4
59 210 3
58 211 3
58 212 3
57 212 3
57 213 3
56 214 3
56 214 3
55 215 3
54 216 3
54 216 3
53 217 3
53 217 3
52 218 3
52 219 3
51 219 3
51 220 3
50 221 3
50 221 3
49 222 2
49 223 2
48 223 2
48 224 2
47 224 2
47 225 2
46 226 2
46 226 2
45 227 2
45 228 2
44 228 2
44 229 2
43 230 2
42 230 2
42 231 2
41 231 2
41 232 2
40 233 1
40 233 1
39 234 1
39 235 1
38 235 1
38 236 1
37 237 1
37 237 1
36 238 1
36 239 1
35 239 1
35 240 1
34 240 1
34 241 1
33 242 1
33 242 1
32 243 1
31 244 0
31 244 0
30 245 0
30 246 0
29 246 0
29 247 0
28 247 0
28 248 0
27 249 0
27 249 0
26 250 0
26 251 0
25 251 0
25 252 0
24 253 0
24 253 0
23 254 0
23 255 0
233 0 21
232 0 21
232 1 21
231 1 21
231 2 21
230 3 21
230 3 21
229 4 21
228 5 21
228 5 21
227 6 21
227 7 21
226 7 21
226 8 21
225 8 21
225 9 20
224 10 20
224 10 20
223 11 20
223 12 20
222 12 20
222 13 20
221 14 20
221 14 20
220 15 20
219 15 20
219 16 20
218 17 20
218 17 20
217 18 20
217 19 20
216 19 20
216 20 20
215 21 19
215 21 19
214 22 19
214 23 19
213 23 19
213 24 19
212 24 19
212 25 19
211 26 19
210 26 19
210 27 19
209 28 19
209 28 19
208 29 19
208 30 19
207 30 19
207 31 19
206 31 19
206 32 18
205 33 18
205 33 18
204 34 18
204 35 18
203 35 18
203 36 18
202 37 18
201 37 18
201 38 18
200 38 18
200 39 18
199 40 18
199 40 18
198 41 18
198 42 18
197 42 18
197 43 18
196 44 18
196 44 17
195 45 17
195 46 17
194 46 17
194 47 17
193 47 17
192 48 17
192 49 17
191 49 17
191 50 17
190 51 17
190 51 17
189 52 17
189 53 17
188 53 17
188 54 17
187 54 17
187 55 17
186 56 16
186 56 16
185 57 16
184 58 16
184 58 16
183 59 16
183 60 16
182 60 16
182 61 16
181 61 16
181 62 16
180 63 16
180 63 16
179 64 16
179 65 16
178 65 16
178 66 16
177 67 16
177 67 15
176 68 15
175 69 15
175 69 15
174 70 15
174 70 15
173 71 15
173 72 15
172 72 15
172 73 15
171 74 15
171 74 15
170 75 15
170 76 15
169 76 15
169 77 15
168 77 15
168 78 15
167 79 15
166 79 14
166 80 14
165 81 14
165 81 14
164 82 14
164 83 14
163 83 14
163 84 14
162 85 14
162 85 14
161 86 14
161 86 14
160 87 14
160 88 14
159 88 14
159 89 14
158 90 14
157 90 14
157 91 13
156 92 13
156 92 13
155 93 13
155 93 13
154 94 13
154 95 13
153 95 13
153 96 13
152 97 13
152 97 13
151 98 13
151 99 13
150 99 13
150 100 13
149 100 13
148 101 13
148 102 13
147 102 12
147 103 12
146 104 12
146 104 12
145 105 12
145 106 12
144 106 12
144 107 12
143 108 12
143 108 12
142 109 12
142 109 12
141 110 12
141 111 12
140 111 12
139 112 12
139 113 12
138 113 12
138 114 12
137 115 11
137 115 11
136 116 11
136 116 11
135 117 11
135 118 11
134 118 11
134 119 11
133 120 11
133 120 11
132 121 11
132 122 11
131 122 11
130 123 11
130 123 11
129 124 11
129 125 11
128 125 11
128 126 10
127 127 10
127 127 10
126 128 10
126 129 10
125 129 10
125 130 10
124 131 10
124 131 10
123 132 10
122 132 10
122 133 10
121 134 10
121 134 10
120 135 10
120 136 10
119 136 10
119 137 10
118 138 9
118 138 9
117 139 9
117 139 9
116 140 9
116 141 9
115 141 9
115 142 9
114 143 9
113 143 9
113 144 9
112 145 9
112 145 9
111 146 9
111 146 9
110 147 9
110 148 9
109 148 9
109 149 9
108 150 8
108 150 8
107 151 8
107 152 8
106 152 8
106 153 8
105 154 8
104 154 8
104 155 8
103 155 8
103 156 8
102 157 8
102 157 8
101 158 8
101 159 8
100 159 8
100 160 8
99 161 8
99 161 7
98 162 7
98 162 7
97 163 7
97 164 7
96 164 7
95 165 7
95 166 7
94 166 7
94 167 7
93 168 7
93 168 7
92 169 7
92 170 7
91 170 7
91 171 7
90 171 7
90 172 7
89 173 6
89 173 6
88 174 6
88 175 6
87 175 6
86 176 6
86 177 6
85 177 6
85 178 6
84 178 6
84 179 6
83 180 6
83 180 6
82 181 6
82 182 6
81 182 6
81 183 6
80 184 6
80 184 6
79 185 5
79 185 5
78 186 5
77 187 5
77 187 5
76 188 5
76 189 5
75 189 5
75 190 5
74 191 5
74 191 5
73 192 5
73 193 5
72 193 5
72 194 5
71 194 5
71 195 5
70 196 5
70 196 4
69 197 4
68 198 4
68 198 4
67 199 4
67 200 4
66 200 4
66 201 4
65 201 4
65 202 4
64 203 4
64 203 4
63 204 4
63 205 4
62 205 4
62 206 4
61 207 4
60 207 4
60 208 3
59 208 3
59 209 3
58 210 3
58 210 3
57 211 3
57 212 3
56 212 3
56 213 3
55 214 3
55 214 3
54 215 3
54 216 3
53 216 3
53 217 3
52 217 3
51 218 3
51 219 3
50 219 3
50 220 2
49 221 2
49 221 2
48 222 2
48 223 2
47 223 2
47 224 2
46 224 2
46 225 2
45 226 2
45 226 2
44 227 2
44 228 2
43 228 2
42 229 2
42 230 2
41 230 2
41 231 2
40 231 1
40 232 1
39 233 1
39 233 1
38 234 1
38 235 1
37 235 1
37 236 1
36 237 1
36 237 1
35 238 1
35 239 1
34 239 1
33 240 1
33 240 1
32 241 1
32 242 1
31 242 1
31 243 0
30 244 0
30 244 0
29 245 0
29 246 0
28 246 0
28 247 0
27 247 0
27 248 0
26 249 0
26 249 0
25 250 0
24 251 0
24 251 0
23 252 0
23 253 0
22 253 0
22 254 0
21 255 0
234 0 20
233 0 20
233 1 20
232 1 20
232 2 20
231 3 20
231 3 20
230 4 20
230 5 20
229 5 20
229 6 19
228 7 19
228 7 19
227 8 19
226 8 19
226 9 19
225 10 19
225 10 19
224 11 19
224 12 19
223 12 19
223 13 19
222 14 19
222 14 19
221 15 19
221 15 19
220 16 19
220 17 19
219 17 19
218 18 19
218 19 18
217 19 18
217 20 18
216 21 18
216 21 18
215 22 18
215 23 18
214 23 18
214 24 18
213 24 18
213 25 18
212 26 18
211 26 18
211 27 18
210 28 18
210 28 18
209 29 18
209 30 18
208 30 18
208 31 17
207 31 17
207 32 17
206 33 17
206 33 17
205 34 17
204 35 17
204 35 17
203 36 17
203 37 17
202 37 17
202 38 17
201 38 17
201 39 17
200 40 17
200 40 17
199 41 17
199 42 17
198 42 17
198 43 17
197 44 16
196 44 16
196 45 16
195 46 16
195 46 16
194 47 16
194 47 16
193 48 16
193 49 16
192 49 16
192 50 16
191 51 16
191 51 16
190 52 16
189 53 16
189 53 16
188 54 16
188 54 16
187 55 16
187 56 15
186 56 15
186 57 15
185 58 15
185 58 15
184 59 15
184 60 15
183 60 15
183 61 15
182 61 15
181 62 15
181 63 15
180 63 15
180 64 15
179 65 15
179 65 15
178 66 15
178 67 15
177 67 15
177 68 15
176 69 14
176 69 14
175 70 14
174 70 14
174 71 14
173 72 14
173 72 14
172 73 14
172 74 14
171 74 14
171 75 14
170 76 14
170 76 14
169 77 14
169 77 14
168 78 14
167 79 14
167 79 14
166 80 14
166 81 13
165 81 13
165 82 13
164 83 13
164 83 13
163 84 13
163 85 13
162 85 13
162 86 13
161 86 13
161 87 13
160 88 13
159 88 13
159 89 13
158 90 13
158 90 13
157 91 13
157 92 13
156 92 13
156 93 13
155 93 12
155 94 12
154 95 12
154 95 12
153 96 12
152 97 12
152 97 12
151 98 12
151 99 12
150 99 12
150 100 12
149 100 12
149 101 12
148 102 12
148 102 12
147 103 12
147 104 12
146 104 12
146 105 12
145 106 11
144 106 11
144 107 11
143 108 11
143 108 11
142 109 11
142 109 11
141 110 11
141 111 11
140 111 11
140 112 11
139 113 11
139 113 11
138 114 11
137 115 11
137 115 11
136 116 11
136 116 11
135 117 11
135 118 10
134 118 10
134 119 10
133 120 10
133 120 10
132 121 10
132 122 10
131 122 10
130 123 10
130 123 10
129 124 10
129 125 10
128 125 10
128 126 10
127 127 10
127 127 10
126 128 10
126 129 10
125 129 10
125 130 10
124 131 9
124 131 9
123 132 9
122 132 9
122 133 9
121 134 9
121 134 9
120 135 9
120 136 9
119 136 9
119 137 9
118 138 9
118 138 9
117 139 9
117 139 9
116 140 9
115 141 9
115 141 9
114 142 9
114 143 8
113 143 8
113 144 8
112 145 8
112 145 8
111 146 8
111 146 8
110 147 8
110 148 8
109 148 8
108 149 8
108 150 8
107 150 8
107 151 8
106 152 8
106 152 8
105 153 8
105 154 8
104 154 8
104 155 8
103 155 7
103 156 7
102 157 7
102 157 7
101 158 7
100 159 7
100 159 7
99 160 7
99 161 7
98 161 7
98 162 7
97 162 7
97 163 7
96 164 7
96 164 7
95 165 7
95 166 7
94 166 7
93 167 7
93 168 6
92 168 6
92 169 6
91 170 6
91 170 6
90 171 6
90 171 6
89 172 6
89 173 6
88 173 6
88 174 6
87 175 6
87 175 6
86 176 6
85 177 6
85 177 6
84 178 6
84 178 6
83 179 6
83 180 6
82 180 5
82 181 5
81 182 5
81 182 5
80 183 5
80 184 5
79 184 5
78 185 5
78 185 5
77 186 5
77 187 5
76 187 5
76 188 5
75 189 5
75 189 5
74 190 5
74 191 5
73 191 5
73 192 5
72 193 4
71 193 4
71 194 4
70 194 4
70 195 4
69 196 4
69 196 4
68 197 4
68 198 4
67 198 4
67 199 4
66 200 4
66 200 4
65 201 4
65 201 4
64 202 4
63 203 4
63 203 4
62 204 4
62 205 4
61 205 3
61 206 3
60 207 3
60 207 3
59 208 3
59 208 3
58 209 3
58 210 3
57 210 3
56 211 3
56 212 3
55 212 3
55 213 3
54 214 3
54 214 3
53 215 3
53 216 3
52 216 3
52 217 3
51 217 2
51 218 2
50 219 2
50 219 2
49 220 2
48 221 2
48 221 2
47 222 2
47 223 2
46 223 2
46 224 2
45 224 2
45 225 2
44 226 2
44 226 2
43 227 2
43 228 2
42 228 2
41 229 2
41 230 2
40 230 1
40 231 1
39 231 1
39 232 1
38 233 1
38 233 1
37 234 1
37 235 1
36 235 1
36 236 1
35 237 1
34 237 1
34 238 1
33 239 1
33 239 1
32 240 1
32 240 1
31 241 1
31 242 1
30 242 0
30 243 0
29 244 0
29 244 0
28 245 0
28 246 0
27 246 0
26 247 0
26 247 0
25 248 0
25 249 0
24 249 0
24 250 0
23 251 0
23 251 0
22 252 0
22 253 0
21 253 0
21 254 0
20 255 0
235 0 19
235 0 19
234 1 19
234 1 19
233 2 19
233 3 18
232 3 18
231 4 18
231 5 18
230 5 18
230 6 18
229 7 18
229 7 18
228 8 18
228 8 18
227 9 18
227 10 18
226 10 18
226 11 18
225 12 18
224 12 18
224 13 18
223 14 18
223 14 18
222 15 18
222 15 18
221 16 17
221 17 17
220 17 17
220 18 17
219 19 17
218 19 17
218 20 17
217 21 17
217 21 17
216 22 17
216 23 17
215 23 17
215 24 17
214 24 17
214 25 17
213 26 17
212 26 17
212 27 17
211 28 17
211 28 17
210 29 17
210 30 16
209 30 16
209 31 16
208 31 16
208 32 16
207 33 16
207 33 16
206 34 16
205 35 16
205 35 16
204 36 16
204 37 16
203 37 16
203 38 16
202 38 16
202 39 16
201 40 16
201 40 16
200 41 16
199 42 16
199 42 15
198 43 15
198 44 15
197 44 15
197 45 15
196 46 15
196 46 15
195 47 15
195 47 15
194 48 15
193 49 15
193 49 15
192 50 15
192 51 15
191 51 15
191 52 15
190 53 15
190 53 15
189 54 15
189 54 15
188 55 15
188 56 14
187 56 14
186 57 14
186 58 14
185 58 14
185 59 14
184 60 14
184 60 14
183 61 14
183 61 14
182 62 14
182 63 14
181 63 14
180 64 14
180 65 14
179 65 14
179 66 14
178 67 14
178 67 14
177 68 14
177 69 14
176 69 13
176 70 13
175 70 13
174 71 13
174 72 13
173 72 13
173 73 13
172 74 13
172 74 13
171 75 13
171 76 13
170 76 13
170 77 13
169 77 13
169 78 13
168 79 13
167 79 13
167 80 13
166 81 13
166 81 13
165 82 13
165 83 12
164 83 12
164 84 12
163 85 12
163 85 12
162 86 12
161 86 12
161 87 12
160 88 12
160 88 12
159 89 12
159 90 12
158 90 12
158 91 12
157 92 12
157 92 12
156 93 12
155 93 12
155 94 12
154 95 12
154 95 11
153 96 11
153 97 11
152 97 11
152 98 11
151 99 11
151 99 11
150 100 11
150 100 11
149 101 11
148 102 11
148 102 11
147 103 11
147 104 11
146 104 11
146 105 11
145 106 11
145 106 11
144 107 11
144 108 11
143 108 11
142 109 10
142 109 10
141 110 10
141 111 10
140 111 10
140 112 10
139 113 10
139 113 10
138 114 10
138 115 10
137 115 10
136 116 10
136 116 10
135 117 10
135 118 10
134 118 10
134 119 10
133 120 10
133 120 10
132 121 10
132 122 10
131 122 9
131 123 9
130 123 9
129 124 9
129 125 9
128 125 9
128 126 9
127 127 9
127 127 9
126 128 9
126 129 9
125 129 9
125 130 9
124 131 9
123 131 9
123 132 9
122 132 9
122 133 9
121 134 9
121 134 9
120 135 9
120 136 8
119 136 8
119 137 8
118 138 8
118 138 8
117 139 8
116 139 8
116 140 8
115 141 8
115 141 8
114 142 8
114 143 8
113 143 8
113 144 8
112 145 8
112 145 8
111 146 8
110 146 8
110 147 8
109 148 8
109 148 7
108 149 7
108 150 7
107 150 7
107 151 7
106 152 7
106 152 7
105 153 7
104 154 7
104 154 7
103 155 7
103 155 7
102 156 7
102 157 7
101 157 7
101 158 7
100 159 7
100 159 7
99 160 7
99 161 7
98 161 7
97 162 6
97 162 6
96 163 6
96 164 6
95 164 6
95 165 6
94 166 6
94 166 6
93 167 6
93 168 6
92 168 6
91 169 6
91 170 6
90 170 6
90 171 6
89 171 6
89 172 6
88 173 6
88 173 6
87 174 6
87 175 6
86 175 5
85 176 5
85 177 5
84 177 5
84 178 5
83 178 5
83 179 5
82 180 5
82 180 5
81 181 5
81 182 5
80 182 5
80 183 5
79 184 5
78 184 5
78 185 5
77 185 5
77 186 5
76 187 5
76 187 5
75 188 5
75 189 4
74 189 4
74 190 4
73 191 4
72 191 4
72 192 4
71 193 4
71 193 4
70 194 4
70 194 4
69 195 4
69 196 4
68 196 4
68 197 4
67 198 4
66 198 4
66 199 4
65 200 4
65 200 4
64 201 4
64 201 3
63 202 3
63 203 3
62 203 3
62 204 3
61 205 3
61 205 3
60 206 3
59 207 3
59 207 3
58 208 3
58 208 3
57 209 3
57 210 3
56 210 3
56 211 3
55 212 3
55 212 3
54 213 3
53 214 3
53 214 3
52 215 2
52 216 2
51 216 2
51 217 2
50 217 2
50 218 2
49 219 2
49 219 2
48 220 2
47 221 2
47 221 2
46 222 2
46 223 2
45 223 2
45 224 2
44 224 2
44 225 2
43 226 2
43 226 2
42 227 2
42 228 2
41 228 1
40 229 1
40 230 1
39 230 1
39 231 1
38 231 1
38 232 1
37 233 1
37 233 1
36 234 1
36 235 1
35 235 1
34 236 1
34 237 1
33 237 1
33 238 1
32 239 1
32 239 1
31 240 1
31 240 1
30 241 1
30 242 0
29 242 0
28 243 0
28 244 0
27 244 0
27 245 0
26 246 0
26 246 0
25 247 0
25 247 0
24 248 0
24 249 0
23 249 0
23 250 0
22 251 0
21 251 0
21 252 0
20 253 0
20 253 0
19 254 0
19 255 0
237 0 17
236 0 17
235 1 17
235 1 17
234 2 17
234 3 17
233 3 17
233 4 17
232 5 17
232 5 17
231 6 17
231 7 17
230 7 17
229 8 17
229 8 17
228 9 17
228 10 17
227 10 17
227 11 17
226 12 17
226 12 17
225 13 16
224 14 16
224 14 16
223 15 16
223 15 16
222 16 16
222 17 16
221 17 16
221 18 16
220 19 16
220 19 16
219 20 16
218 21 16
218 21 16
217 22 16
217 23 16
216 23 16
216 24 16
215 24 16
215 25 16
214 26 16
213 26 16
213 27 16
212 28 15
212 28 15
211 29 15
211 30 15
210 30 15
210 31 15
209 31 15
209 32 15
208 33 15
207 33 15
207 34 15
206 35 15
206 35 15
205 36 15
205 37 15
204 37 15
204 38 15
203 38 15
203 39 15
202 40 15
201 40 15
201 41 15
200 42 14
200 42 14
199 43 14
199 44 14
198 44 14
198 45 14
197 46 14
196 46 14
196 47 14
195 47 14
195 48 14
194 49 14
194 49 14
193 50 14
193 51 14
192 51 14
192 52 14
191 53 14
190 53 14
190 54 14
189 54 14
189 55 14
188 56 13
188 56 13
187 57 13
187 58 13
186 58 13
185 59 13
185 60 13
184 60 13
184 61 13
183 61 13
183 62 13
182 63 13
182 63 13
181 64 13
181 65 13
180 65 13
179 66 13
179 67 13
178 67 13
178 68 13
177 69 13
177 69 13
176 70 12
176 70 12
175 71 12
175 72 12
174 72 12
173 73 12
173 74 12
172 74 12
172 75 12
171 76 12
171 76 12
170 77 12
170 77 12
169 78 12
168 79 12
168 79 12
167 80 12
167 81 12
166 81 12
166 82 12
165 83 12
165 83 12
164 84 12
164 85 11
163 85 11
162 86 11
162 86 11
161 87 11
161 88 11
160 88 11
160 89 11
159 90 11
159 90 11
158 91 11
157 92 11
157 92 11
156 93 11
156 93 11
155 94 11
155 95 11
154 95 11
154 96 11
153 97 11
153 97 11
152 98 11
151 99 10
151 99 10
150 100 10
150 100 10
149 101 10
149 102 10
148 102 10
148 103 10
147 104 10
146 104 10
146 105 10
145 106 10
145 106 10
144 107 10
144 108 10
143 108 10
143 109 10
142 109 10
142 110 10
141 111 10
140 111 10
140 112 10
139 113 9
139 113 9
138 114 9
138 115 9
137 115 9
137 116 9
136 116 9
136 117 9
135 118 9
134 118 9
134 119 9
133 120 9
133 120 9
132 121 9
132 122 9
131 122 9
131 123 9
130 123 9
129 124 9
129 125 9
128 125 9
128 126 9
127 127 8
127 127 8
126 128 8
126 129 8
125 129 8
125 130 8
124 131 8
123 131 8
123 132 8
122 132 8
122 133 8
121 134 8
121 134 8
120 135 8
120 136 8
119 136 8
118 137 8
118 138 8
117 138 8
117 139 8
116 139 8
116 140 8
115 141 8
115 141 7
114 142 7
114 143 7
113 143 7
112 144 7
112 145 7
111 145 7
111 146 7
110 146 7
110 147 7
109 148 7
109 148 7
108 149 7
108 150 7
107 150 7
106 151 7
106 152 7
105 152 7
105 153 7
104 154 7
104 154 7
103 155 7
103 155 6
102 156 6
101 157 6
101 157 6
100 158 6
100 159 6
99 159 6
99 160 6
98 161 6
98 161 6
97 162 6
97 162 6
96 163 6
95 164 6
95 164 6
94 165 6
94 166 6
93 166 6
93 167 6
92 168 6
92 168 6
91 169 6
90 170 5
90 170 5
89 171 5
89 171 5
88 172 5
88 173 5
87 173 5
87 174 5
86 175 5
86 175 5
85 176 5
84 177 5
84 177 5
83 178 5
83 178 5
82 179 5
82 180 5
81 180 5
81 181 5
80 182 5
79 182 5
79 183 5
78 184 4
78 184 4
77 185 4
77 185 4
76 186 4
76 187 4
75 187 4
75 188 4
74 189 4
73 189 4
73 190 4
72 191 4
72 191 4
71 192 4
71 193 4
70 193 4
70 194 4
69 194 4
69 195 4
68 196 4
67 196 4
67 197 4
66 198 4
66 198 3
65 199 3
65 200 3
64 200 3
64 201 3
63 201 3
62 202 3
62 203 3
61 203 3
61 204 3
60 205 3
60 205 3
59 206 3
59 207 3
58 207 3
58 208 3
57 208 3
56 209 3
56 210 3
55 210 3
55 211 3
54 212 3
54 212 2
53 213 2
53 214 2
52 214 2
51 215 2
51 216 2
50 216 2
50 217 2
49 217 2
49 218 2
48 219 2
48 219 2
47 220 2
47 221 2
46 221 2
45 222 2
45 223 2
44 223 2
44 224 2
43 224 2
43 225 2
42 226 2
42 226 1
41 227 1
41 228 1
40 228 1
39 229 1
39 230 1
38 230 1
38 231 1
37 231 1
37 232 1
36 233 1
36 233 1
35 234 1
34 235 1
34 235 1
33 236 1
33 237 1
32 237 1
32 238 1
31 239 1
31 239 1
30 240 1
30 240 0
29 241 0
28 242 0
28 242 0
27 243 0
27 244 0
26 244 0
26 245 0
25 246 0
25 246 0
24 247 0
23 247 0
23 248 0
22 249 0
22 249 0
21 250 0
21 251 0
20 251 0
20 252 0
19 253 0
19 253 0
18 254 0
17 255 0
238 0 16
237 0 16
237 1 16
236 1 16
236 2 16
235 3 16
235 3 16
234 4 16
233 5 16
233 5 16
232 6 16
232 7 16
231 7 16
231 8 16
230 8 16
230 9 16
229 10 15
228 10 15
228 11 15
227 12 15
227 12 15
226 13 15
226 14 15
225 14 15
225 15 15
224 15 15
223 16 15
223 17 15
222 17 15
222 18 15
221 19 15
221 19 15
220 20 15
220 21 15
219 21 15
218 22 15
218 23 15
217 23 15
217 24 15
216 24 15
216 25 14
215 26 14
215 26 14
214 27 14
213 28 14
213 28 14
212 29 14
212 30 14
211 30 14
211 31 14
210 31 14
210 32 14
209 33 14
208 33 14
208 34 14
207 35 14
207 35 14
206 36 14
206 37 14
205 37 14
205 38 14
204 38 14
203 39 14
203 40 14
202 40 13
202 41 13
201 42 13
201 42 13
200 43 13
200 44 13
199 44 13
198 45 13
198 46 13
197 46 13
197 47 13
196 47 13
196 48 13
195 49 13
195 49 13
194 50 13
193 51 13
193 51 13
192 52 13
192 53 13
191 53 13
191 54 13
190 54 13
190 55 13
189 56 12
188 56 12
188 57 12
187 58 12
187 58 12
186 59 12
186 60 12
185 60 12
185 61 12
184 61 12
183 62 12
183 63 12
182 63 12
182 64 12
181 65 12
181 65 12
180 66 12
180 67 12
179 67 12
178 68 12
178 69 12
177 69 12
177 70 12
176 70 12
176 71 11
175 72 11
175 72 11
174 73 11
173 74 11
173 74 11
172 75 11
172 76 11
171 76 11
171 77 11
170 77 11
170 78 11
169 79 11
168 79 11
168 80 11
167 81 11
167 81 11
166 82 11
166 83 11
165 83 11
165 84 11
164 85 11
163 85 11
163 86 11
162 86 10
162 87 10
161 88 10
161 88 10
160 89 10
160 90 10
159 90 10
158 91 10
158 92 10
157 92 10
157 93 10
156 93 10
156 94 10
155 95 10
155 95 10
154 96 10
153 97 10
153 97 10
152 98 10
152 99 10
151 99 10
151 100 10
150 100 10
150 101 10
149 102 9
148 102 9
148 103 9
147 104 9
147 104 9
146 105 9
146 106 9
145 106 9
145 107 9
144 108 9
143 108 9
143 109 9
142 109 9
142 110 9
141 111 9
141 111 9
140 112 9
140 113 9
139 113 9
138 114 9
138 115 9
137 115 9
137 116 9
136 116 9
136 117 8
135 118 8
135 118 8
134 119 8
133 120 8
133 120 8
132 121 8
132 122 8
131 122 8
131 123 8
130 123 8
130 124 8
129 125 8
128 125 8
128 126 8
127 127 8
127 127 8
126 128 8
126 129 8
125 129 8
124 130 8
124 131 8
123 131 8
123 132 8
122 132 7
122 133 7
121 134 7
121 134 7
120 135 7
119 136 7
119 136 7
118 137 7
118 138 7
117 138 7
117 139 7
116 139 7
116 140 7
115 141 7
114 141 7
114 142 7
113 143 7
113 143 7
112 144 7
112 145 7
111 145 7
111 146 7
110 146 7
109 147 7
109 148 6
108 148 6
108 149 6
107 150 6
107 150 6
106 151 6
106 152 6
105 152 6
104 153 6
104 154 6
103 154 6
103 155 6
102 155 6
102 156 6
101 157 6
101 157 6
100 158 6
99 159 6
99 159 6
98 160 6
98 161 6
97 161 6
97 162 6
96 162 6
96 163 5
95 164 5
94 164 5
94 165 5
93 166 5
93 166 5
92 167 5
92 168 5
91 168 5
91 169 5
90 170 5
89 170 5
89 171 5
88 171 5
88 172 5
87 173 5
87 173 5
86 174 5
86 175 5
85 175 5
84 176 5
84 177 5
83 177 5
83 178 5
82 178 4
82 179 4
81 180 4
81 180 4
80 181 4
79 182 4
79 182 4
78 183 4
78 184 4
77 184 4
77 185 4
76 185 4
76 186 4
75 187 4
74 187 4
74 188 4
73 189 4
73 189 4
72 190 4
72 191 4
71 191 4
71 192 4
70 193 4
69 193 4
69 194 3
68 194 3
68 195 3
67 196 3
67 196 3
66 197 3
66 198 3
65 198 3
64 199 3
64 200 3
63 200 3
63 201 3
62 201 3
62 202 3
61 203 3
61 203 3
60 204 3
59 205 3
59 205 3
58 206 3
58 207 3
57 207 3
57 208 3
56 208 3
56 209 2
55 210 2
54 210 2
54 211 2
53 212 2
53 212 2
52 213 2
52 214 2
51 214 2
51 215 2
50 216 2
49 216 2
49 217 2
48 217 2
48 218 2
47 219 2
47 219 2
46 220 2
46 221 2
45 221 2
44 222 2
44 223 2
43 223 2
43 224 2
42 224 1
42 225 1
41 226 1
41 226 1
40 227 1
39 228 1
39 228 1
38 229 1
38 230 1
37 230 1
37 231 1
36 231 1
36 232 1
35 233 1
34 233 1
34 234 1
33 235 1
33 235 1
32 236 1
32 237 1
31 237 1
31 238 1
30 239 1
29 239 1
29 240 0
28 240 0
28 241 0
27 242 0
27 242 0
26 243 0
26 244 0
25 244 0
24 245 0
24 246 0
23 246 0
23 247 0
22 247 0
22 248 0
21 249 0
21 249 0
20 250 0
19 251 0
19 251 0
18 252 0
18 253 0
17 253 0
17 254 0
16 255 0
239 0 15
239 0 15
238 1 15
237 1 15
237 2 15
236 3 15
236 3 15
235 4 15
235 5 15
234 5 15
234 6 14
233 7 14
232 7 14
232 8 14
231 8 14
231 9 14
230 10 14
230 10 14
229 11 14
228 12 14
228 12 14
227 13 14
227 14 14
226 14 14
226 15 14
225 15 14
225 16 14
224 17 14
223 17 14
223 18 14
222 19 14
222 19 14
221 20 14
221 21 14
220 21 14
219 22 14
219 23 13
218 23 13
218 24 13
217 24 13
217 25 13
216 26 13
216 26 13
215 27 13
214 28 13
214 28 13
213 29 13
213 30 13
212 30 13
212 31 13
211 31 13
210 32 13
210 33 13
209 33 13
209 34 13
208 35 13
208 35 13
207 36 13
207 37 13
206 37 13
205 38 13
205 38 13
204 39 12
204 40 12
203 40 12
203 41 12
202 42 12
201 42 12
201 43 12
200 44 12
200 44 12
199 45 12
199 46 12
198 46 12
198 47 12
197 47 12
196 48 12
196 49 12
195 49 12
195 50 12
194 51 12
194 51 12
193 52 12
192 53 12
192 53 12
191 54 12
191 54 12
190 55 12
190 56 11
189 56 11
189 57 11
188 58 11
187 58 11
187 59 11
186 60 11
186 60 11
185 61 11
185 61 11
184 62 11
183 63 11
183 63 11
182 64 11
182 65 11
181 65 11
181 66 11
180 67 11
180 67 11
179 68 11
178 69 11
178 69 11
177 70 11
177 70 11
176 71 11
176 72 11
175 72 10
174 73 10
174 74 10
173 74 10
173 75 10
172 76 10
172 76 10
171 77 10
171 77 10
170 78 10
169 79 10
169 79 10
168 80 10
168 81 10
167 81 10
167 82 10
166 83 10
165 83 10
165 84 10
164 85 10
164 85 10
163 86 10
163 86 10
162 87 10
162 88 10
161 88 10
160 89 9
160 90 9
159 90 9
159 91 9
158 92 9
158 92 9
157 93 9
157 93 9
156 94 9
155 95 9
155 95 9
154 96 9
154 97 9
153 97 9
153 98 9
152 99 9
151 99 9
151 100 9
150 100 9
150 101 9
149 102 9
149 102 9
148 103 9
148 104 9
147 104 9
146 105 9
146 106 8
145 106 8
145 107 8
144 108 8
144 108 8
143 109 8
142 109 8
142 110 8
141 111 8
141 111 8
140 112 8
140 113 8
139 113 8
139 114 8
138 115 8
137 115 8
137 116 8
136 116 8
136 117 8
135 118 8
135 118 8
134 119 8
133 120 8
133 120 8
132 121 8
132 122 8
131 122 7
131 123 7
130 123 7
130 124 7
129 125 7
128 125 7
128 126 7
127 127 7
127 127 7
126 128 7
126 129 7
125 129 7
124 130 7
124 131 7
123 131 7
123 132 7
122 132 7
122 133 7
121 134 7
121 134 7
120 135 7
119 136 7
119 136 7
118 137 7
118 138 7
117 138 7
117 139 6
116 139 6
115 140 6
115 141 6
114 141 6
114 142 6
113 143 6
113 143 6
112 144 6
112 145 6
111 145 6
110 146 6
110 146 6
109 147 6
109 148 6
108 148 6
108 149 6
107 150 6
106 150 6
106 151 6
105 152 6
105 152 6
104 153 6
104 154 6
103 154 6
103 155 6
102 155 5
101 156 5
101 157 5
100 157 5
100 158 5
99 159 5
99 159 5
98 160 5
97 161 5
97 161 5
96 162 5
96 162 5
95 163 5
95 164 5
94 164 5
94 165 5
93 166 5
92 166 5
92 167 5
91 168 5
91 168 5
90 169 5
90 170 5
89 170 5
89 171 5
88 171 5
87 172 4
87 173 4
86 173 4
86 174 4
85 175 4
85 175 4
84 176 4
83 177 4
83 177 4
82 178 4
82 178 4
81 179 4
81 180 4
80 180 4
80 181 4
79 182 4
78 182 4
78 183 4
77 184 4
77 184 4
76 185 4
76 185 4
75 186 4
74 187 4
74 187 4
73 188 4
73 189 3
72 189 3
72 190 3
71 191 3
71 191 3
70 192 3
69 193 3
69 193 3
68 194 3
68 194 3
67 195 3
67 196 3
66 196 3
65 197 3
65 198 3
64 198 3
64 199 3
63 200 3
63 200 3
62 201 3
62 201 3
61 202 3
60 203 3
60 203 3
59 204 3
59 205 3
58 205 2
58 206 2
57 207 2
56 207 2
56 208 2
55 208 2
55 209 2
54 210 2
54 210 2
53 211 2
53 212 2
52 212 2
51 213 2
51 214 2
50 214 2
50 215 2
49 216 2
49 216 2
48 217 2
47 217 2
47 218 2
46 219 2
46 219 2
45 220 2
45 221 2
44 221 2
44 222 1
43 223 1
42 223 1
42 224 1
41 224 1
41 225 1
40 226 1
40 226 1
39 227 1
38 228 1
38 228 1
37 229 1
37 230 1
36 230 1
36 231 1
35 231 1
35 232 1
34 233 1
33 233 1
33 234 1
32 235 1
32 235 1
31 236 1
31 237 1
30 237 1
29 238 1
29 239 0
28 239 0
28 240 0
27 240 0
27 241 0
26 242 0
26 242 0
25 243 0
24 244 0
24 244 0
23 245 0
23 246 0
22 246 0
22 247 0
21 247 0
20 248 0
20 249 0
19 249 0
19 250 0
18 251 0
18 251 0
17 252 0
17 253 0
16 253 0
15 254 0
15 255 0
240 0 14
240 0 14
239 1 14
239 1 13
238 2 13
238 3 13
237 3 13
236 4 13
236 5 13
235 5 13
235 6 13
234 7 13
234 7 13
233 8 13
232 8 13
232 9 13
231 10 13
231 10 13
230 11 13
230 12 13
229 12 13
228 13 13
228 14 13
227 14 13
227 15 13
226 15 13
226 16 13
225 17 13
224 17 13
224 18 13
223 19 13
223 19 13
222 20 12
222 21 12
221 21 12
221 22 12
220 23 12
219 23 12
219 24 12
218 24 12
218 25 12
217 26 12
217 26 12
216 27 12
215 28 12
215 28 12
214 29 12
214 30 12
213 30 12
213 31 12
212 31 12
211 32 12
211 33 12
210 33 12
210 34 12
209 35 12
209 35 12
208 36 12
207 37 12
207 37 12
206 38 11
206 38 11
205 39 11
205 40 11
204 40 11
203 41 11
203 42 11
202 42 11
202 43 11
201 44 11
201 44 11
200 45 11
199 46 11
199 46 11
198 47 11
198 47 11
197 48 11
197 49 11
196 49 11
195 50 11
195 51 11
194 51 11
194 52 11
193 53 11
193 53 11
192 54 11
192 54 11
191 55 11
190 56 10
190 56 10
189 57 10
189 58 10
188 58 10
188 59 10
187 60 10
186 60 10
186 61 10
185 61 10
185 62 10
184 63 10
184 63 10
183 64 10
182 65 10
182 65 10
181 66 10
181 67 10
180 67 10
180 68 10
179 69 10
178 69 10
178 70 10
177 70 10
177 71 10
176 72 10
176 72 10
175 73 10
174 74 9
174 74 9
173 75 9
173 76 9
172 76 9
172 77 9
171 77 9
170 78 9
170 79 9
169 79 9
169 80 9
168 81 9
168 81 9
167 82 9
167 83 9
166 83 9
165 84 9
165 85 9
164 85 9
164 86 9
163 86 9
163 87 9
162 88 9
161 88 9
161 89 9
160 90 9
160 90 9
159 91 9
159 92 9
158 92 8
157 93 8
157 93 8
156 94 8
156 95 8
155 95 8
155 96 8
154 97 8
153 97 8
153 98 8
152 99 8
152 99 8
151 100 8
151 100 8
150 101 8
149 102 8
149 102 8
148 103 8
148 104 8
147 104 8
147 105 8
146 106 8
145 106 8
145 107 8
144 108 8
144 108 8
143 109 8
143 109 8
142 110 7
141 111 7
141 111 7
140 112 7
140 113 7
139 113 7
139 114 7
138 115 7
138 115 7
137 116 7
136 116 7
136 117 7
135 118 7
135 118 7
134 119 7
134 120 7
133 120 7
132 121 7
132 122 7
131 122 7
131 123 7
130 123 7
130 124 7
129 125 7
128 125 7
128 126 7
127 127 7
127 127 7
126 128 6
126 129 6
125 129 6
124 130 6
124 131 6
123 131 6
123 132 6
122 132 6
122 133 6
121 134 6
120 134 6
120 135 6
119 136 6
119 136 6
118 137 6
118 138 6
117 138 6
116 139 6
116 139 6
115 140 6
115 141 6
114 141 6
114 142 6
113 143 6
113 143 6
112 144 6
111 145 6
111 145 6
110 146 6
110 146 5
109 147 5
109 148 5
108 148 5
107 149 5
107 150 5
106 150 5
106 151 5
105 152 5
105 152 5
104 153 5
103 154 5
103 154 5
102 155 5
102 155 5
101 156 5
101 157 5
100 157 5
99 158 5
99 159 5
98 159 5
98 160 5
97 161 5
97 161 5
96 162 5
95 162 5
95 163 5
94 164 5
94 164 4
93 165 4
93 166 4
92 166 4
91 167 4
91 168 4
90 168 4
90 169 4
89 170 4
89 170 4
88 171 4
87 171 4
87 172 4
86 173 4
86 173 4
85 174 4
85 175 4
84 175 4
84 176 4
83 177 4
82 177 4
82 178 4
81 178 4
81 179 4
80 180 4
80 180 4
79 181 4
78 182 4
78 182 3
77 183 3
77 184 3
76 184 3
76 185 3
75 185 3
74 186 3
74 187 3
73 187 3
73 188 3
72 189 3
72 189 3
71 190 3
70 191 3
70 191 3
69 192 3
69 193 3
68 193 3
68 194 3
67 194 3
66 195 3
66 196 3
65 196 3
65 197 3
64 198 3
64 198 3
63 199 3
62 200 3
62 200 3
61 201 2
61 201 2
60 202 2
60 203 2
59 203 2
59 204 2
58 205 2
57 205 2
57 206 2
56 207 2
56 207 2
55 208 2
55 208 2
54 209 2
53 210 2
53 210 2
52 211 2
52 212 2
51 212 2
51 213 2
50 214 2
49 214 2
49 215 2
48 216 2
48 216 2
47 217 2
47 217 2
46 218 2
45 219 1
45 219 1
44 220 1
44 221 1
43 221 1
43 222 1
42 223 1
41 223 1
41 224 1
40 224 1
40 225 1
39 226 1
39 226 1
38 227 1
37 228 1
37 228 1
36 229 1
36 230 1
35 230 1
35 231 1
34 231 1
33 232 1
33 233 1
32 233 1
32 234 1
31 235 1
31 235 1
30 236 1
30 237 0
29 237 0
28 238 0
28 239 0
27 239 0
27 240 0
26 240 0
26 241 0
25 242 0
24 242 0
24 243 0
23 244 0
23 244 0
22 245 0
22 246 0
21 246 0
20 247 0
20 247 0
19 248 0
19 249 0
18 249 0
18 250 0
17 251 0
16 251 0
16 252 0
15 253 0
15 253 0
14 254 0
14 255 0
242 0 12
241 0 12
241 1 12
240 1 12
239 2 12
239 3 12
238 3 12
238 4 12
237 5 12
237 5 12
236 6 12
235 7 12
235 7 12
234 8 12
234 8 12
233 9 12
232 10 12
232 10 12
231 11 12
231 12 12
230 12 12
230 13 12
229 14 12
228 14 12
228 15 12
227 15 12
227 16 11
226 17 11
226 17 11
225 18 11
224 19 11
224 19 11
223 20 11
223 21 11
222 21 11
222 22 11
221 23 11
220 23 11
220 24 11
219 24 11
219 25 11
218 26 11
218 26 11
217 27 11
216 28 11
216 28 11
215 29 11
215 30 11
214 30 11
214 31 11
213 31 11
212 32 11
212 33 11
211 33 11
211 34 11
210 35 11
209 35 11
209 36 10
208 37 10
208 37 10
207 38 10
207 38 10
206 39 10
205 40 10
205 40 10
204 41 10
204 42 10
203 42 10
203 43 10
202 44 10
201 44 10
201 45 10
200 46 10
200 46 10
199 47 10
199 47 10
198 48 10
197 49 10
197 49 10
196 50 10
196 51 10
195 51 10
195 52 10
194 53 10
193 53 10
193 54 10
192 54 10
192 55 10
191 56 9
191 56 9
190 57 9
189 58 9
189 58 9
188 59 9
188 60 9
187 60 9
186 61 9
186 61 9
185 62 9
185 63 9
184 63 9
184 64 9
183 65 9
182 65 9
182 66 9
181 67 9
181 67 9
180 68 9
180 69 9
179 69 9
178 70 9
178 70 9
177 71 9
177 72 9
176 72 9
176 73 9
175 74 9
174 74 9
174 75 9
173 76 8
173 76 8
172 77 8
172 77 8
171 78 8
170 79 8
170 79 8
169 80 8
169 81 8
168 81 8
168 82 8
167 83 8
166 83 8
166 84 8
165 85 8
165 85 8
164 86 8
164 86 8
163 87 8
162 88 8
162 88 8
161 89 8
161 90 8
160 90 8
159 91 8
159 92 8
158 92 8
158 93 8
157 93 8
157 94 8
156 95 8
155 95 7
155 96 7
154 97 7
154 97 7
153 98 7
153 99 7
152 99 7
151 100 7
151 100 7
150 101 7
150 102 7
149 102 7
149 103 7
148 104 7
147 104 7
147 105 7
146 106 7
146 106 7
145 107 7
145 108 7
144 108 7
143 109 7
143 109 7
142 110 7
142 111 7
141 111 7
141 112 7
140 113 7
139 113 7
139 114 7
138 115 7
138 115 7
137 116 6
136 116 6
136 117 6
135 118 6
135 118 6
134 119 6
134 120 6
133 120 6
132 121 6
132 122 6
131 122 6
131 123 6
130 123 6
130 124 6
129 125 6
128 125 6
128 126 6
127 127 6
127 127 6
126 128 6
126 129 6
125 129 6
124 130 6
124 131 6
123 131 6
123 132 6
122 132 6
122 133 6
121 134 6
120 134 6
120 135 6
119 136 5
119 136 5
118 137 5
118 138 5
117 138 5
116 139 5
116 139 5
115 140 5
115 141 5
114 141 5
113 142 5
113 143 5
112 143 5
112 144 5
111 145 5
111 145 5
110 146 5
109 146 5
109 147 5
108 148 5
108 148 5
107 149 5
107 150 5
106 150 5
105 151 5
105 152 5
104 152 5
104 153 5
103 154 5
103 154 5
102 155 5
101 155 4
101 156 4
100 157 4
100 157 4
99 158 4
99 159 4
98 159 4
97 160 4
97 161 4
96 161 4
96 162 4
95 162 4
95 163 4
94 164 4
93 164 4
93 165 4
92 166 4
92 166 4
91 167 4
90 168 4
90 168 4
89 169 4
89 170 4
88 170 4
88 171 4
87 171 4
86 172 4
86 173 4
85 173 4
85 174 4
84 175 4
84 175 3
83 176 3
82 177 3
82 177 3
81 178 3
81 178 3
80 179 3
80 180 3
79 180 3
78 181 3
78 182 3
77 182 3
77 183 3
76 184 3
76 184 3
75 185 3
74 185 3
74 186 3
73 187 3
73 187 3
72 188 3
72 189 3
71 189 3
70 190 3
70 191 3
69 191 3
69 192 3
68 193 3
68 193 3
67 194 3
66 194 3
66 195 2
65 196 2
65 196 2
64 197 2
63 198 2
63 198 2
62 199 2
62 200 2
61 200 2
61 201 2
60 201 2
59 202 2
59 203 2
58 203 2
58 204 2
57 205 2
57 205 2
56 206 2
55 207 2
55 207 2
54 208 2
54 208 2
53 209 2
53 210 2
52 210 2
51 211 2
51 212 2
50 212 2
50 213 2
49 214 2
49 214 2
48 215 1
47 216 1
47 216 1
46 217 1
46 217 1
45 218 1
45 219 1
44 219 1
43 220 1
43 221 1
42 221 1
42 222 1
41 223 1
40 223 1
40 224 1
39 224 1
39 225 1
38 226 1
38 226 1
37 227 1
36 228 1
36 228 1
35 229 1
35 230 1
34 230 1
34 231 1
33 231 1
32 232 1
32 233 1
31 233 1
31 234 1
30 235 0
30 235 0
29 236 0
28 237 0
28 237 0
27 238 0
27 239 0
26 239 0
26 240 0
25 240 0
24 241 0
24 242 0
23 242 0
23 243 0
22 244 0
22 244 0
21 245 0
20 246 0
20 246 0
19 247 0
19 247 0
18 248 0
17 249 0
17 249 0
16 250 0
16 251 0
15 251 0
15 252 0
14 253 0
13 253 0
13 254 0
12 255 0
243 0 11
242 0 11
242 1 11
241 1 11
241 2 11
240 3 11
239 3 11
239 4 11
238 5 11
238 5 11
237 6 11
237 7 11
236 7 11
235 8 11
235 8 11
234 9 11
234 10 11
233 10 11
233 11 11
232 12 10
231 12 10
231 13 10
230 14 10
230 14 10
229 15 10
228 15 10
228 16 10
227 17 10
227 17 10
226 18 10
226 19 10
225 19 10
224 20 10
224 21 10
223 21 10
223 22 10
222 23 10
221 23 10
221 24 10
220 24 10
220 25 10
219 26 10
219 26 10
218 27 10
217 28 10
217 28 10
216 29 10
216 30 10
215 30 10
214 31 10
214 31 10
213 32 10
213 33 10
212 33 10
212 34 9
211 35 9
210 35 9
210 36 9
209 37 9
209 37 9
208 38 9
208 38 9
207 39 9
206 40 9
206 40 9
205 41 9
205 42 9
204 42 9
203 43 9
203 44 9
202 44 9
202 45 9
201 46 9
201 46 9
200 47 9
199 47 9
199 48 9
198 49 9
198 49 9
197 50 9
196 51 9
196 51 9
195 52 9
195 53 9
194 53 9
194 54 9
193 54 9
192 55 9
192 56 8
191 56 8
191 57 8
190 58 8
189 58 8
189 59 8
188 60 8
188 60 8
187 61 8
187 61 8
186 62 8
185 63 8
185 63 8
184 64 8
184 65 8
183 65 8
183 66 8
182 67 8
181 67 8
181 68 8
180 69 8
180 69 8
179 70 8
178 70 8
178 71 8
177 72 8
177 72 8
176 73 8
176 74 8
175 74 8
174 75 8
174 76 8
173 76 8
173 77 8
172 77 8
171 78 7
171 79 7
170 79 7
170 80 7
169 81 7
169 81 7
168 82 7
167 83 7
167 83 7
166 84 7
166 85 7
165 85 7
164 86 7
164 86 7
163 87 7
163 88 7
162 88 7
162 89 7
161 90 7
160 90 7
160 91 7
159 92 7
159 92 7
158 93 7
158 93 7
157 94 7
156 95 7
156 95 7
155 96 7
155 97 7
154 97 7
153 98 7
153 99 7
152 99 7
152 100 6
151 100 6
151 101 6
150 102 6
149 102 6
149 103 6
148 104 6
148 104 6
147 105 6
146 106 6
146 106 6
145 107 6
145 108 6
144 108 6
144 109 6
143 109 6
142 110 6
142 111 6
141 111 6
141 112 6
140 113 6
139 113 6
139 114 6
138 115 6
138 115 6
137 116 6
137 116 6
136 117 6
135 118 6
135 118 6
134 119 6
134 120 6
133 120 6
133 121 6
132 122 6
131 122 5
131 123 5
130 123 5
130 124 5
129 125 5
128 125 5
128 126 5
127 127 5
127 127 5
126 128 5
126 129 5
125 129 5
124 130 5
124 131 5
123 131 5
123 132 5
122 132 5
121 133 5
121 134 5
120 134 5
120 135 5
119 136 5
119 136 5
118 137 5
117 138 5
117 138 5
116 139 5
116 139 5
115 140 5
115 141 5
114 141 5
113 142 5
113 143 5
112 143 5
112 144 5
111 145 4
110 145 4
110 146 4
109 146 4
109 147 4
108 148 4
108 148 4
107 149 4
106 150 4
106 150 4
105 151 4
105 152 4
104 152 4
103 153 4
103 154 4
102 154 4
102 155 4
101 155 4
101 156 4
100 157 4
99 157 4
99 158 4
98 159 4
98 159 4
97 160 4
96 161 4
96 161 4
95 162 4
95 162 4
94 163 4
94 164 4
93 164 4
92 165 4
92 166 4
91 166 3
91 167 3
90 168 3
90 168 3
89 169 3
88 170 3
88 170 3
87 171 3
87 171 3
86 172 3
85 173 3
85 173 3
84 174 3
84 175 3
83 175 3
83 176 3
82 177 3
81 177 3
81 178 3
80 178 3
80 179 3
79 180 3
78 180 3
78 181 3
77 182 3
77 182 3
76 183 3
76 184 3
75 184 3
74 185 3
74 185 3
73 186 3
73 187 3
72 187 3
71 188 3
71 189 2
70 189 2
70 190 2
69 191 2
69 191 2
68 192 2
67 193 2
67 193 2
66 194 2
66 194 2
65 195 2
65 196 2
64 196 2
63 197 2
63 198 2
62 198 2
62 199 2
61 200 2
60 200 2
60 201 2
59 201 2
59 202 2
58 203 2
58 203 2
57 204 2
56 205 2
56 205 2
55 206 2
55 207 2
54 207 2
53 208 2
53 208 2
52 209 2
52 210 2
51 210 1
51 211 1
50 212 1
49 212 1
49 213 1
48 214 1
48 214 1
47 215 1
46 216 1
46 216 1
45 217 1
45 217 1
44 218 1
44 219 1
43 219 1
42 220 1
42 221 1
41 221 1
41 222 1
40 223 1
40 223 1
39 224 1
38 224 1
38 225 1
37 226 1
37 226 1
36 227 1
35 228 1
35 228 1
34 229 1
34 230 1
33 230 1
33 231 1
32 231 1
31 232 1
31 233 0
30 233 0
30 234 0
29 235 0
28 235 0
28 236 0
27 237 0
27 237 0
26 238 0
26 239 0
25 239 0
24 240 0
24 240 0
23 241 0
23 242 0
22 242 0
21 243 0
21 244 0
20 244 0
20 245 0
19 246 0
19 246 0
18 247 0
17 247 0
17 248 0
16 249 0
16 249 0
15 250 0
15 251 0
14 251 0
13 252 0
13 253 0
12 253 0
12 254 0
11 255 0
244 0 10
244 0 10
243 1 10
242 1 10
242 2 10
241 3 10
241 3 10
240 4 10
240 5 10
239 5 10
238 6 9
238 7 9
237 7 9
237 8 9
236 8 9
235 9 9
235 10 9
234 10 9
234 11 9
233 12 9
232 12 9
232 13 9
231 14 9
231 14 9
230 15 9
230 15 9
229 16 9
228 17 9
228 17 9
227 18 9
227 19 9
226 19 9
225 20 9
225 21 9
224 21 9
224 22 9
223 23 9
223 23 9
222 24 9
221 24 9
221 25 9
220 26 9
220 26 9
219 27 9
218 28 9
218 28 9
217 29 9
217 30 9
216 30 9
215 31 8
215 31 8
214 32 8
214 33 8
213 33 8
213 34 8
212 35 8
211 35 8
211 36 8
210 37 8
210 37 8
209 38 8
208 38 8
208 39 8
207 40 8
207 40 8
206 41 8
205 42 8
205 42 8
204 43 8
204 44 8
203 44 8
203 45 8
202 46 8
201 46 8
201 47 8
200 47 8
200 48 8
199 49 8
198 49 8
198 50 8
197 51 8
197 51 8
196 52 8
195 53 8
195 53 8
194 54 8
194 54 8
193 55 8
193 56 7
192 56 7
191 57 7
191 58 7
190 58 7
190 59 7
189 60 7
188 60 7
188 61 7
187 61 7
187 62 7
186 63 7
185 63 7
185 64 7
184 65 7
184 65 7
183 66 7
183 67 7
182 67 7
181 68 7
181 69 7
180 69 7
180 70 7
179 70 7
178 71 7
178 72 7
177 72 7
177 73 7
176 74 7
175 74 7
175 75 7
174 76 7
174 76 7
173 77 7
173 77 7
172 78 7
171 79 7
171 79 7
170 80 7
170 81 6
169 81 6
168 82 6
168 83 6
167 83 6
167 84 6
166 85 6
165 85 6
165 86 6
164 86 6
164 87 6
163 88 6
163 88 6
162 89 6
161 90 6
161 90 6
160 91 6
160 92 6
159 92 6
158 93 6
158 93 6
157 94 6
157 95 6
156 95 6
156 96 6
155 97 6
154 97 6
154 98 6
153 99 6
153 99 6
152 100 6
151 100 6
151 101 6
150 102 6
150 102 6
149 103 6
148 104 6
148 104 6
147 105 6
147 106 5
146 106 5
146 107 5
145 108 5
144 108 5
144 109 5
143 109 5
143 110 5
142 111 5
141 111 5
141 112 5
140 113 5
140 113 5
139 114 5
138 115 5
138 115 5
137 116 5
137 116 5
136 117 5
136 118 5
135 118 5
134 119 5
134 120 5
133 120 5
133 121 5
132 122 5
131 122 5
131 123 5
130 123 5
130 124 5
129 125 5
128 125 5
128 126 5
127 127 5
127 127 5
126 128 5
126 129 5
125 129 5
124 130 5
124 131 4
123 131 4
123 132 4
122 132 4
121 133 4
121 134 4
120 134 4
120 135 4
119 136 4
118 136 4
118 137 4
117 138 4
117 138 4
116 139 4
116 139 4
115 140 4
114 141 4
114 141 4
113 142 4
113 143 4
112 143 4
111 144 4
111 145 4
110 145 4
110 146 4
109 146 4
108 147 4
108 148 4
107 148 4
107 149 4
106 150 4
106 150 4
105 151 4
104 152 4
104 152 4
103 153 4
103 154 4
102 154 4
101 155 4
101 155 3
100 156 3
100 157 3
99 157 3
98 158 3
98 159 3
97 159 3
97 160 3
96 161 3
96 161 3
95 162 3
94 162 3
94 163 3
93 164 3
93 164 3
92 165 3
91 166 3
91 166 3
90 167 3
90 168 3
89 168 3
89 169 3
88 170 3
87 170 3
87 171 3
86 171 3
86 172 3
85 173 3
84 173 3
84 174 3
83 175 3
83 175 3
82 176 3
81 177 3
81 177 3
80 178 3
80 178 3
79 179 3
79 180 3
78 180 2
77 181 2
77 182 2
76 182 2
76 183 2
75 184 2
74 184 2
74 185 2
73 185 2
73 186 2
72 187 2
71 187 2
71 188 2
70 189 2
70 189 2
69 190 2
69 191 2
68 191 2
67 192 2
67 193 2
66 193 2
66 194 2
65 194 2
64 195 2
64 196 2
63 196 2
63 197 2
62 198 2
61 198 2
61 199 2
60 200 2
60 200 2
59 201 2
59 201 2
58 202 2
57 203 2
57 203 2
56 204 2
56 205 2
55 205 1
54 206 1
54 207 1
53 207 1
53 208 1
52 208 1
51 209 1
51 210 1
50 210 1
50 211 1
49 212 1
49 212 1
48 213 1
47 214 1
47 214 1
46 215 1
46 216 1
45 216 1
44 217 1
44 217 1
43 218 1
43 219 1
42 219 1
41 220 1
41 221 1
40 221 1
40 222 1
39 223 1
39 223 1
38 224 1
37 224 1
37 225 1
36 226 1
36 226 1
35 227 1
34 228 1
34 228 1
33 229 1
33 230 1
32 230 0
31 231 0
31 231 0
30 232 0
30 233 0
29 233 0
29 234 0
28 235 0
27 235 0
27 236 0
26 237 0
26 237 0
25 238 0
24 239 0
24 239 0
23 240 0
23 240 0
22 241 0
22 242 0
21 242 0
20 243 0
20 244 0
19 244 0
19 245 0
18 246 0
17 246 0
17 247 0
16 247 0
16 248 0
15 249 0
14 249 0
14 250 0
13 251 0
13 251 0
12 252 0
12 253 0
11 253 0
10 254 0
10 255 0
246 0 8
245 0 8
244 1 8
244 1 8
243 2 8
243 3 8
242 3 8
241 4 8
241 5 8
240 5 8
240 6 8
239 7 8
238 7 8
238 8 8
237 8 8
237 9 8
236 10 8
235 10 8
235 11 8
234 12 8
234 12 8
233 13 8
232 14 8
232 14 8
231 15 8
231 15 8
230 16 8
229 17 8
229 17 8
228 18 8
228 19 8
227 19 8
227 20 8
226 21 8
225 21 8
225 22 8
224 23 8
224 23 8
223 24 8
222 24 8
222 25 8
221 26 8
221 26 8
220 27 8
219 28 7
219 28 7
218 29 7
218 30 7
217 30 7
216 31 7
216 31 7
215 32 7
215 33 7
214 33 7
213 34 7
213 35 7
212 35 7
212 36 7
211 37 7
210 37 7
210 38 7
209 38 7
209 39 7
208 40 7
208 40 7
207 41 7
206 42 7
206 42 7
205 43 7
205 44 7
204 44 7
203 45 7
203 46 7
202 46 7
202 47 7
201 47 7
200 48 7
200 49 7
199 49 7
199 50 7
198 51 7
197 51 7
197 52 7
196 53 7
196 53 7
195 54 7
194 54 7
194 55 7
193 56 6
193 56 6
192 57 6
191 58 6
191 58 6
190 59 6
190 60 6
189 60 6
188 61 6
188 61 6
187 62 6
187 63 6
186 63 6
186 64 6
185 65 6
184 65 6
184 66 6
183 67 6
183 67 6
182 68 6
181 69 6
181 69 6
180 70 6
180 70 6
179 71 6
178 72 6
178 72 6
177 73 6
177 74 6
176 74 6
175 75 6
175 76 6
174 76 6
174 77 6
173 77 6
172 78 6
172 79 6
171 79 6
171 80 6
170 81 6
169 81 6
169 82 6
168 83 6
168 83 6
167 84 6
167 85 5
166 85 5
165 86 5
165 86 5
164 87 5
164 88 5
163 88 5
162 89 5
162 90 5
161 90 5
161 91 5
160 92 5
159 92 5
159 93 5
158 93 5
158 94 5
157 95 5
156 95 5
156 96 5
155 97 5
155 97 5
154 98 5
153 99 5
153 99 5
152 100 5
152 100 5
151 101 5
150 102 5
150 102 5
149 103 5
149 104 5
148 104 5
147 105 5
147 106 5
146 106 5
146 107 5
145 108 5
145 108 5
144 109 5
143 109 5
143 110 5
142 111 5
142 111 5
141 112 5
140 113 4
140 113 4
139 114 4
139 115 4
138 115 4
137 116 4
137 116 4
136 117 4
136 118 4
135 118 4
134 119 4
134 120 4
133 120 4
133 121 4
132 122 4
131 122 4
131 123 4
130 123 4
130 124 4
129 125 4
128 125 4
128 126 4
127 127 4
127 127 4
126 128 4
126 129 4
125 129 4
124 130 4
124 131 4
123 131 4
123 132 4
122 132 4
121 133 4
121 134 4
120 134 4
120 135 4
119 136 4
118 136 4
118 137 4
117 138 4
117 138 4
116 139 4
115 139 4
115 140 4
114 141 4
114 141 3
113 142 3
112 143 3
112 143 3
111 144 3
111 145 3
110 145 3
109 146 3
109 146 3
108 147 3
108 148 3
107 148 3
107 149 3
106 150 3
105 150 3
105 151 3
104 152 3
104 152 3
103 153 3
102 154 3
102 154 3
101 155 3
101 155 3
100 156 3
99 157 3
99 157 3
98 158 3
98 159 3
97 159 3
96 160 3
96 161 3
95 161 3
95 162 3
94 162 3
93 163 3
93 164 3
92 164 3
92 165 3
91 166 3
90 166 3
90 167 3
89 168 3
89 168 3
88 169 3
87 170 2
87 170 2
86 171 2
86 171 2
85 172 2
85 173 2
84 173 2
83 174 2
83 175 2
82 175 2
82 176 2
81 177 2
80 177 2
80 178 2
79 178 2
79 179 2
78 180 2
77 180 2
77 181 2
76 182 2
76 182 2
75 183 2
74 184 2
74 184 2
73 185 2
73 185 2
72 186 2
71 187 2
71 187 2
70 188 2
70 189 2
69 189 2
68 190 2
68 191 2
67 191 2
67 192 2
66 193 2
66 193 2
65 194 2
64 194 2
64 195 2
63 196 2
63 196 2
62 197 2
61 198 2
61 198 1
60 199 1
60 200 1
59 200 1
58 201 1
58 201 1
57 202 1
57 203 1
56 203 1
55 204 1
55 205 1
54 205 1
54 206 1
53 207 1
52 207 1
52 208 1
51 208 1
51 209 1
50 210 1
49 210 1
49 211 1
48 212 1
48 212 1
47 213 1
46 214 1
46 214 1
45 215 1
45 216 1
44 216 1
44 217 1
43 217 1
42 218 1
42 219 1
41 219 1
41 220 1
40 221 1
39 221 1
39 222 1
38 223 1
38 223 1
37 224 1
36 224 1
36 225 1
35 226 1
35 226 0
34 227 0
33 228 0
33 228 0
32 229 0
32 230 0
31 230 0
30 231 0
30 231 0
29 232 0
29 233 0
28 233 0
27 234 0
27 235 0
26 235 0
26 236 0
25 237 0
25 237 0
24 238 0
23 239 0
23 239 0
22 240 0
22 240 0
21 241 0
20 242 0
20 242 0
19 243 0
19 244 0
18 244 0
17 245 0
17 246 0
16 246 0
16 247 0
15 247 0
14 248 0
14 249 0
13 249 0
13 250 0
12 251 0
11 251 0
11 252 0
10 253 0
10 253 0
9 254 0
8 255 0
247 0 7
246 0 7
246 1 7
245 1 7
244 2 7
244 3 7
243 3 7
243 4 7
242 5 7
241 5 7
241 6 7
240 7 7
240 7 7
239 8 7
238 8 7
238 9 7
237 10 7
237 10 7
236 11 7
235 12 7
235 12 7
234 13 7
234 14 7
233 14 7
232 15 7
232 15 7
231 16 7
231 17 7
230 17 7
229 18 7
229 19 7
228 19 7
228 20 7
227 21 7
226 21 7
226 22 7
225 23 6
225 23 6
224 24 6
223 24 6
223 25 6
222 26 6
222 26 6
221 27 6
220 28 6
220 28 6
219 29 6
219 30 6
218 30 6
217 31 6
217 31 6
216 32 6
216 33 6
215 33 6
214 34 6
214 35 6
213 35 6
213 36 6
212 37 6
211 37 6
211 38 6
210 38 6
210 39 6
209 40 6
208 40 6
208 41 6
207 42 6
207 42 6
206 43 6
205 44 6
205 44 6
204 45 6
204 46 6
203 46 6
202 47 6
202 47 6
201 48 6
201 49 6
200 49 6
199 50 6
199 51 6
198 51 6
198 52 6
197 53 6
196 53 6
196 54 6
195 54 6
195 55 6
194 56 5
193 56 5
193 57 5
192 58 5
192 58 5
191 59 5
190 60 5
190 60 5
189 61 5
189 61 5
188 62 5
187 63 5
187 63 5
186 64 5
186 65 5
185 65 5
184 66 5
184 67 5
183 67 5
183 68 5
182 69 5
181 69 5
181 70 5
180 70 5
180 71 5
179 72 5
178 72 5
178 73 5
177 74 5
177 74 5
176 75 5
175 76 5
175 76 5
174 77 5
174 77 5
173 78 5
172 79 5
172 79 5
171 80 5
171 81 5
170 81 5
169 82 5
169 83 5
168 83 5
168 84 5
167 85 5
166 85 5
166 86 5
165 86 5
165 87 5
164 88 5
163 88 5
163 89 4
162 90 4
162 90 4
161 91 4
160 92 4
160 92 4
159 93 4
159 93 4
158 94 4
157 95 4
157 95 4
156 96 4
156 97 4
155 97 4
154 98 4
154 99 4
153 99 4
153 100 4
152 100 4
151 101 4
151 102 4
150 102 4
150 103 4
149 104 4
148 104 4
148 105 4
147 106 4
147 106 4
146 107 4
145 108 4
145 108 4
144 109 4
144 109 4
143 110 4
142 111 4
142 111 4
141 112 4
141 113 4
140 113 4
139 114 4
139 115 4
138 115 4
138 116 4
137 116 4
136 117 4
136 118 4
135 118 4
135 119 4
134 120 4
133 120 4
133 121 4
132 122 4
132 122 3
131 123 3
130 123 3
130 124 3
129 125 3
129 125 3
128 126 3
127 127 3
127 127 3
126 128 3
125 129 3
125 129 3
124 130 3
124 131 3
123 131 3
122 132 3
122 132 3
121 133 3
121 134 3
120 134 3
119 135 3
119 136 3
118 136 3
118 137 3
117 138 3
116 138 3
116 139 3
115 139 3
115 140 3
114 141 3
113 141 3
113 142 3
112 143 3
112 143 3
111 144 3
110 145 3
110 145 3
109 146 3
109 146 3
108 147 3
107 148 3
107 148 3
106 149 3
106 150 3
105 150 3
104 151 3
104 152 3
103 152 3
103 153 3
102 154 3
101 154 3
101 155 3
100 155 2
100 156 2
99 157 2
98 157 2
98 158 2
97 159 2
97 159 2
96 160 2
95 161 2
95 161 2
94 162 2
94 162 2
93 163 2
92 164 2
92 164 2
91 165 2
91 166 2
90 166 2
89 167 2
89 168 2
88 168 2
88 169 2
87 170 2
86 170 2
86 171 2
85 171 2
85 172 2
84 173 2
83 173 2
83 174 2
82 175 2
82 175 2
81 176 2
80 177 2
80 177 2
79 178 2
79 178 2
78 179 2
77 180 2
77 180 2
76 181 2
76 182 2
75 182 2
74 183 2
74 184 2
73 184 2
73 185 2
72 185 2
71 186 2
71 187 2
70 187 2
70 188 2
69 189 1
68 189 1
68 190 1
67 191 1
67 191 1
66 192 1
65 193 1
65 193 1
64 194 1
64 194 1
63 195 1
62 196 1
62 196 1
61 197 1
61 198 1
60 198 1
59 199 1
59 200 1
58 200 1
58 201 1
57 201 1
56 202 1
56 203 1
55 203 1
55 204 1
54 205 1
53 205 1
53 206 1
52 207 1
52 207 1
51 208 1
50 208 1
50 209 1
49 210 1
49 210 1
48 211 1
47 212 1
47 212 1
46 213 1
46 214 1
45 214 1
44 215 1
44 216 1
43 216 1
43 217 1
42 217 1
41 218 1
41 219 1
40 219 1
40 220 1
39 221 1
38 221 1
38 222 0
37 223 0
37 223 0
36 224 0
35 224 0
35 225 0
34 226 0
34 226 0
33 227 0
32 228 0
32 228 0
31 229 0
31 230 0
30 230 0
29 231 0
29 231 0
28 232 0
28 233 0
27 233 0
26 234 0
26 235 0
25 235 0
25 236 0
24 237 0
23 237 0
23 238 0
22 239 0
22 239 0
21 240 0
20 240 0
20 241 0
19 242 0
19 242 0
18 243 0
17 244 0
17 244 0
16 245 0
16 246 0
15 246 0
14 247 0
14 247 0
13 248 0
13 249 0
12 249 0
11 250 0
11 251 0
10 251 0
10 252 0
9 253 0
8 253 0
8 254 0
7 255 0
248 0 6
247 0 6
247 1 6
246 1 6
246 2 6
245 3 6
244 3 6
244 4 6
243 5 6
243 5 6
242 6 6
241 7 6
241 7 6
240 8 6
240 8 6
239 9 6
238 10 6
238 10 6
237 11 6
237 12 6
236 12 6
235 13 6
235 14 6
234 14 6
234 15 6
233 15 6
232 16 5
232 17 5
231 17 5
230 18 5
230 19 5
229 19 5
229 20 5
228 21 5
227 21 5
227 22 5
226 23 5
226 23 5
225 24 5
224 24 5
224 25 5
223 26 5
223 26 5
222 27 5
221 28 5
221 28 5
220 29 5
220 30 5
219 30 5
218 31 5
218 31 5
217 32 5
217 33 5
216 33 5
215 34 5
215 35 5
214 35 5
213 36 5
213 37 5
212 37 5
212 38 5
211 38 5
210 39 5
210 40 5
209 40 5
209 41 5
208 42 5
207 42 5
207 43 5
206 44 5
206 44 5
205 45 5
204 46 5
204 46 5
203 47 5
203 47 5
202 48 5
201 49 5
201 49 5
200 50 5
200 51 5
199 51 5
198 52 5
198 53 5
197 53 5
196 54 5
196 54 5
195 55 5
195 56 4
194 56 4
193 57 4
193 58 4
192 58 4
192 59 4
191 60 4
190 60 4
190 61 4
189 61 4
189 62 4
188 63 4
187 63 4
187 64 4
186 65 4
186 65 4
185 66 4
184 67 4
184 67 4
183 68 4
183 69 4
182 69 4
181 70 4
181 70 4
180 71 4
180 72 4
179 72 4
178 73 4
178 74 4
177 74 4
176 75 4
176 76 4
175 76 4
175 77 4
174 77 4
173 78 4
173 79 4
172 79 4
172 80 4
171 81 4
170 81 4
170 82 4
169 83 4
169 83 4
168 84 4
167 85 4
167 85 4
166 86 4
166 86 4
165 87 4
164 88 4
164 88 4
163 89 4
163 90 4
162 90 4
161 91 4
161 92 4
160 92 4
159 93 4
159 93 4
158 94 4
158 95 4
157 95 3
156 96 3
156 97 3
155 97 3
155 98 3
154 99 3
153 99 3
153 100 3
152 100 3
152 101 3
151 102 3
150 102 3
150 103 3
149 104 3
149 104 3
148 105 3
147 106 3
147 106 3
146 107 3
146 108 3
145 108 3
144 109 3
144 109 3
143 110 3
142 111 3
142 111 3
141 112 3
141 113 3
140 113 3
139 114 3
139 115 3
138 115 3
138 116 3
137 116 3
136 117 3
136 118 3
135 118 3
135 119 3
134 120 3
133 120 3
133 121 3
132 122 3
132 122 3
131 123 3
130 123 3
130 124 3
129 125 3
129 125 3
128 126 3
127 127 3
127 127 3
126 128 3
125 129 3
125 129 3
124 130 3
124 131 3
123 131 3
122 132 3
122 132 3
121 133 3
121 134 3
120 134 3
119 135 3
119 136 2
118 136 2
118 137 2
117 138 2
116 138 2
116 139 2
115 139 2
115 140 2
114 141 2
113 141 2
113 142 2
112 143 2
112 143 2
111 144 2
110 145 2
110 145 2
109 146 2
108 146 2
108 147 2
107 148 2
107 148 2
106 149 2
105 150 2
105 150 2
104 151 2
104 152 2
103 152 2
102 153 2
102 154 2
101 154 2
101 155 2
100 155 2
99 156 2
99 157 2
98 157 2
98 158 2
97 159 2
96 159 2
96 160 2
95 161 2
95 161 2
94 162 2
93 162 2
93 163 2
92 164 2
91 164 2
91 165 2
90 166 2
90 166 2
89 167 2
88 168 2
88 168 2
87 169 2
87 170 2
86 170 2
85 171 2
85 171 2
84 172 2
84 173 2
83 173 2
82 174 2
82 175 2
81 175 1
81 176 1
80 177 1
79 177 1
79 178 1
78 178 1
78 179 1
77 180 1
76 180 1
76 181 1
75 182 1
74 182 1
74 183 1
73 184 1
73 184 1
72 185 1
71 185 1
71 186 1
70 187 1
70 187 1
69 188 1
68 189 1
68 189 1
67 190 1
67 191 1
66 191 1
65 192 1
65 193 1
64 193 1
64 194 1
63 194 1
62 195 1
62 196 1
61 196 1
61 197 1
60 198 1
59 198 1
59 199 1
58 200 1
58 200 1
57 201 1
56 201 1
56 202 1
55 203 1
54 203 1
54 204 1
53 205 1
53 205 1
52 206 1
51 207 1
51 207 1
50 208 1
50 208 1
49 209 1
48 210 1
48 210 1
47 211 1
47 212 1
46 212 1
45 213 1
45 214 1
44 214 1
44 215 0
43 216 0
42 216 0
42 217 0
41 217 0
41 218 0
40 219 0
39 219 0
39 220 0
38 221 0
37 221 0
37 222 0
36 223 0
36 223 0
35 224 0
34 224 0
34 225 0
33 226 0
33 226 0
32 227 0
31 228 0
31 228 0
30 229 0
30 230 0
29 230 0
28 231 0
28 231 0
27 232 0
27 233 0
26 233 0
25 234 0
25 235 0
24 235 0
24 236 0
23 237 0
22 237 0
22 238 0
21 239 0
20 239 0
20 240 0
19 240 0
19 241 0
18 242 0
17 242 0
17 243 0
16 244 0
16 244 0
15 245 0
14 246 0
14 246 0
13 247 0
13 247 0
12 248 0
11 249 0
11 249 0
10 250 0
10 251 0
9 251 0
8 252 0
8 253 0
7 253 0
7 254 0
6 255 0
249 0 5
249 0 5
248 1 5
248 1 5
247 2 5
246 3 5
246 3 5
245 4 5
244 5 5
244 5 5
243 6 4
243 7 4
242 7 4
241 8 4
241 8 4
240 9 4
240 10 4
239 10 4
238 11 4
238 12 4
237 12 4
236 13 4
236 14 4
235 14 4
235 15 4
234 15 4
233 16 4
233 17 4
232 17 4
232 18 4
231 19 4
230 19 4
230 20 4
229 21 4
229 21 4
228 22 4
227 23 4
227 23 4
226 24 4
225 24 4
225 25 4
224 26 4
224 26 4
223 27 4
222 28 4
222 28 4
221 29 4
221 30 4
220 30 4
219 31 4
219 31 4
218 32 4
217 33 4
217 33 4
216 34 4
216 35 4
215 35 4
214 36 4
214 37 4
213 37 4
213 38 4
212 38 4
211 39 4
211 40 4
210 40 4
210 41 4
209 42 4
208 42 4
208 43 4
207 44 4
206 44 4
206 45 4
205 46 4
205 46 4
204 47 4
203 47 4
203 48 4
202 49 4
202 49 4
201 50 4
200 51 4
200 51 4
199 52 4
198 53 4
198 53 4
197 54 4
197 54 4
196 55 4
195 56 3
195 56 3
194 57 3
194 58 3
193 58 3
192 59 3
192 60 3
191 60 3
190 61 3
190 61 3
189 62 3
189 63 3
188 63 3
187 64 3
187 65 3
186 65 3
186 66 3
185 67 3
184 67 3
184 68 3
183 69 3
183 69 3
182 70 3
181 70 3
181 71 3
180 72 3
179 72 3
179 73 3
178 74 3
178 74 3
177 75 3
176 76 3
176 76 3
175 77 3
175 77 3
174 78 3
173 79 3
173 79 3
172 80 3
171 81 3
171 81 3
170 82 3
170 83 3
169 83 3
168 84 3
168 85 3
167 85 3
167 86 3
166 86 3
165 87 3
165 88 3
164 88 3
163 89 3
163 90 3
162 90 3
162 91 3
161 92 3
160 92 3
160 93 3
159 93 3
159 94 3
158 95 3
157 95 3
157 96 3
156 97 3
156 97 3
155 98 3
154 99 3
154 99 3
153 100 3
152 100 3
152 101 3
151 102 3
151 102 3
150 103 3
149 104 3
149 104 3
148 105 3
148 106 2
147 106 2
146 107 2
146 108 2
145 108 2
144 109 2
144 109 2
143 110 2
143 111 2
142 111 2
141 112 2
141 113 2
140 113 2
140 114 2
139 115 2
138 115 2
138 116 2
137 116 2
137 117 2
136 118 2
135 118 2
135 119 2
134 120 2
133 120 2
133 121 2
132 122 2
132 122 2
131 123 2
130 123 2
130 124 2
129 125 2
129 125 2
128 126 2
127 127 2
127 127 2
126 128 2
125 129 2
125 129 2
124 130 2
124 131 2
123 131 2
122 132 2
122 132 2
121 133 2
121 134 2
120 134 2
119 135 2
119 136 2
118 136 2
117 137 2
117 138 2
116 138 2
116 139 2
115 139 2
114 140 2
114 141 2
113 141 2
113 142 2
112 143 2
111 143 2
111 144 2
110 145 2
110 145 2
109 146 2
108 146 2
108 147 2
107 148 2
106 148 2
106 149 2
105 150 2
105 150 2
104 151 2
103 152 2
103 152 2
102 153 2
102 154 2
101 154 2
100 155 2
100 155 1
99 156 1
98 157 1
98 157 1
97 158 1
97 159 1
96 159 1
95 160 1
95 161 1
94 161 1
94 162 1
93 162 1
92 163 1
92 164 1
91 164 1
91 165 1
90 166 1
89 166 1
89 167 1
88 168 1
87 168 1
87 169 1
86 170 1
86 170 1
85 171 1
84 171 1
84 172 1
83 173 1
83 173 1
82 174 1
81 175 1
81 175 1
80 176 1
79 177 1
79 177 1
78 178 1
78 178 1
77 179 1
76 180 1
76 180 1
75 181 1
75 182 1
74 182 1
73 183 1
73 184 1
72 184 1
71 185 1
71 185 1
70 186 1
70 187 1
69 187 1
68 188 1
68 189 1
67 189 1
67 190 1
66 191 1
65 191 1
65 192 1
64 193 1
64 193 1
63 194 1
62 194 1
62 195 1
61 196 1
60 196 1
60 197 1
59 198 1
59 198 1
58 199 1
57 200 1
57 200 1
56 201 1
56 201 1
55 202 1
54 203 1
54 203 1
53 204 1
52 205 1
52 205 0
51 206 0
51 207 0
50 207 0
49 208 0
49 208 0
48 209 0
48 210 0
47 210 0
46 211 0
46 212 0
45 212 0
44 213 0
44 214 0
43 214 0
43 215 0
42 216 0
41 216 0
41 217 0
40 217 0
40 218 0
39 219 0
38 219 0
38 220 0
37 221 0
37 221 0
36 222 0
35 223 0
35 223 0
34 224 0
33 224 0
33 225 0
32 226 0
32 226 0
31 227 0
30 228 0
30 228 0
29 229 0
29 230 0
28 230 0
27 231 0
27 231 0
26 232 0
25 233 0
25 233 0
24 234 0
24 235 0
23 235 0
22 236 0
22 237 0
21 237 0
21 238 0
20 239 0
19 239 0
19 240 0
18 240 0
18 241 0
17 242 0
16 242 0
16 243 0
15 244 0
14 244 0
14 245 0
13 246 0
13 246 0
12 247 0
11 247 0
11 248 0
10 249 0
10 249 0
9 250 0
8 251 0
8 251 0
7 252 0
6 253 0
6 253 0
5 254 0
5 255 0
251 0 3
250 0 3
249 1 3
249 1 3
248 2 3
248 3 3
247 3 3
246 4 3
246 5 3
245 5 3
244 6 3
244 7 3
243 7 3
243 8 3
242 8 3
241 9 3
241 10 3
240 10 3
239 11 3
239 12 3
238 12 3
238 13 3
237 14 3
236 14 3
236 15 3
235 15 3
235 16 3
234 17 3
233 17 3
233 18 3
232 19 3
231 19 3
231 20 3
230 21 3
230 21 3
229 22 3
228 23 3
228 23 3
227 24 3
226 24 3
226 25 3
225 26 3
225 26 3
224 27 3
223 28 3
223 28 3
222 29 3
222 30 3
221 30 3
220 31 3
220 31 3
219 32 3
218 33 3
218 33 3
217 34 3
217 35 3
216 35 3
215 36 3
215 37 3
214 37 3
213 38 3
213 38 3
212 39 3
212 40 3
211 40 3
210 41 3
210 42 3
209 42 3
209 43 3
208 44 3
207 44 3
207 45 3
206 46 3
205 46 3
205 47 3
204 47 3
204 48 3
203 49 3
202 49 3
202 50 3
201 51 3
200 51 3
200 52 3
199 53 3
199 53 3
198 54 3
197 54 3
197 55 3
196 56 2
195 56 2
195 57 2
194 58 2
194 58 2
193 59 2
192 60 2
192 60 2
191 61 2
191 61 2
190 62 2
189 63 2
189 63 2
188 64 2
187 65 2
187 65 2
186 66 2
186 67 2
185 67 2
184 68 2
184 69 2
183 69 2
182 70 2
182 70 2
181 71 2
181 72 2
180 72 2
179 73 2
179 74 2
178 74 2
178 75 2
177 76 2
176 76 2
176 77 2
175 77 2
174 78 2
174 79 2
173 79 2
173 80 2
172 81 2
171 81 2
171 82 2
170 83 2
169 83 2
169 84 2
168 85 2
168 85 2
167 86 2
166 86 2
166 87 2
165 88 2
164 88 2
164 89 2
163 90 2
163 90 2
162 91 2
161 92 2
161 92 2
160 93 2
160 93 2
159 94 2
158 95 2
158 95 2
157 96 2
156 97 2
156 97 2
155 98 2
155 99 2
154 99 2
153 100 2
153 100 2
152 101 2
151 102 2
151 102 2
150 103 2
150 104 2
149 104 2
148 105 2
148 106 2
147 106 2
147 107 2
146 108 2
145 108 2
145 109 2
144 109 2
143 110 2
143 111 2
142 111 2
142 112 2
141 113 2
140 113 2
140 114 2
139 115 2
138 115 2
138 116 2
137 116 2
137 117 2
136 118 2
135 118 2
135 119 2
134 120 2
134 120 2
133 121 2
132 122 2
132 122 1
131 123 1
130 123 1
130 124 1
129 125 1
129 125 1
128 126 1
127 127 1
127 127 1
126 128 1
125 129 1
125 129 1
124 130 1
124 131 1
123 131 1
122 132 1
122 132 1
121 133 1
120 134 1
120 134 1
119 135 1
119 136 1
118 136 1
117 137 1
117 138 1
116 138 1
116 139 1
115 139 1
114 140 1
114 141 1
113 141 1
112 142 1
112 143 1
111 143 1
111 144 1
110 145 1
109 145 1
109 146 1
108 146 1
107 147 1
107 148 1
106 148 1
106 149 1
105 150 1
104 150 1
104 151 1
103 152 1
103 152 1
102 153 1
101 154 1
101 154 1
100 155 1
99 155 1
99 156 1
98 157 1
98 157 1
97 158 1
96 159 1
96 159 1
95 160 1
94 161 1
94 161 1
93 162 1
93 162 1
92 163 1
91 164 1
91 164 1
90 165 1
90 166 1
89 166 1
88 167 1
88 168 1
87 168 1
86 169 1
86 170 1
85 170 1
85 171 1
84 171 1
83 172 1
83 173 1
82 173 1
81 174 1
81 175 1
80 175 1
80 176 1
79 177 1
78 177 1
78 178 1
77 178 1
76 179 1
76 180 1
75 180 1
75 181 1
74 182 1
73 182 1
73 183 1
72 184 1
72 184 1
71 185 1
70 185 1
70 186 1
69 187 1
68 187 1
68 188 1
67 189 0
67 189 0
66 190 0
65 191 0
65 191 0
64 192 0
63 193 0
63 193 0
62 194 0
62 194 0
61 195 0
60 196 0
60 196 0
59 197 0
59 198 0
58 198 0
57 199 0
57 200 0
56 200 0
55 201 0
55 201 0
54 202 0
54 203 0
53 203 0
52 204 0
52 205 0
51 205 0
50 206 0
50 207 0
49 207 0
49 208 0
48 208 0
47 209 0
47 210 0
46 210 0
45 211 0
45 212 0
44 212 0
44 213 0
43 214 0
42 214 0
42 215 0
41 216 0
41 216 0
40 217 0
39 217 0
39 218 0
38 219 0
37 219 0
37 220 0
36 221 0
36 221 0
35 222 0
34 223 0
34 223 0
33 224 0
32 224 0
32 225 0
31 226 0
31 226 0
30 227 0
29 228 0
29 228 0
28 229 0
28 230 0
27 230 0
26 231 0
26 231 0
25 232 0
24 233 0
24 233 0
23 234 0
23 235 0
22 235 0
21 236 0
21 237 0
20 237 0
19 238 0
19 239 0
18 239 0
18 240 0
17 240 0
16 241 0
16 242 0
15 242 0
15 243 0
14 244 0
13 244 0
13 245 0
12 246 0
11 246 0
11 247 0
10 247 0
10 248 0
9 249 0
8 249 0
8 250 0
7 251 0
6 251 0
6 252 0
5 253 0
5 253 0
4 254 0
3 255 0
252 0 2
251 0 2
251 1 2
250 1 2
249 2 2
249 3 2
248 3 2
248 4 2
247 5 2
246 5 2
246 6 2
245 7 2
244 7 2
244 8 2
243 8 2
243 9 2
242 10 2
241 10 2
241 11 2
240 12 2
239 12 2
239 13 2
238 14 2
238 14 2
237 15 2
236 15 2
236 16 2
235 17 2
234 17 2
234 18 2
233 19 2
233 19 2
232 20 2
231 21 2
231 21 2
230 22 2
229 23 2
229 23 2
228 24 2
228 24 2
227 25 2
226 26 2
226 26 2
225 27 2
224 28 2
224 28 2
223 29 2
223 30 2
222 30 2
221 31 2
221 31 2
220 32 2
219 33 2
219 33 2
218 34 2
217 35 2
217 35 2
216 36 2
216 37 2
215 37 2
214 38 2
214 38 2
213 39 2
212 40 2
212 40 2
211 41 2
211 42 2
210 42 2
209 43 2
209 44 2
208 44 2
207 45 2
207 46 2
206 46 2
206 47 2
205 47 2
204 48 2
204 49 2
203 49 2
202 50 2
202 51 2
201 51 2
201 52 2
200 53 2
199 53 2
199 54 2
198 54 2
197 55 2
197 56 1
196 56 1
196 57 1
195 58 1
194 58 1
194 59 1
193 60 1
192 60 1
192 61 1
191 61 1
191 62 1
190 63 1
189 63 1
189 64 1
188 65 1
187 65 1
187 66 1
186 67 1
186 67 1
185 68 1
184 69 1
184 69 1
183 70 1
182 70 1
182 71 1
181 72 1
181 72 1
180 73 1
179 74 1
179 74 1
178 75 1
177 76 1
177 76 1
176 77 1
176 77 1
175 78 1
174 79 1
174 79 1
173 80 1
172 81 1
172 81 1
171 82 1
171 83 1
170 83 1
169 84 1
169 85 1
168 85 1
167 86 1
167 86 1
166 87 1
166 88 1
165 88 1
164 89 1
164 90 1
163 90 1
162 91 1
162 92 1
161 92 1
161 93 1
160 93 1
159 94 1
159 95 1
158 95 1
157 96 1
157 97 1
156 97 1
155 98 1
155 99 1
154 99 1
154 100 1
153 100 1
152 101 1
152 102 1
151 102 1
150 103 1
150 104 1
149 104 1
149 105 1
148 106 1
147 106 1
147 107 1
146 108 1
145 108 1
145 109 1
144 109 1
144 110 1
143 111 1
142 111 1
142 112 1
141 113 1
140 113 1
140 114 1
139 115 1
139 115 1
138 116 1
137 116 1
137 117 1
136 118 1
135 118 1
135 119 1
134 120 1
134 120 1
133 121 1
132 122 1
132 122 1
131 123 1
130 123 1
130 124 1
129 125 1
129 125 1
128 126 1
127 127 1
127 127 1
126 128 1
125 129 1
125 129 1
124 130 1
124 131 1
123 131 1
122 132 1
122 132 1
121 133 1
120 134 1
120 134 1
119 135 1
119 136 1
118 136 1
117 137 1
117 138 1
116 138 1
115 139 1
115 139 1
114 140 1
114 141 1
113 141 1
112 142 1
112 143 1
111 143 1
110 144 1
110 145 1
109 145 1
109 146 1
108 146 1
107 147 1
107 148 1
106 148 1
105 149 1
105 150 1
104 150 1
104 151 1
103 152 1
102 152 1
102 153 1
101 154 1
100 154 1
100 155 1
99 155 0
99 156 0
98 157 0
97 157 0
97 158 0
96 159 0
95 159 0
95 160 0
94 161 0
93 161 0
93 162 0
92 162 0
92 163 0
91 164 0
90 164 0
90 165 0
89 166 0
88 166 0
88 167 0
87 168 0
87 168 0
86 169 0
85 170 0
85 170 0
84 171 0
83 171 0
83 172 0
82 173 0
82 173 0
81 174 0
80 175 0
80 175 0
79 176 0
78 177 0
78 177 0
77 178 0
77 178 0
76 179 0
75 180 0
75 180 0
74 181 0
73 182 0
73 182 0
72 183 0
72 184 0
71 184 0
70 185 0
70 185 0
69 186 0
68 187 0
68 187 0
67 188 0
67 189 0
66 189 0
65 190 0
65 191 0
64 191 0
63 192 0
63 193 0
62 193 0
62 194 0
61 194 0
60 195 0
60 196 0
59 196 0
58 197 0
58 198 0
57 198 0
57 199 0
56 200 0
55 200 0
55 201 0
54 201 0
53 202 0
53 203 0
52 203 0
52 204 0
51 205 0
50 205 0
50 206 0
49 207 0
48 207 0
48 208 0
47 208 0
47 209 0
46 210 0
45 210 0
45 211 0
44 212 0
43 212 0
43 213 0
42 214 0
42 214 0
41 215 0
40 216 0
40 216 0
39 217 0
38 217 0
38 218 0
37 219 0
37 219 0
36 220 0
35 221 0
35 221 0
34 222 0
33 223 0
33 223 0
32 224 0
31 224 0
31 225 0
30 226 0
30 226 0
29 227 0
28 228 0
28 228 0
27 229 0
26 230 0
26 230 0
25 231 0
25 231 0
24 232 0
23 233 0
23 233 0
22 234 0
21 235 0
21 235 0
20 236 0
20 237 0
19 237 0
18 238 0
18 239 0
17 239 0
16 240 0
16 240 0
15 241 0
15 242 0
14 242 0
13 243 0
13 244 0
12 244 0
11 245 0
11 246 0
10 246 0
10 247 0
9 247 0
8 248 0
8 249 0
7 249 0
6 250 0
6 251 0
5 251 0
5 252 0
4 253 0
3 253 0
3 254 0
2 255 0
253 0 1
253 0 1
252 1 1
251 1 1
251 2 1
250 3 1
249 3 1
249 4 1
248 5 1
248 5 1
247 6 1
246 7 1
246 7 1
245 8 1
244 8 1
244 9 1
243 10 1
242 10 1
242 11 1
241 12 1
241 12 1
240 13 1
239 14 1
239 14 1
238 15 1
237 15 1
237 16 1
236 17 1
236 17 1
235 18 1
234 19 1
234 19 1
233 20 1
232 21 1
232 21 1
231 22 1
230 23 1
230 23 1
229 24 1
229 24 1
228 25 1
227 26 1
227 26 1
226 27 1
225 28 1
225 28 1
224 29 1
223 30 1
223 30 1
222 31 1
222 31 1
221 32 1
220 33 1
220 33 1
219 34 1
218 35 1
218 35 1
217 36 1
217 37 1
216 37 1
215 38 1
215 38 1
214 39 1
213 40 1
213 40 1
212 41 1
211 42 1
211 42 1
210 43 1
210 44 1
209 44 1
208 45 1
208 46 1
207 46 1
206 47 1
206 47 1
205 48 1
205 49 1
204 49 1
203 50 1
203 51 1
202 51 1
201 52 1
201 53 1
200 53 1
199 54 1
199 54 1
198 55 1
198 56 0
197 56 0
196 57 0
196 58 0
195 58 0
194 59 0
194 60 0
193 60 0
192 61 0
192 61 0
191 62 0
191 63 0
190 63 0
189 64 0
189 65 0
188 65 0
187 66 0
187 67 0
186 67 0
186 68 0
185 69 0
184 69 0
184 70 0
183 70 0
182 71 0
182 72 0
181 72 0
180 73 0
180 74 0
179 74 0
179 75 0
178 76 0
177 76 0
177 77 0
176 77 0
175 78 0
175 79 0
174 79 0
174 80 0
173 81 0
172 81 0
172 82 0
171 83 0
170 83 0
170 84 0
169 85 0
168 85 0
168 86 0
167 86 0
167 87 0
166 88 0
165 88 0
165 89 0
164 90 0
163 90 0
163 91 0
162 92 0
161 92 0
161 93 0
160 93 0
160 94 0
159 95 0
158 95 0
158 96 0
157 97 0
156 97 0
156 98 0
155 99 0
155 99 0
154 100 0
153 100 0
153 101 0
152 102 0
151 102 0
151 103 0
150 104 0
149 104 0
149 105 0
148 106 0
148 106 0
147 107 0
146 108 0
146 108 0
145 109 0
144 109 0
144 110 0
143 111 0
143 111 0
142 112 0
141 113 0
141 113 0
140 114 0
139 115 0
139 115 0
138 116 0
137 116 0
137 117 0
136 118 0
136 118 0
135 119 0
134 120 0
134 120 0
133 121 0
132 122 0
132 122 0
131 123 0
130 123 0
130 124 0
129 125 0
129 125 0
128 126 0
127 127 0
127 127 0
126 128 0
125 129 0
125 129 0
124 130 0
124 131 0
123 131 0
122 132 0
122 132 0
121 133 0
120 134 0
120 134 0
119 135 0
118 136 0
118 136 0
117 137 0
117 138 0
116 138 0
115 139 0
115 139 0
114 140 0
113 141 0
113 141 0
112 142 0
111 143 0
111 143 0
110 144 0
110 145 0
109 145 0
108 146 0
108 146 0
107 147 0
106 148 0
106 148 0
105 149 0
105 150 0
104 150 0
103 151 0
103 152 0
102 152 0
101 153 0
101 154 0
100 154 0
99 155 0
99 155 0
98 156 0
98 157 0
97 157 0
96 158 0
96 159 0
95 159 0
94 160 0
94 161 0
93 161 0
93 162 0
92 162 0
91 163 0
91 164 0
90 164 0
89 165 0
89 166 0
88 166 0
87 167 0
87 168 0
86 168 0
86 169 0
85 170 0
84 170 0
84 171 0
83 171 0
82 172 0
82 173 0
81 173 0
80 174 0
80 175 0
79 175 0
79 176 0
78 177 0
77 177 0
77 178 0
76 178 0
75 179 0
75 180 0
74 180 0
74 181 0
73 182 0
72 182 0
72 183 0
71 184 0
70 184 0
70 185 0
69 185 0
68 186 0
68 187 0
67 187 0
67 188 0
66 189 0
65 189 0
65 190 0
64 191 0
63 191 0
63 192 0
62 193 0
62 193 0
61 194 0
60 194 0
60 195 0
59 196 0
58 196 0
58 197 0
57 198 0
56 198 0
56 199 0
55 200 0
55 200 0
54 201 0
53 201 0
53 202 0
52 203 0
51 203 0
51 204 0
50 205 0
49 205 0
49 206 0
48 207 0
48 207 0
47 208 0
46 208 0
46 209 0
45 210 0
44 210 0
44 211 0
43 212 0
43 212 0
42 213 0
41 214 0
41 214 0
40 215 0
39 216 0
39 216 0
38 217 0
37 217 0
37 218 0
36 219 0
36 219 0
35 220 0
34 221 0
34 221 0
33 222 0
32 223 0
32 223 0
31 224 0
31 224 0
30 225 0
29 226 0
29 226 0
28 227 0
27 228 0
27 228 0
26 229 0
25 230 0
25 230 0
24 231 0
24 231 0
23 232 0
22 233 0
22 233 0
21 234 0
20 235 0
20 235 0
19 236 0
18 237 0
18 237 0
17 238 0
17 239 0
16 239 0
15 240 0
15 240 0
14 241 0
13 242 0
13 242 0
12 243 0
12 244 0
11 244 0
10 245 0
10 246 0
9 246 0
8 247 0
8 247 0
7 248 0
6 249 0
6 249 0
5 250 0
5 251 0
4 251 0
3 252 0
3 253 0
2 253 0
1 254 0
1 255 0
255 0 0
254 0 0
253 1 0
253 1 0
252 2 0
251 3 0
251 3 0
250 4 0
249 5 0
249 5 0
248 6 0
247 7 0
247 7 0
246 8 0
246 8 0
245 9 0
244 10 0
244 10 0
243 11 0
242 12 0
242 12 0
241 13 0
240 14 0
240 14 0
239 15 0
239 15 0
238 16 0
237 17 0
237 17 0
236 18 0
235 19 0
235 19 0
234 20 0
233 21 0
233 21 0
232 22 0
231 23 0
231 23 0
230 24 0
230 24 0
229 25 0
228 26 0
228 26 0
227 27 0
226 28 0
226 28 0
225 29 0
224 30 0
224 30 0
223 31 0
223 31 0
222 32 0
221 33 0
221 33 0
220 34 0
219 35 0
219 35 0
218 36 0
217 37 0
217 37 0
216 38 0
216 38 0
215 39 0
214 40 0
214 40 0
213 41 0
212 42 0
212 42 0
211 43 0
210 44 0
210 44 0
209 45 0
208 46 0
208 46 0
207 47 0
207 47 0
206 48 0
205 49 0
205 49 0
204 50 0
203 51 0
203 51 0
202 52 0
201 53 0
201 53 0
200 54 0
200 54 0
199 55 0
198 56 0
198 56 0
197 57 0
196 58 0
196 58 0
195 59 0
194 60 0
194 60 0
193 61 0
193 61 0
192 62 0
191 63 0
191 63 0
190 64 0
189 65 0
189 65 0
188 66 0
187 67 0
187 67 0
186 68 0
185 69 0
185 69 0
184 70 0
184 70 0
183 71 0
182 72 0
182 72 0
181 73 0
180 74 0
180 74 0
179 75 0
178 76 0
178 76 0
177 77 0
177 77 0
176 78 0
175 79 0
175 79 0
174 80 0
173 81 0
173 81 0
172 82 0
171 83 0
171 83 0
170 84 0
169 85 0
169 85 0
168 86 0
168 86 0
167 87 0
166 88 0
166 88 0
165 89 0
164 90 0
164 90 0
163 91 0
162 92 0
162 92 0
161 93 0
161 93 0
160 94 0
159 95 0
159 95 0
158 96 0
157 97 0
157 97 0
156 98 0
155 99 0
155 99 0
154 100 0
154 100 0
153 101 0
152 102 0
152 102 0
151 103 0
150 104 0
150 104 0
149 105 0
148 106 0
148 106 0
147 107 0
146 108 0
146 108 0
145 109 0
145 109 0
144 110 0
143 111 0
143 111 0
142 112 0
141 113 0
141 113 0
140 114 0
139 115 0
139 115 0
138 116 0
138 116 0
137 117 0
136 118 0
136 118 0
135 119 0
134 120 0
134 120 0
133 121 0
132 122 0
132 122 0
131 123 0
131 123 0
130 124 0
129 125 0
129 125 0
128 126 0
127 127 0
127 127 0
126 128 0
125 129 0
125 129 0
124 130 0
123 131 0
123 131 0
122 132 0
122 132 0
121 133 0
120 134 0
120 134 0
119 135 0
118 136 0
118 136 0
117 137 0
116 138 0
116 138 0
115 139 0
115 139 0
114 140 0
113 141 0
113 141 0
112 142 0
111 143 0
111 143 0
110 144 0
109 145 0
109 145 0
108 146 0
108 146 0
107 147 0
106 148 0
106 148 0
105 149 0
104 150 0
104 150 0
103 151 0
102 152 0
102 152 0
101 153 0
100 154 0
100 154 0
99 155 0
99 155 0
98 156 0
97 157 0
97 157 0
96 158 0
95 159 0
95 159 0
94 160 0
93 161 0
93 161 0
92 162 0
92 162 0
91 163 0
90 164 0
90 164 0
89 165 0
88 166 0
88 166 0
87 167 0
86 168 0
86 168 0
85 169 0
84 170 0
84 170 0
83 171 0
83 171 0
82 172 0
81 173 0
81 173 0
80 174 0
79 175 0
79 175 0
78 176 0
77 177 0
77 177 0
76 178 0
76 178 0
75 179 0
74 180 0
74 180 0
73 181 0
72 182 0
72 182 0
71 183 0
70 184 0
70 184 0
69 185 0
69 185 0
68 186 0
67 187 0
67 187 0
66 188 0
65 189 0
65 189 0
64 190 0
63 191 0
63 191 0
62 192 0
61 193 0
61 193 0
60 194 0
60 194 0
59 195 0
58 196 0
58 196 0
57 197 0
56 198 0
56 198 0
55 199 0
54 200 0
54 200 0
53 201 0
53 201 0
52 202 0
51 203 0
51 203 0
50 204 0
49 205 0
49 205 0
48 206 0
47 207 0
47 207 0
46 208 0
46 208 0
45 209 0
44 210 0
44 210 0
43 211 0
42 212 0
42 212 0
41 213 0
40 214 0
40 214 0
39 215 0
38 216 0
38 216 0
37 217 0
37 217 0
36 218 0
35 219 0
35 219 0
34 220 0
33 221 0
33 221 0
32 222 0
31 223 0
31 223 0
30 224 0
30 224 0
29 225 0
28 226 0
28 226 0
27 227 0
26 228 0
26 228 0
25 229 0
24 230 0
24 230 0
23 231 0
23 231 0
22 232 0
21 233 0
21 233 0
20 234 0
19 235 0
19 235 0
18 236 0
17 237 0
17 237 0
16 238 0
15 239 0
15 239 0
14 240 0
14 240 0
13 241 0
12 242 0
12 242 0
11 243 0
10 244 0
10 244 0
9 245 0
8 246 0
8 246 0
7 247 0
7 247 0
6 248 0
5 249 0
5 249 0
4 250 0
3 251 0
3 251 0
2 252 0
1 253 0
1 253 0
0 254 0
0 255 0
